/* XPM */
static char *_7cae5d1b2f0464ae675da549b5769f2ySkAlPaJj3TGpHVl[] = {
/* columns rows colors chars-per-pixel */
"447 447 256 2 ",
"   c #00184D",
".  c #001C54",
"X  c #001E5B",
"o  c #001653",
"O  c #000D4C",
"+  c #002255",
"@  c #00245C",
"#  c #002A5D",
"$  c #042A59",
"%  c #012C59",
"&  c #001E62",
"*  c #002563",
"=  c #002B64",
"-  c #00266A",
";  c #002C6B",
":  c #0A2D65",
">  c #023265",
",  c #01336C",
"<  c #0A346C",
"1  c #043A6D",
"2  c #0B3A6D",
"3  c #0A3365",
"4  c #123A6D",
"5  c #002D72",
"6  c #002C78",
"7  c #013473",
"8  c #0A3572",
"9  c #033A74",
"0  c #0B3B74",
"q  c #01357A",
"w  c #033B7B",
"e  c #0B3D7B",
"r  c #0A3679",
"t  c #123D74",
"y  c #123E7A",
"u  c #173B76",
"i  c #0C4175",
"p  c #05417D",
"a  c #0C427C",
"s  c #0A467B",
"d  c #134275",
"f  c #13447C",
"g  c #1A457C",
"h  c #14497D",
"j  c #1B4A7D",
"k  c #1A4476",
"l  c #144D7A",
"z  c #22497D",
"x  c #003682",
"c  c #023C83",
"v  c #0A3E82",
"b  c #013D8A",
"n  c #093D89",
"m  c #0F3E84",
"M  c #044284",
"N  c #0B4483",
"B  c #0D4985",
"V  c #04448B",
"C  c #0B458B",
"Z  c #05498D",
"A  c #0D4A8B",
"S  c #054985",
"D  c #124583",
"F  c #1A4682",
"G  c #144A84",
"H  c #1B4C84",
"J  c #12468A",
"K  c #134C8B",
"L  c #1A4D8B",
"P  c #1A468A",
"I  c #1C5185",
"U  c #15518D",
"Y  c #1C528C",
"T  c #19558A",
"R  c #034592",
"E  c #0B4692",
"W  c #054A93",
"Q  c #0C4C93",
"!  c #0C4D9A",
"~  c #054B9A",
"^  c #134D93",
"/  c #1A4E92",
"(  c #134E9A",
")  c #164A96",
"_  c #0D5194",
"`  c #0D529B",
"'  c #085398",
"]  c #155293",
"[  c #1B5493",
"{  c #1D5995",
"}  c #14549B",
"|  c #1B559B",
" . c #15599D",
".. c #1C5A9B",
"X. c #165995",
"o. c #0E518C",
"O. c #224D84",
"+. c #224D8B",
"@. c #274B86",
"#. c #235285",
"$. c #22548C",
"%. c #2A558C",
"&. c #24598D",
"*. c #2B5A8D",
"=. c #295486",
"-. c #225593",
";. c #2A5692",
":. c #245A94",
">. c #2B5C94",
",. c #22569A",
"<. c #235C9B",
"1. c #2A5D9B",
"2. c #295699",
"3. c #325D97",
"4. c #29538F",
"5. c #1D619C",
"6. c #2C6295",
"7. c #25619D",
"8. c #2C629C",
"9. c #28659A",
"0. c #326296",
"q. c #32649C",
"w. c #34699D",
"e. c #3A689C",
"r. c #2E6693",
"t. c #0C55A2",
"y. c #1455A2",
"u. c #1B56A2",
"i. c #155AA3",
"p. c #1C5CA3",
"a. c #1C5DAA",
"s. c #155CAA",
"d. c #0F53A7",
"f. c #235DA3",
"g. c #2A5EA2",
"h. c #235EAA",
"j. c #265AA5",
"k. c #305EA4",
"l. c #1D61A4",
"z. c #1D62AB",
"x. c #1864AA",
"c. c #1D65B3",
"v. c #1668AC",
"b. c #2462A4",
"n. c #2B64A3",
"m. c #2C69A5",
"M. c #2464AB",
"N. c #2B65AB",
"B. c #2569AC",
"V. c #2C6AAB",
"C. c #2569A5",
"Z. c #3265A3",
"A. c #346AA4",
"S. c #3A6CA4",
"D. c #3266AA",
"F. c #336CAB",
"G. c #3A6DAB",
"H. c #3A66A3",
"J. c #2D71AC",
"K. c #3C71A5",
"L. c #3571AD",
"P. c #3C72AC",
"I. c #3975A9",
"U. c #2465B2",
"Y. c #256AB3",
"T. c #2C6CB3",
"R. c #2C6DBA",
"E. c #2868B5",
"W. c #336DB3",
"Q. c #3A6EB2",
"!. c #346DB9",
"~. c #2D71B4",
"^. c #2D72BB",
"/. c #2873B9",
"(. c #3472B3",
"). c #3B74B3",
"_. c #3D7AB5",
"`. c #3474BB",
"'. c #3B75BB",
"]. c #3C7ABB",
"[. c #3579BB",
"{. c #426DA7",
"}. c #4274AC",
"|. c #447AAD",
" X c #4776AA",
".X c #4275B3",
"XX c #447BB4",
"oX c #4A7CB4",
"OX c #4276BA",
"+X c #437CBB",
"@X c #4A7DBB",
"#X c #4976B3",
"$X c #527DB7",
"%X c #4672B1",
"&X c #446D9E",
"*X c #3C7CC3",
"=X c #3779C4",
"-X c #2C74C3",
";X c #1E6FC1",
":X c #437DC2",
">X c #487EC4",
",X c #507EC2",
"<X c #3D81BC",
"1X c #4481BC",
"2X c #4B82BC",
"3X c #4A83B7",
"4X c #5284BC",
"5X c #5588BB",
"6X c #4E88B5",
"7X c #6287BB",
"8X c #3D82C7",
"9X c #3C84D2",
"0X c #4582C3",
"qX c #4B84C3",
"wX c #4D89C4",
"eX c #4484CA",
"rX c #4B85CA",
"tX c #4C8ACB",
"yX c #4589CA",
"uX c #5285C3",
"iX c #548AC4",
"pX c #5A8CC4",
"aX c #538CCB",
"sX c #5A8DCB",
"dX c #5486C8",
"fX c #5591CC",
"gX c #5B93CC",
"hX c #5A93C7",
"jX c #4C8CD2",
"kX c #4689D3",
"lX c #538DD2",
"zX c #588DD3",
"xX c #4D92D6",
"cX c #5492D3",
"vX c #5B94D3",
"bX c #5D9AD4",
"nX c #5D9BDB",
"mX c #5795DA",
"MX c #4E91CB",
"NX c #6294CC",
"BX c #6597CB",
"VX c #6296D3",
"CX c #649AD4",
"ZX c #639CDB",
"AX c #699CD7",
"SX c #6490C9",
"DX c #69A2DB",
"FX c #72A4DB",
"GX c #5A9BE3",
"HX c #4E95E4",
"JX c #649EE2",
"KX c #68A4E5",
"LX c #73A9E6",
"PX c #74B0F2",
"IX c #5EA1E3",
"UX c #86B7F4",
/* pixels */
"i.9XY.} _  .`.V.w ; ; N 7.@XS., 0 a q.q.a , G P.pXFXoX, = H L f j *.K.|.I.{ _.m.yX<XC.].U 9 fXiX_.V.b.7.[ M 9 9 [ n.[ K :.G 9 [ N.) c q c f.f.q ; N b.F.<.A B U A.Y N Y <.n.<.N [ K G A.n.9.G D S.-.H G f G I h 7.3XiX+Xn.^ c c w w -.G , $.1.L , * @ G H.pXNXg H |.4X>.0 , 9 f F.).A 7 w w ] A C 5 c N.'.N.| ..V.].u.] A l.B.jX[.b.J._.:.a 0 > f I S.H = N { ..E R R Q } y.y.} R z.U.! W ` z.^.R.l.c 7 A ..K 9 ; B ).qX..M ] ..tXB.Z w V [.8X} Q Z V E.R.b x E C ).D.D.C q w <.>X,.v / W.OXD.:.e 9 w.P.G = , Y .X).K 9 m.).Y w ; Y A.S.BX2XS.K.S.#.0 9 f $.A.XXP.8.:.3X3XwX9.G ..<.7.M 7 ] [.'.X.] ~.jXtX~. .Z V M M M p w B { F.Z.Y N Y [ G B { _.).L.{ , , s oXS.8 = 0 e.e.e.i I 6XBX5X0.e.e.|.XXH :.Z.H T , ; e H .XsXaXOXL G :.9.T 7 ; N <.1.K ; ; -.1.e 7 D :.A.8.G , ; 7 b.W...c V y.s.y.E.Z w N.^ 5 q OXLXuXuX}.0 j |.XX..M V *X*Xi.y.V z.kX=X .q } p.C.(.L.{ [ F.7.U 9.K wXDXA.9 B * :.A.G N G [ _.qXb.] ] '.B ] X.p ",
"W B.~.M.}  .(.(.[ w * 7 Z.vXsXq.= 0 S.S.L 0 D XXAXDX@X>.>.8.q.}.3Xe.#.6.w.T 9.{ ..{ A { B T CXDXnX].C.V.(.7.p ; K <.U G :.N 9 [ W.h.| C c ] f.N 5 7 A b.L.V.[ a n.-.K a a { 9.:.-.N a K.XXXXn.F.sXS.>.;.#.I h i |.fXiXL.[ K A ] w 9 n.Z.e 9 G -.H 0 = 0 $.{.#X< S.hXhXK.$.a 9 T L.+Xb...<.,.W.W.f.c v n.rXrX'...'.0XT.b. .} } `.tXC...9.{ I G 1 2 f q.Y 9 [ G.).| E b Z y.B.E.a.W a.z.` V c Q U.R.i.c q b._.b.M 7 { 0XqXm.[ b.`.cX`.p.Z q Q B.Y.p.i.} [.`.V V p.C (.OXOXg.J N.ZXvXF.5 J D.G.qXOXH H |.XXT , , G :.9.G G .X1X<.K Y 0.w.>.oXS.S.oXoX0.f i H $.>.S.XXP.3XfXbXiXP.U 9 [ 7.p w [.bX[.A M ..0XtX8XB._ M X.~.1XV.o.B [ <.A.{ 9 a -.7.-.n.<.K { { N [ m..X#X$.g d q.e.|.6.r.5XhX5X6.*.I K.2XK..X7.a S.P.Z.L 7 >.sXVX@XK H :.L.m.N = 7 <.-.L 7 ; -.G.[ 8 ; 9 G T K a G [ vX0Xf.c q R a.U.`.} Q ].V.^ N Z.qX1.;.H > H oX3X0Xl.V p.z.p.Y.W ` eXjX[.M C l.mX1X9 7 m._._.L.7.T L.sXXXF.7.9 n.gXXX8.U M [ V.b.A ..cXJ.(.(.X.",
"V V M.b.V C ..F.b.K 7 N @XFXNX.X; 9 1.q.:.a 7 >.2XiXXXA.P.oXuXAXFX Xi h G B U { ] ] S 9 9 T _.2X]...K m.qX).U 9 9 G a G :.D , K W.W.W.| c N | ] 7 ; 7 { ).XX-.9 7.:.Y 9 , Y A.A.Y D a P.uXfXP.G.XXZ.:.>.#.i 1 i iXgXXX[ K b.(.:X<.K Z.Z.e ; 7 L q.Y 7 , , H ;., h 3XFXBXXXf 9 A.iXCXqXF.<.K n.'.n.C ] OXzXKXzX..:XrX0X`.(.} | [.0X] p K Y 8.8.H = h }.>.= , K N.W.u.E E u.E.E.M.} M.Y.l.Q q c  .`.Y.} A V.].m.K ; Y m.V.V.m.V.(.b...N.N.] Q B.8XB.p.} Y.`.} u.W.K -.n.OXOX<.).vXOXZ.; w K B F.7.G H }..X:.a 7 w -.:.a N n.).G.XXS.8.H 0 >.Y $.q.}.2XS.Y -.q.G.2XXXF.3XXXfX+X).B ; M b.C.b.(.[.(.(.} Z _ b.~.V.X._ V.nXPXfX{ M U K +X+XN ; K L.qX1X7.T F.).A.).XX8..XA.:.a :.K.3XXXK.2X2X2X8.:.G <.L.1XbX).Y @XaX1X1.9 [ @XaX,Xn.[ U { F.<.w ; 7 <.<.w * G A.-.7 e ; ; e H Y 7.).G.b...^ V V y.a.Y.` A W.(.<.v e K , 0 H H e.5XoXaXb.c M } `.8X} Q *XmXcX .c | DX).p N P.1XwXiXXXT G P.qXvXn., U 1X_.9.B 9 M f.(.....tX1XyX<XC.",
"p.q ] Q 5 7 M <.<.7.K G P.2X}.S.-.G L -.7.K = 7 7 Z.n.N [ XXgXAXAX6Xd 1 @ , 9 U ..{ <.B G T 9 G K 9 7 { (.F.U N ; 7 , N 8.L ; 9 [ n.F.<.v w N K w 7 7 G 7.A.[ w a a a 7 = 9 Y :.e 0 9 8.P.3X:.a f D ;.q.>., > I oX|.:.a [ +XvXvXaX<.-.[ D e 8 e S.Z.Y , X , $.$.9 A.2XiX.X9 ; 8.vXCX1X7.e ; N m.j.N <.'.F.).(.A f.n.(.V.(.A b.aXn.w , 9 a #.6.I < g }.q., , w K f.| Q Q ^ u.f.M.} Y.`.Y.u.c q V l.~.N.A N A K K a Y B w <.F.<.] ] ] f.b.| A } b.N.b.A ] N.b.b...w 9 L F.+Xa L <.G.G.K e w a n.1.Y -.K.P.A.:.e 7 [ [ N w K [ F.vXK.H , = L a a a Y iX2XH a :.P.iX_.<.n.P.iX@Xn.w N ..].0XV.] ..(.jXB.C M  .8XjX].] b.tXZX].N w -.V.ZXZXn.B <.iXKXsXZ.L n.A.Z.S.L B n.m.<.9 U F.1X8.T :.:.9.T [ B K 7.wXKX(.U +XgXvXG.N { (.+XOXG.N b.wXaXF.N N <.n.<.e * 8 -.>.P S.D = 7 H 1.L.1XY [ b.f.C V } } Y.} C ..V.n.K 9 * X 9 $.>.K.4X|.1X{ w M | :X0X} C f.(.].b.M M m.7.XXm.{ _.iXwXiX9.B L.sXKX9., w K U U B N N ] F.].A ] 7.V.C.U ",
"`.w A ] w w 7 N [ 7.Y 9 e L q.2X).{ K Y <.{ 7 ; 7 (.OXK L ).sXCXhX5X*.1 + , , B p B m.A.XXA., a Z.K w B [ K N e e e ; 9 8.-.; ; 7 J [ [ K e w N K N 7 7 D [ [ G , 9 Y >.a = , f 0 = # H $.;.a a f H 1.|.P.f , I I :.&.T 8.).OX+XqXJ w L >.[ 7 9 S.G.Z.0 . = $.}.XXK.K a G , * a L.A.-.G J D G 7.g.v [ n.N w B q 7 w K M U 7 [ cX<.G D 7 + ; H $.I 0 >.P..X3XA.] w C ] ] C A f.W.N.:X:XT.N.p.^ A } B.N.Q w 7 N <.<.1.w ; K n.[ M ] [ C 7 ; w A | | F.| A [ ....M ; ; L n.7.* 7 N 7.<.-.; 7 G.OX1X).G.P.G.P.Z.w = 7 N [ [ A N <.qXF.K a 7 Y G K G N n.9.9 ; 9 Y K.1X<.[ qXvXcX<.7 [ tXKX].^ A b.`.8XY. ._  .(.].V.A N [ 7.K ; 7 [ tXbXtXG.(.qXvXZXvXS.9 e Y S.G.9 q A | | 9 U m._.m.U T B K B { ] N ..wXbX[ 7 (.ZXKX).v B g.F.G.b.^ V.0X:XF.n.F.).<.K 7 ; 7 G 1.S.uX1.e 9 L 8.G.L.@XiX+XU ; q ..N.`.M.} ] V.).).Z.8 , a f 0 G 0.A.3X[ N A [ F.F.] ] | | [ <.K w 7 m.sXP.a [ XXXXL.8.N -.F.1XK , w U o.A | <.Q M Q (.M 7 7 9 G T ",
"W.A ] b.{ A 7 ; w Y Y 0 , a S.VX7.B A M N [ N 7 n.fXvX].F.V.).gXhXNXK.H Y K.1.n.w 9 -.S.uX2X>..XqXD.J 7 w J Y [ A.8.9 ; -.;.7 ; ; e L -.1.L N D Z.[ e , e Y >.Y a G G.2X>.= = f >., = 8.>.Y $.iXS.Z.>.S.oX$.> 0 1 >.XX3X.X7.[ 1.<.* * / F.[ ; e L 1.Z.a * , Y .XfX_.U , 7 a G T a 7 w G S.oX:.L -.e :.OXZ.-.{ J w w w 7 w , K iXXX}.S.L * < q.#X*.0 >.uXVXZX.X-.N g.OXG.[ K n.+XtXbXaX].1XtX0X'.p.b.p.| ^ M N [ L L 9 = w { <...[ n.K ; * w ] ..B (.L.b.<...<.K w , 9 -.:.D Y G 9 9 Y , L ZXgXsXXXS.1.-.n.1.7 * * w ..b.K N [ W.n.<.<.B K B n.(.n.p 7 K [ N K m.tX7.N F.F._.] 7 [ tXZX+X| M A b.Y.M.l.} Z A K w <.N w a 0 * * 9 <.V.F.n.N.G.OXdXgXG.7 7 q.sXpXG c w V ..w K <.m.).7.<.B B N ..[ M A V.[.| M | F.:XF.C w M K F.).M.} C C f.+X).<.[ 7 7 e 7 7 H Z.#XS.-.y H 1.>.G P.gXqX[ w c ^ b.W.p.] v ,.).aXuXZ.Z.A.>.f f #.:.2X:.[ K a [ g.F.aXdX).[ S.F.:.9 A.L.3Xn.7 N A.A.:.7 , a [ G K [ C._ A f.N.} A A K U B 7 # T I.",
"m.7.[ 7.<.K N 7 7 a $.H 9 a q.XX[ 7 M w w b.b.w N.qXcXtX'.] K V.iX4X}.$.oXpX}.}.L G Y 8.@X4X}..XF.F.<.N 7 K Z.).@X@XH ; L -.e , ; e K -.1.Y f Y S.A.;.a e Y >.>.a 0 $.S.>.0 1 9 >.Y >.pXXXw.P.FXiX}.I &.|.q.h I < >.4XNX2X:.H <.<.w 7 N <.n.G K e G 1.L H ;.;.P.P.1X_.U w <.).8.= 9 >.P.NXNX;.9 e e >.@X2XXXF.:.[ -.N N G G K XXsXpX4X0.0 $.4XNX$.f }.NXpXXX9.Y :.).dXOX[ N -.).aXaXqX+XfXnXvXfX} A A f.V.U 7 7 e 7 ; = 7 [ F.F.+XaX(.K [ <.{ K { _.@XwXqXF.n.-.A.H , Y S.3X3X$.9 H K.8.K.VXfXsXP.1.P N -.[ 7 q K K <.b.[ ] | | ,...b.M w N F.].].w w (.+XL.m.<.(.b.K N w K K w ^ n.F.V.n.A w A p.a.M.z.Q ^ ..<.A.Y e a a , * * * | (.n.^ N ,.OX2X.Xe , -.}.}.+.[ c N D.K K K Y :.D D 7 7 w [ ] M w A b.`.N.C q ] b.| N 7 w F.:Xp.y.Q Q p.V.N.n.N ; 8 +.D ; 8 r ;.S.1.y f q.8.e 0 K..Xn.m.[ w K b.} A 7 ] G.aXuX.X@XiX4XP.8.:.&.K.:.S.$., e :.OXZXvXXX-.oXiXXXY Y 7.iX@Xw = Y F.8.w = Y A.XX1XwX[.Q C b.b. . . .] b.7.7.9 K.gX",
"L.+X..{ [ B -.[ D a G f = , H L m.w A A K rXqXM <.0XbXbXtXb.K <.XXS.Z.f }.S.$.>.G Y >.}.iXuXq.e [ OXqX1.w N n.OX@XuX;.7 L >.f , * 0 D H Y e 7 L G.oX.X>.f D :.Z.G , , H 8.q.$.0 , 8.4XFX4X|.K.2X4XP.G H }.XXP.iX9 H A.2X@X8.>.G.iXqX<.; K uXOX:.e D 8.1.}.4XS..X+XwXaX<.p F.@XK = -.gXAXDXgXL , = 9 G L -.8.1.[ 8.8.N L Y -.G Z.4X$X$X3.y $.#XoXH 0 A.gXiX.X:.L Y Z.P.1.w ; D 7.Z.n.n.P.iXwX1X0X] C ] +XvXF.N a -.e 7 7 w <.(.m.aXaXG.<.@XsXXXF.+XqX2XDXKX.X:.T XXA.H A.P.ZXVXA.Y P.uXXX8.>.P.4X2XG.-.J :.-.w / D.n.N.F.N.f.^ q | ] ] 7 w A W.V.[.A ..0X:X+XF.w ] n.).K M M [ p N ,.A 7 K V.,.C z.U.=X[.u.A K [ 1.D 7 0 g d , = ; N.rX'.| K <.).sXaXL * = 8 +.1.G.K [ +X1.$.H F y , 0 , e G A.m.A M E  .~.Y.A c ^ N...A c C b.b.M.~ V | W.W.{ N ; @ a Z.>.D 8 ; 7 1.1.8 r P.oX>.H .XK.8.).[ 7 K V.f...M g.Q.aX2XZ.G.@X4X2XP.8.>.&.>.4X8.= , L G.Z.-.D 7 XXpX3XY 9 A..XF.<.w 9 :.A.p = A.qXCXVXbXjX .` Y.p.} u. .'.C.n.1X8.XXCX",
"qX).<.:.w ; 1.qX2X7 G H e * 9 e <.V.(.b.b.rXrX] M ].].V.V.| A K G Y f , ; ; D }.S.Y H Z.H.H 0 f w K OXn.J -.1..XG.P.D ; D f $.; = 0 G Y >.>.Y Y A..XA.0 7 S.uX}.H + = Y $.f 0 , , L uXAXXX$.A.iXAX8.:.4XAXLXAXoX0 >..XuX4X>.H A.sX>XF.7 J aXqXF.K 8 :.@X4XCXsX-.[ [ _.{ w F.).Y a 9.P..XoXA.e + 7 N w 7 a G G :.Z.-.a e 8.iXXXL -.+.+.y , +.}.}.$.$.:.>.8.G.1.7 0 a L $.e = , G Z.:.G H 9.A.7.7.] w c ).ZX+X-.n.:.G.<.7 , a 7.aXKXKXG.7.sXZXuXA.F.iXgX3XgXK.9 I.BXgX&.1 w.CXfXXX:.hX3X5XuXG h XXuX@XZ.e 2.OX<.[ [ [ ,.,.V.f.5 q N.(...A w C W.b.f.c C f.N.].].^ w F.qXn.w [ (.F.+X+XJ N n.).(.A z.U.^.*Xp.K Z.H .X}.8 H }.H.q.D 7 | b.'.rXN.{ qXZXOX-.; * 7 f >.1.N [ @XOX.X, # < t g +.;.q.3.:.]  .W c Q u.] A A M f.B.M c ^ c h.y.E ^ N.'.{ ; , ; 9 f }.-.0 ; P 1.-.r D Z.}.S.A.Z.A.XXuXL.K M A b.K <.+X[ OXuXiX1.$.S.XXuX2XS.w.$.A.H @ . e 7 0 @ # * H H.}.f e D 9 a -.N 9 -.@X:., 9 G .XLXvX].V M.*XM.E q M | M K ).@XP.P.",
"@XG.K w ; w A.P.Z.D .XP.Y , e 9 [ (.'.] M V.].] w | A ] V.b.] w K L D e D Y >.S.F , 8 ;.q.H 7 , ; 7 { K N [ 1.G.-.G ; * $.L H ; # = , H iXCX}.G ; G Y 0 0 A.uXXXY , = 1 = # = = # Y gXDXP.H 8.iXA.:.:.XXAXZX@XZ.D 1.A.oXpXw.g $.aXqXF.v e <.{ N w w 1.uXgXCX4XG a U _.7.K L.).7.G a 9 a L G 7 ; 9 Y K a G Y -.A.Y 7 ; Y iXAXP.7 = * ; ; * 7 D e D e 9 9 a :.1.G 7 9 e f , X + = 8.Y , = 9 H [ n.] w A b...K K L Y .XXX-.e 7 K +XqX+X{ 7.@X@X1X1X:.A.XXiXgX:.= A.gX3X8.T >.XXXX8.>.NXfX2X3XT 0 >.>.L e e Z.@Xg.w w N <.n.V.] q | ..(.W.N.A C N.b.q q f.0XW.N.(.V.K K [ w ; w ] n.qX+XK a 1.).).] Q a.=XkXb.K 7.$.}.S.< $.4X}.}.>.p A C [ ].+X).qXVXn.J 8 8 e r -.G 7 G S.#X#X@.4 : 3 u u j O.$.-.N.*X[._ c c w q 5 M b.V.| M M ^ u.u.} A ^ ..K 9 7 , , 7 1.P e 8 2.H.>.8 ; H S.}.G T H Y G.G.A * M V.[ K L J OXuXuX:.e a :.@XXX:.0 , 0 e D , , = ; * ; @ < a H 0 = , , 9 Y L N Y 7.1.a 7 7 :.iX).] V *XjX`.M.E c M w [ ].).:.H ",
"n.@XL.K 7 B L.A.<.{ sXiXA.Y K 7 w ..V.] M | <.M b.<.N ^ b.n.[ 7 N Y n.S.q.q.;.f = + = g ;.H , = ; X 7 w w K [ <.-.-.S.-.1.0 # * , a h :.oX2X:., * G 8.:.G -.A.8.9 , , = = 9 Y T 7 H P.sXuXA.7.8.K 9.Y K F.Z.G N L.).-.Y S.>.h 8.aXtXG.{ N 7 7 ; ; 9 1.uXVXVXP.e w G 7.G w Y <.A.:.7 * 9 L f 7 7 H m.F.[ G G U <.a ; 7 n.gXgXG.L , * ; 7 7 e e 7 7 K 1.{ q 9 G $.H H H $.Y a 7 , 9 7 = # , a G -.A w ..n.N B -.e Z.XXXXA.Y 7 7 B K <.B w K A.XXA.U :.A.8.6.a # a :.G T T 9 a H , a XXfX.XP.9., 9 y ; @ e 1.OX).K w w [ m.F.| A V.| W.:X0Xf.C | | A c ..:XW.| | ..[ p [ K w N N { <.7.J 7 7 e G w c ` [.jXF.B L Y 0.$.+ a q.>.8.-.b.b.[ M B [ [ K m.[ n.D.D.1.v D 7 ; 7 L 0.%.=.4 . + @ # # = 0 D `.HXmXM.c c V w w ] [ ] K 7 9 ..^ | Q q 5 9 9 1 1 = = , Y D 9 ; +.2.1.e . * G Y = , 9 A n.b.c - 7 [ K K 7 q n.n.1.1.:.N 9 Y A.7.:.G a G S.L 7 ; - 8 D = = # a Y T 9 = 9 G N e N N Z.-.9 = , K K 7 C `.*X`.*XY.E w w [ (.n.p , ",
").CXgXF.K 7.qX).F.[ G.).G.G.<.w ; ] (.N.A M [ b.:X(.K w w A ^ ; 5 { sXAXuXS.Y @ = + = 0 L $.H a w ; ; w J K G N Y n.AXsX.Xa = Y A.XX2XXXS.:.a a Y ).gXqX[ e J G A.P.L.:.-.L.XXF.K N G A.aXiX<.9 7.F.] , 7 N B K aXqXL 7 T G f A.+X:XV.F.[ - w B ; 7 P F.iXiXA.e H Y G , = , a <.Y 7 ; N K e ; * [ L.+X7.N 7 9 w Y N N [ A.G..XOXG 7 ; 7 v J ^ K c j.qXOXN * e +.0 7 0 H $.Y a , = = = = , , , 9 M M b.].G.Z.:., Z.Z.A.S.8.J 7 ; B n.<.B v n.@X<.:.:.G 0 9 i i i :.T Y G 9 a Y T 9 6.2XK.A.A., = 7 ; * 7 0 [ OX).K w w ..[.[.V.V...B.0XlX(.| ] ] A 7 w ] | b.(.].+X(.aXF.B N 7 p , a G a ; , 0 9 c ~ z.[.L.N , 1 e.>., 9 D D -.-.7.5.[ w 7 [ ..7 ; ^ qXqXOXQ.J 7 7 7 ; , f 8 %.4 . . . . X # ; w V.rXrXM.} T.`.| M A ..F.V.N = * c v q * * , 9 1 i 1 > , a J w ; 8 e >.>., = 9 ; @ * 9 <.N.^ c C 7 7 ; K ; 7 L -.-.OXqX8., 9 9.2XK.8.A.A.@X8.L v 7 [ 1.w 7 # G |..Xa , G -.N 7 , 7 8.8.G w ; ; N A ] b. ...'.*Xp.^ M ] b.] 9 7 ",
"bXvX+Xm.m.qXKXvXF.M M ] b.).n.[ w ).cX).A N F.nXqX0X<.w 7 [ V.N * K qXZXiXXX>., , = # = d Y >.7.<.N w K { [ B 7 n.F.ZXiXXXK a A.P.2XhXfXXX:.H <.<.XXCXaX{ w B { ).bXbX).7.m.(.L.b.{ B K G.).{ p V.C.b.A w ] F.n.'.G.B w 9.&.9 a [ ..[ ).n.7 K n.w 7 7 G S.OXS.G D $.G G T a , a H N Y <.{ [ K w B b._.F.K w w w <.U w ; w -.F.G.-.N 5 5 C | j.N.^ | N.g.v 7 G >., = * ; e G a , 8.9.H a a 9 , 7 N ^ f.).@Xn.9 = 7 a 1.XX@XF.7.<.w [ f.,.w 7 [ <._.T s { 8.6.6.w.oXuXA.H T 8.P.uX:.:.G.9.:.1.9 , ; ; 7 , X , Z..X-.B 9 K L.wX0XC...] F.0X:X(.f...K [ ] w 7 ] rXKXtXL.).<.p N G :.a T A.A.>.8.S.L.l.` C ] m.T = > 0 0 , = = w ..7.m.{ U B ..qX+Xw - N V.N.j.M.E w ] ] M 9 a 0 S.;.8 = @ = 7 0 0 w } M.T.p.p.eXlXW.(.[ V.wX1XL.{ ; ; q w , = 1 i h 6.I a a H <.[ N ; ; $.S.>.>.7.N 7 7 w ] j.^ Q f.A w 7 J * q >.Z.G.OX.XZ.K p 7.iXH Y 1X@XG.g.D.J ] W.qXF.n.N :.uXA.G a -.S.G.-.7 7 Y :.:.8.D , -.F.(.N.] A  .W.W.M.^ } N.| M p ",
"(.L.m.F.F.].nXbX..w 7 M ] ).F.(.<.qXtXG.m.(.).+XaXvXW.K [ ).0Xb.7 w K <.8.q.$.0 g , @ @ , 0 G L m...K ....[ Y 9 F.).iXn.L ; a A.7.I.iXfX.XU a { a [ (.G.K w [ n...qXtXn.A K n.+XaX0X[ w ] n.....] A ..b.A | b.A f.K 7 a A.8.9 # , q C W.F.K [ m.[ w ; 7 G Z.F.Y = f I S.oX:., = w { qXcX1X0X0Xn.A ] L._...A B N w K B ; * w [ [ L K q q ^ h.N.!.) C ( ,.N q +.H.1.Y 0 , a $.:.Y P.P.7.:.:.T a p B ] [ b.F.D ; 0 = = L oXgXvXuXG.N 0XnXqX] w b.1XwX_.9._.iXiX3X8.A.uXXX9.S.A.A..XP.Y G a 9 G D 0 ; 0 ;.F , a G -.7.8.{ { X.V.[...K w [ W.+X:XF.f.].bXaXK ; K +XbX_.K p { :.T A.3X:.A.BXpX8.0.3XCXjX~.S M L.A.f H 4X3X3XA.N 9 w 9 ]._._.m.n.+X).M ^ w C | B.M.C R [.~.b.] B J S.S.+.8 = 8 L [ K N ^ } B.M.} T.0X(.m.9 w K B { <.9 ; J -.D # + > s &.6.w.I.L.+XV.K 7 ; 9 L >.P.1XF.[ [ C c } Y.E.E.<.F.).<.* w :.[ Y [ :.A.9.p s m.{ <.wX).K ] '...C ^ F.n.<.7 7 G 7.S.-.e 1.gXsX8.G a D -.P.:.7 [ n.+X].W.] C N.:XN.} p.].T.] M ",
"p [ m.).f.] V.W.] A M C ] rXrXtXF.n.{ m.aXqXm.{ qXsXF.K [ { <...M w 7 , e a 0 1 #.2 # 1 f f a a n.b.A K A A <.B B <.:.9 9 , [ A.7.2XfX_.{ p w K 9 w K ] N C ] ..N.+X).{ K K b.+XKXbX..7 K n.<...] S A } } A c q b.M 5 9 K Y G , 7 ; N f.n.,.K <.<.w 7 7 ; L 8.D + 1 i 6.P.Y e = = K wXnX+X'.+Xn.] A 5.'.b.A N M w [ <.B 7 w N w w J w q ^ p.h.E.Q b | h.J q D k.}.S.Y 0 e Y :.:.a T :.:.7.T a p K A K <.[ a e f 0 = e >..XqXOXL K bXKX:X..N { F.2XiXF.A.5XiXI.9 G A.@X1XP.8.8.L.XX-.9 9 9 Y Z.H , g #X;.H >., a :.P._.L.U B m.b.] N g.Q.+XqXN.| qXKXvX[ w ,.+X0Xm.T a L.L.{ A.A.w.w.BXpX>.*.S.2XmXeX..A _.oXH 6.e.6.P.XX..S A X.m.1X2XF.U { C.b.b.M Z p.^.E.Q Q =X/.~.l.M N K 1.g.v ; N <.n.| Q Q V p.M.V C b.b.{ K [ [ K [ :.H 9 -.Z.$.> + % > i r.3XgX_.1Xn.N K a , , a 9.F.n.b.n.] c } -X=XT.N.+XgXZ.e 9 G e = 8 L F.n.9 , 7._.V.F.K C ^ '.'.| Q N.(.F.M M M 7..X-.= G 2XgX2X1.e , a S.S.e G { ].+X'.f.M f.'.u.E p.[.`.l.X.",
"K { <.b.K w A c b.b.] A | KXKXZXF.N 7 Z.aXZ.Y ).).uXn.L D ; 9 -.B U N 9 a , , f #.1 > H S.S.>.Y <.7.N p 7 w 7.Y G U , * B U n.s 7.P.n.9 = 7 w w M w c C A ] | A [ ] c w ] f.f.(.lXcXf.7 N <.[ ..L.7.M M ..A w ^ b.C w w , 9 T G K 7 N A ] | v K 1.w w 7 @ 0 $.1 1 0 # i f 0 G 9 9 K ).].] ] N.b.] w Q B.p.A M w N.N.b.....,.C ; N ..] M } B.M.R.j.c q ^ J w v G A.A.>.a 9 f G a p [ n.V.F.7.[ ..,.M ] n.K K K ; 9 , 0 e 9 G Y w +XbXtX0X).N p 7.1X_.s T I.7.h 1 D G G.@X-.K L.iXgXP.Y -.-.S.iX;.* g 5X#.g $.. 9 G 8.XX1X{ s (.].S.1.@XqX2XqXn.L OXKXvX<.w [ F.).7 U N F.A.:.iX.XXX&.P.oX|.4XK.:.0XeXV.] XX.Xa &.3X6.P.iXV.A A b.L._.L.{ M B ..V.l.Q Q Q  .M.] Q x. .B.b.w N w ,.G.P 7 K F.W.b.| c 5 M ] q 7 A ^ ,.F.<.w , 7 a :.f $.>.&.f > > 1 s 9.3X2X{ m.<.A G.F.K ; 7 B B N | f.| ( i.U.U.`.W.7.L.[ B 7 J K w N B { <.N B _.[ B 7 ; ] | W.:X^ 5 C | | w p w J 1.G , L 8.S.@XS.9 = , Z.2X>.:.n.+XW.F.| c ^ ..^ V ^ R.~.B.Y.",
"v v J / N 5 q K (.(...B f.0XlXaXL e e 8.G.H 9 H S.}.>.$.0 . @ , h &.H > @ = 1 f a f , L S.1.8.-.Y L [ L 9 e 1.P.L., U 7 7 [.~...K e 7 e K w 5 c | E c E V w Z M N v / :XrX| Q *XjX=XN.] e ; y 1.P.m.F.<.K w 7 Y <.N Y n.G 7 G 7.b.} M M f.[.n.w w G D 1 = < 4 2 l #.j 1 = # , G N B B ] b. .Q Q ! y.` R R b V } rX*XR.[.kX[.E c V l.} c Q M.R.[.B.q - c Q.OXK e H j =.G * * w w b.b.p.b.`.`.Y.M.'.^ c ^ b.n.K 7 7.7.Y # , G 9 -.7.U n.qXV.w w ] U U s s f 1 = a D -.A.Z.K 7 J F.XXA.H.q.>.oX5Xe.3 3 g < k z # @ = j NX2XY 7 N [ ;.#XoX>.f 0 d H K.XX8.B K [ ] <.B # 9 7.p 7.2XsX2XY $.3XiX3XP.7... .l.V.).L.A.A.pXCXiXF.7.7...X.w b.0XaX:Xf.A Q  .b.] M [ V.[ 9 B K <.F.:., , ;.Z.G ; 8 A.sX@X:.7 e J N 7 5 5 q v / D ; 7 e 0 0 d H $.P.Y 9 * w U A L.vXp 7.9 :.aX:X{ <./ 7 C c C Q u.} V ! p.Q c A | ..[ ] b.(.V.A | V.| [ ).qX>.< @ = 7 >.).Z.N w w N K N 7 , 7 e w w G K D G L , 7 , L XXS.}.1.<.+XOXJ c / j.) n Q R U.kX-X",
"; ; 7 7 w B K K K [ K 7 w b.(.m.).>.f e 7 . . 0 f d , 0 d 2 t 3 2 &.I # @ i #.&.L $.f 1.uXdXXX$.; e 1.S.D ; P P.G.-.N A ~.xX=XX.-.-.-.1.n.( n C N.N.y.! b M _ M N e g.rXW.Q ( h.a.E.N.J ; 8 %.{.S.F.n.G 9 , @ 7 9 [ iXgX<.7 a { b.} A ] [.jX(.M w 7 Y |. Xz 3 3 j r.6.I 0 1 G A.9.N w b.`.} c E y.U.U.d.W R ` U.eXR.R.kXGX*Xy.Q c i.p._ _ } p.`.T.] C C W.0Xf.K , # 2 y = ; w C | b.M.p.a.E.M.( T.N.^ q ^ F.| ; m.m.[ G 9 # p P.<.[ <.n.] M U ..{ :.:.:.I 0 0 >.L L +.g.1.v ; 7 Y D H d @ t e.{.%.< + . 3 j 3 + > >.AXoX;.9 e e %.5XSX{.d # 3 j *.H 9 9 G 9 7 A 7.T 1 9 9 U :.XXuX9.9.2XfXuXuX2X] E } '.qX).:.H P.iXiX1X1X1Xm.{ M f.:XlX'.f.} } M ^ ] <.].+X<.a ; 7 >.#X3.; = F ;.F 8 D }.pX}.L , a K K B N J J w w 5 e -.>.f < , %.Z.S.G w , w M A 1XZXK :.B P.vX:X(.N.<.] / h.( ) j.h.E V V w Q b.~.(.(.8XmXKX].| w V.KXbXb.<. Xj = < = 0 H L OXn.G w e D e = 7 w N [ n.[ e e D f e ; a S.}.S.K w K -.K J C v W.*XT.R ! /.-X",
"w 7 7 N [ <.n.n.N w N A v ^ n.n.Z.1.K 9 ; * e A.8.G 0 *.e. XS.d > #.>.I H &.8.H.oX8.f q.gXNX@X>.D , 0 L e ; G G.G.aXK | yX8X[.p.7.1.-.1.).W.| C | T.N.| C ] b.A N ; ,.'.M.a.U.Q E.T.j.v ; 5 y F Z.n.K , a N = 7 w -.1XsXF.K G N 7 M } f.B.T...M 7 7 7.AXAX*.> > > I 6.*.a , G F.@XU 9 ] V.] M } z.`.E.! R ! M.=XR.} p.jXmX=XM.i.Z p.Y.Y.M.}  .`.].'.b.v ] ).n.[ 0 = = = = w [ | p.N.R.p.Q p.E.} ( '.j.q N <.K ; <.).:.U 9 , 8.P.XXL.9.U ] m.J.X.U 9.2XfXK.H h $.>.P e L Z.L 7 w 9 , D H # + k *.3.< O . = j *.d = 0.AXoXq.G w 9 >.4XSXe.2 + 3 &.j 1 # 9 L 9 ; 7 Y w.T i = a :.pXiX9.Y K.2X5XuX2XX.A ] b.7.T :.A.A.4XiX3XfXvX]...w v ,.Q.N.f.| M 5 C b.].1XS.Y Y , 8 H.pXS.0 , 0 >.;.>.>.q.H.%.y = G 8.1.-./ [ [ 1.D 5 e ;.Y 0 < H oXpX.X[ <.[ A w A 0XtXU { [ @XvX>XvX@XF.D.-.OX,.J f.T.p.Z V M ] l.b.p.V.tXnXmXb.<.] n.rX(.f.OX Xz j >.O.7 f 1.ZXuX-., , D H a , ; 7 [ n.K ; ; D 8.Y , 7 8.oXS.L N w L n.2.v q g.rX'.y.~ d.c.",
"f.N v f.G.n.).nXrX] ..].b.c C ] n.F.:.e ; 9 >.uXiX8.&.4XNXpXoXd > I oXNXiX8.>.oXCX>.f }.NX2XS.q.L 9 a 1.>.D D -.).aXA Q `.B./.l.7.L 7 e D.OXf.c c j.N.j.] ,.W.{ e ; e | } u.h.! M.M.f.^ e e L >.vX1X[ 9 <.7.; 7 -.K [ 7.n.<.<.<.[ b.N.| A A Q ] q N 7.XXXX>.2 # # G m.m.U 7 9 { 7.Y p M 7.C.[ K M.`.M.Z V u.E.`.} c } *X*X!.T.M.} _ p.~.B.] E p.lXaX(.q 7 [ ] [ >.H = . * K N.N.b.B.*X*Xu.f.W.u.C f.^ c f.n.B w K A.A.{ 9 G 1XiXXX7.N p n.vXwXT s { fXDXP.f 0 0 +.y * * D J K ).[ e H 8.H = = < H g 8 t , g #X3.# >.BX4X2X8.D f H 0.0.H 3 + # j 0 1 > 1 H -.K 9 f j >.>.= H |.6X}.H 0 &.XX2XS.T B p U n.7.G H A.XXiX3XA.1XfX0XF.N * 5 { g.V...; 5 ..+X+XZ.L $.}.+.O.#XpXH.H F < +.e.}.>.y = < y f S.@XS.G J -.n.OX1.D G H 9 = 0 |.CXNXS.[ m.b.A A ] (.9.K 7.A.P.XX@XVXsXD.L m g.J w K N.N.C c A X.~.(.l.b.0XbXfX+X{ [ <.<.).sXiXq.#.e.SXoXG H .XgX2X>.; = d 3.S.1.N 7 K :.e = , L }.:.0 , H oXP.Y :.G :.).:.w 7 C W.'.*XR.R i.",
"n.c q | V.N.+XJX0XC ] eX*X..Q C Q.OXn.e 7 K OXKXsX1.:.gXCX3XK.i H S.NXFXiX$.$.4X2XH #.4XhX|.6.&.h Y S.P.Y 0 Y G.OXf.c C b.Y.x.V K e * ; -.F.,.q c ^ | <.^ K F.Z.L D 7 q M c c Q ! `.rXN.N N 1.OX@XF.A w m.n.w U <.N M U ] B <.aXcX].| w 7 c A ] M A A K <.Z.H = N <.(.).7.w 7 K G K K -.2XbXL.N ] (.(. .]  .f.N.Q V } M.h.M.N.p.B.Q Q V.].B. ...0XrX).N w K K Y q.Y , , a { f.N.p.p.:XmXW.....^ ] | w v W.].| B w K XXL.p 9 8.LXiXA.G G F.gX3XG a G K.|.G # > 0 3.+., * , N n.aXF.N w L G ; + = r -.-.H = e |.>.a >.pXuXpX8.e a = 0 f d , + + 3 d 0 = @ , $.>.D , > 0 =.g 0.0.=.=.i 1 #.|.|.*.9 U 9 9 { A.:.H I XXXX9.N [ L.).G.J * ; [ N.).N.7 v F.qXL.Y f >.oXO.O.e.{.%.%.+.# = O.3.O.#   # y q.sXAXS.9 7 -.G.Z.-.D L Y 9 = i iXAXgX7.K [ n.b._.L.n.p U XX3X8.P.iXNXgXZ.7 P 1.e 8 J F.Q.[ w A A [.yXT...~.tXmXV.K K Y 1.aXZXP.}.S.4XFXuXf 7 1.S.>.0 = # 2 *. XiXF.[ <.n.N ; 9 Y S.$.e = , q.S.-.Z.G 1.XX-.7 - c V.[.jX[.W ` ",
"f.C 5 q ^ b.W.(.M ; w N.0XyX(.A / n.j.N N <.+XZX).Y G _.1X9.T , }.pXVX2X>.0 g S.>.d #.6.0.}.w.#.d I w.8.7 * K ).n.C f.f.} i.V 7 , , = ; P :.K e 7 q 7 N w 7 1.F.P.;.; ; K ] V Z ` *XrXf.c N K K U K A A W.+XF.qX^ w w ] ..M K 0X(.C...Q M M Z X. .S w B m.XX<.7 C ] f.b...v w { [ a 7 Y iXpXq.a s _.vX0Xm.[ [ b.C c c V C ( ( V `.X. .[.tXyX).b.] b.m.L [ :.J J $.a a n.+X<.] N.M.} M.(.| c C ] N.:XV.C ^ n.<.A w K ).<.9 9 s XXsXP.:.Y :.F.A.T , i :.6.0 + # 0 {.1.D ; ; e { <.L w 7 N D , = ; 7 / -.v * e 8.$.>.>.}.S.S.f * * @ , y f < + > *.e.d # # > d O.H   : # g 3.*.3 #.0.>.h h *.w.6.w.G 9 9 Y 8.$.h G >.>.a ; 7 N K <.w = 7 L { <.<.N { F.A.Y e , 0 H , < y t 0 O.g . . = f y = . . @ H 4XAX}.a 7 D L [ e = , G f 7 9 1..X@X{ p w V.0XaX].] 7 Y 1X1X:.q.oXS.S.F @ +.H.* ; 8 Y Z.Y e A X.l.l.X._ | b.<.7 <.[ e :.}.P..X4X2X4XpX}.e * 0 D , # @ # = t O.S.7.{ <.<.G , 7 Y 1.-.D , , Y 1.q.P.G Z.sXF.K 7 ; ] ..u.} Q W ",
"p.] V w c Q ..p.} ^ A ] T.8XB.M c | ..C c N ] n.V.[ p { m.:.U , S.}.}.q.$.0 9 H G , i 1 2 e.S.#.1 1 &.K.-., 5 v K } *X`.Q c c Q ; = * 7 ;.Z.-.K , ; ; 7 ; * H ;.S.;.a w [ (.T.} E Q Q }  .| ^ N b.b.b.<.:XKXcXtXA w q ] N.A w ^ [ V.:X0XB.] ] l.M.b.| | n.).V.] c V C ^ ^ w w ..<.9 # , I h , 0 &.2XDXgX).{ K { K w ; 7 ^ ( E V  .A l.[.].].V.K 7 K m.1.G.OX-.e a G -.+XaXV.^ f.b.^ C M q 5 N f.'.nXlX^ 7 ^ | N M n.m.U U [ B G 9.-.Y H a T 6.6.@ h K.3Xq.9 = 0 q.$.H , X 8 L w v w M Y n.:.D e q C [ N 7 e G :.q.G $.0 0 ; = * * , G $.h > h  XoXd > O.*.>.>.%.  : # z %.4 @ e.6X|.#.> 1 h *.I.# 1 T }.XX8.h 0 $.:.L e 9 7 w L 7 ; , 9 e a N N <.-.K a 9 * + , < = @ + = 4 < # . = 4 t < # . . < q.oX1.a e e , a 7 * = G >.G 0 9 [ F.K N w n.'.].F.N w U m.A.<.L G 0 , + . t 3.= ; + X 7 e 0 G b._ M M Q ] N w [ n.Y f >.Z.Z.}.XXXXA.8.F.-.w 9 = 0 h k 3 # 3 4 f U B p a w 7 , T :.8.Y f f f I w.K.H P.NX.Xn.N ; q M C  .l.Z ",
"^ ^ } ] c q ^ `.eX`.} Q l.Y.l.] Q j.j.E n A b.+X]._.[ ..].wX]..., ; f A.}.$.9 f a . > 1 i e.0.I #.d &.|.8.7 5 K C p.T.N.} b ( (.N , X 7 S.@XG.>.e f e e ; @ 0 0 e Y L.7.w <.0XB. .q c ~.].} Q V.A A A M (.PXnXV.C C M ] b.A 7 w ].].0X0XT. ._  .Y.tXtXb.A <.F.V.Q } } u.} c w [ n.1.$.H i $ # d |.pXgXuXI.:.G U n.J ; w D.W.,.f.A X.'.0X(.L.n.N w <.XXP.iXAXG.J 9 9.F.F.).F.| ] A Q v q q w B <.:X0X).K N b.<.7 U ).n.P._.U K <.XX}.P.8.I I T h > 8.hXFXpX$.7 G H.>.q.H = [ +Xm.[ [ K <.+X1XA.-.C ^ N.,.C w ; :.1.0 e X @ 7 G a @ , $.S.A.f 2 &.0.> 2 }.pXSX4Xe.g + . @.t > < 3.5X6X*.1 1 i 1 i 1 1 h 8.|.}.8.Y .X@X.XS.{ w v :.a 0 = ; 0 e w e -.K D G D = , #.%.k @ + = = > t + 3 k j t = = , H >.$., = a H e @ 9 a L S..X8.G <.F.+Xn.n...N.b.<.{ w K K Y T 8.>.0 d ; = y g {.H.3.8 o = d Y 8.K M M A M 7 p [ [ L 8.1.7 0 ;.H.q.n.K H L.XX{ 9 = >.4X{.j 4 k =.$.n.[ 7 ; 9 9 w G Y S.>.H $.e a H >.f A.2X8.1.N ^ q ^ V.tXeXX.",
"w ] N.] ] M } V.0XtX`.p. .X.l.0X>XN.N.M.Q A p.f.f.C...].nXnXbX(.n.F 2.VXoX0 D S.q.f # # , 2 j {.|.I I >.D N ^ N ) E `.*Xu.V b V.:.a ; f Z.S.;.Y d F F ; 8 = * + = a n.7.w A ].nXB.C c b.].B.] ] f.V C } ^ '.N.'.W...A N.N.f.c w b.[ ] '.0Xp.Z Y.*XnXmXb.A { m.V.h.i.M.`.T.C v <.7.2XiX3X=.0.@ k |.3X3X5Xw.0 :.3XXXe * v g.+X:Xn.] V.L.F.0XwX<.; a -.uX4XNXpX4X-.9 K K B <.m...C V Q ^ ] ^ w w K aX).[ w [ (.<.] N [ b.m.+X<.w A.iX3X@X8.T 0.P.|.6.|.3XFXDX:.K 1.4XiX.X-.D @XLX0XV.7.U [ m.F.Z.G.j.j.f.j.[ 7 7 Y :.H 9 , , 9 L 1.D ; 9 q.8.0 2 >.q.> *.#X$XAXBX{.@.u + t < < # H oXq.H h h i i i I i 1 I XX3XK.A.1XuXvXsX1.7 J XXS.>.H L H a e N w N H >.1.e 0 0.{.0.j = @ t O.g = 2 g g z %.O.0 0 ;.$.< , Y Y 9 7 a * <.iXaXOXn.W.].:XtXzX].[ e [ K -.).+XA.n.F.XX= %.O.< 0 ;.#XSXe.@.< , g g f p 7 w M N [ -.e Z.L iXoX; @ {.q.1.9 9 [ n.).m.9 # A.S.0.oX*.# k }.aX[ * K K [ 9 , :.G.9.L a , = + + > >.2X).:.n.F.A V.0XjXcX[.",
"c ] W.V.'.| ] ] V.V.`.b.M V.IXKXE.h.eXIX'.V M ....V.b.V.].+XtX(.Z.}.Z.;.y e >.0.>.>.H > > 2 #.e.e.i 0 Y -.n.V.] C Q T.W.N.j.E | 1.;.e ; , 7 0 f $.f g F >.e , = , a 1.A.[ 7.0XnX..] A Q B.].V.C N.N.`.V.c Q Q W.eXf.q C ^ | c w M N N ] N. ._ B.8X'.V.b.<.<.).aXu.V E } h.^ K L 8.2XNXpX X X3 4 1 I 0.}.6.H oXLXuX1.a w 7 e / n.V...{ V.+XL.7.A.L a >.P.gX4X4XK.H N ; ; K n.b.| W.W.N...^ v C n.F.[ B w [ m.{ <.B N K ] 7.[ p m.CXVX1XoXS.8.6X5XK.K.:.I._.B w a A.@X2XG.G <.aXqXf.].(.K J :.A.G.| ^ ^ n.n.w ; a Y H a 9 7 9 G [ G e L q.8.f 1 i 6.g |.pXS.8.L y g u . < t y # 0 = f >.S.6.I I 6.P.|.w.A.fXCX@XA.qXqXvXvXF.q e Z.}.|.}.>.D a [ m.7.<.L G >.1.;.$.O.e.%., 4 t t j %.2 # f %.=.O.0 7 $.1.a = 9 $.8.2XL.7 Y L.qX+X+XW.'.*X0XtX).K 7 K -.n.F.n.m._.iXXXH >.Y f H #X$X5X3.%.H f >.w.S.n.A w K L.qXZ., D S.AX.XF H 4X@X@XB , 7 w ..b.N G :.H >. Xj % #.iXaXU 7 m.G T A.T T 9.P.}.>.a , # + > >.P.:.K n.V.^ b.`.0XtX(.",
"v [ )._.:X[ C M V.0XmX]...V.[.b.c V `.GX[.c q A ] <.A w w U F.A.G.;.; ; 0 f ;.+.f H.0.< = d %.6.>.1 = w [ W.'.| q Q f.u.f.} 7 q L 2.-.0 = 0 H $.H > < Y }.Y f H D a K 7.n.n.(.).K A C A ] | K c ] f.].W.w q w f.N.f.w w 5 q 7 v ; K f.b.b.l.M.`.`.*X0X_.7.<.XXZX..q c C n.(.qXF.8.P.pX5X#X{.3 3 # I 0.S.>.H 0.S.S.>.f , * * 7 >.9.7.T T 7.7.A.2XK.Y >.}.pX4XoXH.D 9 + @ w K A A N.W.W.j.} v w C N { n.K B ] { (.K 7 7 w K [ U m.+XgX.XuXA.1 I s 0 a a { <.N A ..7.7.7.n.B N V.V.A <.] 7 7 N -.1./ c w [ <.q * 9 Y T G e w J [ :.K N G :.A.8.G 1 H H XXgX.XY 7 7 F H = , H $.0 H $.G.4XoX:.a G 8.XXgX|.:.1XbX].<.B [ F.OXF.L L 8.|.pX4X&.9 G @XDXaXA.a , D Z.A.H = *.#.j >.y = >.$XO.# f $.>. XS., H >.D = , T K.LXqXN U ..V.(.].^ p.f.V.+X(.K 7 a [ -.G N [ (.1X<.Y f , e Y $XS.3.H }.oX0.>.q.S.Z.<.D G P.2X:.* = ;.2X.XS.+.>.S.F.] A A M o. .B B -.A.}.0.= + #.iXwXU N _.<.m.bXA.s T 3XiX.XA.0.>.> = g D e -.:XC c w M l.(.<.",
"7 B m.m.F.M 9 w B F...M ] B w _ c Z } ` Z V C C ] ^ M w N K <.:.>.7 O = H 0 < , @ g H = = f *.q.q.f , ; w ] u.E 6 V Q ^ | q * N 7 r e 8 , f >.8.f = > i 8.G Y A.<.B w L b.n.<.[ B { b.[ M 7 9 v w c ^ f.^ A N M c ] C C w w 5 v * N b.b. .] _ ]  .tXZXXX-.9.S.A.K w w N K @XVX1X>.H q.>.O.4   = 3 h f h H I %.g F 0 = , D e ; a { m.9.T U T 6.P.K.8.q.A.H.6.j @ = = = = ; ; q | C | p.} ^ c 5 - 7 { L.{ [ G.+XaXF.w 7 w K <.<.[ <.+X).@Xw.1 1 = > 0 G 7.b.A V A A p 9 N M A b.b.b.v * w [ Y H 1.g.J ; 7 D w , 9 H H G e a [ n.Z.-.a 7 G F..X>.a a G 7.+XtX]...K e H 0 0 L G D S.2XuX1XA.G s { L.fXFXXX[ ).tX).n.A f.V.<.K G e , Y S.S.f 9 <.wXbXqXK ; , 7 G -.G 1 d d $.q.1 # >.H.>.0 f 0 h oXH.G -.-.D 9 G { :.L.<.A 7.Q } } u.V Q Q ^ n.m.K 7 7 w 7 ; ; w K ] N a 7 X D q.OXZ.F F 4XgX>.0 a H Y $.0 , $.0.f = @ ; a L ;.f 8 e N ..].0Xb._ X.] M F.wX.XY i h 8.n.F.[ N n.+XfXDX3Xa a P.XX3XfXNX6Xd + = ; w g.'.C ^ C C V.:X(.",
"w w K K <.N w w 7 B B U b.B B [.Y.R.} q w } N.b.] M M [ <.[ w , H >.y = = # = = = ; * + = 0 H 3.S.1.[ v q c C b b c q A | 7 7 ).g.-.-.+.a g 6.P.$.I H 1 a a 8.1XqXf.N K n.m.[ N B XXaXn.N K [ B ] v N | F.F.f.v v ] v K | ,.v C K A ] ] _ Q A M ..V.).F.q.>.h 1 :.n.7.n.w XXgXfXq.1 0 2 2 >   > j H = # , O.S.3.F 0 # , $.+.; * -.7.9.8.:.9 a q.S.q.0.&.y < =   > > = = = ; C ].^ u.^ V E ^ V c w 7 N ..qXKXcXaX1XK B K { V.{ w A n.m.{ { :.&.6.I p B 7.V.l.V q 7 w 9 M S } (.`.(.c ; <.P.H 7 $.G.-.; ; -.S.$., 9 e a a G { <.g.<.e ; 9 K Y T T 7.n.{ n.wXtXW.] N [ 1.m.m.J { sXqXqX).<.N M ] n.gXgXG.-.F.(.M.B.].*X'...N 9 ; # 1 h H a :._.).<.[ M A K w 7 N e 8.I H &.>.g 0 0 1.0.1.q.H i >.$.P.).n.K [ L.).9.p M l.]._ _ W V i.M.} C ^ ] v ; , ; , 9 w 7 w M ] M U 7 F.sXuXdX>.D q.9., + = 0 H #.0 > O.>.g < X @ ; ; * L >.7 A b.*X[. .Z } b.V.[.(.{ 7.@X2XK.B s B K U qXDXvX.Xa 9 7.P.uXCXpXe.< . # 9 [ ,.c ) f.} ^ N.(.F.",
"L a 9 9 n.7.-.B 9 @ K ).K , B A [.[.l.Q } l.T.0XN.N w N L P 7 , }.$XH @ + = y H H.+.; @ = ; 8 H ;.>.1.| ) ) u.U.y.b & c | N K G.+./ k.k., X , h >.S.8.> 9 { 3XfXZX0X,.^ n.<.N ; L A.OXS.:.-.[ L Q.f.,.F.+X).+Xn.^ ,.v J ,.f.K n.nXJ.] Q } V.'.F.+X{ :.2X|.t = #.|.gXfX2XI 2XVXFXXX, = 0 H 0.d f 0.H.$.H H %.{.}.$.H 8 = 0 f 0 ; a { 7.7.T p 0 #.|.6.H H = > g 0.#.g 0 g L K ] V.| B.p.E u.Y.M.| [ 7 w m.vXaXn.G.b.w N K [ n.K q ] b.b.p U F.6.A.9.p K 7.V.Y.i.i._ _ p V  .B.~. .M p K F.Z., # f Z.+.; , .XCXS.= = , N <.F.n.,.[ K 7 ; , = = N L.fXtXV.V.*X8X[.M.] f.qXcX0X| F.JXnXbXqXb.M w N ] m.[ K ] ..Q E u.`.B...] N w G >.w.:.I Y _.fX].U K b.F...w e [ :.@X}.q.$.>.XXP.D oXA.S.@XoX>.>..XsXvX+X<.{ _.fXwXV.V.cXnXi.i.` b a.Y.i.V A ,.,.L 9 7 D -.[ w B 7.] A V.] ).vX+XaXn.e 7 , , , , 9 #.e.e.*.z f y d = * G 8.e 2.D.N .... ._ Q Q _  .yX[.b.7.1XDXfXF.U , s <.<.qXaXwX7.9 9 :.2XDXCX}.#.< @ = P D.,.5 ( M.u.} ^ C C ",
"P.1.D , <.A.F.<.:., B :.p 7.wXV.l.x.`  .B.l.l.'.).<.{ w e -.>.S.NXoXt 2 g < g S.NXpX;.= ; F -.2.2.-./ | j.j.M.=Xa.} 5 q K :.A.$.v P %X%Xe = 0 0 T w.7.1 U I.aX+XtX0Xb.K -.{ 7 * J f -.S.1.9 7 K F.Q.OXOXOX<.OXG.1.F.K / <.<.K ).nX].B. ._ B.tXfXfXL.}.hX#Xk t e.|.BXBXK.:.S.4X5XK.i , f H 4X1.H H ;.;.{.{.3.H.q.y F H , * d %.H , G :.&.&.I H #.S.*.0 0 @ d 0.5Xe.*.j $.A.<.B M M M.B.i.E.=XR.u.n.K U 7.L.<.p [ M 7 B N N ] A N V.]...A n.L.K.I.XXU b.(.B.z.` s.B.l.w V l.M.l._ w M -.G.Z.0 # 0 F u = < H.4X0., , , L XXaX+XN.f.K e 9 9 ; , [ 1XcX0Xb.Y.^.U.=X^.i.} ].0X'.} T.*XcXrXW.^ M ^ b.W.] q v p.^ c Q p.B.Y.b.A w G 8.P.iXK.:.m.iXZXtXL.| V.V.[ A K :.).2XiXS.Y P.CXgX}.S.$.8.P.iXXX$.uXvXZXuXn.{ F.tXnXnXyXKXIXi.^.z.b ! U.a.b C f.G.G.e 8 a Y [ G { (._ p.8X} ] ,.<.<.[ N 7 , K T w a O.e.5X{.4 . = f f 7 >.sXD.D.g.B ] X.A _  .i._ W `.[.Y.~.MXbX1Xb.{ p w { m.1X9.P.T s 9 T .XfXXX&.O.k < 8 -.D.h.| !.>X*X=Xu.M ^ ",
"aX+X<.7 K <.).).w ; ; w 7.ZXDXC.p.p.Q _ B.N.] ] K <.n.w 7 g..XpX$XoX%.%.>.0 y S.NXFX}.; 7 }.sXdX@Xn.J J | ( ( f.| T.^ v L XXsXY 7 e 1.-.; 7 G 0 I :.T , :.1X+X] <.V.] N { :.a , ; f 1.q.G = = 7 <.(.qX+XF.w 1.[ +X).K <.:X'.K b.(.8XcX[.A | tXKXqXwX3X}.S.{.0.=.5XBXDX*.w.&.K.6.H i 1 9 # oX>.D 8 7 8 ;.q.H u < @ y =.y # g e.>.0 , G |.3X#.H }.0.w.H d = q. X$X X*.d g >.-.N w 5 } z.} a.^.R.f.f.[ K w [ m.{ [ A K <.A w M p A `.*Xq w b.m.aXbX1Xs { _.8X`.! V  . .M M ] U V.].B 7 0 q.S.y   . * : * @ t H H f 9 , T 1XZXaX).(.n.{ A B B U n.].'.X.w  .p.Z M.Y.T.} `.T.N...'.N.].n.C q V f.W.W.h.c E j.c 5 Z } p.rX0XA w F.aX1XF.:.{ _.vXbXqX).M N B <.n.K N A.2X5X>.H 4XgX@XpXf L XXXXCXfXG G.vXvXtXL.<.b.1XnXtXJ.tXyX` *XR.x y.!.N.c w / g.Z.D ; * , a K -.m.] *XxXp.w ; C 7 K [ J w [ ..M -.O.z 0.3.< + , d L -.n.+XF.dX(.B A X. .l.Y.B.} _ l.^.M...8XnX0XV.G U 1 a m.XXw -.<.:.N p U { B 9 d j f F 1.g.g.Q.D.*X:X:X^ 5 K ",
"PXeX( x ^ f.<.{ ; ; ; K +XbX).N M ] p.C c | ..f.| j.,.A C ,.F.Q.L H F y 8 ; f S.sX4X$.0 >.oXNXUXgX-., e L B w e n.(.Q.L v G.OXL X , e 1.q.Y f = 7 :.Y = 7 1.:.w 7 K 9 7 = a e # , 1 , L G 9 ; B G A.@Xn.D 8 w w D.).] N.nX0X .A (.IX<XX.M (.1XbXL.T 1XCXXX8.:.6.K.BXBX6X>.1 1 1 > #.1 # 1 0 H , = 7 H 8 X = # . @ = > 2 t d &.|.&.I K.5X}.H H oX4X0.H , 0 oXpX$.e.0.9 :.{ 7.] w c w W ` W d.a.i.f.K w w A ..b.b.[ ..] w w | V.(.p.R.M c (.cXKXfXF.p U _.F.^ C 7 K A.T , D $.-.8.$., 0.NX{.4 #   . . @ : * # < H = = :.iXfXbXbX1XM A | A N <.V.+X+Xb.7 ; N ..F.n.<.w w { n.-.[ L OXg.J w K :X>X( x E E V V c c  .`.*X'.| Q j.'.>Xn.A A ..F.qX2X7.9 H A.sXiX9.:.4XhX5Xe.*.SX6X0.H , , T .XuX).-.K ,.| ] N 7 B F.0XF.G.G.V.,.K v w 2.D.g.J 7 v / <.J q * * 5 e L 1.A } [.b.7 7 7 7 <.<.^ N c ^ j.n.0 # # < 0 w 7 q ..N.b...<.V.<.p w w A b.*X*XY.i.Q yX=Xl.0XnX].b.G 1 = > 0 G D e >.1.[ w 7 c ] | [ D N P -.>.Z.A.A.>.1.P L 7 e ",
"eX-X( b E ^ N q * ; 5 w J [ K v M V ] V q c C b.:X(.} q q ^ | K q / >./ e = 0 >.Y G 7 Y pXgXXXXX4XH = , 9 = , L S.G.F.-.L -.P ; 0 0 , I >.$.$.H 7 0 8 ; e -.-.e n.F.H U = , f 1 = = > w.P.7.7 9 B a 9 , * * ; w [ K 7 } *Xp.V V b.yX[.Z w ] ..m.J.B m.wX2X3XK.9.&.}.oXK.f # < 0 > f 0 H #.0 2 , e L G.$.; * # = 3 = = 3 < i H >.d g 3.oXS.0 0 $.0.S.}.H @ 0 H = e a ; <.L.].B.S w M W W R ~ y.( ^ w 7 w N K K K N f.V.| v N n.*XB.p.q A ].mXnX].[ w N -.{ K N ; G.K.H , d f H q.S.t H  X X=.2 . : @ X + . X 0 >.8.a a 7._.wX_.X.w w ] ..] ^ ^ F.G...; ; 7 7 { [ w w J a , ; e D >.G 5 ; C !.lX:XQ a.u.^ V q c b.].:XW.^ E h.=X=XM.A M K Y -.9.q.q.5XgXgXNXK.A.hXhX6X0.#.K.6.h H G 9 , G Y N w p f.K q 7 w K J 7 q J J N L 1.J X ; y F 7 * 5 J | j.^ w ; ; ; w N M A T.b.w 7 7 7 K [ ^ C J ..p./ 7 = , e e q c V Q u.} w ; , , = , , w A | } } } B.eX`.} l.V.(.wX8.d @ + , 0 0 , -.{ [ ^ C c V } ^ C w 7 8 e e 8 y * = ; 7 7 D ",
"U.E.M.| } | K w q w N G J N B ] ..^ ,.f.] M v b.rX).^ q M b.f.C q g.OXG.L 7 7 L a ; @ K uX@X1.1.Z.i 9 Y H # * H pX.XL 8 e e D P Y a = 0 $.>.S.S.a , e G e e L [ L.).<.3X:.:.pX3X6.i = 8.3XXX{ 7.7.N 7 e K L :.F.Z.[ w ] b. . .Q l.*X[.] A ] p.b.{ 7 N m.qXDXvX@Xf 0 a #.H I S.S.q.Y 9 $.q.f 9 e -.L Z.8.L H < > < > d g 0 d f , 1 1 0 q.>.= = < H $.>.d = g $.< , 9 ; U m.'...w M ` ` V b R ~ ( ] G e w B A p 7 ; K m.<.v 7 B b.*Xp.c C ..(.0X(.] M w B n.)...; :.9.G , , , = 0 f 0 H {.oX0.t # 3 < u u 8 ; y >.8.Y 9 , G { B , ; 7 [ n.N.f.N M [ [ 7 [ 7.[ S.-., , G -.D , ; = e e ; * 5 ^ h.!.E u.j.p.^ w A (.V.W.b.A ^ N.'.`. .M 7 7 w 9 0 Y oXBXgX4X2X:.a A.}.0.2 2 #.6.6.oX0.G 9 e w 7 a -.F.] w 7 / m.,.7 ; ; ; w 1.XX:.@ * y 2.P 7 5 v / `.N.^ v N ^ / C A A V.b.A w 7 9 Y L N 7 v g.!.G.8.a , e N K p.N.p.M...A 9 , , 1 7 ; 9 K ] C c c ..`.B.A w p X.A.8.h # @ = , , ; J J [ j.] w w Q ] K w ; ; 9 e , 7 X ; L N K g.",
"( E.*XT...f.G.G.A.Y G -.1.[ K [ ] M [ N.V.[ c ^ n.n.| A ..).).,.N >.F.F.:.N e Y [ G 9 w [ { 1.OX}.H 0 $.H # , q.}.S.L 0 e e e >.$.H = , H A.4XoXH e ;.1.8 * J -.{ 7.[ iXA.A.pXw.0.I i A.2X2Xm.m.L.<.K [ n.G.qXvXZXaXF.{ [ F.].] p.`.:Xp.M.f.*X0XW.A C ^ V.aXqXG.>.0 0 >.$.>.oXXXgX8.7 D S.Z.-.L K 9 H 9.S.H.H 2 =.=.S.e.j H >.f g i , }.S.= # . < , < < f q.H.G G -.K p K V.b.w _ ~.Y.W b E ( j.F.G.1.G G [ G ; ; 7 K <.<.^ K K :XR.f.^ w A '._.[ K p K ].aXV.M N A.Z.N a G f 0 , H H.pXCX Xg > < u ;.H.>.y 0 G 1.A.K 9 { 9.U B ; ..rX+X).).{ w K <.N Z.@XOXsXZ.e = e S.S.f = * 7 $.L w w q c ) c C ..b.| ] n.wXF.F...c c f.'.'.N.[ 9 7 H G 7 0 XX|.2XiX}.G 9 G j i   # d }.3XCX9.Y H Y G 9 a <.<.<.B w K m.F.7.w 7 7 G S.P.-.7 ; 2.#X.X-.v C ^ !.T.| Q f.'.(.f.] A ....] K J -..XG.L ; 7 :.+XqXG.H e N w c } j.f.p.b.n.7.[ G h a 7 a n.'.n.N 7 f.:X1X] 9 s B 9 B i 9 f D 0 , , 7 w K ,.] w w A ] ^ A K -.n.1.[ J w :.aX,.,.N.",
"c f.:X(.[ <.qXNXsX>.7 9 G D N K K w N <.(.(.K N M ] ..] ] <.b...N w w B [ B N { K <.,.N w N f.+X8.0 2 $.O.= ; H >.S.>.e , ; , F 3.H.H 8 f 0.|.;.f e >.q.e ; a a G U Y iXXX3XpXI G &.H :.:.m.<.n.].].V.U N <.OXaXKXzXG.<.-.+XwX] ^ u.`.M.h.| `.:XW.j...C ) W.D.<.L G :.F.G , 1.A.).n.J N G.aX).[ w , T K..X}.&.j }. XpXoXH $.}.}.S.>.L NXNXe = . , H q.0.H H $.L 1.+X).v M W.`.} Z `.].p.} ) ) | G.oXS.D D 1.:.e 7 ; e Z.qXqXF.,.h.W.:Xb.c | ].1Xb.{ A ] (.'.b.] K L.).{ G Y <.8.S.@XoX4XAX4XO.8 ; y ;.}.Z.G 9 e 1.F.K w m.].n...q N.vX(./ / J K n.OX-.-.-.1.@X8.L ; 7 ;.>.y 8 e 8 Z..Xg.,.| ^ ..c v J [ [ <.L.qX1X).[ 7 ; N n.).(.L.[ a :.q.&.=.>.#.oXNX}.w.8.0 2 l > 1 d |.4XiX8.$.Y 7.7.K w w K 7.{ N J Y [ 9.K G N a H L a ; @ H OX@Xn.N c C p.Y.M.}  .R.`.M.} C A N K <.>..XgXpXS.e ; D A..XF.:.F.W.^ c C V ^ ..L.1XXX8.I G >.T -.P.1X).-.B Z.qX1XT 9 9 a p U G G :.1.Y f e ; 7 N K A N C K ] A ] V._.G.1.:.[ N n.zXj.| u.",
"c | +X).L -.@XNXsX>.= @ = 9 Y P.F.B p B b.F.K 9 ; p U K M p B K K w ; ; w w w M M | f.C 7 q C K , @ = H >.d = @ $.q.1.f ; ; 7 y 3.#X3.0 ; y +., e 7 D >.-.:.-.w = = 7 A.S.5XoXH 0 6.>.H 7 B G ..L.tXtX<.w A <.<.G.-.D :.G.2XgX(.C ) N.N.u.C ) ( | f.N.^ n ( | <.-.-.n.P.L ; N K [ F.D.C ,.>XQ.| ] B 9.1XuX2X8.j =.0.oX}.H G >.0.4XS.;.oXoXH D D f Z.oXq.d = 0 L F.aXvX^ c | f.C q p.'.W.h.| C c H >.$.8 8 $.>.G 0 ; 8 :.OXOX1.K ( N.'.| C F.tXbXcXb.M _ T.'.b.A p A b.n.U 9 N :.@XuXS.+.L H f H ; e 8.4X2X8.N w a <.B ; M ] ] b.f.] [ N 7 5 ; e { ).G.-.8 7 L Y 0.f , y $.0.$.8 8 >..XG.D.n.b.N.{ B w 7 , G 8.8.8.<.Y a 9 w K n.K <.T 9 f >.#X5X3.0.pXBXoXpX2X, 1 &.6.>.>.4XgXiX8.H w H 7.<.a * 7 K U B K a 7 a -.A.9.9 , D f = X r Z.Q.-.q 5 c Q Y.^.a.! y.U.~.B.] M 7 B [ -.S.#X#X3.8 # 0 H.iX).,.N.'.V.W.N.C M b.qXiXA.H f I pX3XS.q.>.-.;.1.G 8.A.:.G 1 a w.fX9.9 9 G -.:.1.7 8 e N K K K K V.] A [ [ N B ..n.C | *X!.!.E.",
"N J m.F.D f S.oX}.#., = 1 f K.VX@XY w 9 B K , = , 9 B Y K s N K [ 7.] w q w q 7 C ^ | ^ w q w 7 L < + # 0 H F 0 , y ;.0.>.$.f ; F 3.@.; X = F D $.d 0 H K.2XXX9.[ N [ @X2XVXoX}.f K.XX.X-.U 9 w M T.0Xn.K K K w e , ; L P.4XCXuX^ n ) h.^ c q q | N.W.C 5 q v [ qX_.7.<.K 7 7 7 j.W.'.C C h.( ] b.U m.1XiXiXA.I i f Y &.$.G f a oXS.:.H a D >.S.H H a , , = , e <.'.cX| M c q 5 7 M f.W.N.,.C ; = = , = = < u F y , ; 0 H P e 5 ) j.N.M w <.(.fXtX..M ] b.(.Y.A w w | L...7 9 K :.1.L ; . X 8 ;.7 w <.1XiXF.K w w ..[ 7 ; 7 A F.+X[ w 7 w N w N e L G.>.e , , L H.g , d e.5XS.8 e e -.F.n.^ ] ..7.H 7 * @ a >.h 0 9 G :.Y 9 e L 7 a D , = d |.NX$X X4X5XiXpX.Xf 0 G >.T 8.3XgX2XY a ; ; a K w * = w 9 9 N 7 = w :.A.:., , I I 1 = 0 -.>.K 5 5 b ` c./.z.~ t.c.Y.R.p.C , N L e H g g t = @ 8 H.NXN.A ^ ..| '.*XQ 7 ] G.Z.G 0 I 0.FXSXS.g < 0 H ;.D q.A.8.8.I I |.bXm.9 , w J [ 8.N 7 7 J [ Y B M b...X.A w 7 M b.V.Q ( E.*X*X=X",
"N 7 J L = = $.0.#.d 0 i f H A.qXiX:.B N G B 7 9 9 9 N 7.n.T N s A (.(.A w V M c C C p.M.} C C N q.#.< = f 0.0.H f ; 0 $.;.>.>.F * t < = X = 3.oXA.$.9 a K.iXfXgX{ N 7.iXfXDXXXBXoXgXiX2X9.U w M 7 ] b...| b.<.Y 7 a , 0 $.|.4XS.L 7 5 / q c 5 5 J ,.j.q - q J Q.F.F.K w 7 ; K b.j.N.W...| u.n C A o.).1XI.XXA.w.6.H < a -.:.L L 8.P.S.e = f ;.q.$.a = > H H 0 , N ^ :Xf.| c c C c q K N.n.1.K ; X   . = = . @ u F 8 = ; e D e 5 c ( N.C q w w V.A M ..l.A } B.l.M M ]  .M w N K [ L D 7 ; 7 r D N w p { n.{ B w A { K w w M ] N.| ^ K 7 5 v N K e ; L K e 7 * $.>.0 , H q.}.S.;.D = J (.n.C M K 1.I f , > T 8.a f , 0 I G 1 , H Y G H a # , 0.$X X0.j >.2Xq.f T Y 0 , # h :.G.Y 8.7.L 9 7 N N 7 U -.B p G 9 9 A.H a , = , h f 1 ; , e J w 5 w Q a.x.s.~ ~ t.t.~ M...C ; B -.0 0 # , t t < < H A.A Q `.R.E p.!.| q K :.Y f #.#XSXpX X#.# # 0 D D 0.oX0.i I I d T T B K { [ a 8 e K ; ; L 7.K 7 7 p ..'.L.[ N ] b.A c Z Q R.U.z.",
"[ w * * ; , < 2 y 0 f H h a :.XXXX7.K 9 G n.-.H , 7 a N 8.-.; s b.(.C.5.M.b.u.E ( 6 Q `.f.f.'.G.#X%.H 0 = $.#XS.H ; = 9 a D $.-.8 8 y ; ; = >.S.S.8.G :.uXfX2XfX<.F.qXgXfXfXoX$.4XAXS.a w N [ ] A w c C N [ ..a 7 e f # 0 0.%.>.D q w / n.-.v 5 ; 7 w e 7 7 w B n.K w U ^ C '.rXW.^ V N.!.h.T.V.b.5.U { 9.8.A.5X2X2X$.>.XX-.N [ Z..XdX:.; 0 L q.>., = , I H >.Y v c N.'.>X/ c [ N - w :.-.-.[ 7 #   : g 3 . . , g y * X 8 G L :.j.| / / N 7 ; 7 7 C._.| A  .M.Y.A M M A ..N.N.n.).n.g.1.P P / D N A A B A K p ; M [ b...^ K | f.f.F.j.^ - v / ,.; 7 5 ; v L J e e }.}.d d $XBX|.L , K OX).W.N.K :.$.1   d pXBXK.S.G > = > f >.w.-.:.1.>.g , , 0 , , = = d 1..X1X:., = a L.:.G w F.1XF.N 7 7 N <.L.qXF.T a [ XX9., :.A.T 0 > h XX{.$.H J 7 c | z.Y.t.~ c.t.R b i.R.^ 5 * w 1.1.y < @ = t < # = = ; Q =X=Xu.C | N.J w S.pXq.d j =.g 2 < , = # , H 4XNX}.i d 0.e.6., U fXDXn.9 a D :., , -.XX7.; ; ; V.mX(.[ U A (.^ ] Q c d.a.R ",
"L L e = = = = , 0 0 Y >.H e G 7.L.[ G a <.XX8.K e , 7 N 9.G # N V.8X[.B.p.i.p.a.h.b E p.b.+XvX+X$.H ;.%.d $.oX4XH 7 , , = = a -.D r ;.+.r X D G.:.A.:.8.aXXX7.L.V.L.).1XiX2XZ.$.iXDXoXK , ; B b.f.c q A n.1X).K ; , 0 # = 2 @ = 0 a >..XP.-.9 , D L [ [ Y [ 1.F.F.<.A { ] K '.rXf.A } eX>XW.:X:XtX1XI.T 1 H 3XZXgXA.0 Z.iX-.7 N uXqXsXXX[ 9 e S.$.0 0 , Y 0.P.>.e q f.n.g.q e G.g.D 8 9 a -.-., O $ =.3.@.u < < +.* * 0 e G A.@XQ.g.,.<.<.K 7 = [ (.L.[ ] ..b.N.} Q Q ..W.'.W.F.aX(.n.2.J P >.:.Z.<.B p N K p ; ; A F.).b.K C ^ W.W.N.,.5 q K n.n.K - * K 1.D * Z.sXsXq.8.pXsXZ.a ; Y 1XqXqXqX).K.K.0.>.S.5X5XP.S.&.H $.6.oXhXhX2XL Z.iXq.g g = . . + 9 1.2XvXvX).U G [ ).n.n.<.F.@X).<.N e K m.[ m.aXwXY 7.iX8.:.P..X:.f 1 a A.4XS.-.J J f.R.B.Q V R /.z.~ V a.eXf.q * 7 -.3.H f 2 j %.j g f , c ` E.-Xh.E ^ j.v e Z.uX}.>.H # = 2 #.%.y = 0 >.#XoXq.&.S.|.e.I 9 <.ZXZX7.a L F.>.e 7 K XXL.e w p V.cX].n.{ p { 0X0XT.E i.^.a.",
"Q.@X1.; @ * = 0 7 G Z..X8.a , 7 K G Y G H -.K G -.K G H 9.Y 7 B [.MXMX(.p.} i.R.`.} Q Q <.fXZXF.= , %.3.y 0 1..XS.-.D 9 ; w n.@XD.r 2.-.G & * -.n.).7.{ ).7.G F.).F.n.(.iXXX>.>.FXVXZ.G w 7 M K f.A M [ (.tXqXn., 9 G H H f = , , , f >.8.Y G D L <.A.F.K.L.F.n.m.n.n.).N.,.F.F.C w f.vX:Xn.+X:XaXwXfXm.> H 2X2X}.H 9 A.+X] B [ ).uXsXn.J 7 , $.Y :.8., 1 #.oXP.D w Z.G.Z.5 ; +.Z.$., X 7 8.8.e # $ : 4 @.@.@.=.oX;.G..XJ N G.,XqXZ.L K L N 9 , 9.P.A.K M K ..b.M.f.f.f.f.f.n.Q.).m.m.n.L J J N Y B N K A B { (.n.] K ..b.,...b.M.N.W.'.C c c | n.{ q 5 N L e ; f.+X+Xm.F.qXOX-.H = 9 A.wXZXbX1X5X5XiX4XS.:.>.S.XXZ.:.$.0.iXFXBXXX-.q.2XS.$.$.g >.D , 7 [ (.qX0Xn.B <.L.1X_.).<.[ <.F.F.{ K <.(.G.n.+XL.-.L.XX<.).2X3XP.q.H f $.oXoX>.8 v n.W.T.Y.} ~ R.z.! V p.W.| w - ; -.oX4X%.>.oX4XH.S.}.<.w ~ y.M.E.^ n ,.,.w 8 e 0 D $.H > 3 d $.H < 0 $.S.q.H I }.hX5XXXT A.ZXgXS.-.G G.-.P 7 w G.+X] U K n.qXqX1XF.N N +XnXmX} V M.[.",
">XaXZ.7 ; * * 7 9 G A.+X).[ w 7 Y [ n.Y a a 9 a [ 7.-.N [ 7.[ B yXMXyXl.Q W ` R.xX[.M...L.CXCX8.; ; F 2.y , L G.@X7.N 7 ; B F.+XQ.v g.J N 7 ; K <.{ N 9 w 7 w [ n...J 7.aX).$.8.AXXXH L [ w w 7 [ K A { L.wXtX@X, = , d H y < H 0 = @ = f :.-.L K [ <.n.L._.n.A ] ] ,.N.b.f.m.n.n.[ F.aXF.[ +XfX+XXX3XZ.a G >.a , ; 9 7.G.F.L.[ v g.n.w 7 7 ; ;.oX4XoX0 1 $.5X4XL 7 q.oX.X0 X * f F , X 9 :.:.G 3   + 3.#X=.; f >.>..XG.J K <.[ 1.G 7 , 9 0 a G a A.8.w * 7 C ,.f.V.'.).<.K | W./ { D.Q.1.N 7 = N K n.A.B ; ] vXbXn.A ,.(.F...] h.T.'.:X^ x q M q C C c C J C C c Q ^ A ] n.n.K [ , ; G m.+X+Xm.2XhXAXpX:.; 9 1..X8.-.:.S.pXBXpXL G.1.f L H f 1.}.Z.Y e N [ n.F.[ p b._.tXqX+XK N w <.(.:.K n.XXaXqXV.N F.1X<.).aX@XL.P.P.1.G D #XuXA.q w | N.'.mXY.Z } V V E T.f.J 5 * * H #XpXd g H.}.$.>.P.F.c y.i.p.N.^ c ^ / 7 e K 9 = a >.g i 0 $.$.0 0 0 0 a a T .XhX5X|.:.A.uXS.L a ; :.:.1.N ; <.'...<.<.n.@XfXgXP.H 9 N _.aXA 7  .*X",
"Q.F./ N N 7 * ; 7 w [ (.:X(.p.] [ K K w 9 w , 7 w [ K 9 N [ { N 8X~.B.Z M R R M.jX`.b.<.F.iXpXw.9 * ; y e 9 K Z.qXG.{ p ; 7 K ] ] A '.C v ^ ^ | v , p N ; ; M 9 M w ; K ).8.a L 1.>.[ n.{ 7 w w K N q B F.wXwX+XT 9 . @ , = = y 1.$.e ; e -.-.N K B N ] W.+Xn.N v 5 q w w [ m.(.XX<.T :.9 , A.2X.XG.;.a 7 = # # = # ; Y F.0X].w q 7 7 7 N 7 w 2XLXiXS.e Y |.BX4XH # H 3.3., X @ * 0 y 7 9 a H &.d # j 5X4X0   , 7 K -.<.b.| w * , = # = a &.>.&.1 >.;., X - w J v / n.D./ v c N J / n.F.n.B 9 w -..XiXXX:.-.+XKXvX(.{ <.V.<.K C Y.`.`.T.c x x n x c x c ..j.f.u.Q W V c V A C M Y [ :.:.B N U { :.XXgX2XY ; 7 J w 7 N <.G.XX|.Z.a Z.Y = , , ; G ;.G.OXD.^ c V A F.K 7.(.tXaXaX{ [ N [ m.L N <.).(.cXqX[ m.(.n.ZXvXZ.K -.Z.8.L e 2.q.+.e D ^ ,.W.eXh.q c 7 V ] (.n.K q ; ; , f d 0 * , a , 7 K [ c U.R.M.M.^ q v [ :.).OX:.9 9 H , a a Y G ; , ; J Y G N A.fXiXI.G T 9.f = = = -.>.F.<.w ^ V...b.n.8.G.4X@X0.G , , Y K.T B V.[.",
"rXN./ / / J D N 7 q ^ '.lX0Xf.C 7 w K w ; ; ; N { { J B w 7 N M  ._ l.p.M.M.b Q T.} v w T |.3XK.g ; X 7 a w e [ G.).+Xb.w w M A c V M.c Q W.T.] M 7 K [ 7 w ] p 7 7 ; e <.Y 7 7 ; 0 Y F.<.w B N w e w w K { :.9.A.[ , 0 +.f t , oX).:.v 7 e J K C w M j.rXlXW.^ w ; w v w B Y n.{ a > 1 > = a h $.P , = , @ . 9 $.a , B K ] N.] N q q w J N e A.XXA.:.0 H w.5X|.0   t g t # # # # f 3.>.a 9 7.XXe.t 4 #.j , , 9 e -.m.).).^ 7 w U f , @ 0 0.S.>.f H D 0 y e 7 5 / / J q q w 7 ; q v K <.m.] w N -.S.G.-.n.vXAXiX(.{ N K V.(...w R y.a.M.R Q R C ( Q c c ^ j.f.E.z.t.R b b c c w F.+XiXXX7.K U :.a Y :.K 9 7 w w 5 7 B G N G G , N ; 7 e * ; 9 * D F.qX+X] q q w ..M ] n.tXaXqX<.,.N B [ B 7 K n.g.W.+X[ 7 K G.qXG.N w 7.OX.X>.D ; * * e 1.D.W.'.'.V.^ C 5 w v K J L 1.>.8 X * , 1.9 * , w w N A q u.M.j.u.C q q [ OXuX).1.7.{ B a H , 9 e w K e <.<.w ; Y 2XwX_.I i 1 f >.>.L 9 / g.D.^ C ] Q | K D H 0.>.$.>.H h #.XXXXF.A.C.",
"rXW.n.n.,.n.).n.] / ..W.eX[.y.c 7 K (.<.7 ; w n.(.G.,.[ v 5 K K V M Y.[.8X=Xb E M.^ 7 , T 3X5X X-.J D / -.N w J K b.(.b.C C | p.} b b q } R.[.} c A ] A w q N A A B N B L L e , = ; e <.n.7.<.w 7 L -.D a w a { _.K.D H q.0.3.D Q.Z.n.g.K q c ..} V C N.kXeXT.| c c D.Q.{ N 9 L :.Y > 1 &.*.I i 7 * * 0 g f f g >.Y G U w ; X.T.K J / K L [ w w Y 9.S.a 0 I |. Xd   < 4 t t z u t 3.5XoXH G _.BXq.> # < , H $.7 ; p <.V.p.] b._..XXX:.# = *. XS.%.y 8 ;.{.+.; 5 G.D./ 5 r / 2.L 7 7 q [ L.<.w 7 G G e 9 P 8.:.e w 9 w { qXnXV.; 5 x ~ R.a.a.! E a.h.( b x c ( R.E.d.~ ~ y.} Q C ).aXgX2XP.F.m.F.8.Y 9 , B <.| v ,.'.+X{ , 9 s 9 N * 7 w ; D >.e , L m.n.^ V Z Q M 7 M X.].(.(.b.] ^ [ n.1.N 8 J | b...v ; K OXG.K ; w ).dX@Xn.G 7 X * m 1..X>X>X'.dXOXg.7 q q e ; G G..XF * 0 $.1.Y 9 9 K K A | Z V E u.| c 5 7 ; Z.>XG.Q.+XF.K 7.F.G K <.F.aXF.w B p 9 B { 7.:.w.I 1 w.pXpXoX* e J F.b.C V c c 5 ; = y d O.oX#X0.#.3XhXXX7.T ",
"^ ^ F.OXD.@XaXn.rXW.} Q i.z.z.a.C ,.+XN.N 7 q | N.'.b.^ w c N.,.} Z B.B.R.T.Z f.f.L , # I 6X6X6.f J / 1.:.w ; w K ..f.] A ..(.`.R.Q c c ^ ^ (.V.M V.N.] | M q } p.p...^ C [ K 7 ; ; 7 [ 7.G.W.w K 8.1.:.A.n.-.7.ZXsXL e ;.{.4X}.1.L Z.zX>XJ q / '.( c Q h.M.z.M.C K :XqX1.a 7 :.2X}.1 > w.3XP.8.G @ = H L 3.q.a 9 D T 7.{ p U ..| q [ ).).<.w N P.uXfX:.G 6.5XXX>.@ > = H {.5X}.%.XXFXgXU U <XfXP.0 < 0 = D G.-.N 7 M A C `.cX_._.VXuXG > >.6X6X>., < }.sX+.- r D 2.2.v m g.G.n.-.J 7 Y ].F.N e D , 0 >.;.7 = w N ] ] A V.cX1X] E b ~ =XR.z.! } E.T.u.V c x Q E.-Xc.s.c.-X=XM.] ..1XaX_.n.7.L.wXDXXXY { qXnX'.N ] vXLXG.9 G :.G B [ N = , 1.).A.7 N ] | ] Q V c } A A N f.] f.W.n.).:XvXvXg.7 5 w '.,.C f.W.rXrX..7 v F.Q.Z.,.J f ; * ; ; D g.n.F.zXaXZ.7 a L >.J D -.g.[ D H -.G Z.<.K ,.<.,.'.R.V c f.f.q - - 7 g.(.F.(.+X:X].w L.F.).).).bX).[ n.<.B 9 9 T _.4X X&.3X4XXXiXa 7 7 G.'.^ M w 7 ; = X ; , #.SXNX Xi >.5X1X:.B ",
"N [ G.).A.G.XX).+XN.i.t.d.;X=Xc.! V.].B.Q V V V } [.[.Q V Q u.p.p.p.c Q f.,.<.<.A.0 @ > d j z j G.-.7 L [ ; * , K A.Z.<.] | W.V.V.N 7 7 7 B m.G.A [ ] (.B.u.c W U.=Xa.q b i.} V V q 5 q C ] K w K qXn.7 [ n.K 2.VXVXZ.; u {. X3.g T 8.sXpXf 7 2.1.J / V c Y.=Xz.] N 1X1X).-.G D -.Z.G ; [ aXsX).L ; * N F.XX1.= , 9 N A.P.H , G N 7 ^ +X'.[ a B F.wXqXXX:.K.2XvXtXA 7 N :.2XVX2X9.iXDX0Xb._  .~.[ <.B 7 w ^ f.W.] q 5 M N.rXrXW.b.bXqX{ a F.DX6X8.1 9 K.).v - c / n.,.J K J N ,.<.<.N 7 L n.L ; ; , ;.}.H @ ; J ..Y.z.~ _ B.J...Q R Q y.=X=X` c p.B.f.V 5 c | B.-Xc.s.x.^.=XT.f.A +XbX1XJ.l. .tXKX(...0XKXJX'...n.>XaXOX[ a D Y P.3X6.H 7 G sX@Xe w w c ^ ^ C Z f.n.| ^ C Q W.'.mXnXlXKXKXN.M w N ).N.'.'.f.0XrXM.c c u.) x v J 8 9 * = , , K Y Y @XXXK , , s -.N w w | F.b.B 7 7 -..XG.K e K [ N.M M b.N.] w 7 ; N V.).V.[.cXcXL.V.7.{ m.XX2X3X}.|.S.8.$.i T iXhX3X|.5XLX5XiXF., , { L.[ 7 p Y 9 = = + * ;.SXSXZ.r G.LXqXA M ",
":.S.P.8.:.K.1XXX].T.M.t.~ s.;X;X` `.yX~.V 7 V } ^.9X=X` R ! ` ` V C 6 q v 7 N G $.0 , , @ @ 4 #.1.n.N N L 7 = = , [ <.{ 7 - ^ V.n.K N q 7 Y F.n.7 w K W.M.} V y.-X=Xc.~ ~ W W y.Q V c c w M K A w V.V.N 7 q C g.zXdX;.t O.3.z + # I q.4X}.8 < ;.}.-.[ C c ` x.U.] G wXvXbXL.Z.-.r -./ 7 7 [ F.).K w w K <.F.<.w w 9 K 3XsX>.a 1.qX] c K ..U B s { gXLXsXN w -.qXT.p. ...V.aXDXvXm.iXbX0XC.o.o. .B.b.C 5 q C | N.C c q 5 v N.D./ N.W.T.(.n.[ 7.G { 9 9 ..n.^ c C C J c q w 7 7 { [ L 7 * D :.J ; * , $.q.g = ; N B.Y.s.~ ~ i.B.B.u.V c E `.*X` c p.R.`.| q 7 C p.a.~ ~ ` i.Y.T.b.w <.(.B.B.l.p.kXKX[. .T.rXeXW.b...D.(.n.a ; e -.gXhX9.T G :.aXF.A N w C b.M.) C | n...A w c !.jXKXlX:XlX:Xn.| 7 7 N K f.^ M T.[.p.Z c c q 6 x n n.9.9 = ; , G { -.L.n.p , p { F.(.Q w C ..f.^ N [ K :.Z./ e r w A S p.0XaXwXL.U w p U ..b.~.`.V.b.b.[ B Y I.4X3X>.0.*.&.&.G T XXpXoXA.0..XS.3Xm.p 1 { 3XG.G a G G 9 1 7 0 +.H.{.P e g.rX'.| Z ",
"G q.P.$.9 $.XXqX).W.Y.i.~ ~ c.c. .B.`.Y.} V V ` p.B.p.Q Q Q ! } c N 7 w J w e 9 7 , d f # . < #.8.).L ; e 9 0 0 , w a { [ w A ] [ <.{ N w <.F.{ 7 ; c B.a.y.~ d.a.E.c.d.~ R ! R.i.} p.A 7 M F.+X7.[ [ K w w K [ 2.-.D u @.O.3 + # h I >.q.H y y H -.1.w w p.c.z.A B _.wXZXOXdXZ.; 2.Q.g.J q q c N.| ^ C v ^ V.(.A 7 J +XaX7.[ ).rX..q w A { [ s w F.1X.XG N J ..Q Y.[.V.V._.1X1X7._.wX0X(. .S Z A ] ^ A ] | ] | C ^ C 5 - J ,.C ..| f.).<.; , 9 G B N N ^ ....] w 7 7 J [ w 5 J [ L 7 * e -.G 7 * = d H 8 * ; 7 u.i.t.~ ~ ' z.(.p.c q C `.*XQ V u.`.:XR.V 5 V M.` V R W V } B.b.w M A A  .i.Q Y.jXf.c c C A ^ | [ [ [ K 7 = a n.2X3X7.n.F.L._.B [ ^ C ^ b...C c ^ [ M v M A M.N.| | u.f.] (.+X; 7 * w ..M w p.M.M.p.C 5 5 x J j.F.OX[ w B w w B <.<.K 9 w [ (.0XeXa.c c V Q | f.| ^ | / w ; w K Q  .N.V.V.F.7.w 7 9 7 w ]  .Q M M 7.F.7.m.XXP.#.i H f f T L H >.>.$.a , f T K.A.T 9 Y 2XXX$.f G $.H f G L y 8 D D q v ] f. ._ ",
"= a :.H 9 f 8.F.n.n.B.M.y.~ t.s.Q Q } M.Y.M.} W E  .i.i.i.` ! u.] ^ w { (.m.L , = = d $.g 0 t F Z.@X[ * 0 a >.Z.S.:.K F.qX+XW.] M | ..N w ^ ,.^ K 5 q | z.s.~ b R c.R.y.R W u.E.B.b.N.} q | cXLX+XB 7 [ F.n.[ K A.OX}.>.y + . # h 6.H H K.|.;.7 * P n.K ] Y.a.i.] B { <.1XF.ZX@X[ ,.,.,.,.K v ^ E | W.W.} ^ f.T.} q v n.W.[ ] ).W.j.^ N M ] { B , G Y 8.<.n.J 5 c R.*XB.b.{ [ m.B -.m.(.).5.M w w | N.W.W.| N N N.N.,.c 5 v j.<.^ A K K 5 * w K b.m.b.K K b.W.F.-.e 7 K 1.L 8 , -.-.D , 9 D D D 7 = , f < * ; 7 E ` i.t.~ ' l.V.] c c ] `.`.] ^ E b.[.R.A 5 V B.i.d.p.} c M f.N.f.C w c } } c W 8XM.Z w q w ^ N.{ / N 7 ; 7 Y Z.Y F.).gXZXaX(.w C ^ | j.N.] w q q p 7 N ] | ^ q q q q c q ] V.w G w Y -.[ { K A n.F.] q q v ,.OXW.zXD./ f.K q w ^ C N M A ..(.].`.E.y.R c b p.*XN.j.f.v & & n f.W.`.].V.^ K K w w K N K N.b.Q A M ).cXwX@XXX:.= 0 G 0 , H Y H Y L D 0 7 e 9 a 0 e , 9 L F , ; 0 Y T D D P 8 - 7 / q - c N.M. .",
"1 # , Y q.w.$.9 Y b.).[.B.Q ` Y. .] _ | B.T.B.p.p.`.*X*XR.} Z } ,.[ w K F.n.[ e , , D $.H H O.f -.7.L 7 -.H P.iX4XXXZ.).qX0X].f.q C ^ C c q v ^ f.C R y.U.c.s.~ ~ c.-XU.y.( y.y.M.M.N.| C b.tXcX<.p , 7.aXL.D L 4XAXAX{.2   @ k S.uXP.S.pXsX|.H 7 7 -.G.W.] c p.b.A M w { { vX>X'.j.C ^ N.j.C V b y.=X*Xi.V Q u.u.C ) h.h.^ E ^ ].`.N.K w N { [ e 8.OX1Xm.1.e ; Q ^.R.B.V.] N n.N K K Y <.U p w 7 K n.W.F.| ] N.).n.,.N 5 w <.F.L w w 7 5 w C C N.W.F./ v J <.n.G.H = = f ;.H = H >.$.0 ; ; 0 L G , , H F 0 D | } U./.x.` i...X.U w v K W.].f.b.c } Y.R.} c c ] z.E.`.M.c w | N.(.^ c c } h.Q Q 8X[.N.| Q A ,.(.<.,.N * ; L 8.1.7 n.qXKXLXcX(.[ N J ] N.).f.C v ; M N [ f...] q C c 5 w w , [ qX1.F.1.T L.XX[ U n.L.m.P v 7 v Z.lXJX!.u.N.| ) | V c } M.u.} | u.R.R.U.y.R Q E.kXlXE.| E 6 - c | Y.].jXtXn.] { <.{ { C K B.B.} }  .+XaX(.<.9.Y 9 $.>.f 7 H <.-.:.N e L A.A.Y , ; 7 e e ; @ X * 8 K { B 9 e w 7 J [ K w } eX8XR.",
", + , w.iX5XS.L T L.fXcX`.Q p.jX0XV.A A B.yXeX`.| T.*X*X`.} Z ] ..-.w w N e L -.a H $.f 7 F ;.;.7 9 D Y P.$.oXsXoXXXG.1XfXaX:X..c Q } } Q q q ^ h.T.R.z.-X-X-X=XU.y.h.`.R.B.M.p.p.R.(.M.b.b.b.b.U s 9 F.bXA.7 0 ;.}.}.*.t 3 j S.iXbX_..XVXNX}.H f , P 1.| M q } l.B w ; 7 N ).N.Q.,.C ^ W.N.^ c y.z.=X!.! x E h.u.} N.*X!.u.n 5 T.f.f.| K { V.F.K XXvXvXF.n.K K Y.=XE.p.N.A w [ <.<.G 7 e D G G 7 N ..F.F.,.,.W.n.] K N 5 5 J <.G w [ n...^ c n j.N.D.| w 7 a T L 0 # . < >.>.= f ;.;.e = @ , Y Y 7 9 H $.+.Z.OXM.R./.x.U.[.J.{ :.B 7 7 <.).m.F.] b.'.*XR.} V V } Y.T.p.C c ^ N.N.C c c } E.a.u.R.`.'.V...^ ] ..n.1.J ; 9 8.S.-.; ^ W.'.+XN.,.<.D.[ w N | [ K K [ { A [ W.].W.Q q ..^ C N M m.vXP.pX:.G 2XDX2X@X8..X@XS.-.e r J >XlXW.N.*XW.!.=Xu.} `.jX`.} ( Q =XR.U.y.! } U.=XkXh.h.!.u.6 x h.M.Y.eXrXb.C [ F.G.] 7 w p.B.u.Q C ..b.K 7 9 a f Z.A.H 9 Y 7.<.:.5 5 1.zXzX.Xe e D 1.;., X @ ; 8 G [ ] M q w J ,.N.W.| ^ [.xXeX",
"1 > f S.4X5X2X}.9.XXVXDX1XK A ].+Xn.A M F.mXaXB.C ] | p.f.} C A K 7.[ H e ; D >.L 1.-.7 * L .X}.9 = a Y A.G 4XsXpX.X1.1XZXnX:X .E u.h.h.M.Q c Q u.*X=Xd.R.-X=XHX`.} Q h.!.*X=Xp.^ '.*XW.`.V.] ] <.9 9 8..X8.H a f g f k 2 3 j  XAXfX9.7.XXS.8.$.>.D Y D 7 M A A _ M M w - ^ f.f.N.| q 7 ^ N.W.R.( a.=X>Xa.R E } } R p.'.T.| C q C c V | [ ..Z.L.-.F.F.).m.(.,.^ Y.^.a.Q Q c 5 7 <.1.G = , L >.q.<.<.b.(.).[ w w K L ,./ 7 ; w e f f ).+XD.( x n u.N.Q.g.J e a G 1 2 2 = > #.$.= 0 G g 0 = # , H Y D g g g >.P.+XN.i.` M.eXjX(.K 7.-.K ; 9 L [ 1.n.F.`.`.Y.p.! V V ..] M A C C N.M.) E c R U.h.u.p.W.*X'.V...K B ,.-.D , e 1.1.P q C ^ ^ | K v / '.<.7 ; 7 7 q / ).m.K <.rXbX:XC q N.).f.N K (.L.iXNXY h XXhXgX5XH S.uX4XP.Z.2.v ( j.| W.>X`.`.'.T.u.*XmXR.E Q } E.E.M.y.Q Q } a.M.f.'.jXW.C E h.W.W.*X`.] v ,.(.+X] w N p.R.T.p.7 M [ { e ; , a Z.q.G e :.m.{ K C ^ '.ZXaX'.w N -.G.>., @ X . * w N | | v q ^ N.OX!.^ c } ^.=X",
"&.h f &.K.5X4XS.q.}.uXVXwXB = N 7 B U K b.+X].<.] ] C C ] ] c w N 8.S.A.:.9 e P Y 8.;.; - H.SXdX-., e a H 0 iXNXCXA.9 U m.<.[ A ( M.M.M.T.u.c c Q =XU.x s.c.E.=X=Xp.C V p.tXeXC M '.].N.'.W.| b.T = 1 Y H Y P.P.H i 2 g d > j 5XZXgX8.Y G , H XXiX$.-.[ w w C [ X.Z ] _ 7 V.N.W.n.N.^ c Q ..^ V i.a.R.R.} b } N.} q c p.} C Q ^ E q c A w 7 K n.7.1.G K K n.J 5 ! a.} c x c 5 - w K a * , $.S.}.A...K m.+Xn.N w v ,.Q.g.N q w ; L G Z.n.j.h.n 6 x ) ,./ v 7 , > #.=.=.2 . # 1 . , < , = , = , a -.:.>.d 0 >.}.F.N.Z c Y.GXnXn., :.S.S.7 X = , L <.,.[ A Z E Q V q K 7 ; K K C h.'.M.h.V b u.u.! Q f.`.'.V...B w B a 7 ; 8 G G e | | ) ) f.p.v ^ ^ K J N 7 * - J A.L.n.).aXzX(.q N w ] (.[ G 1XgXDXgXH h &.&.K.#.+ H |.4XoX4X.XN N N M b.W.f.f.f.f.M f.'.] 7 V }  .Y.`.B.] C Q } M.T.:X:X`.W.p.w u.p.T.N.^ A f.W.F.K N ] | M.R.M.M ^ F.).:.7 , G 8.1.J G F.G.[ N C | ].cX:X0X[ 7.qXqXZ.e < = @ ; 7 7 | V.A q ^ V.'.| c c Z W ` ",
">.H < , G 8.9.T Y 8.3XgXuX8.a , G [ F...{ A F.qX].n.^ w q A C - , G XXiX>.= * , 7 e e ; & .XuX.XK , 9 G G Y S.}.}.4Xa = 7 w ..] Q u.| | f.Q q V ( R.U.~ ~ t.d.c.T...A w c ^ A 7 ..} ^ ..M.N.f.| 9 :.:., = &.2XhX0.> # #.j 0 e.3X.XvXZX3Xa 1 P.CXiX>., 7 e N A ] _ B.`.p.V V | j.N.'.N.C c | f.Q u.z.} Q E M c C C M w w w K ,.b.E Q c c K 7 * L -.L N w w / K 5 x x b ( f.| c 5 ; ; ; = ; $.S.S.[ V.n.N 7 7 ; ; 7 K 1.1.-.L v 7 = # , K [ J n n 6 x ,./ e 9 , d e.$XH 2   = a = = f H G G 0 7 G :.7.0 = + F D w q 6 V M.tX+XN = , D D +.y ; 0 = 0 ; * N p.p.} 5 7 ; ; ; ; q A | rX>XE.~ b b b q c ^ f.W.+XN.B 7 * ; 7 X * . e Z.N.^ C j.W.f.v 7 J / ,.J 7 8 e , <.Y a B n.D.[ v w ; <.+Xn.n.XXfXDX.XY h > = d 3 2 1 #.}.|.uX.Xf 7 7 w N B N K ..] w A 7.B 7 M ] { b.'.(.(.C.M S M w w w ).V.[ A ] N.*Xb.^ N w [ m.^ v C q V N...M K m.F.K 7 8 e 1.7 -.).vX+X).N.} Y.b.~.b.Z V.tXLX1X[ :.f . + , N M p.:X'.p.^ } C b b V V c V ",
"j >.8.$.G L -.Y 9 a [ F.XXK.<.Y <.wXvX_.K [ F.qX@X(.m.[ J K ^ v = 0 >.q.G 7 0 D e 7 7 8 v uX@XZ.K 9 L A.>.h g h 8.:.= U m.K 7.F.B.M.Q V T.*XW.M.p.!.U.s.s.~ R W | F.V.[ ^ A 7 ; w w ..tXcXT.^ ^ n.2XP.i 1 K.BXNXK.d + *.#X$.f >.A.2XiX3XT h P.iXA.a , w K <.b.] b.~.].T.f.p.j.N.>XrX'.f.N.0X0X(. .} A ] | A M A J.b.] B A { n.F.`.R.] C ^ w ; J -.:.L q w K C 7 c q x } M.f.| ^ w N P D 0 $.>.$.P._.n.p 7 9 w w B 7 N 1.-.e K .X9 = = e L / / ,.v 6 g.OXZ.Y 0 1 }.{.>.H + $.oX9 , Y q.Z.1.K w 9 w G D G H H e N C q q c ] K , 7 * ; ; 8 , . # = f e e / ..f.R.p.N ; * 7 w c V } Y.=X=Xa.E R E R 5 C W.bXKX+X<.-.7 D L , 7 7 H.VXW.E q C ^ c q w [ { n.n.D ; 0 D G w 9 G -.{ { n.K 7 { @X7.G A.2XY Y :.K.8.6.|.}.I 2 i >.S.}.q.e w <.-.p p G p , , p m.1X{ p B 5.U 7.1XbXnX<XB 9 J.C.[ w F.0X].[ w ] '.+XN.B ; N g.Q.g.^ v c f.`.C w N Y -.:.P , 7 , Y m.+X+XF.| N.M.M c V S C._.0X_.7.:.T f $.:.V. .f.`.T.} V c c Q p.M.} V V ",
"= #.q.$.0 e -.A.N w 9 K n.F.m.9.:.gXVXP., a L 7.n.(.).<.N [ 1.[ + * , e e e f G f , , e [ dX2X.XF.G H .XiXP.H = = 9 G 1X@XM ] +XlXjXN.] :XKXbX0X^ ] } Y.*XY.t.~ ^ tXvX+XG.7.N w C b.eXnXmXeXN.| qXDX5Xf a 2XFXpXH.#.= q.BX$.= >.8.XX5X2X&.h w.|.9.H Y 7.m.qXaXb.`.`.].0X0X'.F.n.zXaX).F.0XnXcX0XV.] A C.0X[.V.(.wX0X_.7.B N [ C.tXeXB...n./ 7 5 D 1.L 7 v ] ..f.^ C C f.W.W.W.(.^ <.<.J 9 Y q.>.iXiXXXn.F.F.1.Y N G L -.n.}.uXsXG , ; a -.n.D..XD.v OXCXS.Y d , >.%.>.g = H oXa a L 7.A.F.(.n.N N 7.A.S.XXH ; w ^ u.f.E C K 9 f L 0 ; ; f d 2 %.0.L 7 N ] N.].N.[ ; * N ,.] A Q } Y.=XR.a.u.a.a.V M | 0XaXG.n.qXD -.Z.;.q.>.#XgXD.^ w q 5 ; N D.,.D G >.Z.G..XS.-.a 9 G G w [ +X+X<.K L.U + G 9.B n.wXZXXXA.5X5Xe.d > f 8.8.L 9 T XXP.T :.m.:.U 9 G A._.7.U 9.L.8.m.2XbXDX1XB 9 bXwXL.B { L.).A 5 V ).:XW.[ 7 7 n.zXqXN.] q ] tX).K ; a G.iXS., , -.-.[ <.].(.n.].b.w S b...X.o.{ L.8.U G 6.4XiX| Z E u.M.B.M.} M.M.R.*X*XT.u.",
"j %.q.;.f 7 w K V.[ M M ] b.n.7.:..XXX8., 7 7 e a n.F.B ; J <.L = = = e L D e f ;.-.-.f a A.OXuX3XY 0 :.5XpXw.0 > 9.2XCX).p 7.tXnXnX(.K <.+XqXaXV.^ ^ *XGX8Xt.V ] qXDXaXL.).).m.V.rXcXeX*X:X`.p.iXCX2XH H 2XBX3XS.>.< >.#Xf ; ;.$.}.4X|.h > T 8.K.A.1X1X).nXLX'.T.B.`.lXZXaX'.D.>XqXF.-.+XZXbXqXV.A w ..0X].n.n.C.+XaX_.U 9 Y (.yX8XM.| N.g.v 5 q g./ 7 C b.(.rXf.] ^ | N.W.W.N.| n.m.[ a -.S.q.2XqXXXXXfXCXqX).a L L L }.LXAXS.f < , 0 D D L 1.G.F uXAX:.d g , D >.q.H L 0 1.OX[ N N C ,.:X:X| [ P.3X.XpX$.; 9 ^ :XlXf.K 1.-.L @XZ.Y H oX5X3.{.$X>., 0 [ N.].b.n.w 7 [ (.B.} R ! a.Y.^.R.E.E.Y.N.A w ^ m.g.G.vX[ L 1.Z.oX8.;.:.<.,.] w - 7 Z.vXZ.P 7 8 >.sXpXq.}.9.:.Y a 7 { +XaXZ.7 G 9 . G { [ ).bXZXF.:.2XhX}.&.1 0 $.-.G N G 8.>.-.A.>.Y .XK.9.T T { F.3X3X9.:.F._.2XL.B B DXaX1Xm.] U ..U w A N.V.m.Z.L e F.uXqX+X<.7 C ).bX7.7 a XXFX4Xa Y 3X8.K p n.'.qXcX0XK 9 { ].L.B B 1X2X9.s { 2XuX^ A Q }  .B.N.} Y.b.M.R.*X].T.",
"F g %.Z.:.w 7 C '.B.} A Q  .V.F.9.>.A.>.G @ = 9 e L Y e * ; N J e 7 ; H 1.G 8 D 8.S.S.0 = a -.S.P.9.G G w.3X}.>.6.3XZXZX).<.].bXZXbXF.K K [ L.CXwX..] 0XKXxXz.Z m..XVXqX8.qXLXcX,.f.V.'.[.B.p.| ).@XP.>.-.K.oX}.oX$., f D ; ; * < #.6.6.i = h T S.8.L.F.N.mXKX`.p.} b.rXmXqXF.n.OXaXZ.e <.aXvXaX].<.N | ].)...K w <.qXqXm.Y 7.0X[.M.E M | n.,.J v g.+.7 N ] b.[.W.n.^ C | W.R.p.V ..W.F.<.<.>.f A.A.Y T A.3X4X4X-.9 = D S.}.q.L g d f y , + = f %.y {.}.0 y D * , f -.G -.e -.aX[ N c c C Y.`.] M 9.F.9.5X1.0 w ^ '.eX^ q J H >.1.<.-.H {.#Xk t =.d # , 0 K n.[ F.L v [ W.W.i.! ` y.z.U.M.l.z.N.V.^ q N m.G.G.XXJ 7 D q.oXH < 0 K n.7.N 9 { @XvXOX8.G e >.pXpXq.XX3XiX.XD w 7.@XuXG.; = = # H w ..`.rX0X[ a q.w.>.#.0 , D { [ L 7 L $.A.XXH 7 8..X9.s 9 Y P..XK., , B :.L.m.B K qXqXcX0XU A n.'.| w ] n.L.@XA.$..XZ.L.aXn.7 M K XXY , e A.pXXXa I 3XA.<.w M ..].m.uXA.* a fXXX, G iXZX2XY f 8.F.A ^ ..} Q | u.A ^ | f.b.N.N.N.",
"* X ; H P q M M.B.B.p.Q V E p.V.G.8.P.q.>.= 0 L e = 9 L w * 7 L D 0 ; e -.f ; f a ;.q.7 , 9 7 9 Y T 9 , I w.0.&.i :.iXDXXX[ b.+XfXiXXXK.A.[ :.1XgX7.[ [.cXjXR._ m.A.XXm.N A.vXqXw K | | p.T.M.^ ] [ L G G G H H 0.$.L P ; - D * + $ > d i i I h T s s B ] *XjXB.] C A b.G.n.[ K .XsXA.; e <.Z.L.n.] q q | b.K w N [ F.).F.<.{ <.} W V C ..n.<.P 7 J m 7 w v M ^ Q.g.N q C N.Y.p.q M | <.[ U D , T Y G 9 D Y 8.G.q.e = 9 f 7 0 H D D H H , + > j 0.g g = = H H ; 8 @ e N e J [ K K ..M.u.Q } a.u.A { { :.|.>., * ^ f.W.^ 7 ; 0 H.-.<.K = , t # $ $ + . , f G { e -.B v ^ N.R.R.Y.~ ~ t.x.i._ `  .f.^ q 7 K <.Y K * @ f q.#Xy = 0 a { { B Y .XsXqXsX1.a L S.pXoX;.8.2XDX2Xa , -.n.n.Z.9 = = 9 H ,  .B.R.W.A 9 G 1 < 1 , = , A ..[ ; P Z.@XuX-.; 9 a H D a Y :.Y T = * , p <.b.B A ..].rX(.c C N.0XF.7 M L.iXfXP.1..X8.G.fXm.p K N -.a , , h >.#.1 9 w.A.XX{ 7 M ..$.H.A.f G 8.G = T P.}.1.e 7 ;.G.v A | ^ C ]  .] c C A ^ ] [ | ",
": * 8 m v q c Q i.U.U.` c c } b.@XoXXXS.S.P.XX}.f , H S.>.0 e L -.-.e 8 -.L 7 9 * a Z.-.A.Y 9 , G G 0 a I H 0 i + > A.fXL.B N [ m..X3X4XoX$.f 9.VXL.7.m.V.V.p.w N 6.8.G , w K [ ] F.N.c V T.R.Q w 7 7 7 7 , = = 0 Y Z.Z.w q g.-.< $ + # 1 d *.I p 9 N B A ..B.p.b.K w v C N q 5 >.@X8.9 e 9 , G F.W.} c f.:X'.j.| ^ ^ [ | J N C Q V Z } ..g.<./ 5 7 v L ] ^ C M J 7 * ; c C Q Q } M w w w w p 9 a :.Z.:.G 9 0 G $.;.G , * , D P 8 r f H d # % i *.=.2 + g }.Z.-.2.5 e 2.:.N.J q j.'.>XE.y.W ` M.V.5.U 8.S.>., * K V.0Xj.N a $.4XuX+XP = # 3 @.=.4 u j e.}.Z.:.7 w 7 N b.R.B.Y.=Xt.R V i.Y.B. .X.A C 7 ; ; 7 w L , , f H >.0 y H a T { U Y A.XX.XoXH = ; +.S.3.8 Y 8.oXA.7 7 Y K 7 L G , 9 $.8.7.Z W Q | K Y 7.H 1 = , , ; M ..,.7 D -.A.G.P ; * X N -.L G w w [ K w 7 7 / N./ J c j.j.j.c n E T.:XB K m.3XVX@XY A.oXuXiXm.K <.7.<.a 1 = = 2 h h H w.K.2Xm.7 { <.#Xq.3.F 8 = = >.$.$.8 * * y {.#X] ^ ^ C M A ] C A N w 7 w w w ",
"X ; F 1.D.n.) c u.E.R.i.R R i.T.L.XX<.Y 9.DXCX}.$.q.2XiX}.:.H e .X,Xn.P D.G.P 0 , Y uXiXZXA.a B A.3X5X5XK.i 1 *.G 0 &.F.8.8.[ a :..XuXiXoX>.&.XXP.:.[ { ] l.B._ N @XXX:.Y 9 = K +X+XF.K M A Q c c q 7 7 9 9 , ; e $.1.A.-.-.D.1.%.k > $ $ 1 6.w.9 U n.b.M q Z b.0Xn.N 7 7 w , = , >.;.>.8.e @ w ).0XN.N ,.0X>Xn.w 7 5 q v N [ N.R.} E C N K n.G.D e -.).'.T...A 7 @ = B ] C V ` 8X} c w 7 7 9 9 a S.@XS.H = = 0 e L H , ; e H G H G $.q.>.d $ % # j I H uXAX@X@X1.J w F.zX+X7 p.eXlX*XM.! b V p.V.G 9 0.q.1.a K K rXJXb.N 8.4XFXvX).q , , 0 3.%.4 3.$XNXoX-.J ; w w | 0X:Xu.` Y.z.c q i.kXxX~.X.7 e N w 7 7 [ @XG.-.7 O = 7 ;.A.G { 8.{ a 9 H 8.0 < = . 7 S.oXZ.L 9 a a , G 8.[ J Z.L.G w K [ n.i.( V Q K :..X8.H , a K w N N.V.Z.P m -.2.y 7 8 * Y 1.Y D 7 K OX..A c w N.:Xj.C c n c j.| b x N.lXF.7.K <.ZXiXa T VXZX_.<.A 7._.F.G = + + 9 7.K.XX.XL.).7.9 _.).;.{.$X+.< 0 0 >.1.$.= @ e 3.}.Z.] M q q v ] f.] N.W.N.K q q C ",
"v e / / g.D.N ; ] N.B.} R ! U.=X~.z.b.A ..vXgXA.S.:.iXVX|.K.P.A.VXVXOXL D 1.Z.[ -.G.aXgX).B w <.iXNXBXNX|.1 *.K.3XK.&.:.oX5XH.f K.K.}.|.S.>.>.A.L.n.V.b.M  .[.Y.<.+XqXF.-.L D 9 G.2X-., N B w ^ C | C | D.1.P ; 7 0 L 1.1.e * Y 0.e.#.@ = &.8.H U +X+X(.`.Q q } <.[ f = e $.d 2 # # g g $.3.e 9 ;.1.Y 0 e $.;.G e Y 0 w B n.n.].V.Q w A K m.<.L.9.[ { aXfX0Xf.<.G i Y m.] _ } _ ^.8X .] f.[ K 9 d g $.>.$.0 = # 0 H L H $.H Y S.P.f f q.q.I 2 @ 0 f }.G.qXKX:X'.n.K 7 v W.*XM.Q Y.*XjXT.p.q C [ q.%.+ # , G qX).A b.'.<.w F.DXZX).f.N M G G :.XXH >.}.AXdX1.n.K w a n.qX].} Q Y.R.q c p.M.~.[...e f L [ C c C ,.).A.a = 9 J [ F.0 a :.L.m.G s d 3 > > + , Z.>XvXL.a , 8.A.8..X1.e -.n.] q C N.W.u.( / ..W.G.1XZ.-.a Y 7.K q A ).g.L e * ; H $., + < f 3.-.; K +X[.z.} c M.Y.R.} n x h.>XN.u.N.Q.).G.F.D.aXgXg.K w ] <.] p M X.C.N.C w A ; B b.V.].~.tXb.w ; [.ZX1.>.H.%XD.L G -.L Z.:., a P.XX[ ; C ,.C A C c `.T.eX:X| x c Q ",
"n J / J ,.G.K 7 w n.'.z.W ! i.s.U.s.U.i.l.tXwXA.A.8.K.2XFXCXI.3XZXaXD.J v P -.[ e -.).qXL.K ] (.iXNXBXpX|.G |.gXNXS.h f #.>.$.y I 0.P.S.q.8.:.T <.<.b.] Z l.8X[.M N C K -.-.L a >.S.L , 7 9 9 K ..W.u.| N.Q.g.8 7 0 L L P N ; 9 >.0.&.i f >.Y , [ (.].].*Xp.V Q [ L f = 0 #.j z # 3 t < < L -.>.L f 0 0 , # # = d 0 @ 7 K n.<.V.(.N w B B 7.F.wXm.T { bXbX(.A [ Y h Y 7.A Z } ` =XxX[.T.V.K N D f , , g H 0 ; , = #.A.P.P.8.A.pXgXH , Y >.g , + * 0 OX).+XcXV.n.<.<.N w b.eX`.Q y.`.jXW.,.5 7 f O.=.= > , H aXqXM A ....] ].ZXaXC K A N N N <.qXY 9.A.@XOXOXuXZ., :._.).N.V.'.eXE.c q } M.R.Y.] , 8 G <.N.h.| } <.F.Y 7 a { m.+X8.g a 7.I.9.l i r.=.j d >.aXnXJXqXT = 0 >.4XVXG.G { +Xf.c ( M.kXW.) v C ,.:.1X@XH , p 7.V.f.K C n.G D e ; f $.< + ; 0 +.F ; G OXjXY.` c } y.E.E.E.Q | M.f.'.jX'.<.g.G.D..XOXm.n.<.N p A A p o.V.W.M.T.T.C _ ~.[.B.z.~._ w M *XzX@X2.J g..XD.:.-.P.L.n.Y G T 8.L.<.F.(.] ^ A c f.M.!.=XT.} R R ",
"6 w ,.Q.>XqX{ 7 p V.0XB.Q ` i.i.i.` i.W A n.F.m.S.8.6.K.hX6Xw.3XzXrXD.D q v J D * 9 [ n.b.A Q V.iXpXgXpXiXw.|.|.|.H = = > > = # 1 &.8.$.$.Z.8.N 7 K | ^ A } .. .^ q ; 7 J G e 0 g H H 0 ; = 7 B ^ j.C C ,.F.Q.8.G 8 D G D a ; # *.&.j 1 0 H f , N A | N.Y.u.E C B L H = # 2 < d < =.#.2 = , L L 0 7 0 0 , . . = . = * 9 w B A m.^ ; w 7 , H P.2Xm.G U qXqX<.w K G a 7.).b. .i.` R.8X^.`.V.w 7 G ;.0 @ * 8 e e 0 O G .XpXfX|.A.XXiXf # 0 $.H f 0 < D XX@XqXvXF.n.<.-.M 7 ] `.M.Z b f.*XW.j.w q e < k # = > G XXF.] A ] <.<.(.0X(.q C ^ [ { G a G H G G 1.8.G.OX[ = T L.F.F.:XlXlX*XM.} b.].tX0Xm.= 0 :.).*X`.u.M K :.Y a N B ..1XS.g 9 :.1X1X8.l r.K.5X|.P.).W.W.D.7 = , >.VXVXP.L w f.C c f.u.'.h.v 5 q K w 7.Z.Y 9 a A.qX+X<.7 >.H -.L = , H t g 0 * e P q J g.[.p.` Z _ E h.`.*X^ V | *XKXmXK 7 D G.G.1.n.F.+X(.+X+Xb.A o.(.jX| M.rX*X.._ ~.[.~.B.l.V | `.tX>XdXL ; G D.G.>.-.@XG.1.K 9 , a <.m.<.<.<.).N.v ^ M.N.'.>XR.Q V ",
"5 q g.dXZXqXY w ] C.(.p.Q _ z.Y.U.z.z.V M V.+X2X.Xa h &.I I T :.).dXOXD ; D G , = = 7 K b.] M N :.|.CXpX|.I >.6.i 0 @ # d 2 . + = N H G :..XS.e - w K ^ A w c A W.| v 7 5 ; = ; 7 e -.-.7 * 7 w A C q q w q 2.OXS.7 e :.:.L w 9 I j 0 > = 9 G [ +Xb.....^ E E c w G Y , @ # @ 2 H #Xq.g = = L a * 0 H d = # = > y 0.S.S.L [ <.G.v 7 b.B w { 1XI.I.7.-.F.L.n.{ -.9 a A.qX(.p.} W a.p.} M.b.w 7 L Z.L ; . * a f ; G P.iXfXiXZ.N G >., + , g $.=.#.0 0 -.:.n.(.{ K [ G , ; M C c c c } N.F.G.,.N e > 2 + + = f 9.N K w w N w w B N * w / 1.A.:.G G H , 9 q.P.G.8.G , , a [ n.F.+XrX'.W...| _.wX).8., ;.@XqX*XB.E q K F.n.G w p ] L.D 7 , B (.wXK.G I K.BXhXP...c c C * e -.G.2XS.Z.D ; q q c ^ ^ f.( q - 5 w = a 9 9 , , -.1.Y J , e L ;.f = = f +.;.F * 8 J q e C C ] f.p.Q c Q f.( V | W.'.lX+Xw * w .X).K K <.F.G.F.<.A { 0XcXtXM Q ].'.M.M  .l.~.M.Q C `.lXrXW.D.r * 7 P J P -.@XXXZ.D 9 a H G a 7 w G.aXF.M K p.f.W.*XT.E b ",
"L L 1.n.F.L.<.{ U U ] ..p.} u.M.[.=X~.C S L.+X2XA., = 0 G T a p Q.aXuX[ 7 e D 8 D 7 ; B F.V.] B a G w.w.}.0.>.I > I 2 = *.=.2 H 7 w w K G.qXF.e 7 w B { K 9 M N.W.F.| w ; 7 7 = 0 f A.P.L 7 w 7 c C x q 5 ; 1.VX.X9 e >.S.F.n.8.>.&.#.h 1 9 :.@XZX+XW.p.C ] p.] 7 G :.H i 1 , #.e.pX}.$.a T XXF.a Y 8.>.g , , y |.CXAXpXF.1X+XF.[ B @XXX<.T 7.H 2XiX@X7.F.+X+Xn.e a 7.).b.} Q V y.} } p.p.w 7 Z.n.L 7 ; 9 a 8 * -.L.L.7.[ N N -.H f = # 0 #.H 0 , < f e 9 w 7 w D N 7 ; 7 w q c M ^ ] N.+XG.D ; 2 4 = @ # a :.G K 9 ; , , , , ; ; K F.).L.8.>.K.a + , >.Z.S.q.$.9 = = 9 N N ] F.n.Q.<.B <.8.H e 0 3.@X0X!.i.Z q v G.A.9 ; p A K L H e p V.bX1XG 6.w.pXhX2X'.` W ,.N { :.>.8.Y 1.G G N <.K w | b.K e 7 5 7 = e = = , 9 1.>.a L D = q.1.< < , y e.+.F ; q v 6 6 q q p.`.N.c 7 w A A 5 c f.F.+X(.v 9 N P.F.N 9 w K <.7 X ; A ,.,.[ A M M.`.T.M V _ } Q c C p.V.f./ J 5 * ; 5 ; 7 G >.G.Z.G e J L N , 9 B m.(...B C w A f.M.} c c ",
"-.m.F.a a F._.P.U w B L.+XV.] ] `.*X`.] K <.[ :.:.:.a 0 K.8.> N +XqXqXG.P 9 e Y Y e ; a V.).N.n.a 1 :.S.NX5X6.i 0 6.H 1 g H H q...K w w <.).F.[ 7 7 K D.<.w w [ ,.N.g.J P 1.;.7 0 H G.XX1.K K w c N.f.M 7 N OXVX:.7 7 a <.XX_.).2X3XP.:.G H .XKXZXaX+Xb.K b.(.b.N Y A.K.A.#.H K.2XAXgX.XK.uXDXgX8.$.1.oXS.g 2 #.>.pXNX2X7.sXZXaX(.K +XvXK.9 = , A.qX1XT Y F.(.K 7 , U (.T.N.i.V y.M.`.M.^ q q G.<.a w -.m.K w 9 ; Y { N w 9 B F.q.>.0 + 0 $.H 0 d H $.Y 0 , 7 a 7 Y G , 7 A K A w v v f.OXOXJ ; 0 4 t = . , >.A.8.T 9 7 N T a = 7 Y ).gXNX}.6.q.0 = 1 < < $.>.$.; w B G B N v w 8..X8.G H g , = 8 F 1.W.!.B.! c [ L J L [ w 7 ] XXG.K w V.KXtXG T w.hXCXfX0XB.U.`.<.J ; ; G 1..XXXG.[ +X).A n.<.7 v -.-.Y 9 D ; f ;.1.2X2XS.@XS.h 4XXXH h < 0 S.;.D * q ,./ n 6 q h.Q.g.q w J f.K ; w <.Z.).).<.H G 9.:.K N w N U K w 7 N | ,.K ^ c ^ M.T._ A } A ] ] | M V c C v 5 - 5 r 7 5 7 ; e -.Y 0 = 9 Y <.9.N a U b.b.w 7 C | | Q c q ",
"<.G.@X-.G 7.F.P.{ B K ).tX).[ M M.Y.].(.(.n.U n..X3X:.a 8.:., U b.m.(.(.-.9 7 G D D N K { ..<.G., a 4XhXBX|.I g 0 f 0.>.< < L $.F.N.K 7 q ] g.<.5 ; J Z.:.J N 7 N ,.g.[ :..XG.L , f :.8.:.:.{ B } *XW.K w J n.A.Y 7 = = G 8.9.P.fX2XK.:.T :.@XDXZXDXaXb.K b.F.[ U K A.@XXX:.H |.fXCXDX3XXXgXfXqXA.G H oX4X>.i h I }.oXS.K 1XDXZXF.L n.2XZ.a = 9 G :.A.w 9 w [ K 7 * w F.:X*XY.V ! Y.*Xf.C w 7 g.n.L K n.(.m.{ K N m.L.n.7.K w B Z.Z.H , 0 j #.3.H H j H H e 0 0 , Y -.e e Y -.<.B B 7 K <.D.C w , 2 H i # = D 9.A.8.a = a Y G ; ; e 1.gXDXoX#.I #.f %.d # d $.>.w L :.<.7.7.G = f >.>.g 0 = @ # # ; N j.`.Y.} c ].K a @XvXK 7 f..X1.w 7 p.cX1XB p :.iXgX0X~.x.z.W.n.v ; ; 9 S.NXAX}.:.uXfXm.7.G ; L @XdXP.0 f 7 >.oXA.P.S.}.pXq.#.K.|.S.$., < ;.{.1.e / Q.D.| x x ,.n.F.K [ f.OXK L ).OX[ Y XXiXG s H { m.n.N a { <.K w f.mXzXn.^ A M ^ ] | Q } p.B.T.W.A f.b.,.J v 7 e P +.v ; - 7 L 1.D ; r Z.P.A.a w G n.L.K 7.<...| ^ M c ",
"OX).qX.X[ p w 7.m.T K n.XXL.[ w w M b.].wXL.n.gXPX.XG = a :.G p * w <.<.K 9 = * 7 $.8.1.K w N n.:.0 >.S.CX5XH # * + oXAXd = $.9 ..T.N.c 5 v J v e ; e P G :.Z.L ; K ,.K / S..XA.@ , a f L :.<.K q Q C C K Y 8.S.q.e = = G G a L.F.m.9.:.:.7.F._.7.L.<.7 7 b.G.<.N 9 Y P..X:.G _.gXiXwX7.T L.L.L.2Xn.8.iXDXpX>.f oX X>.G 7 Z.).<.9 7 9 G 9 G , e 9 f :.a 9 ; Y F.{ ; 5 ] W.*XY.V Q B.*X .^ K 7 ^ n.V.<.K <.).F.K K n.b.b.(.n.N 7 [ q.;.f 7 = f  X3.f = d >.>.H 9 , G Y H G N Y n.m.n.w N w K w N 9 < L Y 0 , , 0 A.P.Y = 9 :.8.-.D L 8.@X|.f # 2 #.2 >.%., = 0 >.8.[ N L A.P.:.7 = g $.j , = > < o X e n.W.p.Z w V.{ P P.sXm.q 7 Z.[ v M T.cXtXV.T T 8.m.V.V.i.i.Y.W.,.F.:.7 Z.DXAXS.A.iXiXm.U U H Z.AXFX.X, f Y }.NXH.H 0 $.$X$.1 > &.}.H = 0 $.S.oX.XQ.D.( | j.v / g.>XD.Z.1.).VXP.A.8.$.S.iXXXG s G 7.3X_.e 7 { <.<.L L ,.D.W...N.A M w Q M M N.B.V.'.f.mXnX+X/ P J J 2.g.L 5 ; 7 G -.G 8 D 8.8.8.-.8.T w n.L.fX(...] ^ M c ",
"n.qX).).{ s , 7.m.U U U D Z.G.w * ] (.qXfXA.G 1.}.:.-.G ; w { K w p N G J G $.1.S.1.:.:.K 7 7 9 9 9 f q.NXAXH.* X %.q.pXL = 0 = M M.j.w ; q e v m q q 5 -.L F e w ; ] <.J -.H.S.e @ @ , , a K N C p.A 7 w N Y .X8.$.f a D 9 a :.s p B { :.K N B A.K w 7 7 ] <.J B -.-.[ :.:.{ { m.{ B B U { 7.m.iX7.K P.gXS.h &.0.#.f e a G G N G $.9 a Y S.Y Y D , , a H >.q.1.w w ; ^ V.f.f.Z q } ^ M C q ; N [ n.<...F.F.b.C.<.p w ] b.(.n.w N 7 D -.e ; g {.#.0 = H w.H.:., = Y :.H H D e G { K K w 7 ] b.W.[ G a K [ T a , Y .X}.-.9 9 T Y L D D G 8.# + I h e.5X{.d . , H.8.w , D :.8.$.0 = j #X0.t < 3 =.X ; K / c V Z 5 q 7 L Z.[ 7 c ] OXJ N ^ `.8Xb.C.7.B H B [ X.c _ eXnX0X| v 7 L iXS.e Y S.XXwX9., 1.gXFXgXH 9 9 Y oXLX4X< # g H 0 > 9 I &.h > , f q.Z.1.J v | Q.W.v / / g.v N e [ P.S.$., , >.S.S.a s { XXgXXXG , N 7 [ Z.K J / C w V.M 5 C w ; ; n.(.qX0XV.V.V.] g.OX/ - J A.-.v * 5 ; 8 -.e ; P q.q.uX.XG 7 a -.+X).<.7 ^ ].W.",
"-.1X).9.G B , B m.{ :.-.$.Z.q.7 7 A ] 7.A.N = 7 D f L K 7 9 K U 7.U M p T 8.P..XsXG.L D e 7 7 w H :.:.Y ;.q.O.* * g ;.H.8 = , , 7 p.b.C 5 5 e J 2.+.H 8 0 0 7 * 7 ; g.OXZ.:.-.;.7 = 0 1.8.L G K ] C N A B a N D a 8.oX3XZ.a a :.B w N 7.F.[ 9 7 K p w 9 9 K Y 9 7.7.L w a K { b.w w w 9 9 p 5._.qX7.9 7 H >.0.}.oX6.h h H H G G L 8.Y f f L Y Z., @ = G S.XXS.:./ 5 5 N ....^ | f.N.^ M ] K ; ; K ..<...[ K A { ..7 ; 7 B <.{ 7 ; 7 v N , , 0 0 j *.*.e.w.&.I 0 , a :.K.A.a ; 9 7 7 K A Q N.R.`.).V.[ [ L.qXF.a a 8.G.8.Y G G a a G G a 0.h 2 i  X5XSXoX=., 0 6.$.7 ; 0 -.Z.>.1 = , H t # > g {.# . 8 <.j.| Q c K 9 ; 7 D K ..n.D.F.G.N.B.p.} (.7.9 = # 9 A w ` lXrXf.N w 7 9 ;.e + a A..XXXn.-.Y A.}.uXA.>.D H oX4Xq.< # + + = 9 s { { a > , 0 e K J c q n ) u.x w 5 v 5 q - * 1.q.;.7 # < H Y a G :.K.I.:., @ , 7 K L w v ,.,.A ] C w 7 7 v w v b.aXaXb.C M w ,.OXg.7 q J D L L / e e L D 7 G A.3XZX}.9 , w -.[ [ [ ] W.tX+X",
"D S.7.Y B A w A ].1X_.<.D F F y [ [ N K -.a # ; # , N Y K M v ^ L.{ w 7 a :.P.XX2Xq.H L L N w 7 { A.:., * 0 y < ; < +.;.y f = * 7 [ N.,.v 5 q +.Z.H.Z.H = 0 0 X * - n.@XQ.8.G 7 * , 1.sXiX[ N n.'.] f.G.[ e 9 @ 0 S.NXpXP.$.:.).U M B V.1XF.B 7 w 7 w a 9 7 9 ; L L 9 = 9 ] b.(.| A p M { X.X.7.F.F.7.G H }.gX4XNXS.$.6.8.H a G S.oXoX;.D 7 D >.* * ; -..XoXA.Y N w ..^ ^ ,.^ V.+X'.] M ..<.w , [ ..n.C.A 7 p ] B w w w w N N 7 5 5 v K D f 7 @ 1 }.3X}.>.0 i H 8.G Y 3XsXK.G , 7 K ].(.Q Q y.R.0X0XB.] (.KXfX-.K 8.P..XL.-.w 9 <.G.8.G P.oXw.d e.5XAXpXq.f 0 H Z.Y 9 = 7 $.*.0 # . > 0 0 2 < O.: + f OX+Xb.p.n.Y L , = a L L { D.sXrX'.Y.E A b.K 9 = = p ] C A eXf.N ] n.1.G e G # 9 0.4X3X:.:.:..XqXsXL.Z.G a -.>.;.O.2 + , 0.:.T B G Y >.L 9 ; J / / ^ c x ( C v 5 q 7 e ; * 7 H $.y # + < H i i i h T a ; ; 7 a J w w / n.D.b.M ] A ; w K N v C ..b.[ ] A w v n.f.c 5 5 v 1..X.X>.L >.-.P -.A.pXAXZ.7 7 a n.N K F.0XZXvX'.",
"K [ Y { { A B b.fXZXwXY ; * g {.-.B 9 w H a = , = e G <.G.[ v ] _.m.U p a Y A.}.A.>.Y >.1.G 7 ; s T G = @ < F @.@.F y ;.$.>.0 = 7 [ n.n.L ; ; P 3.}..XZ.< ;.q.G q v F.OXQ.G.H = D ;.S.oXP.a w G.zX:X:X+X1.D 7 # g 0.S.q.A.G.XXsXV.7...C.].+Xn.B G w N Y a = , H $.Y 8 * 7 ..).0XmXV.M U _._.U s L.tXbX_.7.iXLXhXpXK.w.}.A.a 9 H oX4XNXS.>.7 e e ; 7 e $.q.>.H D w F.lX,.w [ G.rXvXfXG.K -.m.7.{ K M [ b.A 7 N { K <.m./ 7 7 J [ ^ q c ,.n.-.D 7 a pXCX4XS.I 6.3XiX9.[ A.XX2XF.p p { 0X[.` W t.Y.=XkX=X .V.bXbXF.L.XXiXgXvX).U <.1XfXXX:..XCX4X&.i e.BXhX>.1 9 f Z.A.>., + i *.#.d # > =.S.;.8 * + : $.G.,.N K Z.-.;.0 = H H 9 w 7.KXvX:XR.V M ] G 1.:.f Y L.n.| b.M A ).vXsXZ.a >.f I G.gXuXY a G 2XgXuXL.uXG.L ; 0 H +.0 = g }.K.m.U 9 Y XXS.a ; K <.F.'.} C T.) C 6 5 5 w q 5 & 8 +.O., + = H *.H 1 1 f G L :.Y [ B w J ] | ,.0X] V.V.K | ] K G.<.M w ^ V.b.w 7 ^ | ^ v 7 v g.F.F.[ N L -.-.-.>.P..XY a N N n.{ <.F.:XrX'.f.",
"-.-.n.F.F.| ] b.qXfXF.9 * ; ;.AX-.G a a T H a e e -.:.m.OXf.A N.0X(.<.B H <.P.|.iXq.D G Y K w 7 , 9 D f , = u ;.$X{.* t F $.1.L e J [ 1.$.; * 8 3.S.S.q.e }.pXOXG.<.Q.+X@XG.D , 4XXX;.a e , 9 :.OXrXOXZ.D.-.0 = < f y d >.}.oX1XtXyX(.{ b.0X].<.[ a Y S.;.= 0 }.4XOXL - 7 ..:XmXIX[.A X.tXfXL.m.wXbXbXm.N 8.pXiXS.0.w.K.:.1 9 >.}.oXBXoXZ.r D G 5 r y H ;.H 2 9 <.cXaX,.7 N qXCXsXaXA.a B n.L.m.] 9 N b.<.] <.m.F.+XG.J ; 7 -.'.f.V c | N.G.n.Y G pXBXhXiX|.4XDXfXF.{ U G 7.A.<.<.] N.B.M.U.s.t.x./.Y.} } T.F.{ { n.qXbXDX+X[ ).wXfX.X9.A.5XI.I i 6.hXpX$., 0 f 0 >.}.$.= 2 *.q.K.d = $.uXpXG.H + z 3.H 5 ; w L 0.+.# = *.>.7 ; G ZXnX0XY.c c ] :.pX4XH D P.qX_...A ..qXVXiXG.Y h $.P.2XgXsX7.:.T XXXXL.m.iXL.K a w D ;.g > 0 >.A.0XL.p 9 A.G.L ; N K f.W.| ^ *XN.} c ; q C / J * , F O.t + + < {.e.I d h Y q.oXG.1.K J K C K f.tXC.F.V.G.F.N N G.).b.A [ ).L.] q A f.N.] q w ,.<.<.J 7 e [ 1.Z.G H Y L n.1.N K <.] K C C C | ",
"N { G.F.[.`.V.X.N.b.N ; , t %.$Xq.9.:.:.8.A.8.Y e 8.F.D.F.] Q `.cX_.{ G :.XXiX5XNX>.= 7 -.8.Y a 7 G 8.A.D X ; 4.pX$XX ; 8 D q.>.D f D $.;.0 * < +.%.+.F < >.4XuXOX^ | OX,X:., a .XZ.f 7 a D w 7 [ n./ D G.}.F ; * ; * @ 0 $.3.G.wXtX(._ | 0XtX).K N Y P.Z., ; H.}.}.-.5 q ..'.rX[.l.w X.nXnXL.m.tXmXfXF.B H :.>.I H I #.G i T K.}.#XpXoX$.0 -.Z.8 r 7 0 >.O., , F.:XF.m.K 9 n.).P.A.T ; p L.3Xm.n.B N <.n.<...<.:.Z.[ 7 ; w K <.M.y.! E p.+X+X:.G .X4XgXCXiXgXDXfX7.B K { m._.1X{ N  .M.Y./.s.t.s.x.s.s.p.l.] N p [ +XwXvXL.M F.cXvX1X_.8.8.H 1 i h oXhXK.I f , * H S.>.> = =.}.4X>.1 H @XgXuX1.4 %.%., * 7 8 7 $.%.z O.*.H , , G XX].'.`.} c v -.NX5Xg , :.OXG.b.7.n.P.1XXX}.P.H $.}.4XVXFXqXA.T 9.8.m.U ] K { J e 1..X$.= y S.A.1XL.p w 7.G.-.a w 7 w A w c M.*XB.] q C ..n.[ ; ; 8 F u * . . j *.=.k 2 0 $.}.S.-.[ { ^ ^ F.cX0X<X(.(.qX+X[ { >XaX(.K ] V.V...7 M b.`.| w w | <.<.K q 7 K Z.G.H 0 G 8.qXOXB 5 C J C C c w ^ ",
"w w [ ] T.T.B.C M M q e y t 4 g Y Y T a G q.8.f 8 Y -./ [ C M | tX_.7.U 7.3XpXpXS.d = e Z.G.-.N G :.K.G.F @ * F 3.3.* = ; 0 f L H a 0 H $.0 = < t u g 0 0 d q.oXn.B K g.Z.G * e e f Y -.-.Y G 7 J v 7 e Z.}.-.< @ = # . @ = 0 Y b.M. .M ] J.).n.9 e G 8.q.0 = g ;.H.-.e v ] b.Y.M.} w A 0X).B U tXcXtX_.F.{ 9 1 0 < 1 i &.S.P.}.#XS.e.>.; , +.H.F H 7 , L f # , [ ] ..G.m.N w a 9.8.T 1 s XXwX8.U p 7 N Y G w N w L N , w e 8 q a.s.! b Q W.W.K G :.A.2X2XP.XX1X1X..w B _.fXwXqX7 7 ` z.x./.c.-Xc.c.c.c.z.B.B.V.7.C.+XL.).<.w ).cXcXqX2X7.{ s 1 i 1 6.5XP.>.H 7 , y ;.>.0 > H e.}.K.G f :.F.F.e : u < * ; ; * * g e.$Xe.k > 0 H { T ..b.].`.V ; e .XS.f = 0 $.G U 7.{ T m.A.A.P.>.a >.G.@XsXOX<.s { 9.L.B w N Q.7 w n.XX;.d *.XXF.b.] N A :.7.<.Y 9 ; 7 w w w A p.M.M.c M A f.<.7 ; , F %.O.: . + 3 < # # # 7 Y -.e N K C | ].lX'.1X(.).0XOXOX@XKXvXn.w N A M M A V ] N...M M A A K K v ; 7 J [ D 7 P n.OX@X[ ; q C ,.'.f.c ) ",
"K - 5 w ..] ^ w ; 7 K -.+.0 ; , , 9 7 = , >.>.0 7 e 8 7 v v 7 ; <.:.U 9 9 Y 8.0.Y 0 , H q.9.Y N Y { :.-.y ; ; 8 m @.8 * X ; * H D 0 , 0 g , @ = , 0 +.H $.0 >..Xn.n.n.L L J ; , ; a S.G.G e Y -.K ; 5 D H ;.;.y . = = = = # @ ; B M w w M B p 7 # , 9 K 8.$.0 a @XsX.XJ w C ^ | [.0Xb...b.B s _.nXbX).{ 7.T 9 > , = @ 0 S.BXpXS.}.O., ,   ; f +.2.3.f , 7 # . , 7 9 <.n.:.Y , 9 f :.Y 1 > { 7.p w w 7 p -.[ T 9.e -.L 7 e e 0 v } b x x c C C q ; ; 9 T B , s B [ 7.B w n.wX+XV.] M _ y.i.z.s.c.t.t.t.W V _ V.0XF.n.<.9 w 9 - ].].].L._.U T G I :.0 I S.Y a T H = = g 0.$.d G &.A.@X:.e w B [ ; # : = y D = X 0 >.$X5X%.@ , >.S.T N ..b.(.`.M 7 e 3.H < * @ 9 7 , A p 9 [ :.G G a + 0 Y J L [ K L.1X_._.] N v / ] [ n.F.G.2X2X:.N.} ^ ] N 7 p ..N ; = w A ^ K A Z R.kXu.E C F.'.N w e -.H.;.t . = > @   @ # = , G ; ; 7 5 C ..C p ] A ] C J ).'.Q.n.M 7 M M M p.*X} Q b.b.[ M 7 w C ,.<.w ; 7 w 7 ; N K [ F.<.7 q v ,.0Xj.q ^ ",
"Y.^ q q ] ] w , * * 8.3X1XP.L K 7 7 D f ; D e Z.@XS.Z.Z.A.[ ; 7 ; $.{.>.< < H H i , # 1 8..X8.U N [ K :.OXH * +.;.;.+.; X 0 :.>.H 7 X ; $.-.r ; D >.|.oX>.f #.oXP.n.L.<.w A K w 7 [ <.A.P.D = H 7.N 9 9 , d #.H 0 # 0 g D D e N N [ <.K [ 7 ; 7 ] U w , <.L.B B OXzX0Xg.K v N ..vXZXaX<.<.{ w [ [ 9.L.m.9.G = 0 f 1 1 >.&.}.|.}.0.k j j @ + 0 0 q.S.q.>., + D A.<.{ B m.XXn.1.8.D :.9.Y G G U U 7.K.A.qXsXA.P..XG T 6.8.3X5X6.G ^ i.Q c V V V } ^ C w 7 5 5 w ^ <.n.A ^ <.V.0X'.M.C Q } } i.i.U.z.` ` _ M _ V.V.| V.b.'.b.f.M N B B ).wXXX7.Y 3X2X9.f # a >.S.H 1 &.T G.uXOXG.K w [ n.Y a Y 9.#.t 3 H oXoXH , 0 #X4X*.2 > d S.iXuX{ w <.+X<.7 7 L / F.-.K / c ^ <.<.[ { { :.n.G e N L L J e G :.gXiXXX8.; M C 6 C ^ !.lXaX0XrXrXp.N.} c M N.:X0XF.N A ..:XtX] w ] b.jXY.c } *XjXW.| C 5 v q.F X = < d = = < = , -.-.e * 5 C K q ] M [ F.f.V E N.N.N.} ^ } } N.nXGX!.6 | :XlXb.w K F.aXtX:Xf.q C C [ v 5 K ).+X).A A _.fXn.A [ ",
"z.M.} ^ ,.G.-.; 7 a .XfXvXgXL.<.K 8.P.1.7 9 G G.AXCXuX:.Y 1.a , 0 +.}.}.H = 0 h G 1 = h K.|.I._.K M B <.g.J e m k.1.+.; ; -.S.>.2.r * 0 ;.+.f H pX5X4XoX>.1 1 f >.1.).n.| F.f.c M [ <.n.S.L < H S.<.[ G , = f 6.#., , e $.$.8 7 B B <.<.m.K [ n.M 7...M { V.o.U N.mXzXN.| K <.sXPXqX<.N G.qXK 7 9 U P.K.9.H 9 G #.&.&.I f e. Xe.e.> # =.#.# + = $.q.P.S.f , S.gX1XF.T L.gXiXuXqXZ.).XXK.9.m._.wXbXVX@XsXCXuXXXA.a h K.pXCX3XI T qXrXT.Q Z V Q M.'.f.V q c C } | f.n.[ ] ..W.rXrX*XA V E.`.Y.M.[.[.(.V._ w w ] C.V.[.+X0X).[.(.).[ K n.m.A.8.8.gXgXP.:., 9 G Z.>.8.|.K.1XvXdXOXg.C C / { [ :.7.Y 0 , H 4XNXH.0 = $.S.0.H 0 0 S.gXZXm.v <.aX@XL , ; J ).W.f.b.p.V.'.+XqXW.[ <.Z.F.OX).(.XXXXG.A.S.2X3X5XA.K K | c q q ) !.:X:X'.N.R.Y.B.u. .b.B.B.].....N.aXbXb.K V...V.b.Z Q } B.*XR.N.q & e F F = g j = y >.g , >.-.N ; q ^ K 7 (.)._.rXrXN.h.>X=XR.y.Q } M.].GXHXR.x h.:X'.U 9 7._.bXKXbXW.C N.Q.Q.| M n.aXcX1X{ b.wXfXn.] -.",
"} E.W...[ OXOX9 0 D P.uXvXDXqX7.K @XAXuX-.7 :..XiXuXP.D L S.-.e = = +.H.+.; 0 >.8.>.G 9 s m.L.9.p w m.uXF.>.>.D -.>.+.; ; -.G.1.+., X ; d 7 7 H 4X5XhX6X*.1 2 I S.F.F.K ^ (.T. .b.n.m.m.1.H 0 9 P <.G.P.Y = 1 0.A.f = = Y -.7 7 B 7 K 1.F.[ 7.m.B L.(.A A { S B N.rXQ.,.G.+XOXiX@XY w e F.sXF.J a a A.P.A.>.f 0 G 0.oX6.I >.|. Xj $ # *. X0.d = 1 f 8.G.a e 2XFXCXXXU F.ZXDXNXXXG.3XfXsXXXL._.iX2XvXiXiXCXCXgXXX:.G :.I.3XP.6.XXaXjX*Xf.Q c C N.`.N.} Q p.Y.h.Q M ] F.N.N.W.W.'.M.} E y.z.Y.E.} b.(.(.l.A M b.0XcX(.<.] b.(.qX0X7...{ <.F.F.n.iXgX3XK.a , e S.XX4XiXXXqXvXzXrXOX) C j.).F.:.T Y f 9 d 0.|.q.D 0 0 >.1.>.D , $.}.uXn.a L @XpXq.0 X G OX(.<.| ] <.f.(.ZX).N B [ (.vXOXL.uXZXVX@XG.hX5X2X:.-.N ,.f.x 6 V N.(.F...A p.p.N.N.^ M M C b.N.N.b.).].F.tX(.A K ..f.] M } T.N.N.v ; P q.{.t t t < >.oX$., e D N e K <.<.N vXtX(.'.rX*XN.=X`.`.`.B.u.B.*XrX>XE.E '.rXG.K s I.2XbXnXbX(.V ^ :X'.] 7 ] 0XtX+Xm.L.qX_.{ [ <.",
"E } N...N n..XL e e Y 8.L.3XL.Y 7 S.gXgX.X9 Z..XG.$.a 7 G :.G -.f = 8 $.H e $..XA.8.H 1 9 9.L.T N p F.uXOXOXG.D ; D L r * e 1.8.+.e = = 7 , 1 H S.XXiX6Xr.h h &.qX+Xf.7 q ]  .B.N.f.b.<.L L L e v 1.OXaX.X0 , 8.A.Y , = K [ w ..m.7 w J K 9 K ] _.wX0X{ A ] M K g.,.J J G.sX@X:., , a G Y n.G.Z.L 9 Y >.Y I 0 # a 6.hX4X X*.}.3X*.z j e.4X}.H , 7 , Y S.D D uXCXCXfXL.1XVXfX2XS.>.G.sXDXuX9.T T n.2X1X_.iXgX1X9.9 9 G 8.XXI.T H [ f.N.N.^ q c } } p.p.u.Y.=XR.} q A ).V.f.b.^ | C f.p.} E i.B.V w A ..V.(.| b.mX(.M w w | f.tXnX].F.m.+XvXXX<.L.+XXX.X:.a H XXVXiX2XA.F.qXaXdXrX^ ^ ].bX).N 9 G e 9 7 7 0 e a D 7 G D -.Y 9 0 D -.:.H a >.P.0.h = g 8.-.B N w w N <.ZX].N w w 7.Z.K J 8.uXuXG.>.XXP.A.H K w K g.C C | V.n.] C w M Q N.b.M q M M c | ,.^ ] ] <.qX{ 9 w | V.| w ^ N.j.n.J ; F ;.S.O.= + 0 S.#XH 7 7 e B N K <.N.m.KX(.N M f.`.E.} } `.GXjXp. .B.M.h.a.( '.rXF.[ K F.wXZXwX+XN.n C W.0XOX<.n.).(.n.(.m.m.7.<.F.XX",
"^ V p.j.v w L P P e 7 a D K Y N 7 f :.P.S., $.Z.A.$.H a 9 , , 1.f * X , f :..XiXuX:.T m.K.F.m.7.{ [ K K 7.G.:.7 X ; G G 7 ; J :.L L e = , 7 9 a T &.7.8.w.6.6.7.).n...C c M c  .Q c N N w { ).F./ / L 2.:.9 , T Y { U N K N p L.aXK 7 ; 7 ; K [ 1X]._.[ p p M b.[ w D -.-.@XiX$.0 Y 1.$.9 9 Y ;.f , a < . = < f &.K.SX5X3X*.0.K.e.*.*. X3X>.Y S.>.e D 1.N w A.n..XgXiXiX.X>.>.q.$.1.oXVXfXm.s 9 K <.<.<.1XvXF.9 s G F.1XgX1XG 9 w w ^ b.] q q Q p.u.E b } -X=Xh.C C ,.C M ..| B.f.N.R.`.B.M.`.R.M w M B.].] c b.C v F.rX:X^ W.ZXqXF.<.1XaXb.M K <.<.n.n.Y <.1XDXhXXX9.Y F.:X:X:Xn ) '.vXL.w ; 9 7 7 7 ; ; ; 7 w ; 7 ; N [ e w 7 0 :.$.1 0 =.#.i = 1 0 G :.7.<.K w K qXL.B N ; N N 7 ; e $.>.H 9 1 i a L H G w C C c ^ <.[ B M w w Z N.B.} b.W.| c ^ A A [ K A K K 7 9 K m.b.w w K K 1.D = e ;.#X#.= @ < q.{.D 9 9 J K w 7 e ..F.bX] 7 q c M.`.E W U.jX8X` V _ V E u.Q | N...{ B s 7._.F.f.^ c j.0XAXVXF.K U b._.qXV.<.n..XiXgX",
"u.C | W./ ; ; 7 G 0 ; 7 9 e -.-.G 9 9 G D * 9 Y a 1.oXA.G , 7 1.D , = ; f A.2X3XXX7.P.bXbXiX_.{ U P.A.N K L e 7 ; * q P e 7 w J G :.Y 7 , 9 9 w , p G B B { P.wX<.C ]  .} A c } p.V w 7 ; K (.OX,.v ; 5 B K N B 9 K b...] M w n.+XK q 7 K [ <.[ <.<.F.<.p w K +XG.D L 1.-.@XCXA.8.4X4Xq.9 * a -.+.< , @ + 0 *.|.S. X}.6.e.r.*.&.6.q.}.|.w.0.oXAXuX:.a [ J 9 K w L.2XXX3XP.Y H $.>.Y >.P.XXK.:.U 7 K <...L.+X[ w n.7.).wXfX_.7.+X<.N K n.| w c ^ M.} c 6 R E.E.! w 7 q 7 ^ '.rXlXN.V.:X[.`.jXjXtX(.A c p.T.A 5 w C ^ +XKXJX| ^ rXcXC.A n.m.A A U M w N <.K [ A.3XgX2XA.N [ ).W.W.C Q N.'.n.A w , w N v q 7 w w w 7 w 5 w K v v w , h i > g 0.=., 0 0 0 q.iXgXaX].w w n.n.[ -.N G L Y G 9 7 e 0 , = , , Y T :.N w M 7 9 B K K ] ] M M p.N.N.0X:XA ] <...<.[ [ V.m.A.K G K m.).[ 7 w w :.1.>.q.0.e.g g y ; H A.L e * 7 J B w 7 w N (.K A A q } `.h.i.i.p.i.W V V c ( j.Q q M M ..[ T N M ] W.n.C f.).sXuX,.5 ; [ qXfX_.m.F.XXXX.X",
"| C ^ n.<.w * * 8 D e a w a Z.1.L f G Y a 0 , G = $.@XP.1.H a -.G.S.Z.-.Y 8.P.F.a :.wXZXbXDXvX7.B iXCXA.H G K K L e D L G e a a [ F.Z.K v w B [ [ L.1X9.p p V.cXV.M A  .u.p.} Q `.] w 7 7 N <.m.D./ v v [ (.W.[ w M b.V.l.] M | <.K B N _.0X).U K [ +X+Xm.n.F.qXsX2.e H S.4XoX$.H oX|.1.D = 0 H $.f t 0 O.H.}.pX|.e.h &. X3X6.&.e.5XBX|.$.K.NXgXFXP.L 7.n.-.1.{ XX3X.XiXpXq.L D ;.a < f :.9.{ G p ..[.n.] B 7 p K U m._.0X_.F.tX).K K F.n.C C A ^ } } Q } a.i.Q q 5 - M (.mXZX0X^ f.tXb.p.nXlXlX0X..C ] b.f.] N N ^ ^ +XvXW.] :XmXV.] b.....0X].K w 7 [ N N N :.iXiXP.w w n.N.V.j.f.f.} } b...w A | ..Q c c C ] ^ | c c ^ Q ^ N ; , = , q.5Xq.< H H H oXVXaXqX).A N [ m.L.).n.Y :.K.A.a = 0 L H I 0 9 H Y A.A.Y B w w N N K 7.V.N.} N.V.| b.b.q K b.(.).[ { aXaXG.Y [ L -.OXS.L D f A.oX@X}.F = 0 $.$., 7 Y K D 7 w J [ [ K w w <.b...A c M u.`.R.} c Z  .Q c c p.N...w N w m.).wXn.B ] aXJXN.^ e 1.).F.L 7 w n.+X+XF.<.-.$.$.",
"A C N ^ <./ 7 * 7 -.-.P 8 e >.G 9 Y P.}.:.q.e G Y Y :.-.$.G 7 G Y :.q.-.G :.P.XXG -.sXDXiX1XXX7.9.iXgXA.T A.P.:.A.1.1.:.K K Y K K f.b.^ w ; w ..tXKXLXtXb.p.*XnX*XC A } p.~.p.w b.C 7 q N ] <.n.OXj.J q v F.(.Q  .S l.~.~.Y.p.b.<.<.K N 0XvXqX7.w A ).1X+X1XL.m.uXZ.7 8 Z.Z.0 ; # H 0 e $.0 ; @ < g ;.>.e.e.0.4XhX0.1 }.FXAXr.6.K.}.pX5X0.P.CXDXvXF.G <.G.m.(.).[ K.XXgX2Xf ; , H 9 * = a G w , w A n...A N 7 ] b.V.F.b._.bXcXbXF.w B ).W.] M c Z f.`.E.i.i.M.R.| K ; A ].lXtX..C M rXV.] [.W.KX]...A A ..'.:X,...).j.Q.:Xn.w N.(.| A ] N b.ZX0XF.U p <.N a 9 a .X2X.X7 ; <.f.W.W.`.N.V M b.B.A c | !.M.C q C p.T.M.c c | M.j.A q 7 ; G 4XCXS.0 D G D ).+X| | ] K N G m.L.A.-.7 T K.A.e = D A.G.>., a a 8.XXfXn.Y K [ K 9 w <.].nX0XtX0XA M ^ w 7 K F.tXm.n.qXn.Y 0 H f 9 1.P.A.* , Z.#XH.$.< = < H $.9 ; 8 q [ @XZ./ / :.7.<.<.<.'.| w M q c '.`.} c } ~.} q c | j.f.K [ M (.sX).1XV.B ).KX'.v D L / L w * ; ..{ (.A.G 0 G >.",
"N N B v w N v ; K Z.).G.Y , 7 -.oXgXCX2Xq.>.$.$.S.f G P.4X8.9 Y >.8.$.a Y G.A.T e 9.XXF.Y Y Y a S.BXuX:.&.P.3XuXA.A.qX1XZ.F.G.G.^ N.| x j.( u.'.mX:X[.B.Y.[.Y.Y._ M V Q } B.T.] M A N.f.q M n.F.j.,.6 5 ) f.b.0XB.Z l.[.`.B. .} 7 B { [ [ (.qX+XD.L <.).aXvXF.K :.D ; . = $.$.< d 0.Y , e e * * r O.;.}.4XoXpX4XoX3XK.5XFXhXw.i 6.P.4X3XA.XXDXqX).7.K F.vXnXbX].<._.gX3X-.9 , * Y ;.e # , a N G ..] V.b.(.).K F.0XF.| K b.tXnXqX[ * v b.F.N ^ ^ C u.*XeX[.^.R.B.b.^ c C b.b.....<.N V.(.w v W.V.F.V.A N | F.W.[ / | ] J K ,.,.^ [ b.C.] M b.+Xm.V.F.G w w 7.Y G e a a 9 , B 1.N.f.V Q ] c } `...V p.N.M.f.V c } `.*Xh.V p.!.f.^ v / OXdXZXVX2.; 5 r L J q ^ N.W.(.<.<.N -.F.w N a L 8.G # Y 4XG.H D 9 a A.gXgXP.<.U n.F.N w <.m.0XrX'.:XN ] n.w 7 w A <.(.).<.w w Y Y , ; 1.oXH.d = 0 d =.#.# = # d f 0 e 7 K dXKXdXL v -.@XvXF.K F.).:Xf.7 C } ..| A c B.} V C K ] K <.F.<.,.OXaXOXW.K g.zX)./ -.G >.-.J q * w J L n.:.9 a >.",
"[ m.<.w 7 7 ; ; / <.F.F.-.9 G oXsXVXAXiXq.$.8.S.G.>.q.oXoX$.= 0 8.A.8.Y Y >.L , H Y :.Y a a a , H S.8.G >.oX3X.X).K F.uX).n.-./ | E.N.( !.E.M.h.} i.E.a.} y.y.a.Q Z Z A ] V.`.V.A K b.b.M w ^ | / / 6 - ^ N.T.*Xl.V } B.M.M.Q M 7 B K B N U m.).n.<.+XaXvXvXn.w D ; * ; 7 g $.$.}.oX;.; e D 5 ; 7 ;.q.q.q.}.NXgXuXXXS.iXCXP.I i :.XX2XoX:.9.XXF.n.b.K V.+XaXaX_.m.9.).3Xn.e ; = e a w , 7 G [ U +Xb.<.p A 7.[ 1X0X<.M M A [ ..[ q 7 v K ).V.b.| M C T.tX`.E C } M q w ^ f.N.F.F...f.).n.w 7 C K K <.A M K K [ B 5 q q q N L L v n.F.n.p 7 B <.U U Y N G a :.-.:.# = , 0 9 J <.<.N c A Q M  .T. .C Y.`.h.^ c q ( '.eXE.Q u.R.T.N.c J W.OX+XD.e * q v J n x C u.p.n.M A K OXvX{ a N K 8.Y 9 8.iX.XY D , 7 <.2X.X[ { [ 7.[ , = w N b.V.(.(.M M ] N w w K n.).F.K 7 Y Y H 0 < H H.S., = 0 0 H H # + , L >.L L [ D.zXvXQ.N [ XXgXgX<.w 0XKXDXm.7 p M A K A c b.Q A | K 7 7 B [ { m.).).G.G.[ | F.,./ P e P L G e - q w N 2.L , < #.",
"N L.G.U N w ; 7 N B K <.[ e P .XsXpXNX2XL 9 Y >.a G q.P.G.Y , 0 >.q.A.>.Y H G i , = , h G f 9 # # < > > >.2X4X.XP.9 K :.v q 8 7 C j.!.h.`.=X=Xu.x E a.y.E y.s.R.} x. .E A ] ] { p <.+X)...N M N J ,.v - c u.M.R.` c E i.l.p.c ; 7 K <.7.{ w w <.K v n.uXZXvX-.* 8 ; 7 e 9 0 ;.S.}.}.f @ 7 v 5 * 8 1.G.Z.Y L .XuX4XS.G :.K.6.G 0 9 :.T [ , 9 N U { [ 7 K ] 0XtX].7.{ m.+XG.L w , 7 = 7 a [ F.].L.qX).F.M w K ] ].bXb.^ ..] w 5 7 7 M c C 0XtX'.V.] M | R.} ; - c c 5 q A ^ f.n.| C V.(.<.K 7 5 7 n.0Xn.[ [ e 7 w J N w q e J v 7 { n...p 7 9 w w A.H 9 a , H -.$.= @ > 0 7 , e N K ..[ M w A ] M V M.N.} } Z c Q Q p.| } M.`.Y.f.| x J ,.| J 5 - ,.j.f.^ C b E ( ^ w | n.(.OXK w 7 9 [ L e :.).>.w v w ; 7 K [ K 9 s B p 7 ; 7 w w c [ A K ] [ | K B [ (.XX<.e ; J L L a = , y t , > 2 1 i h , > ; a Y Y J | ).>XdXg.v [ OXaXuX:.; ).aX(.a ; 9 , , p N w ^ A | W.<.7 ; 7 7 N <.:.[ ,.m.[ v w q v ; * 8 G -.<.J N v N / D = 0 #.",
"a { F.C.] M M M q 7 7 N { Y G L G Y Z.8.0 9 $.>.7 G 8.>.-.G # + , d $.H 1 > g >.= . # 0 H H 0 @ . . . + G }.uX4XP.H <.L * ; D N 5 Q W.p.| N.eXE.b c R x x ! y.U.a.*X[.p.] N w N w A.qX+X].W.^ 7 v -./ 6 - 5 V M.Y.Z V ] p.,.N M { V.(.+X).M ; <.<.w K n.).F.J 7 e L :.G , 0 >.S.>.Z.Y w P :.K q L n.OXdXF.w G 7.sX.X9 , :.XXXX:.H T = T w p 9 U n.n.w K c '.'.| A [ V.].].(.<.w v N N N K A ] C.wXaXiX{ 9 p p [ n.M C V.F.] C M ] Q C ] 0XtX0XrXf.A A K w 7 c A ] 7 q c w A ] q 7 A <.1.<.K w 7 ).gX).A.XX8.1..X2XL.Y 9 , 7 , = 7 N K <.9.a ; a 8., # ; , >.}.>., = f *.H , = = :.qX+Xf...b.} C C Q C } `.B.} } V p.W.T.N.B.`.*XrXC C f.g./ q 5 g.Q.N.| ( V R h.C 7 | ,.K ^ C J ; 7 K [ e N L e 7 J J q 7 B 7.A.{ { U K N 7 * ; w M <.w ^ <.b.).m.K K m.F.Y 7 ; N 1.8.0 o # y 2 #.t 2 1 1 H :.9.9 , N K q C n.D.Q.) 5 ; w <.G.1.a Y K 9 a Y H = w G N 7 w M [ F.).Y 7 ; ; 7 w e w / n.[ q 5 7 e ; @ * e k.).g.J v e v 7 # d 0.",
":.s 7.L.U A b.b.A S 7 7 1.OX1.9 0 G >.Y 9 i I I f Y $.a H >., . . , H j > # f S.*.g , # # 0 f > + + + + , =.P.}.:.D A.A.v D L L 7 v f.A C ..:XV.Q Z ] A C E Z } R.xXcX'.n.<.[ 8.Y Y -.F.tXqXf.w D.Q.Q.D.f. .`.GXmXp.V A f.g.f.OXqX].m.F.F.N w ).aXF.1.D w J K L D -.S.-.9 e Y :.H F.).g.g.Q.D./ ,.m.].nXqX[ N N ).F.p 7 -.XXqXK.P.:., @X@Xm.w B ).0XV.'.C N.f.w A A | '.tXcX'.K C F.n.....w w 0XCXbXuX[ 9 N N w w w [ +XrX+XN.^ `.z.u.z.M.eXnXcX..^ [ <.[ K n.(.,.A ^ A 7 M ] N 7 * w [ [ -.-.N A.vXuX2XuXA.P.CXAXiXq.0 = , , ; , , K XX2XG = Y >.0 < > < >.oX>.< < *.4X XO., # 1.vXZXqXtXcX:X'.b.| ^ V.cX0Xb.N.V.0XmX].^ Q *XPXJXj.F.zXaX).K w C <.N.N.N.^ ! `.^ 5 q v J n.N.f.w w -.n.L w w 7 ^ ,.j.<.F.1XgXgX2Xm.T [ ..M 7 M ^ ).zXC M B <.tXG.K 7 N Y N 7 7 -.A.Z.9 o 1 H.4X{.j > 1 9 Y 2XVX8.9 N -.v q | f.'.N.] q N XXVXsX}.L e >.iXCXw.1 P.P.:.a 7 B ..m.).).N ; G e ; w e <.D.<.K K ,.-.H 0 X ; -.Q.D.J q ; 5 ; + 2 *.",
"{ 9 { _.C.B.[.~.B.l.M 7 <.iXL.a 8.S.A.$.a 0 i h w.w.&.1 I P.#.1 @ 2 H #.2 # 2 =.e.*.j # . # t 3 + + # + @ d $.I D @ e 1.-.D r L Y p G p K { F.[ ] | ].0XV.] M } eXIXGX].n.m.).2XY 7 9 :.A.<.b.).F.:.<.W.'.*XjXIXeXp.E ] n.Z.1.@X+Xn.U { <.A K (.qXQ.1.q e G.n.e B J -.<.L N N a K OXuXD.,.Q.Q.| C <.N.].:X(.<.w K <.[ 7.n.L <.L.@X{ B DXLXqXK w b.'.(.`.c  .`.N.p.w w V.lXmX:Xf.f.W.N.(.tXV.p.nXaX2XA.Y Y ).L.a 7 N <.OXaXvX+X^ [.[.^.p.V *XGXeXb.[ G.aX1X<.<.).b.W.:XN.c c ,.f.K ; ; w e :.n.G :.iXgXgXXXH >.iXgXgXXXL f ;.Z.q.Y 9 G oX2XG = G >.*.&., # d {.e.=.k =. X X0.g , S.NXsXG.G.:XrXtX0X+X(.0XcX[.N.'.tXqXjX0Xb.b.rXKXcXf.).cXqXqX).F.w ] G.0X`.} } R.N.^ x c | Q.'.n.C N ,.Q.<.w 7 q C j.'.OXqXvXZXDXqX7.B A ^ ^ ] f.b.qXrXK w p K F.G.K 7 9 G Y Y [ B N K D 9 g  XBX XI = > 0 9.CXDX_.a G g.K q n C | | | w K iXAXpXCX>.L }.FXDX6.1 pXBX3Xq.L F.+XuX1XgX:.9 n.Y * w w 1.D.N.g.g.F.Z.q.+.= * D D.OX,.e 5 e D , = < ",
"B T m.<XtXyX`.B.B.Y.] 7 K F.Z.H Y 8.6.8.8.G G P.CXgXS.9 h S.I > # # > 2 d 2 3 # j k g t # # = = $ + + + < >.S.Y H = 7 -.k.L r -.8.0 1 1 G G :.T B U ].fX_.] M V.mXKXnX(.K [ A.S.f , e L w N ).ZXQ.1.g.).eXjXjXjXl.u.| ] g.1.D -.[ N N [ <.K J L :.L J e L G.-.; N w N K -.7.[ 9 L +XaXn.] OX>X| w A A | V.(.n.w A m.).qXD.N -.1X@X:.{ gXbX+Xm.K C ] ....q ] rX*XM.c q } R.'.*X'.W...f.rXmXT._ ..F.K.8.T :.iXsX-.* 7 B { G.dX>X| z.=X/.y.c M.`.T.(.<.F.gXgXP.>.K N.tXnX].^ C | f.n.<.e ; J Z.q.G i 8.}.2XS.0 I |.}.iXoX$.g S.pXpXP.f a 0.H.H , > 0 j >.0 0 k {.5Xe.k 4 =.e.e.#., 6.oXXX<.[ N.'.:XvXnX0XF.F.n.V.0X+XF.0XbXaX0XqX1X].N U 7.:.XXgXfXY { ).aX[.] _ N.'.'.| c ^ j.N.g.^ v / Q.g.w - q q j.'.Q.n.D.@XgXqXm.{ K c ^ f.| b.V.] K B M w w K B 9 7 D 8.G.F.7 ; e :.>.>.0.0.0.H , 1 a K.CXXX7.9 p <.| C c x E ( F.{ -.uXgXNXNX$.f =.e.6.1 2 }.hXpX3X>.@XVXKXfXgX9.D A.1.7 7 7 [ <.D.<.J [ [ $.;.8 = r -.Q.2.v 7 L Z.$.2 > ",
"7.2X_.m.fXtXb.b.b.T...w w K K H G :.>.P.oXH a uXCXfXA., a A.:.a 0 # + , &.q.#.2 1 = 0 g >   + # 4 # + = $.sXDXXXe a L -.Z.2.r H >.1 # = i 1 U 8.U B m.wX<X7.5.MXnXnXcXn.7 9 $.H L 0 0 , 7 Z.vXqXF.m.F.W.(.[.^.p.z.Y.M.c C L w N w 7 N [ { K J w 2.D / G ; * - e N N w 7 Y 1X).7 q F.'.K C '.:X^ M M w X.V.b...M K (.).G.[ w 1.1XXX:.T 9.[ U n.U N M [ <.N ^ `.] } } ] C M p.*XrX] v ).PXtX..] ] m.P.m.B p L.aX7.7.<.{ [ <.).F.C } R.i.` R Q c  .(.[ K n.uXfXA.; b.rXzX).<.{ [ [ Z.qX<., :.@X8.G Y &.:.A.-.= 9 L >.}.A., = >.2X4X|.d , H %.#.0 . + 0 0.3.e.#.*.e.=.$ @ O. X6X>.= 1 8.3X3X+XqXqX0XvXnX).A K f.(.rXK [ 0XnX+X7.7.9.).9 9 s B XXgX2Xm.{ A.qXm.K { C.V.'.C 5 c | g.g.,.J / Q.G.v ; q ^ | j.| K [ m.(.n.b.V...C N.:XN.] ..M b.K , = ; @ ; ; * w 7.(.G.[ ^ { n.P.XX8., g G 9 9 G _.bX] p , w <.N...E x C ^ ).<.N 1.}.NXoXy > , 2 3 + 2 I |.pX2XY G.qXvXgX1X:.K m.F.Y 7 7 K [ F.[ * 7 9 0 $.u , ; e -.e ; * P .XS.%.#.",
"4XS..X.X@XL P L 1.2.F.g.N - ).ZXiXXX).1XfXwXm.U +X).n.w * A b.] Y a = 9 7.qX_.[ B Y , # #   + 3 H e 8 e F.cX*XT...] ..<.<.>.e , t 2 d y 7 Y XXiXn.[ ..L.J.J.J.X.7.7.m.m.a = 1 d H y = ; Y XX2X).1X(...| f.Q ! [.xXxXxXkXM.]  .w ; ; a K N e v q / Z.w 5 7 = 9 e K N 9 N m.ZXF.w 7 M K C C A ^ A A M { V.n.b...M N w 7 G L a Y $..XXXq.9 , 9 a 9.N a N a 9 w K B f.p. .M 7 [ V.U = [ XX3XfX2Xh 1 b.[.b.w M V.L.7.cXtXL.M B { B A ! R U.=Xy.c M c ,.qXm.B n.1X).N m.G.@XA.).iXA.:.f >.S.>.f A.qX8.oX>.0 9 9 , , 9 L Y 9 7 7 ; 9 D g f < < j O.3 + : 3 4 =.*.3   3 @.4 = 4 k f H >.1 a K.VXKXvX@X<.[ [ K v c ^ p.f.] N.W.(.{ p s 1 B B 9.B B G :.A.A.9 = 0 a = < ;.{ n.m.N 7 e a :.Z.1.>.:.Y a a a q ^ N.Q.j.J K ..f...w w f.].(.M w M ..] 9 7 w * , w N J K N K V.| M M <.n.K w w ; K K ^ Q V E Q N.,.q c N.p.c M ^ c v v 7 G g.1.0.t + # > @ 0 }.:.S.T a 7.:.K 9.wXm.{ 7.{ N p K w a a e D f , = d H j = = , ; G ;.;.$.S.iXXX>.",
"S.$.$.$.;.8 8 r +.1.Q.OX<.N '.DXfXL.{ b.1XtX).<.M ] b.] 7 M M.(.<.T N M ..`.~.p. ._.-.a 2 +   + = D g.F.:X*XM.M.B.} | [ 1.8.0 # j O.< * y ;.1.n.+Xb.A A ..J.J.5.9 G m.A.H 0 2 < 0 H %.O.L 1.P.XXwXm.] ..b.Q } R.GXKXKXmXB._ l. .w 7 B 7.Z.:./ J J J D N N 7 7 { <.U w w [ aXF.K N ] n.W.,.7 ; w U B U { K N K [ K e ; G 8.>.Y 0 K.pXP.>.f = f >.9 7 0 Y 8.1.Y K N.M.| M 7 p { 9.T Y >.:.e.6.1 1 <.B.p.A A A N A tX_.{ , 9 { { n.( d.E.-Xj.} ^ M F.aXaXqXL.{ <.n.-.G <.Z.oXpX}.w.>.}.2Xq.L K.gXuXP.Y , = a Y L D 9 D Y -.L e ; e $.q.#.= = 4 4 : 3 $ $ 4 3     # g =.3.*.H #.A.3Xs B 7._._.L.<.J N f.).N.^ c C ^ N.W...A 9 s 9.5.{ s T s s 9 a a H g < + # < t 0 7 { F.[ a 9 ; a S.8.H 0 0 G I G w c ^ ,.( c c C q 5 w W.rXV...C C M S N N { :.a K F.).F.n.<.| | ] A w 7 B <.[ w w ^ ..| } Q V V W.,.x c ] C c ] b.c 5 q e L L 8 ; j =.O., + d oX4XA.w U 1Xm.9 p B U m.L.{ 9 B A.:.G , a 1.8.+.H 0 > d > . < >.|.@XP.>.-.P.P.A.",
"S.g , ; 8 * * ; e g.D.G.{ C N.lX+X..B 7.wXcX]...C C ..V.| Q b.]._.n.K M ^ B.R.B.[.fX-.9 d > + % # f G.@X+XN.} V.f.A N N :.q.0 + z *.0 . = , G qXOX(.{ A X.C.J.J.w { P.}.w.q.0.O.*.0.>.H g $.Z.S.wX..A ..b.p.u.p.*XjXmXjXB._ b.b.K p { +X,XF.1.<.D w <.n.<.B ; 7.[ { K N U 1XN.] 5 M | T.N.A c ] b.m.b.7.] w v ....N = G XX2XS.a S.hXP.}.:.= H $.8.8.$.8.sXgXS.Y ] f.b.,.A 7 N n.3XS.Y 1 f =.2 1 K <.n.N.n.[ [ <.G.<.K ; = Y 7.V.C y.U.E.Y.V.b.K ).1XaXgXn.9 n.vXA.w G S.2XgX4XoXS.3X@X8.$.K.gXZXoX>.7 7 q.pX4Xq.L >.4X@XG.Y ; f P.S.g + + u @.3.@.< 4 k 2 + % > H oXCXuXK.P.wXnXo.p S U U ^ A w K m.0X:Xf.c C p.p.W.b.] { L.wXI._.p s 9 p s Y G 0 Y f . . u O., 9 { F.Y 9 ; * 0 }.}.$., = f $.Y D 7 c ,.j.v 7 w ] C ] tXtX] A | (.] w w A n.<.w n.sXVX@X:X0XW.] (.(.{ 7 q { { w 7 w f.p.} ( b ! W.| v c c M | '.(.A ; 7 N / D * X t @.g 0 2 H S.2XK.T 8.uXL.p p A n.wXgX_.[ :._..XY , a Z.}.S. XH , $.H + , q.oXsX2X8.L Z.1X2X",
"}.g # + * X @ ; G @XF.,.7 w A V...S M ..].tX(...n.A ] F.n.A { +XaXF.N 7 M p.R.`.cXwXw * #.j 3 3 = 8 >..X@XD.^ n.C 7 7 , f #.0 # d j 0 = + O e vX+XqX(...V.J.X.U 9 a H H #.0.e.3.e.e.=.y 0 g G a :.9 7 K f.(.`. .^ u.l.`.B. .b.b...p K A.n./ n.,X[ K n.F.f.A w b.b.V.b.] A '.b. .Q  .Z E  .B.^ A V.(.C.| [ A c ^ n.[ w -.uXgX2X$.6.w.Y q.q.$.3XNXiXiX>.G @XCXG.J q | N.n.] 7 7 8.CXgXS.2 j 3X{.H ; / g.<.n.m.n.1.L Y 1.a , :.S.n.x Q } p.T.V.<.] F.9.<.-.w w +XKX@Xa N A.oXNXCX4XS.}.q.G Y A.qXVX2Xq.a f XXLXCXq.q.G.AXsX}.>.7 >.CX#Xg # . . < 3.%.3 3 j k 2 3 @ G .XvXaX+X].<X<XS p M Z Q _ } Q A <.).:XW.| } f.W.'.p. .'.cXKXbXcX9 9 p Y A.2XXX0 Y +., @ < u 0 , N [ a 7 , = 0 0.}.{.H = , H q.2.w q [ <.v 7 N Q.W.F.+XF.A ^ ..`.| w w { ).G.L Y OXaXqXvXZX:X| aXvX1X<.a G :.n.n.K '.+XN.p.b N.W.n.b.] M ^ `.tXV.A 7 7 N / D ; ; ; 0 $.e.>.H $.S.XXq.9..XP.Y G { L.fXgX_.-.:.A.P.>.9 e >.|.4XBX}.8.XXZ.; = D A.3XqXL.<.F.fXbX",
"1.a = , 7 ; @ * -.VX).K - w A ] Q M c C X.b.V.(.<.M w U B ; N @X+Xm.K v c A p.T.0XF.; , 0.*.k k > * d q.OX1.q N 7 5 8 ; = > # > 2 # < g d 9 e G <.<.A K ].wXm.B 0 # . . # t O.z 4 *.e.O.= + # = 9 = , N n.aXaXb.w M M | l.] ..b.F.N 7 w 7 7 ,.qXn.g.] p. .} R.~.].0X(.] w N.l.b.`.`.c c Q B.E E J._.C.| V.W.,.^ g.g.[ F.2X2XP.H a a >.XXXX}.oXNXiX.X0 * -.Z.D ; q ,.N.,.N ; 7 :.2X}.>.< g oX X>.D -.2.L -.-.L H P >.}.H 7 ;.Z.-.q c V } n.b.{ <.n.B , 7 ; w +XaX).Y K 8.S.4XpXS.#.>.;.f G :.).iX@XS.Y Y 2XFXpX$.G Y uX2X}.8.9 >.@Xq.g 0 < = < %.%.= # k #.*.j = B b.0XcXeX(.B.Y.} _  .z.x.i. .Q w A V.0X'...C C `.`.}  .0XmXnXbXqX7 N 7.3XiXgXoXa >.q.+.; @ = 8 * 7 G Y 8.q.f y F $.3.$.< # d S.D.D 7 e w - 5 B L <.<.Q.G.<.<.<.V.b.K N <.).F.-.7 -.).@XdXqXW.V.fXCXuX:.a >.2XAX@Xa <.F.,.A - V N.+X:Xb.N [ (.).] M ; 7 K -.D 7 9 , H iXAXA.a G |.q.a 0 8.P.#.9 p 7.XX.X:.N :.}.1.>.D a >.|.$X4XXXP.XX9.a , , 9.P.+X).n.F.aXZX",
"D f G A.S.>.e , 7 F.<.N q ] V...Q } i.} Q A b.].<.7 . = 9 , , [ [ <.n.f.C q V | | K ; , H #.0. Xj = , f -.D * 7 w 9 H 0 @     # 3 # i &.8.S.:.; 5 7 7 w ..L.F.7.q.u = + + : 3 : = =.e.z # + = 1 1 , , 9 [ +X).K A ] N U K 7 N ..).<.L [ v 7 v J / f.| T.].8XGX[.l.~.Y.} M M. .} ~.Y.q V ! } x u.b.L.(.).0X].| q C K J n.OXS.-.; = > >.A.>.$.8.2X2XZ.a a Y a @ @ w n.+X).<.N e D q.f y < , t d f q.2.P D D 8 ; r ;.1.q.0 * e y 7 7 5 q A 7.V.).XXF.p = K K 9 L Z.).L.S.G.q.0.0.0 1 #.q.-.D Y F.XXq.>.H L A.XXq.f , 0 A.XXXX8.9 H ;.H < d S.oX0.g 3.< @ 3 H 6.*.h K ..'.jX8XM.x.~.z.z.~.^.z.Q V w w [ L.].N.^ M V Y.T.E Q `.`.[.].C.9 7.wXKXVX.XH D S.$X3.< = < < 7 7 D Y G.}.+.F D 8 8 f < . = Y -.P D v 7 * - 7 v w v Q.qXF.F.V.] | A w K <.-.Y Y :.1.n.1.[ g.qXVXZXXXG 0 0.5XsX@Xe K n.F.).| ] C N.F.^ M ] b.7.[ K 9 w -.:.D 8 Y e L 4XVXq.9 a q.0 . # h H d i 9 G Y H a e L 8.>.8.H d $.3.O.0 9 G -.:.7.[ 9 U n.7.<.{ ..].bX",
"9 H 8.VXgX4X1.Y ; w w w ] B.8XM.i.^.kX8XM.A ] b.n.N X = Y Y , ; e L D.).f.c 7 c w A w , = g  X5X3.< @ = y 0 * 7 e e ;.%.4 +   k d 2 i >.XX@XA.-.N / n.<.w 7 N L e.%.u : . + @   < k j < > 0 H H , 1 # # 0 L N 7 :.<.B ] ] , 7 B <.F.qXqXn.B w ; w C f.*XjXGXkXp.c  .M.x.} ^.} V R.[.V y.` ! - Q A ] V.].W.| c ; ] v ; -.OXG.$.* = = , i = 9 }.NXA.G.}.}.S.Y 9 ; w <.dXZXuXF.[ e L < H $.< @ # y ;.+.r ; ; * X * H f f e f f = , [ w w B { 1XbXfXP.G , 7.L.N e -.qXvXqXXX8.f 0 # f >.oXXXq.A.).8.9 , , 7 9 9 0 0 f a H q.S.$.1 0 >.H 7 H 4XAXH.= 3.j = @ 1 h H Y K A ] f. .A A  .b.M.~.~.} M c q N { V.V.<.[ ] ^ `.eX} c E } M.`.<.w n.@XVX@X[ ; D S.oX3.8 ; 8 r L w 7 7 G ;.F +.O.; = y 0 X . , G -.1.-.D e w 7 K 7 ; 1.+Xn.<...9 M 9 ; B 7.A.XXuXZ.L [ 7.-.n.qXgXfXoX6.&.6.0.&.G , 9 K <.0X0X..5 A C w N U [ n._.).<.K Y K N K n.Y N [ L.Z.f 7 a , = = > > 2 H D N e , = ; , 7 $.>.$.d d 0 = = = = N <.).+X<.K [ M N U ] b.'.",
", H A.DXCXpXZ.:.K 7 7 N V.V.yXl.[.xXIXmXR.A M K [ Y a f q.0.d , e D <.Q.D.J 5 ; w <.1.G ; j }.3.*.: . = +.$.; ; 9 7 >.e.%.4 3 *.*.i # :.ZXXX[ G.K <.+X+XK 7 w a F @.g @ . : 3 .   # < < 0 H $.H f a , 9 $.>.-.8.n.<.a -.A.N 7 9 w F.vXaX<.J [ [ v 7 p.Y.[.kXU.R W l.Y.z.i.[.i.V p.*XQ y.p.^.V _ | A b.[...M ] n.dX[ - [ dXuX1.= # a I oXA.G q.f 9 P.CXuXG.P.8.7 v K +XJXvXOXA.$.@ * ;.3.8 # = 0 2.Z.+.; * 7 7 = ; X ; >.4XP.G <.qXn.] A T wXDXwXI.U = { +X<.K :.qXZXuXXX>., 0 0 w.}.gXCXiXVXsX[ , ; 7 9 , = 0 >.$.a = 0 $.a 9 0 e 0 0 ;.XXXX1.Y }.S.H 1 0 d G 8.n.K w w C C C N ....B.B._ M A ] 7 N ..n.F.F...A f.cX*Xp.u.} ` } <.w K K m.-.N 7 e L 3.;.0 * ; D >.L J e L 1.1.#Xy ; , F F = @ , $.Z.Z.P e L :.-.N 5 * B <.[ N * ..7.B 7 Y G.oXpXgXq.D S.gXiXF.7.|.K.3XNX5X6.f f 0 Y 1.:.Y _.aX] w C w w [ ] ] '.vXZX+XY w ; w n.[ n.{ K n.F.-.9 0 H H < = > 0 0 Y 8.A.L , * , a a Y $.g < = 0 >.n.w K 7.F.fXwX<.] 7 M | ] A A ",
"s I.iXiXDXfX:.n.).[ 7 ] (.(.0XB.yXkXxXkXR.] M B U :.9 9 >.q.>.g 7 7 D D.OXD.N - w :.).<., 9 H f 3.j < = >.}.G Y D > >. X X0.4 =.0.i # P.DXXXa [ K [ Q.+Xn.N 9 8 , F %.4   : u $ . + # < f I >.>.>.Y >.P.XX}.4XAXP.Y H 1.F.A.Y 7 ] V.+XN.[ F.F.w 7 * q R.kX^.y.! Z N.l.5 ~.GXeX} u.*Xl.Q y.Y.*XY.b.{ ] f.W...^ n.:Xg.v L %XoX1.D G 8.}.iXZ.:.a , G 2XCXgXVXsXXXG.G.f.D.+X).1.>.>.8 * ; H O.= . * L 1.D , D G a L 9 ; ; ).vXXXXXF.tXcXF.{ :._.DXDXuX9 = [ Z.Y K <.iXCX2XA.>.w.}.d i >.NXFXLXDXF.9 * [ OXOX-., ; D Y >.a 9 7 L i , e -.-.a $.1.Y S.CX4XP.8.f , f Z.).<.K [ -.J 7 ; L { 7.G.{ M b.).[ [ U K -.).].<.n.:XrX*X`.b.Q Q b.0X[ 7 ; K [ L D 7 e -.L ; ; D >.n./ e +.#XpX$XH.u y +.H 0 D >.4X>.S.G , -.:.).-.* * K [ B v 7 (.tX_.U G T 8.oX>.# , pXgXqXF.<.i XXpXCXBXS.#.I $.K.2X@XK K [ V.b.] V.tXV.M ] +XcXqXaX).w 9 7.(.tXqXn.] (.aX+X-.N .XP.0 ; a $.8.G.XXXX7.n.e 7 e 0 e D >.G * 2XAXfXm.7 ] ].].0XV...w A V.[.N.M ",
"2XXX2XiXsXXXY D qXn.[ ] V.yX8XB.~.8XxXxX[.] 7 ; s T 0 < 0 d =.*., ; 5 J 2.2.K e * F.iXA.H a a f 0.*.= # $.G.P.XXa = >.}. X0.% 3 I I &.XXK.A.<.XXJ [ 1.,.K K N ; * u %.g @ : u : + + < H f 0 H >.Z.q.K.4XpXiXiXgX2Xq.G a G Y K B ] } N.F.,.<.{ w e 7 A *XmX*XU.z. .B.} M b.0Xb. .Q ~.M.} u.M.[.B.qXV.K N K M w N D./ v e D H H L S.oXXX}.8.>.G a -..X2X@XiXuX@XuXG.K J <.1.:.>.8.0 @ = H +.y , = = w D L :.T G -.[ 9 M V.qX].b.b.].bXqXF.9.A.wX_.A., * Y G.<.G N -.A.P.P.$.>.iX}.1 H }.oX2XXXG * 7 <.qXaXG.a ; w G.8.Y H , :.P.P.qXG.[ e :.7.[ L.ZXZXZX2X:.D q.gXdXS.1.Z.Z.$.7 * 7 D >.G.Y 9 T 9.7.A.[ a Y ).+Xn.w ..V.V.W.N.} C | 0Xb.] A <.<.m.D 7 e 1.-.; X ; K [ L e 8 D +.;.3.y F 1.H.1.q.S.S.G >.G ; 7 K OXZ.w 7 ..n.<.^ w <.1X1X{ s h #.w.f 9 G }.S.@XF.G 9 |.FXFX3Xw.S.&.&.XXsXsXK w w A p.M } ].'.] N ] n.n.F.n.p a m.1XnXKX0X| W.KXZXG.K +XaXA.G G A.iXZXsX).[ F.7.:.L e , e 8.>.a uXuXqXn.B N ] <...<.b.A  .b.T.b.C ",
"uXK.3XXX:.D a L G.7.F.K ] 8XB._ } Y.8X8XB.A w 9 { f ; , = # 0 d * & * 5 v N e 7 , qXZX2X3XP.:.#.#.3.# . 7 a -.U w ; T 8.0.j   + d I w.P.Y A.G.-.q w K { :.<.G @ = 0 H g = = t 4 #   = g < , G >.>.q.oXpXhX4X}.S.$.&.a = 7 a Y F.Q q V ,.] K B 9 <.N B V.*XT.p.M.^ ] K n.F.(.w M w f.f.| ^ A | ..tXm.N ; ; w J N N N L P 7 ; d $.0.XX}.>.8.8.>.Y G $.:.8.G.G.G.@XG.[ 7 , a [ -.D , X = H ;.3.$.< @ ; K ).1XL.7.m.V.p A ] C.V.S ] A :XaX].{ K 7.7.:., = G 8.:.a , a a -.A.f a q.6.0 h $.$.Z.9.7 ; / F.:X>XF.K N { XXA.F.A., Y @X3X,X[ 5 ; J K N F.aXCXZXqX:.H S.sX2XZ.$.$.;.+.y , + < O.3.d @ 0 G Y n.J * 9 7.7.[ = w B [ V.n.K w 7 f.K K M K <.Q.,.w w [ [ 7 ; e [ 1.Z.1.v ; 7 P F ; ; F ;.>.1.>.$.9 D L 7 * K @XqX[ q ^ V.W...w A _.wXL.{ h h #.2 d g G , :.:.N N :.A.A.6.P.}., $.XXCXZX<.M w C Q w V f.M.^ w ; ; q C K p M ..(.jXIXtXp.b.tXtXN.^ F.dX+X{ J D.aXvX+X<.w g.).qX).a ; a n.1.D XXn.n.U T , , N 7 w U A  .] ] ] M ",
"Y G Y a # # 7 [ B -.).b.] b. .S  .z.Y.l._ A b.+X@XY 9 G 9 @ 2 0 7 * & * 8 D D a a 8.}.3XgXfXK.I H >.0 = 9 N U B B N m.XXoXe.k d I |.AX2X= G Z.Y B 7 w <.G.V.[ w ; 7 G Y d > = = = + 0 H 7 ; a D Y A.4XpXoX0.H i 0 w.A.:.:.-.<.:Xc 6 q C C K Y 9 Z.N 7 N K A ] n.K B U ).iX1XG K w b.).(.n.] | n.@XL.7.G w :.+X+XJ v K L 7 = d $.f w.w.1 Y Y >.q.f f a a a G -.n.B m.n.9 = w L Y , * 7 ;.q.}.q.0 ; ; K ).qX+Xm.[ F.A A A  .l.Z A c | N.n.K 9 a H 9.T a a G a 7 7 -.T G H f 0 < = 0 0 , ; Y T ; 7 K V.rXbXrX..N K m.L.1XqXU U -.7.{ 7 * * w w 7 ..m.).).7.a 7 D -.a e f H +.H t < X = 2 f =   > 0 e L 7 X 9 G a a a 9 w Y A.<.w 7 ; ] C A w c K V.{ w w B B , , B / <.<.L 5 & ; D +.8 ; ; 7 D $.L a 9 9 K N 7 { qXvX).| ^ | p.p.] [ F.1XXX8.i 1 1 , 0 a H = 9 D G [ 9.Y a 7 G >.; .XvXKXKX..w 5 c Z _ } E V Q Q 7 * c ] <.<.] ] b.~.[.*XY.p.M.b.Q A Q N.W.| K u.f.| ^ C ; C <.+XqXw ; K m.[ w L.<.w N [ p w N 7 ; 7 p ] M w M w ",
"|.S.G , $.G.>.A.e F.qXfXV.] J.~.[.Y.p.Q ] V.aXKX@XY a $.1   1 g $.t X X 7 $.H.S.f > T 5XgXgX3XT D D L a [ ).[.0X] U C.2XVXhX0.j &.w.3XS.. f +X).).[ w K { n.L.L.N K n..X.X$.< > 0 $.XX}.G 7 w 9 Y }.gXpXS.h > # G 3XgXiXiXF.K ] x b Z C A F.L.G a 9 e D e 7 K Q.8.G T $.4XgX@X}.7 8.sXgX2XZ.-.1.A.L.P.:.w { uXvX@X-.0 7 = # , d G }.K., 9 , H 1.$.$.G , = e Y :.7.[ 9 7 { F.<.Y 1.L H ;.>.Z.;., * ; D [ { { K w W.f.c A  . .M.u.| q q ^ ] w = , 3X3XS.$.f , 9 Y 1XqX-., Y #., 0 $.f = = T -.9 A f.`.eXjX:X| C ] <.0XwXfX).{ w { n.^ J v K ] A ] N U ] N , = ; 7 D f a 7 ; 8 F %.X # = 0 , = i i D G ; ; H H 0 I w.I G A.XX-., ; C `.V.'.b.[ A ..] ] <.F.n.B w M A K B 7 ; 7 e D G.1.-.G e H >.:.9 9 9 U <...F.+XtXcXtXT.Q V p.*X).9.8.8.T 1 # = 1 h 6.oX1.Y a N aXwX{ N Y Y G e ).>XqX0XC q x R a.[.[.Q c f.N.C 5 ^ N.W.F.] M M } M.=X[.a.p.p.} V V } p.} } u.V q q C c v q | F.q ; K b.[ N m.{ ; -.A.A.-.K <.] K { 7.M 7 M w ",
"3XK.9 + 1.2X>.-./ ).aXKX).A [.mXnX]. .] V.tXvXvXsX9.a $.D + , g ;.y * X ; H 3.q.h @ &.DXgXhXfX8.w a A.V.(.tX[.yXY.X.M [ +XiX}.I 6.6.6.6.0 q.1X1XvX).[ w M m.qX1X<.b.m._.XX:.a h 8.pXDX2XY a K n.e >.@X2X8.0 = = G P.uXsXsXG.N q b y.M.| ..qXuX&.+ 0 0.S.L ; q 1.L 0 H 1 H.pXpX}.0 q.CXCXuXA.e e G 7.A.{ 9 N F.iXAX}.D g $.2 + # #.4XpX>.D 9 9 a H Y -.H a L -.N [ K K 7.m.B Y fXgX@X>.D D G 7 * * D 1./ w q v ^ W.b.q V } } !.N.( 6 c | | w ; N iXVXiX}.>.0 e S.vXDXS.= f $.0 $.0.H 7 = G :.N ] W.B.p.u.| E } W.].nXqXwX].{ 7 7.'.g.| C [ J.b.X.p B A B w ; 7 a 1.n.-.7 X * u %.@ @ = g O.H >.H P e ; y ;.$.j &. X0.*.}.5XZ.0 , M `.'.cXjX'.] M ] b.(.].(.b...{ M A [ n.G.G.>.D k.1.1.-.e a $.>.B G U <.].0X].].0XjXrX[.B.} u.`.1X:.H G h h I I d 0.S.oXK.P.-.G ZXqXB K @X+X1.{ K K K ..c V Q i.U.*X=X} R M.N.n 6 C f.T.f.A M c Z z.*XY.` E.=Xz.b W y.} ` a.a.! c q ^ | ( q ^ | w ; C [ b.[ [ w 7 K.2XsXF.G (.qX1X].F.M 7 A K ",
"P.1.G 0 q.4X.XXX1.n.qXbXF.M b.cXnX0Xb...F.wXaXqXCXL.T A.P.f 0 H O.g < @ * 2 f j H > #.6X6X3XXX8.Y n.aXZXjX*XR.R.8XM.M w <.+X3XA. XAXFXpX>.>.A.aXvX+Xn.K K V.1X].A ] U ] { s 9 T 3XZXsXS.:.K [ OX8 D 8.P.q.f > > 0 6.2XsX+Xb.] ..y.y.M.p.[ G..X6.# f S.$Xq.0 ; 0 < f >.H >.4X X3.g H.NXpXoXS.y 8 a G :.9.:.Y -..XuXP.$.8.oX=.+ > 0.pXBX2X>.Y e , 9 7 G 1.1.1.-.e :.B N m.+X{ K 2XDXsX$., a e * * 5 1.%Xk.J 5 w D.>Xf.q x E } N.*X( b ( u.^ v 7 -.XX2XXXXXS.a 0 P.VXgX).9 , f 0 h H 2 , = 7 H G ] p.! R } h.} E u.eXtX'.].b.A 9 b.D.] ^ M A V.B.b...o.A ] [ K K ,.B <.Z.[ q ; - * * = , $.q.Z.P.1.D 8 7 +.H.0.#.j 0.0.*.6.}.K.Y 9 w M.l.].tX0X} w S ] ] A A ..b.b.w M ..qXZXuX2.q e e G D ; ; a K [ { V.L.tXcXV.'.`.[.R.~.[.a.R ] ).8.6.T I e.oXK.j *.I $.>.|.8.Y 7.<.A { b.<.m.W.[ C c | E ! R R s.U.^.U.( } | C n n u.M.^ ^ M.M.} z.=Xz.V p.=XU.y.y.~ R y.c.z.a.V c h.N.j.Q f...V w V C V.b.} M K A.uXgXP.Y A.fXbXqXF.p w <.n.",
">., 0 H q.pXCXAXn.[ 1XtXV.Q A [.lX0XB.] ..F.0XwX<.<.Y G.G.7 = G ;.O.t # X , H >.0.Y #.K.3X1XI.m.7.+XaXKXrXp.R.Y.l.l.Z M K 7.L.8.}.CX4X}.Z.G.P.VXAXXX<.<...n.].tXw ] 5.V.L.[ G 1.2XpXG.1.G.[ 7 K { [ 1..X}.Y 1 = = $.iXiX-.; N n.M.Q Q } N G :.0.f f %.}.}.;.q ; y 0.oX X>.5X#Xq., H S.>.;.q.D D 1 1 a 8.P.Y 0 L ;.>.f $.oX&.= #.iXBXiXoXY :.L a a * ; L :.7.n.{ B A B 9.qXL.[ F.sX3Xa = G D * ; 5 2.D.k.+.- - 1.ZXj.C q C j.j.rX'.) ^ C K / 7 w 1.7.:.Z.S.e 7 G.ZX_.XXY ; d 0 = d < d 0 e <.A.G.*Xp.b E p.} C } (.N.b._.{ B B b...K | A M } b.(.<XX.M [ F.F.n.n.K :.-.q * * 7 r 7 7 9 :.A.G.XXA.e q J Z.XX#X>.2 #.6.#.i $.}.q.N ..(.A ..(.]...w U ..] p M b.V...[ M K OXaX.X-.J ; 7 e e = = D -.[ ] ).).wXqX] N.f.T.`.`.B.C q K F.XX3X0.&.|.5Xe.0 0 = f >.P.>.Y <.w 7 N N ^ N.^ ] V V B.M.Y.} Q } p.[.*Xf.E ( N.C q C ) q A `.0X`.B.].`.E Q E.U.^.a.b c s.Y.a.a.V Q !.N.| Q N.h.c c C V '.[.(.(.n.{ 1XfX1XF.<.wXvX+Xn.N K ).+X",
"0 *.d f |.gXgXgXn.B n.cX~.c M l.jX`.Q } R.T.`.]...] K { 9 ; * ; +.+.;.0 + @ 9 q.4XXXG <.F.).-.s B (.nXbXG.J N K { A A X.U 9 9 { L.0X).L.2XXXP.iX}.Y s p w ..0XtXb.b.V.N U P.Y , 1.1.S.Z.J q c v K K -.G.oXZ.f + > < g j = @ y Z.b.i.w 9 w , h 6.I H 6.XX).[ q , j  X4X0.;.OXOX2.w q w J G :.q.f # > h &.I 0 = # 1 = f 0 Z.oXa 9.gXiXiXXX<.n.n.w , 9 w N <.+X].7.K N...).nXL.p 9 F.:.w = , L 7.Z.8 8 y H D < ; 8 H.3.OXL - v ,.dXiX8.;.G -.Z.e ; 5 e v B ,.] ^ f.'.).m.F.0 @ O.= g O.+.;.S.uXsXvXrXg.n C ,.D.n.L 7 :.F.8.Y w 9 N M f.T.l.A Z | V.wX1Xs T 1X).F.n.L a e f , + = H G 9 9 Y V.'.(.V.Q 7 K qXZXCXoX*.> j 0 @ 0 Z.).Z.n.<.N e <.<.w ; [ n.V.] w ] V.N.N.K C [ <.g.-.v 8 ; = H 8 @ F -.[ w M ] ..F.F.[ B 7.8.P.A., , H }.S.>.H &.oXpX|.H 1 = # 7 e < H -.7 = ; w ^ A | p.M M b.'.].V.M A A m.(.(.] m.qXK J K C 7 v F.zXOXuXsXZ.c ^ N.y.=Xy.! b ! ! p.Q n V ( j.u.u.u.) h.) q N ,.A qXnXp.N.B.].0XV.] 7.V.].{ 7 [ XXuX",
"H >.f f q.oXiXwX-.w A b...Z M w i.i.Q ! p.z.M.T.b...w K J e X * 7 0 $.H < ; , Y G.G.9 9 w M 7 7 w U n.m.L 7 ; 9 9 , S X.9 , T F.N.b.^ n.gXuX:.j 2 1 G 7.[ ..*XmXeX0X).K K 8.Y 7 f L 1.Z.2.v 5 - ^ 7 ; v >.;.g = @ + : < # @ < y M b.V.L.:., 1 i i f $.Z.m.[ C w =. X X>.a G <.D.) c c w w K [ , + + > j #.d , > 1 Y L a Y -.K 7.7.L.).F.m.b.[ A n.{ M 7 N { { A N.'.n.(.0X{ , = 9 s s a { @XaX1X).-.y y t ; * = ; @.3.3.y 5 D -.H H >.>.q.q.e * - 5 q ^ j.| C E A ..N J 8 @ < . * < j H.NXFXvXwXqXg.w w 2.F.>.f D $.;.f ; = , , p ..[.`.Q q M 7.bXgX9.T 7.K N C w * * 7 , # , ;.1.[ N w ] V.b.A M V b.qXiXiXoX0.+ # @ X , :.G.Z.$.D = * D :.[ G [ <.n.b.A A <.V.f.J c J ,.:.G = X * ; f , X 8 D F.| M 7 7 B K , 9 8.q.6.h + # j 0.3.%.H $.8.w.0.f 9 7 = ; 7 8 ;.$.9 ; * 7 N Q b._ w M ..C.L.9.w w 9 -.9.<.7 N n.N J { / 7 7 | G.H 3.#Xg.w C N.`.R.E.z.b Q } u.q q 5 V u.| | j.N.h.C ^ q K F.9.V.Q u.`.jXxX~.Q M A { N 7 L Z.G.",
"q.S.>.-.$.9..XF.K M M A  .V.b.C q R Q V Q u.p.b.V.b.w K n.8.e e , e 1.1.H e = 7 7.L.w 9 N ] K [ w p K n.Z.P 7 ; , ; ..m.9 9 P.sX(.| w { gXiX$.1 H T P.wXC.A p.[.mXnX]...J G $.a , f D L 1./ v N ).A 7 J Z.q.H t . . * < * = ; = w ).cXfXA., > 1 h 0 a <.+X:XM.N , *.|.q.e 7 J ,.j.C C C K -.Y , > # 2 *.0.j i f A.NXZ.8.G.S.@XZ.[ m.-.K [ N 7 N +XF.K 7 7 M N w F.).F._.F.U U G , T :.Y 7.uXvXuX@X>.D F +.g ; @ . g +.H.+.* 5 - e g e f Y >.1.J 7 - 7 C J C ( j.f.W.w ; , * = . : < u >.oXP.L 7 7 q ; 7 1.F.-.D $.7 * * ; D G = 7 K W.:Xf.q 5 N 7.8.a p U [ | | J ; ; L L 7 7 $.A.A.[ 9 N (.V.C c | ].wXuXpXoX*.> # = * ; -.F.-.f , + + 9 8.G.7.N N <.).<.N N [ / 7 ; N 2.-.e = 8 e ; r f 8 D -.V.N...w ; w K w :.>.a 0 f i f 0 0 0 , = , e >.XX:.H f 7 7 , = D Y G Y B N A ] N.b.M w M p U { G N s 7.m.{ * ; B K [ <.[ q 7 N K ; y 1.Z./ C j.!.*X`.M.V Q p.N.] C w C f.| ) j.!.( ( / 7 N @X7.N } } N.*X*XB.] w 9 w 7 7 a L >.",
"A.P.XX.X-.[ L.n.N [ <.| <.'.*XV.c } p.Z Q b.| ] ] N 7 J P >.H e e D 1.8.-.K , 7 qXbX<...V.L.,.<.{ B K Z.G.-.7 X ; w 9.C.p a G.sXzXN.v K .X.X6.&.&.:.A._._.V.`.[.[.yXV.<.K w -.L H $.N D Z.n.] n.qX,.w G Y g y f , # 0 H y = * ; -.qXwX_.:.i T 0.&.i 9 <.tXlXW.^ = 0.iX@XF.F.n.| N.| n.F.Z.G.>.0 > # i 6.6.h f >.4XAXq.A.sXVXVX-.B N 7 w K K e K F.(.F.[ K <.<.[ M N K <.K K P.XX{ P.oX8.Y 1.G.G.G.$.y H %.$.u 8 < t 8 +.+.7 5 ; Z.1.= X , L OXG.[ w v ^ q 5 ( W.N.(.K 7 = # = . + = f 3..X8.9 = e [ q X = , 8 Y >., = , D Z.n., ; w ,.Q.W.) q ; = = . = { '.:X'.g.N N F.G.L 9 a Z.XXF.B A V.V.] w [ ).uXpX5XS.j 2 0 j 0 * P Z.J f ; = = 0 q.XXZ.7 7 -.OXG.B 7 7 e ; * e ;.-.G D e H -.}.@X>.f L n.(.W.K 7 w 7.).iXA., i q.}.q.i 7 , = = , ; Y sX).:.G a L +.7 7 D w K ] K A A V.(.A w p , p :.A.9.9.1XwX).9 7 M ..n.(.V.] K N 7 * e D.qXD.C n u.E.u.^ Q | ..n.L.<.] ] ] v q x n c D.C N a F.I.B | c C p.N.(.N.B { 7.n.-.G e e ",
"K <.OXqX<.{ qX+XK <.b.] A { b.N...b.N.] N.].[ w K w N [ ; D ;.H 7 7 B Y <.<.N p ].tX<.b.b.n...b._.[ 7 8 y 0 ; ; w { n.b.b.L 2.,XvXF.N N Y T Y 8.:.&.T 7.1XmX0XB.] <.K ] B 7 :.Z.XX.X-.L Z.<.C K +X:.a 9 = # 0 0.H = < $.;.e w e 7.L.:.T H $.}.5XA.Y B { N.M.M.R.B :.A.).qXzX*X..j.N.zXqXn.8.>.>.i # = H 6.>.0.|.iXsX.XK.iXAXuX-./ 7 7 [ 1.n.[ w { @XsX).n.).OXG.K w 7 B K 8.hX5X8.2XNX2X>.f H 1.G.L 7 < 0 f O.>.< * * ; F L 5 e G.G.G 7 q J Q.D.n.K ( j.C 6 q c N K <.:.e e +.< . @ < >.XXA.G 9 Y A.Y , , = = G :.Y 1.:.G :.S.L * 7 m / j.,.J q J e ; ; K Q.!.!.f.c w <.G.<.e 9 n.XX+X7.K K X.^ 7 K 8.P.|.q.j < k 2 O.$., 7 K J >.0 ; = ; Y S.8.G w G 1.<.K 9 ; 9 $.H 0 H q.Z.q.D H >..XXXL 7 -.F.'.C.A 7 w <.3XgXK.H >.K.K.S.&.:.:.:.<.G 7 G _.).-.G a :.Z.+.-.[ 7 w K ] ] ..cX[.] U b.[ T K.iXL.).gXvXtXU w w B n.0XqXF...C 7 - J OXzXQ.q 5 C q c M ] <.{ K <.).F.V...N q q - v Q.<.<.p [ m.<.[ q q ] F.0X].U <.).iX3X8.Y D ",
"7 M f.W.K B ).+X<.n.[ w w B [ n.| A | [ ].cX<.N n.n.).S.; a 3.q.w ; 7 p ] ..N w | N.] p.Q Q b.].+X:.7 ; 8 F -.-.J n.<.<.(.2.P %X'.] w a w , 9 H }..X8.7.1XaXn.q M M w K N 7 [ P.vX@X-.e J N q N S.9.>.H , # d S.$.+ + L S.F.m.F.K T 9 a $.6.}.oXZXL.A M A } E.*XN 7 w n.tXjXW.| ) N.KXqXN 9 g S.S.d # d q.}.|.oXiXsXAXXX8.Z.[ -.D.w q [ :.n.-.; K +XsXG.-.n.Q.D.+X[ 7 G 9.XXiXw.#.}.NXNXS.H a H ;.a = = > < O.e.< = , @ e G X 5 P 1.2./ N v g.F.f.C n | ( n 6 - w 7 { n.f Y S.>.$.0 @ , I G 9 9 a H I &.w.:.a 9 D K :.Y G 7..XS.* ; 5 5 v P / J 1.[ L w q ) u.E.u.V q c ] [ B 9 [ A.XX(.[ w M ] 7 L ;.$.H y < t *.d *.|.Y * , [ S.H ; @ # 0 $.1.>.e ; , 7 a a 7 a 4XoXg G }.2X.XXXG 7 D :.Y w ] ..C.<.] [ ..[ [ 1.a ; H >.>.q.>.F.n.L.).{ B 7.).n.{ G 7 e L -.G.F.v M <.V.b.f.qXaXV.m.L.:.:.XXgXn.n._._.+X{ B 7 7 K (.W.] C ^ ^ v C ] W.'.^ 5 5 7 | ^ K K -.J L _.]._.V.,.:.,.v -.1.).<.w B p 7.F.,.J K g.).)...<.m.P.F.Y Y $.",
"7 c ^ n.C w ,.,.Q.G.L 7 e L n.OX,.w N A (.qXK N n.uX1Xq.; 7 H G.<.M q q A  .C M b.f.} Y.Z M M.*X+Xm.L f +.H.%XG.9 p M K ,.r 5 +.2.N N K w = 9 9.3XiX.Xm.L.F.[ N C 7 A ..[ B K ).aXG.K 7 q w B K T #.$.I 0 > 0 #.L , = a <.F.'.).D f = 1 G h T :.ZX_.A q ] [.=X^.V 7 c W.lXeXB.} V ^ tXG.7 9 f K.4X=.1 f 0.S.0.&.q.Z.2XS.e * * e L 7 ; e -.n.2.J q -.Z.L 7 w P -.G.-.w D :.8.6.0 i &.K. XH.$.d , 0 ; = < 2 , 0 H H 0.$., , ; X ; v v / J q c J n.) C c C | ) c c w , w a 9 f >.6.}.$., , i i G A.XX6.I &.w.9.G 9 9 p w 9 G A.).A.* X * 5 m / / J L G :.A q b E E.a.i.E q c ] ] w w K n.F...M N <.P 3.%.< < 2 2 d *.I q.2X8.; ; Y Z.$.a a G a f $.:.7 @ * , 0 a 0 d $X3X$.Y 0.P.4X}.G K <.)._.K , p C.F.b._.qXA.K w @ O = D 8.}.:...K b.V.A ] '.(.<.{ [ 7 - q D G.f.c M ] <.[ w A ].m.<.L e >.oX2XT K [ A 7.<.{ p q w A ^ M M ^ ..C c q C T.j.q - K G.{ G a H e -.:.<.n.n.,.:.1.-.:.G <.s 9 9 9 9.OX.X2.q w [ F.XXqXF.8.8.Y T $.",
"q V | T.,.C / K +X@X:.; 7 L G.sXOXJ N w { 7.= 7 <.CX3X$.7 9 y 2XqX .c q A b.} } } M M R.Q ] `.eXwXP.-.e D >.Z.>.9 ; w L N - 5 P / J -.1.a , :.gXuXVXqX9.[ N K n.K 7 ..G.F.{ B L.OXn.{ { [ [ <.{ H G g d i d H >.>.L D 9 7 N ..<.-.H = = = + , G 9.n.] c } =X=Xa.Q ^ } b.Y.B.} c M 7 m.<.a $.$.w.4XS.0.e.|.}.6.Y e 9 L :.D ; ; 7 q J v D g.1.e q * 5 w 7 * * e -.P [ G T Y G H 0 > 0 f f Y >.D = a , = < 2 > = > 0.NXS.f ; . 7 K [ q c q q q 5 C v / / | j.^ c C M w 9 p Y T D :.q.1.>.$.G 1 G |.hXe.*.S.I.8.U 9 9 K B 9 w L Y Y < . X G D.D.,.J [ G m.p.V b x ! y.Y.a.c c ..f.A ; w K <.[ B A :.;.{.O.X = j f < > H 0.A.:.w 7 G Y $.;.S.oX>.e H H = = a G D a 0 , I &.>.>.i H pX8.9.2X1XL._.7.A p 1XqX9.L.fXqXF.J 7 * 7 G S.sXF.C M B.(._ ..V.A ....{ w 7 e D Z...M M w A ] M p 7 p a , = >.oXZ.K N w ; ] n.F.] v 5 q ] f...^ c 6 V C Q ..^ q w K 1.K Y D 9 # L K G { n.-.[ 1.Z.L a * * 7 # -.n.-.G.-.; ; N F.vXwX7.8.2XiX2XXX",
"V Q b.'.n.c 7 N F.).Z.G ; 0 S.AXVXXX7 a F.K , 9 F.sXuXK.@XS.f Z.(.` c Q p.p.p.M.Z M } M.} } [.tX].{ G a * 0 .XG.; , B { P +.+.8 e 7 -.n.e 9 F.VXfXZXXX9 ; B <.<.K K [ OX).F.B M ] K n.).<.N <.2X|.K.0 6.5X*.h H.w.q.7.N ; M l...Y < , # = 9 = K M K ] c p.y.y.u.`.N.} } Q B.C w 7 M ).L.:.G d w.5Xe.oXAX4X>.$.$.0 , w -.:.7 ; K g.2.L v q 7 5 5 8 7 e -.:., * Y -.J D 9 f K.|.S.6.0.0 # h H , = a a h G &.H @ = q.oX}.G = ; J m.'.f.C g.f.q q - ^ f.D...w 7 C <.7.G w K qXXX9 B Y K.2XS.Y G 0.oX3X6Xw.I w.m.U { ] n.7.K G 9 , a d 0 . 8 -.n.K m.V.5.J.B.M.R ! ! c.M.E.p.C w ^ F.N w w B { ..K w 3.%.8 + # y j f = oXP.a T [ 9 , a 8..XCXiXG.a a e 7 ; Y Z.:.Y 0 h H &.>.H 0 a T Y L.aX_.7.L.(.K s { F.7._.F.F.7.w 7 ; 7 7 A.LXQ.^ 7 A T.b.X.l.V.K A 1.n.e 7 F L A w w M K n.F.Y * + T >.D Y :.-.[ ..{ N N b.).F.w N c N.KXtXC c c C V E w M G.n.L 7 Z.2X>.>.= , -.sXvX3XF.f a oX2XZ.G ; 7 7.).-.>.-.7 e 7 7 w L.F.7.a Y uXgX2X",
"] A p.:X+X[ w e 2.A.F.L ; = H A.S.G.K n.gX).G s U _.uXuXDX@XD :.T.` V ` p. .` ` Z c ` Y.p.` } Q ] U [ 1.D 1.uXZ.N 9 B L.qXsX3.* - Q.@Xe X e :.<.<.8.T 7 a <.<.K e m.).OX+XqXb.M w w n.aX+X<.).ZXXX0.H |.5X&.f H $.:.A.m.A w ] N.1.g 0 H Y G <.P.U ] .. .E.E R u.jX'.p.A Q T.^ M B B L.XXw.G 0 w.0.e.5XpXH.$.H a ; , a >.n.J 7 J D.D.g.J 5 5 7 q J J Y Z.Z.D , 9 7 ; L [ :.4XCXAXBXBXS.1 = , 0 f h a Y w.S.#.= = H >.>.H 9 7 N n.'.D.j.W.Q.| C q | Q.:X,.; * [ qXvX_.{ [ qX0XA ] m.m.F.K.K.A.S.K.3XhX|.8.1XMX_.V.X...b.(._.n.G D 6.S.;.e [ <.V.+XqXJ.~.l.Y.c.;Xc.s.^.*X*X(.V.<.{ +Xn.w 9 K C.n.-., < = X # 0 g f 8.VXiXA.@XqX<.N -.qXVXLXvXiX[ e 9 , ; Y Z.>.1.>.a $.S.S.f # , { L.1XwXL.A M B M 9 p Y <.G.F.<.a e w K K - w @XdX(.} ] V.[.*XyXtX).<.[ n.Z.G e -.7.A A ] <.).qX.XH H XX2X1.Y L G (.).m.] ] L.0X).w ; N +XbX]...} | Y.N.f.w N ).).G 7 $.q.H 8.< , H XXqXG.L , f uXAXiXS.D a <.m.K 1.G.-.P 7 9 , U <.[ 9 , [ .X2X",
"A q N W.0XZ.K B K 1.Z.H = # y >.L 1.a Y @X1XL.m.U L._.F.@XZ.a F.*Xp.W W } }  .p.l.Q u.[.].B.} w , B K :.7 Z.@X:.w 7 ; Y 1..X+.* F sX@X8 * 7 e K N p 9 9 K <.-.J ; :.A.<.].qXW.^ w w V.nXqX7.L.DX5Xh 1 K.pXS.I 1 9 G S._.b.N ] W.:.f , >.-.a m.F...] b.W.'.V V h.'.].N.^ M W.F._.m.p 1 G P.oX6.=.0 $.XXoXq.;.D , * , J 1.G.2.v v / n.D./ 7 ; 7 v n.-.-.-.Y G a 7 7 7 L.3XA.XXhXgXFX5X$.= = H q.8.9 9 :.S.S.8.0 @ a H Y :.L 7 w ..j.N.N.j.W.W.c q 5 <.).| ; ; n.VXLXZX(...0XfXb.5.w ..1XwXn.D >.pXiXBX3Xm.iXKXyXb.X.X.V.cXvXXX9.I 3XpX3X9 Y L.ZXKXMX(.C._ z.=X9Xc.W T.rXrXaXaX).K @XF.U N [ (.(.<.@ * = = # ; a H 1XDXbX1XwXfXF.N N m.).1XOXL.G 7 [ a ; D 1.Z..X.X-.9.P.K.K ; p m.F.m.<...{ U U 7.G , , Y 7.).n.N 7 K G.f.5 ; K W.'.M.Q C | N.b.V.V.7.N L ).;.e 7.<.[ ..7.m.XXVXAXP.q.iXNX.X1.G N m.F.7.B K (.0X].] 5 ..mX:Xb.N.N.| :XlX].K N Z.S.L 0 D H H >., , w [ n.:., + 0 H.8.Z.Y 7 N <.b.<.1.Z.>.1.[ B , 9 <.7.[ 9 a G.sX",
"A w w / n.<.G w ; D Y e # # 9 H L 7.e 7 <.XXfXfX<.m.<.9 7 ; , (.*XM.` Q } i.M.Y.p._ u.*XjX0Xb.M p l...(.e Z.G.1.G s ; 9 , H y 8 F 1.>.G e ; ; w w w G [ [ Y Y L , 9 w 9 G.F.V.b.A ] ].bX_.{ F.gX2Xh # I  X0.d > , h >.7...[ <.F.8.D D Z.<.Y L.n.N.| N.'.'.c q ^ n.F.m.[ K qXvXKXA.:.s 9 &.2X4XK.2 < G q.S.q.H 7 * ; w Y n.[ w q ] W.OXN.J J n.@XvX).1.G , 9 Y [ w w ).qXn.A.2XgXVX>., = = G >.D 9 9 -.9.8..X$.X H >.8.F.1.M q A } u.f.^ W.).w w v <.F.[ 7 7 Y F.[ 1.K w V.eX`.B.M ] (.1XG.:.q.XX5X2X8.:.0XIX8Xx.Z _ `.mXaX1X.X8.pXhXXXa U 1XLXDX1X7.o.o.~.kX9Xs.V N.qXzXZXvXG.a G [ [ B U b.b.[ ; < y 0 = ; G n.wXfXfX].F.).V.K v M B ..<.B w B m.-., ; G S.sXiXqXA.<.7.<.B K 7.V.F.n.7.<.B N 7.8., . 0 e S.Z.K 7 ] ).^ q v q c j.W.| w M M w w p U w 9 Y G , G U m._.F.9.K.gXDXP.>.}.iX1XG.K M <.F.b.A ] F.].].B.A N.rXN.} V.'.Q ].cX).N 7 L >.$.G $.0.K.w.0 a N w G T 0 ; < 7 e -.L 7 N / K / [ a N F._.<.M N B U <.[ e g.uX",
"7.A.-.w 9 G G 7 , H q.>.L G f a a :.N 9 K n.1X1XK U M = ; ; ; [ l.z.z.z.l.p.p.l.M M A N.*X(.^ w _ B.b.rXK / L L U { G U a g > = X 7 +.-.Y 1.{ ; 7 w [ A.<.Y -.-.Y e 7 7 V.b.b.V.c  .].].[ p U 9.8.:.0 1 $.0 @ h $.a 0 a B K { <.[ w -.-.K n.n...b.] V.+X+XC q 5 1.-.D J <.DXCXgXXXI.I > 9 &.q.Y 0 , = d >.1.L a ; ; ; w K v 5 7 | n.W.f.C K ).JXKXqXS.L = , T n.{ A F.(.{ :.L.3X:., 9 D = = D Y U p { A..XuX>.* Y n.G.G.n.K w c | ^ C c f.N.q w / 1.7.G 9 e T <.7 K N q Q M.M. .p.M.V.'.@X@XG.>.G.:.s U [.xXyX/.V _ Y.0X+X2X3X8.3X3XS.:.a A._.8.T p p 5.[.xX*Xi.C n.@XsXiXG.G = a G a , 7 A | [ , y Y $.D w [ _.0X].(.b...V.'.N.A M c C K q 7 N { <.N ; 7 1.gXvXnXV.C ] 7.[ N M [ qXnXqXn.w N G.>.; o ; * L L 7 w A ] 5 q Q c C C f.^ q v C p p w w 9 , 9 , = # :.iXgXA.f H A.oX#.G Z.OX+XV.A M [ F.V.] K ] ] f.b.f...} Q ^ f.(.| W.).K = * 0 >.$.j 0.4XCXXX:.8.K 7 N -.G a 7 X = L L e w q q c K N ..+X0Xm...<.w w [ { w [ OX",
"8.@XP.a 9 8.P.8.>.Z.P.P..XoX}.q.a <.Y N a N ..b.A M 9 ; K 7.N N i.z.Y.z.i.i.l.B.} Q M M | [ K ] p. .Z b.q - - w w 9._.A.&.1 # , ; ; r G P ).qX{ [ M G { G J -.-.S.1.:.[ <.b.N.] w X.V.C.B 9 9 , i H , # Y =.0 q.|., = G N 7 N [ w 7 { J w [ M w c w N.rXnX'.g.J r 5 ; 7 G 2XXX3X2XA.a 0 a i 0 = 0 H i < D $.L a P G q 7 v J v v q c | ..C 7 C V.G.7.[ B ; = a Y N M f.V.n.-.B B = + a :.9 ; -.).n.p K F.1XXXD * e L { { | K w x T.p.C c | b.C B ; K 7.Y a a H Y -.W.f.^ Q Q  .W _ M.`.`.F.n.-.G [ a w A b.^.=X^.` ~ _ b.F.A.:.1 H =.q.S.7 a a 1 # % > { V.].Y.| B K -.:.G , = ; >.Y w ; , M ] A 9 d 1.P.7.N A b.V.] c w V f.Q.W.V C C w ^ C M 7 A V.n.K w G XXaX:X .M Q b.f.^ M 7 <.0X+Xn.K [ F.y ; ; 0 y >.-.9 N q q w E } Q p.v v 5 5 v K U K { 9 = s G i = = A.VXgX&.= # 1 H ; a n.G.b.^ 5 5 M b.b.| ] w q A b.V.Q 5 w A Q } ^ ,.n.B , = = H H y >.|.4X9.[ <.w ; e [ G 0 , + . e -.D q 6 6 c A C.cX0X(.b.J.b.b.A ^ / 7 v Z.",
">.2X2X>.$.2XNX2Xq.0.>.6.XXNXpX}.7.(.F.n.U M 7.(.V...M , [ ].f.A ` z.Y.i.Q } B.[.B.b.M q C | V.eX*Xz.V } C 5 7 w 9 A.gX_.K.2 k %.+.r ; ; w <.+XaXF.K K Y 7 7 G G q.S.OXG.B ..B. . .p.V.L.b.{ U 9 T G 7 # >.2Xe.e.e.= e S.Y w / <.e [ F.n.] ^ A Q q ; f.zXKXaXqXG.* * ; 7 ; Y T S.S.P.w.w.:.f T T 9 $.>.>.Z.q.H a A..X:.q N g.g./ q q ^ N...7 ; N N K N 9 9 s a p * 7 A ..(.F.s p , 9 [ 7.N 9 [ <.b.K B K Z.F.e * w q q K f.^ c c lXeXp.Q f.'.).{ * T ).A.H 0 1 , D ,.] | } ~ i.i.~ ~ } j.N.2.e * e K | | _  .c.Y.z.~ M X.C.T 1 = # = >.q.; = 0 = # 1 i I N ,.../ e e 0 , X o * f q.1.[ A A A Q A w f 8.2X).K p ] p.C 5 ; q C j.W.} Z Z C T.N. .M ] 7.b.n.K w <.+XT. .Z Q u.b.f...C N ] ..K N e 9 u O.;.$.H.#XOX<.[ C c _ p. .i.} ^ w 5 q w K [ <.m.{ 9 s A.&.1 a :.I.K.I 1 # @ , = 0 -.[ K V 5 - w | b.V.V.A M b.T.W.Q 7 c } Q c w N [ L H e # g $.0 g h H 9 T B ; ; N :.:.D 7 = e 1.@XG.J c C E ] '.KX0XB.5.[.V.'.} A v 5 7 J ",
"K.hXgXK.A.4XiXP.w.8.>.q.iXDXfXA.7.L.).).<.s 7.[.0X_.<.7 K (.b.^ q ` M.p.Q Q p.R.Q ] N w { n.L.cXjX~.} f.N.A M 7 p 5.1Xm.6XT #.Y H.%X-.7 J n.+XKX[ K n.F.a , 9 , $.8.OX+Xw K (.]. .A A b.(.L.m.[ 2XA.8.0 H oXH.$.f # 3.pX1.-.G.Z.w F.(.0X).] N.(.<.v n.aXvXQ.G.1.+.y 0 0 = d 0 I 8.K.T *.S.I.P.G 1 H q.NXLXoXG D G.sX).w N (.).[ K w N f.| 7 ; B <.L.-.p { m.{ B } } Q M b.C.p N * s n.7.a w K [ b.W.{ ; K OX-.7 L 8 7 -.).f.C A aXtX..M K F.0XA 7 7.+XL.<.[ [ [ ^ j...T.B.Q i.` V c A n.F./ 7 * 7 | '.V.E Q M.U.U._ V 7.).{ s 8.= + L F = * Y , &.w.w.&., L | [ e H $.H , = , e 1.m.F.n.} Q } ..9 0 8.qX1X{ S  .B.l.Q c q c | :XR.V c W *XB.] A ^ c w ..<.N { ).'.M.E M A  .f...+Xb.n.F.{ K K J 1.S.}.;..X@XuX(.+X(.A A _ ..V.M e ; 7 e ; ; K -.F.wX{ p K.8.9 G a H H Y >.f , 0 0 e a w A | c 7 7 G { m.(.A w l.'.B.} E } Y.E.Q q 7 N J Y f = =.3.t 0 = = 9 F.[ w w { ).1XG.H , D A.sXuX,./ h.N.[ 7.wX].J.5.[.J.T.| ^ A N J ^ ",
"K.|.gX5X&.oXS.6.hX3X6.w.iXDXDX3X{ U -.n.-.N U F.).[ [ w 7 G.qXn.w C ~.].E b h.!.N...F.8.8.6X5X|.bXW.} b.b.] b.7.A X.J._.0XS p X.(.lXW.q A cXbX<.9 N <.n.9 # 9 ; G n.).G.7 K m.+XF.] A M n.@X[ N gXG.7.D >.4XP.;.H 2.pX.XoXG.-.D w '.mXdX).,.| Q.).Z.v 1.L e }.S.D f ;.$.>.S.G 1 1 *.6.&.I 6.3X|.>.8.iXCXAXgX<.L L.).V.K N [ F.).G ; , Y 1.N ; ; J :.<.K K [ f.B.IXU.R } E p.aXV.7 7 K n.{ 7 w | N.T.<.p a 8.S.0.#.H , $.NX@XL [ .XP.S.; ; n.vXm.7 ] T.eXeXR.*X*XQ V Y.JXW.C V.<.-.K [ <.N 7 , * w | B.N...C c Q Q W.f.[ (.L.[ -.a 7 8 L H 7 9 T iX5XXXm.G N f.1XS.j i h a 9 9 w ] B.*XkXM.! E.N.K 8 D Y 7.7.A _ Y.~.[.i.q c u.| y.b x ! B.N.| A c 7.(.+XqXF.] ] A N.c q M M 7._.KXP.L.m.m.L.{ <.+XqXqXn.F.L.<.qXqXL.{ B { _.P.G i T Y G N 9 w Y A..X&.T 8.n.G...M A V.tX_.B 9 K n.Y N w a F.G.9 h 1 I |.XXT U J.bXtX*XT.h.h.-XkX,.5 X ; $.0.>.*.j f 0 a , , ] <.N X.{ )._.).:.[ @X1.sX(...] W.+XT 1 h L._.V.C.~.`.M.} ] ..| ^ ",
"h w.6.I &.#X6. X5X|.&.6.A.I.I.7.B 9 9 U [ B G { [ K <.B q n.+X(.7 A `.*Xu.y.M.} p.b.qXoXe. X5XSXP.| v ^ ] ] ].cX..X. .5.C.M p l.*XjX=XV q ] 7.U { U a T T , , w L <.F.F.7 J F.qXvX[ 7 w Z.(.[ { sXL.:.a L Z.G 7 e e A.Z.OX1.e ; w W.rX'.<.v v <.g.[ * 5 7 8 q.3.;.8 G S.pX4XY h h &.I.6.K.hX6X|.K.A.pXAXVXXX[ -.L.+X).] p U b.n.G , 9 q.S.f * * q J C c C ] } y.=X/.W W a.`.'.] 5 w <.(.F.^ w q Q } A , 7 >.K.S.*.g > >.sXS.e G y 3.oX>.D <.OXn.N | f.=XeX=X=XR.R x } *Xn.K qXNX@X;.9 9 w N B N M ..T.N.| v 7 v ,.F.L 7 w B U F.g.D N >.Z.Y 9 , A.iXbXXX<.<.(.1XI 1 1 G :.m.(.[.c p.=XkXU.! U.!.-.8 = ; p U M Z  .x.z.` q q V ^ } Q V Z f.`.f.c 7 M ..).OXK q ^ ..F.b.{ w p 2XDXXX7.U m.L.L.].).tX]...7 M { [ +X_.9.s H oXDX.X1 i I K.P.7.a w Y A.3X6.G a K D.W.A } N.(.V.] M M <.m.Y 9 G Z.1.9 h l l 6.I.1XJ.X.b.N.Y.Y.a.u.E.>X,.w & ; +.q.0.*.2 I 6.w.G 9 [ b.| ] 7 w p { N N XXA.A.G.A <.[ { I.r.H s [ 5.| _  .Q Z } M.f.^ ",
"6.K.&.0 h e.0.4XAX2X#.h i i 9.I.7.N w U <.U 7 ; v ] W.f.^ ..} ^ ; 7 A Q Z h.`.p.Q ] ).S.I =.e.5XK.F.B 9 K qXKX].A S M  .z.` Z i.i.B.M.} w w <._.L.P.a 9 ;.;.D 9 N B :.F.v e [ Z.sX{ w K (.+XG.qXG.m.{ w [ <.w ; 7 * D -.G.>.e 7 J | ,.,./ v 7 v J J , * * 7 P 1.q.8 y S.pX}.f 0 I 6.gXI.w.gX6XgXP.q..XuX@X1.B -.L.qX1Xb.B B K K a = , Y -., * 8 e v w w A | ] V y.=X` V `.0XV.^ F.g.K N ] b.p.Q Z } Q 7 ; f &.*.O.0 = $.oX-.; v -.}.oXq.7 7 N [ f.f.} p.p.} z.p.R q V | ,.e XXCXCX8.= # G 9.7.7.w | V.F.f.C 7 7 K ,./ q 5 w ..:X).-.J 1..XS.T 9 8.gXKX@X<.F.'.L.1 # > a H 7.).].5 } a.R.R.a.R.:X>.0 ; ; w A w q Z _ ` Q V q q Z E ! Q E Q | ^ w M w K L.+X^ q C | | f.n.w w A.A.p 9 > Y <.<.qX1Xm.F.7.w p N s 7.A.8.a a S.oXI + H 8.1XXX<.N M p T A.:.a 9 w n.'.q M A ] | ..K w { G.[ 9 Y :.a 9 = > 1 h 8.2X<Xb.L.p.] ^ E b u.'.j.C 5 ; D >.*.#.H #.#.:.U N ] N ] A 7 M p N 9 T N H 7 N M ..] B s w.{ 9 p { .. .l.} Z } (.`.j.",
"0.#.#.g > >.5XpXNXoX#.h 1 1 w.gXbXL.K A ] ^ M w C N.rXrXeXR.c q b.] M w c p.R.p.^ c G a 1 > d e.|.3X7.a T 1XaX] A Z c M.R.^.i.y.M.p.M.p.A w [ XX.XK.G G A.A.8.-.v 5 e -.v 7 e B -.N 7 7 B <.F.qX<.+X(...).0Xg.[ ; ; a Y :.Y Y -.,.v 5 v ,.<.N 7 7 J >.D 8 7 7 A.H.>.$.$.;.$.7 # , G K.I 0 *.6.3X8.H H :.n.7.<.n.9.L.1X+XV.[ ] [ { G w e w e 1.@XD./ v C | N.| c Q ^.i.Z N.'.n.,.0X'...C f.:X`.Z } N.N.] w a f d < > * 0 L e ; P #X}.L a * ; q D.(.].T.N.} W z.Y.Y.] | b.).[ Z.XX@X;.# = <.L.n.m.A ..<...<.,.[ ,.C ,.m.<.N M n.aX:X<.N J -.:.Y H 7.3X3X-.K F.).n.G H $.T 9 w U  .M E q Z E.E.T.W.G 0 f e N ] M M _ _ V Q p.C q n c Q p.f.Z 5 q ] V...] V.0X+X| w c v / { w ; 7 = a :.Y Y N Y @X+X[ m.L.F.F.<.a 9 9.P.9.a 9 = = I A.I.XX<.w M C , 7 U T s w w K ..w M A ] N.).G.<.[ <.[ Y -.K 9 9 G I 6.8.m.F.].tX0X..c c C n ^ f.N./ w 7 e D $.0.3Xw.a 9 s ] ..p B ] <._.{ 9 w XXY -.N 7 ....].b., P.XXU w q C Y.eXY.Q } '.0X:X",
"&.i d d 0 $.{.>.=.=.I >.#.a 6.1X@XF.<.b.n.f.] Z ^ R.xXGXKXeX~ Q '.<.A V ^ f.B.p.] w w 9 0 , > #.K.K.K.|.{ 9 U b.~.i.V i.z.=XU.c.p.B.R.M.A w B 7.K.9 9 oX@X-.G.sX-.; ; e m J 2.:.n.:.B w N N 7.0X] lXtXV.+XtX(.] w [ <.-.N p Y 7.<.q & 7 :.F.{ 7 7 N G.Z.-.e ; G.}.#XZ.L f D d = # 1 a a 0 a H I Y 9 = 9 7.@XiX@X[ { ).bXcX(.b.F.).XXm.N 9 :.aXLXzXn.^ ^ f.`.M.c E u.B.| A ] ,.N.:XaX:Xf.M.*X`.Q Q f.V.b.{ Y Y H 8 d 0 , q e L D.VX#XP G 5 7 w m.N.'.(.T.l. .Y.`.'.] N K F.-.G L H 0 X = -.Z.n.(.).V.K 7 N :.G.@X-.n.F.n.C w ..tX+X<.e w G Y L a G H a 9 K F.D.-.;.H.@XA.a 7 N  .p.Q - 7  .b.p.] * , L G N C A M.M.i.V Q T.M.C c q ^ T.W.] w A V.aXG.<.G.qXrXD.C q ] g.{ L a , a 8.XXfX:.7 Y A.XX@XL.<.m.qX2X9.9 :.P.S.>.9   1 fX2XL.n.| C Q Q 5 w { 7.G w 7 7 c A c w [ G.+XqXaX-.a [ ).F.L G G qXsXVXqX<.B 7.wX<.N w A | ^ v v Q.f.J J N e :.2XBX3XT p p ..F.] ] L._.].U a -.ZXvXsX<.w f.b.].| [ ).).b.] q c [.*XY.Q } '.rX:X",
"0.>.y f oX{.@.< # < f 0.0.H T :.J K <.F.Q.V.p.^ ^ p.[.*X8XU.~ M.V.<.A C ] f.T.W.A w M G -.G 1 j |.6XhXhX7.1 U _.N.} R ! ! Y.R.c.! `.0XB.M 9 B { Y , f oXZ.D G.dX2.7 7 D k..XuXG.-.L J 1.<.7 9 ] A jXjXT.(.].(.K ..].).V.p 7 s [ [ v q w J :.<.J v 7 -.Z.n.P 7 >.G.H.L H H D H f * a $.P.S.Y I f T a = 9 <.@XsXXXn.[ m.bXZX].7.n.+XbXaX<.K ).ZXZXmXN.^ ] | T.R.Q C A W.N.w w | (.qXnXlX .c y.R.R.V Q ] ] [ -.-.Y A.S.>.D P D.,XzXFX,X1.2.G N J n.).).f.| ] ..[.[.KX].<.-.L.XX8.q.0 = X = K 1..XaXaX).B ; w L [ [ K [ <.<.] w A (.n.{ B K F.1XXX8.Y a 7 N -.2.J 7 L A.iXqX<.K V.tXT.b.M C | ] ] N * e G.).<.A C N.`.B.Q E N.(...c q ^ b.N.V.(.(.F.vX+X).0XOXF.n.g.J g.D.1..X.XH H >.S.gX8.e 1.F.@XqXK.T :.P.XX.X-.G G I 6.&.1 0 XX@X..^ h.E.u.n 5 K m.I.{ p w w ..^ 7 * w <.).aXKX<.7 [ iXOX:.-.-.+XvXvXF.M w U n.w w N [ [ J N J Q.N.j.| N 7 G K.XXA.G w K V.(.M A _._.m.[ L.1XvXKXqXN c C W.N.C ..^ A B.*Xp.Z u.} } Q | (.+XW.",
"0.3.f %.AX5X{.@.= < 0 >.q.$.I f D D e a [ D.OX:Xf.C V E ! R x u.:X0XF.^ K ..N.W.^ M N { P.A.a h I.hXhX3X7.:.L.b.A A u.` ! i.R.Y.B.jXnXL.M 7 9 p a Y -.L e e k.k.-.y P L G.@XuX[ v >.F.aX>XJ w N ] eXeX`.B.B.`...'.0XC.V.M 9 s [ ..{ ,.J q K g.<.J ; v <.m.<.J J g.-.7 e e 7 P H 8 0 1.oX}.$., 0 G H w G [ -.L.F.F.[ Y L.qXL.[ B _.cXaXV.V.aXKXbXrXn.| | Q p.R.b.M B F.<.w w ^ ).V.eXeXp.V ~ i.i.V c c C [ <.Y D VX2X1.-.D.sXZXJX,X-.J L -.1.).G.qXqXF.7...b.tXcXZX1X9.7.:.2XZ.A.H , = 9 L G.uXsX1XA.e ; J -.P w e B C ..V.A w b.n.n.b.7._.gXvXiXG.-.K [ -.P N N -.Z.2XsX).F.qXKX'.b.A ] [ U [ p ; y .XaX+X| M } *X'.B.^ | W.W.C A ^ | n.+XaX+X7.wX1XaXqX<.K ,.f.J L 2./ G.iX>.9 H Y S.S.Z.S.}.OX>.:.H :.>.q.XXH.i , 0 >.w.H 0 a n...} h.=XE.E q A { L.7.] { ] (.F.N ; w { F.+XqXG 7 B (.OX1.Y -.N.lXaXf.v K <.-.N a e 9 7 9 f G ..N.W...w 7 w D -.:.a w ] L.(.w w 7.b.V.F.qXP.A.XX<.N A M `.Y.u.| V E R.eXE.V 6 c Z C ^ b.V.n.",
"#X$.@.e.$X{.5XO.= < y 3.S.>.j > = , 0 +.S.uXdXuXQ.q - 5 b V c ^ ] (.G.K N | b.N.F.] N <.iXiX$.H T 8.m.m.{ { m.[ ]  .`.u.E Q [.[.`.tXaXV.B p p 9 a 8.G ; 7 r L >.k.L +.e -.H.D.; * n.).).,.7 w w A B.B.M.E M  .Q [.V.M ..M w o.b.m.F.F.K 7 K F.n.N 7 N n.m.1.[ 7 2.1.w ; * * L -.S.7 L q.P.8.@ = , N N <.[ a 7.).<.a 7 B n.F.[ w ..V.b.] b.aXJXvX:Xj.j...M Q R.V.w J 1.N 7 w C `.N.Y.p.W V ` d.Q Q n c ^ n.m.{ N KXP.G L .XvXZXzX.Xw r v 1.D.).J { ).+X).m.m.wXvX2XXXK..X>.gXP.}.-., , P 1.OXuXXX).-.; * Y OXOXF.-.-.N ] W.] w b.1XwX+X<.U n.XX3XL.7.-.-.-.-.A.uX:.-.Z.).m...V.0X(.] w B B G { 9 , ; -.).).f.C f.0XrX:X| C W.+X] N.| | ).vXaX).7.L.qXvXG.N K | B v 7 L 8 e P.S.H e 9 9 S.S.L $.f G G 9 H >.q.oXw.h 0 H H.S.>.h , { '.E.( E.*Xh.c w s 7.:.m.V.] <.0X-.7 7 N K N w , 7 7 K G.-.w K W.lXzXN.N N K K w 7 = @ * < 0 8 q f.W...N B N 7 G m.m.{ K n.:Xb.7 p N F.L.n.9 9 L 7 ,.M V } M.i.R ~ a.E.T.E.i.V c V c c A | <.",
">.$., > O.3.3.t = O.0.%.g g i 1 + . = %.#XpXpX.XZ.J - 7 w A W.j.; e [ m...^ f.f.b.b.B m.wXCX<.a w ^ [ C C ....A [ b.yXV.7 7 U V...m.K K G 9 a 9 H 9 9 , * ; v L %XH.r & 7 D 5 - * e 1.F.L w w w V c c c Z A w M A M w p w 9 9 M K <.L K 7 N N K 7 X ; K n.q 7 / 1.:.; 7 5 * :.G.1.e ; a :.D * @ = <.7.[ N U ).F.n.<.9 7 a 9 w 9 M A p w ..0XcXvXF.f.F.b.M A f.K e Y [ L K w c M.'.} Q ! c ! U.i.| c c M n.<.7 Y ).[ -.-.L L -.G.g.; 7 D / -.v K N K L.m.p 7.fXiX9.2XP.8.:.L.<.L a L P ; L ).Z.@X).F.L 9 :.VXZX@X-.e 5 w C K ] ..<.F.n.K a p a K F.9 * -.@XsXLXOXL :.-.G.<.7 A b.V.m.B , s 6.6.:.f = = G :./ C C ,.N.f.^ F.aXaX).vX<.{ F.1XqX7.G 7.wX).K w 7 v ; 7 & 5 r -.S.G 0 1 g e e L 0 * 0 >.h , = a >.>.L , 0 q.XX>.a 9 ; K ^ } } h.R.h.q 7 9 p B ] A ^ b.OX-.J -.[ 7 = , e 7 , 7 7 w K K (.!.'.W.^ 7 v <.J e D 9 = , = * C p.(.| K { B w Y F.{ p ..wXaX[ 7 w 9 Y A.<.K w 7 7 K ^ q c } b ~ b ! R.R.E.h.V c c c V K C N ",
">.=.< # + + < = < t g g H $.g , = + # u e.pX$X;.q.-.; * ; K ).G.w ; N n.<.N 7 w M 7 7 U ).@X1XaXQ C x 6 q c C C b.m.1X5.1 s 7.A.).7.w , -.9.>.i 9 a N 7 ; e v - g.g.D 7 J -.J N ; w K :.<.J w v b.f.^ c M Q  .(.M M 7.V.X.M S U [ n.[ K w N 7 w w & N ).vXn.K N ] n.J J q - <.F.n.N ; e D 7 ; ; <.0X1XL.<.7.aXZX7.-.K Y Y G Y s p ] A w M [ n.F.A w f.].b.b.N.A w e J <.m...A E i.i.i.} ! ` U.`.^ q 5 C F.{ , N (.1XqX:.K [ N w G.J w v [ F.F.m.n.[ Y B 7 U F.9.L.XXF.G w , , 7 { { [ N L -.G [ n.<.N 7 K OX@X>.J 7 - w [ [ B w U F.P.7.B w K F.K w e .XvXAXAXZ.* Y [ 1.(.<.] N 1X_.9.U s I 6.6.f ; @ ; K -.J 7 N J v v [ A.1XZXvX[ K F.XXn.e , a 7.<.[ w * q K q ; ; 5 -.S.H , # H 1.>.L 9 , D A.I = = 0 a f 7 = 9 A.2XS.T a ; ; 7 5 b b h.| V ; 9 s { { M w K L 9 e -.:.a , 7 7 7 K 7.m.F.A...f.T.W.| q 5 / OXOXS.L 9 , f >.L M A f.| f.m.B ; 7 9 ; w B U 7.{ 9 9 [ L.F.[ 9 7 7 C N.p.c V i.! ! b ! U.E.E.E.} c c Q N.'.f.v ",
"= g t , + + < < = = = , y j f <   . 3 z e. X3.= H $.7 * 7 $.S.G.A.8 L OX@X{ , A K M ] w M w <.V.E ( p.h.E q c ....7._.A.8._.3X3XgX2X.XG A.}.oXP.Y H N N [ F.n.v 1.n.-.N J L [ ,.7 w w L D.-.w e n.<.N 7 w A ..V.N w <.(.] M ] U [ Z.[ K N Y K m.V.A V.aXZX(.n.] w n.,.| c w n.D.<.w q K K N 7 ; 9 U <.n...A 7.F.F.G B A.n.Y <.K ] L.[.7.A w w w N N dXLX).<.F.7.D 7 e n.+X].f.c Q R.Y.} ` V b B.:XD.C <._.[ 7 7 _.vXbX).<.L 7 e G.g.D e -.qXVX).[ 7.A.-.w 9 G :.T K U w K , w M b.<.<.).).n.-.D A { [ w N 1.Z.-.G 7 ; J Z.n.G , a 9._.).n.K [ W.F.K w n.@XuXS.# ; 9 9 A.vX].] N n.7.9.{ 0 1 I 0.H G 9 ; D n.-.7 e K G 7 * , Y oXG., a 1XDXuXY a a A.qXaXF.w N f.D P ; ; P q.$.= # h >.$.0 , 0 H A.$.= , 0 7 a , ; w 8.@XP.<.N ; B B q | q | A ] { T T A.2XL.K w ; , H .X2XS.1.1.; ; a <.).1XF.N M b.(...q 7 N 2.-.)..XXXP.S.XX<.7 7 A <.).qX1.K L N G L.A.a { @XU N +XfXL.L , w v f.rX*Xi.M.*X*Xd.! ! y.u.M.W.N.C c C '.zXW.C ",
"H {.0.g = = t # # # = > 2 f I >.< < < ; = < t ; g L 0 7 H >.>.q.Z.7 L G.OXn.w F.(.<XwX..p A n.] x ( !.*Xp.q 7 K ] U m.F.I.XXI.I.CXCXLX>.0.w.oXhX}.a 9 n.0X+Xf.N K n.F.<.K B ] <.K L N K F.-.7 w { n.{ K K A { n.<.w ] F.7...b.A G n.-.:.-.n.n.uXtX(.qX0XF.| V.,.5 | ..] A ] W.b.,.v w K { { K v w w A F.F.K w w <.w p [ G -.K.a [ L.]._.m.U 7 * 7 w @XsXN 9 7.<.Y , 7 [ n.V.f.c ! R.R.i.} Z Z p.vXqX[ <.F.[ K w L.vXZX_.A.Y 9 -.1.A.D 8 / @XZXn.* L Z.<.N = 9 m.).7.U B b.| |  .| [ b.vXZXiX@Xa w b.'.n.J N L -.P 7 ; H G.}.>.a , T ).1XG.B N n.OXL 7 K 1.S.A.H 1.9 9 ).vXqXm.K B { 8.A.:.i h S.h >.&.a a Y G , 7 8.Z.0 @ , H 8.-.* 7 G.CXVX:., 9 XXDXKX0XK w w / D.e * 9 G H = = , g Y G 0 0 7 e g * ; , ; D w 7 9 G <.m.b.U w :.9.<.G.w q 7 K F.8.I &.XX+X,.7 9 G A.pXNX2XP.P.n.K a L G.iX).N w | F.V.[ N w 7 J uXvXVXXXm.gX+XU M ..L.dXsX).G.OXG.).VX@Xw K @X{ p 1XqX:.K ; w 7 ] ].*XM.a.=X=Xz.s.y.! R } N.'.^ q w W.cXW.Q ",
"5XpXS.f + . t g + + + # 1 I w.XX;.D 0 7 X o * , ;.H 0 f >.$.D :.r = $.1.S.n.K qXnXnXtXV.A V.`.| | u.M.N.p.C w w K w C -.F.P.L.uXSX5XSX0 #.>.oXhX3XT { fXZX'.A 7 7 ] _._...A U ..n.m.K N <.[ D -.-.G.A.Z.[ 9 Y m.{ 7 K ).F.n.f.w K 7.-.Z.m.n.K { (.V.+Xb.N M f.A q Q Q V A p.N.] | N w w v K ,.m.7.K [ V.n.N , 9 [ 7.n.G = Z.gXG 7 S U 9.L.7.e = 7 7 -.-., Y 1XXXL 7 7 w q c A c R ` i.a.M.W.].'.L -.7 w ] <.V.{ ..vXbX9.{ :.a D H -.8 ; e 1..XN ; w e N Y J K G.vX0X] C ^ R.`.].b.p.n.vXZXvXiX9 w B.tXrXn.B w q e ; = d 0.}.S.>.# a Z.).1.7 q ,.f.K K K a 9 T P.P.D -.A.7.1X+Xw w 7.8.K.3XI > *.0.}.}.>.H f 9 * < >.6.2 # > 2 d L 0 f H S.pXK.f 9 8.XXiX].K N N <.uX-., , , f 9 # @ i q.H.T 9 * , H D e 7 w -.[ w w w N <.b.| K h &.P.XXL ; w [ w.I.*.i H A.1.J ;.>.8.Z.8.>.$.-.XX-.w , e <.<.N [ [ { m.(.m.-.L D.ZXvXaXn.] 0X(.U w U L.zXZXuXuXdXdX@X2X1., a :.Y w ).G.[ 1.J N w M ..T.h.! y.c.c.z.y.R c w ^ F.^ q q D.rXN.c ",
"4X|.0.*.< . t e.2 , > 1 I K.5XfXn.B B <.<.K N e -.a T A.P.:., 9 X 8 q.Z.G.A.{ qXKXtXb.| c } ] Q V.].0X].n.] ^ ] ] M K <.).(.n.@XH.e.*.. = f S.4XA.n.).wX+XV.} M p ] (.J.U M U { 7.<.w ; B 1.OXgX.XH.a L $.9 G [ L N <.).j.] ,.] G.:.a [ [ 1.B 7 { B K w w A b.Q l.i.W M W  .} M M ^ A w q w K V.U A <.b.K 7 * a F.F.XXn.= a }.Y 9 p s { F.n.G e * = 9 = . H 3X2X<.-.[ N 5 5 V E V b V Q p.`.'.n.* 9 w w B 9._.m.7._.1X7.{ :.G :.D e ; ; , e K 8 ; 7 ; w [ [ G { ,.V.Q V c Y.Y.^.i.Q ] n.m.F.A.7 M i.].tX0Xn.v * ; * # 0 >.{.{.S.G a e L :.[ J ,.f.[ <.-.G 9 , G 8., H -.9 T 7.9 9 T T 9.2X&.= h }.|.|.0.I a = . D j 0 > 1 1 3 i G >.}.0.>.|.S.:.p a s 9.F.[ V.aX).VX).L L G f I = = 0 #.>.H 0 0 D :.8.L N K <.<.<.b.{ ] ,...A N 1 d I.XX1.e T q.}.3X*.1 f S.G.-.;.H 0 > , e H -..X7.L a w B { -.L.9.9._.iXqXOXG.F.+X).].V. .l.M 9 = w <.@XuXF.Z.@XuXS.;.0 , D Y e 7 -.-.Y Z.<.K B w c u.E.z.a.c.c.x.` _ Z 7 7 [ m.K v ^ h.^ c ",
"w.S.w.{.>.2 < < e.{.S.q.S.5XBXCX).} Q M.'.'.(.n.p 9 m.wXqXm.7 = . F 1.>.1.H w { F.b.] ]  .b.p.b.7.1XbXaXn.B [ F.'.W.F.b.N.f.q q 8 z 4 .     f >.H U [ A S l.M._  .X.J.J. .] ..{ <.[ q * w Q.VXFXNXe.# f >.e D D 1.Z.@XqXg.^ D.qXL.D ; w 7 [ n.<.<.p w w ..| B.V.8XM.` Z Q } Q A } V.| M ^ C w ] ] | ].(.{ N w { A.[ 8.P.f , Y G T m._.1X.X9.Y >.8.8.;.0 , T XXiXXX@XF.] c c E a.` i.R V M.T.| K e D 1.-.U { 8.L._.U G T T G Y oXH ; e Y H 0 7 G ; 7 8 w v q 5 7 w ^ Q E ! i.! W c 7 C M 7 9 a s } _ u.`.:XW.J ; * * = t %.e.0.*.$.9 X ; -.n.g.n.W.,.{ [ (.2X7.T G # a H 9 9 s :.:.G a :.P.w.#.I h r.0.H 1 1 2 = g 0 > 2 0. X X X>.S.gX5X8.h 1 > p 9 , B [ K W.ZXqXaX).Z.3XP.G &.h I i > i H :.A.-.e K a N [ B <.+XaX0XV.f.Q c M d l *.}.>.;.>.q.S.e.d # i >.-.w 0 , # + 7 >.}.XXY a a J N w B G L.I.1X3X2XqX@X).Z.K M ] p.B.z.A M p [ :.-.G ; ; L $.e , * # 0 f ; ; , , 7 e J L v 7 - c a.=X-X/./.x.i.B.V.N ; N ).n.J w C ^ ( ",
"D 8.8.q.S.Z.H O S.4XpXP.9.A._.+XB.y.z.=XeXeXT.A 9 7 L.wXXXL.G , , 3.;.;.-., = 9 7 ] b.] ].`.B. .F.XXaXwXn.K 7.qXvXzX]...N.W.E v y ;.t < = . , 0 B p w w A V.~. .X.X.(.tXyX<X(.{ L.<.N ; w ).sXuX}.*.# O.$.. = y L A.dXsXF./ f.:XL ; ; a * K OXqXV.K ^ n.0XN.B.*XjXY. .` } ] Q p.jXjX} w b.p.w C b.b.'.f.C N 7 K [ 9.G..XS.2XpXY :.2XKXDX2X:.Y S.AXoXH 7 D >.9.A.aXaXF.A C C Q B.p.*Xp.] rX0X<.m.K a Z.n.H G T 1X1XU 9 = = G q.2XY = $.XXG.G , -.A.1.K e e e e v q c E E `.R.M.` Q V B.b.N 9 s L.V.} A ] <.[ e ; X @ ; f %.>.j , = = = ; w J j.0X'.b.] w V.nX+Xm., D :.9 9 U [ XXXXa i #.T 6.q.j # &.e.H 1 j q.S.H H 1 2 K.AXhX}.P.8.qXgXP.a = 9 B <.] A N B n.].qX.XZ.S.ZXfXs H 8.|.T = h A.XXuXA., a a [ Z.K (.+XnXvX'.<.A A <.|.K.6.5XS.4X}.|.#.&.h 1 0 0 , ; + @ # , $.oXsXiX:.a a 7.F.n.-.K A.3XiXI.w.P.oX@XY 7 w ] T.*XY. .9 K L.m.J 7 ; G * = + = = + < f f e = = = * D m.J N 5 5 p.kXkX^.^.z.l.*XtX<.7 w m.D.[ N K ..N.",
"^ w 7 / ).+X-.; <.F.+XwX[ B X.[.R./.s.U.8X=Xp.w ; ; w G &.6.h 1 = H A.8.Z.G # { 7.] ..0XnXmX[.V.(.[.'.+Xm.K A.iXvXqXA.Y p <.(.N 1.q.;.F t = # , N M V M A 5.L._.V.K b.aXvXvXaX+XOXuXA.* 9 Z.L L L H # g O.2 . # d q.@X.X1.<.b.V.<.-.Y w K OXiXqX).V.b.lXB.u.~.Y.N.V.b.| A M b.cXKXtXM X.`.Y.C C ^ W.W...c 5 w G.L..XVX4XiXNXNXI A.iXiXP.3X8.9 A.A.8.:.H 7 s 9 7.qX'.N.] M M | V.b.0X+XC.(.wX(.U 9 0 H D 7 D <.-.n.N * @ a S.gXAX>.L L P.sXm.p G _.fX7.<.L.D w / f.c q ( *XeXN.C A ] _.).L.m.7.wXqXF.-.D e ;.1.e 8 , H f * L Z., #   # e [ M Y.=XU.=X} c M.[.f.^ N n.(.w K L.@XP.w.1 1 0 T >.|.0.% z 0.#.0 $.oXsXG.ZXQ.[ wXvXL.V.] ] b.b.p.} c x V p.Y.p.} A ] N.J / g.1.vXsX9 G I.iXI.@ :.P.BXBX.Xa 9 p -.m.{ F.).aX+XK w w { 1XNX X1 w.BXAX3Xw.0.*.e.|.&., f S.0.g y F $.oXVX3X$.a K.iXgX.Xf H :.A.K.K.6.l *.3Xw., = N [ M.Y.M.c A f.f.L v e f e d y 0 0 ; * , +.O.f g y * ; 1.P K K A K f.`.eX0X7.| 0XtX..M ..(.).,.).n.K +X",
"Q n n ^ | [ B w w <._.cX(...Z i.Y.U.y.R.kXR.} c M ; ; , g &.j = $.1.}.iXiX9.H XXfXm.{ ].KXbXJ.A  .p.N.:Xm.e Z.ZXZXXX:.G 9 U 1XF./ 2.;.g < < , 9 ..| _ M M ] (.wX>Xg.W.mXZXqX).n.sX@X8.7 , 9 = 7 Y Y , H #.t # # t O.>.L w 9 K n.+X+Xm.G -.sXKXAXaX+Xn.qXN.} i. .b.(.n.A ] (.tXnXtX(.S p.*X[.V E ( ( j.N.| J ] 1.Y K S.sXhXNXK.> i 7.I.I.3XP.T L.9.{ G 9 , s 9 ..F.V.M...K M N K [ qXfXL.7.7.{ T # # , y H >.S.A.e w w 7 f S.SXBXS.:.L F.iXF.s p L.MX_.9.<.7.S.m.j...Q E j.Q.h.N v G.qXwX1X_.1XhX4XoXS.H , H H.q.H 7 a D D OXuXG # + # w b. .^.-XU.-Xs.a.kXmX=XW.u.].rXN N <.P.|.w.h #.I T i H i + 3 *.#.= d @XsXaXbXW.f.lXcXV.b._ M } Y.Y.y.b ~ -X*X=XE.} V M ] -.7 e L @XA.= U _.F.A.s 6.P.AXhXP.T G s m.gX_.-.G.qX+Xn.T K :..X5Xe.0 oXBX4X6.I S. X|.3XoX>.6.NXNX$X;.0 H pXFX3X9 :.5XhXfX5X>.9 8.A.q.6.&.j l r.I i 1 , w ..W.f.V c ^ N.[ ; @ ; H H y 0 +.$.0 = * u O.F f 0 e D P L -.-.K K V.tXwXn.K 7.F.[ N ] (.(.b.).b.] _.",
"( E ^ | | K / <.9 <.n._.(.J.X.l.-XU.d.Y.=Xp.u.f.] 7 = ; 1 H =.0 = G 8.XX3X1XgXZXwXC...].bXyX..M ] V.N...N a A.3X2XA.:.:.9 1 7.:.* 7 0 4 t O.$.-.[ |  .Z M ] _.bXZX-.7 [ Q.).Z.-.-.e a G G 9 = 0 9 f = f j #.#.=.< < f $.K 7 ; 7 { n.<.w w :.).).F.n.K (.`.p.Z A ..+X).[ V.KXKXtXV.] C  .[.tXQ  .*XQ.:X>Xn.C q 7 N ; 9 P.P.oX8.H 9 s 8.A.F.:.p B { T N w 7 Y N A ^ [ f.n...A w w U qXZX2X7.K G T > = * , a e D -.@XZ.G * @ ;.iXuX8.K 7 p <.<.U U ).m.7.9 7 A.@XF.K ,.^ w J F.Z.e e uXiXuXXXI.iX2XoX$X}.F < ;.#X.XL f $.q.P.CXgXL < j d e b.p.`.=X9X-Xd.z.kX*XE 5 Q N.).7 7 G 8.I.gXI.&.1 = @ h 0.2 2 e.}., 0 G.G.:XW.^ ^ '.(.|  .M W z.z.U./.y.W i.U.M.p.} M M ] 1.- * w -.U * p 1 9 A.K.&.P.BX|.w.T G a 8.ZXaXn.{ A.L.A.:.a 7 a $.f 9 S.w.&.i = &.iXCXpXoXh i oXCXpX3., 0 |.4XA.9 :.P.uX2XS.>.e 9 T :.8.0.I > # d h h a w K } V V C ..'.).-.e 0 $.$.y , +.H.+.= = < 8 < g q.;.= 0 9 J [ K w [ +X_.7.B [ L.F...[ 0X+X+X(.K w K ",
"h.^ C | n.<.{ <.a F...U b.1XV.B.U.a.W i.M.} p.W.{ w ; , = < O.0 . e L 8.:.:.wX2X1X7.U b.(.V...X.b.[.n.K G :.A.H A.8.A.K.p 1 U U N e f j j z g 0 w U l...] { F.XX-.K L :.,.[ -.1.e e 8.uX4XS.G 0 * Y G g 0 0.4X5X=.< , Y 7.A 7 7 7 N N N w 7 9 , 7 w , b.0X`.M M w ..[ w [ ].(.[ b.S M A b.eXA } W.:XdXdXW.v 5 J K , = D 9 L 8.3X-.a 9.F.T 7 = = U :.<.:.G <.G w w B | n.<.] B a K G.2XXXA.Y G Y < = . . = @ , :.aXF.{ N e -.1.a L a ; ; N { b.V.].U B ; w L.).G.w <.n.J J Z.Z.H f }.XX}.}.|.|.w.S.S.;.y H oXpXoXe f -.Z.P.uXXXD %.e.H , [ } Y.^.=Xc.~ y.-XE.b - V | N.w N [ 8.K.w.6.a @ @ = 9 H , # j $.; * e v ^ w 5 q ^ } ]  .V ~ z.i.c.-Xy.b W y.p.p.} w 7 K -.q q 7 B 7.B 7 , p T U 1 3XLX5Xh 1 1 1 a A.F.[ K [ 7.n.-.9 = = a :.8.8.0 H T 0 8.iXAXpXS.0 9 6.S.e.$.f a i G :.K.A.Y n.1.a D 9 G { :.:.8.6.#.I 3Xe.>.T w 7 w N 5 c | G.@XoX;.; H H.;., 0 q.q.G g = @ @ , ;.>.; , ; 7 w w 7 B <.K w 7 K ).]...M N ] F.K 7 w w ",
"N.^ c C ] / J N G qXL.[ C.cX(.X.V Q b E ( C | n.<.G ; , = = d , H a Y 2X1., 7.wXnXV.p w o.b.V.(._.n.K m.2X1X8.1 G :.S.9.1 p I.L.A.G f $.=.j 0 = 9 K N.V.7.Y D e , K 2.[ J N N G e 1.uXCXCXiXq., e 3X2Xw.0 q.hXNXI 0 f G.+Xn.B M B N w :.<.w , = 7 p 7 [ ].].M M A K s w w p N ] L.A A M ] [.c w ^ OX).F.G.N 7 F.<.J e ; ; 9 F.aXF.a n.1X-.a N K { ).+X@X{ 7.{ w w w A [ [ G D G w L Y Y L H H $.O.k # + ; = , L J A <.G.n.[ B 7 G w 7 9 A b.b.o.] { 7.N A 7.[ G.K 7.<.J a L H 8 0 H 0.e.$X5X0.#.S.H.Y 0 ;.2XiX.Xe 9 , 9 Y A.:.0 0.S.g # K ^ M.M.Y.z.` ~ y.i.Q V c ^ F.K K B K :.G &.a = , G 0 = # + . , D 8 5 v 5 q c c c Q p.M.t.b W z.Y.s.b R x V ^ | C ; ; K n.-./ w B L.F.B 9 B 9 9 1 |.XX8.1 > > > = i D * w N -.S.7.f , = a A.2XS.= a :.A..XA.K..X8.:.8.>.H >.S.w.h # p XXCXwXU w 7 , e ; U 9.F.L.XX3XoX3XNXpXoXA.-.B w q 5 w B :..XXXL . d oX4XH , L S.S.H = = 7 * # 9 f -.-.K w ; ; G 7.G.:.K n.aXaXm.K X 7 [ ; X N w ",
"u.Q c w v B L -.m.DXaXm.L.nX[.A Z ! c c V M | N.n.>., e L G >.H 8.:.P.CX.XU L.bXfX].7.B o.C.8XcXtXV.s { 3XuXw.> 1 *.K.9.1 G 2X1X{ ; = f O.=.O.< 7 B ..b.<.H , . 0 v w e [ [ w * e G.@X@X@XXXq., Y gXZX3Xa #.XX3XY Y A.fXvX).U M U ..{ ).n.9 [ A.T :.N N b.[.A ] _.L.L.+XF.w 9 <.b.K C M A (.A w C n.[ K n.K 7 <.+XF.,.; B <.vXKX0X{ ].aXF.<.f.<.m.aXvXvX<.<.F.<.w 7 7 w a w 7 , , e 0 ; = ; y ;.*.=.t , d G e 7 w ,.+X0XN.A ^ F.b.M ; 7 U (.J.A w (.0X..w M [ qXqXn.w 7 -.S.+.. y f S. XSX5Xj 0 oXuXS.G f L >.1.Z.Y = , 8.P.Y = 0 >.>.a B 7 p.=X8Xz.R b ` z.y.V q ^ (.{ K 9 a :.3X3X:.a 0 8.>.0 ; , , $.dXOXK ^ c | f.E c Z } p.i.~ ~ t.z.Y.y.W b c V | [ w a A.uXQ.,.J N <.n.<.B 7.{ 8.Y I 9 h &.h 1 > = I A.7 ; N .XVXuX9.9 + * G F.n., w Y @XXX[ F.2XF.S.G.L Y  XNX3XI 9 8.bXbXP.p 7 7 ; e B w ] C.).XX|.K.|.pXAX5X>.-.1.[ w w ; ; G q.1.0 . < 4XAX0., 0 1.P.-., 9 -.L , ; f @XdXOXL * = -.@XvX(.N w <.F.{ N Y <.1.7 ; w ; ",
"C A C c w K n.G.sXKXaXF.7.wX[...| | n ^ ^ v [ n.<.G.D L Z.;.S.oXG.L.aXvXqX).L.].1XtX1X..o.C.MXKXbX1XU G 8.K.6.> 0 6.3XI.B T 1XL.-.w , , < #.%., ; w K [ [ G < X o 8 -..X@X>.; * L 2X@XXX.X:.G , -.P._..X9 9 1.P.3XP.A.K.XXXXn.U N F.L.qXA.G .XpXH :.T B [ ].] ] F.K.qXZXqXB , A K K N A A F.b.] w w w J <.n.<.[ +X+Xn.C | '.nXKXrXn.).F.] f.f.A f.qXvXvXK K W.(.K w 7 a [ T 9 * 7 D y ; @ @ ; y 4 k j f H q.1.N | +XtXrXrXV.| V.+X] w w [ 0XmX[.] V.[.'.] M V.+XnX+X[ B A.uXA., y >.oX5X5X{.f < XXCXgXq.a ; 0 9.uXA.9 a 5XNX8.0 = j 0.:.N * } eX*X` c W E.=X[.B.( | (.7.n.[ { P.3X.XA.9.a <.-.D a a L XXAXaX<.A C N.T.} Z Z W ` s./.Y.R y.kX=X! *XB.f.].qXm.[ A.zX+X<.K B B <.F.iXwXXXXX:.H Y |.K.*.H I a :.1X:.8 -.iXAX4XA.H = ; K Z.n.J [ L +XG.<.G.qX).n.n.-.$. XCXiX9.7.1XaX_.U B B v 7 v n.| ] A N s a T K.hXNX0.* = L :.:.G 9 ; , f g < + f $XsX>., , J -.A.G w 1..X>.a e S.oXoX>.; = -.sXLXaX/ 5 K OX.X1.1.>.-.L -.K q ",
"q C C w w K :.1.vXgX@Xm.U F.F.b.K ^ ^ ).'.J w N L @X-.L -.9 1.iXF.[ +XvXbXqXb._.DXnX_.S p m.fXnXgXI.7.I.XXT h i > I w.7., 1 8.:.<.K a , = >.S.0 ; w B [ [ H < + ; ; 8 Z.uX>.* X ; Z.S.XX.Xf , 7 7.[ H 8., = K K.1XA.T :.1XgXL.p 7 { U F.L.9..X8.0 :.A.{ <.0X] p G :.K.qX@XK 9 K ] <.B A M n.(.7.K 9 G :.{ A.Z.w ,.'.N.N...W.T.'.W.] } q - | ,.7 M N.+XqXw 7 n.F.A.Y H 8.XXXX$., e L H 8 ; @ . . 4 %.{.=.0 -.1.w (.*X .} jXjXB.p.W.] N C ] [.mXtX<.; w 0X(.A ..w b.0X0Xb.K Y L e , S.oX4X}.L L a 1.sXZX@X-.e T 2XpXS.1 9 5XFX3XS.y < d H B * A f.M.W Q a.y.` B.*XT.| ,.^ V.n.7.L.XXA.8.A.9 K n.F.1.P :.OXuXqX)...] W.V. .| } Q i./.-XY.~ a.jX*Xi.tXM...qXZX@X[ Y ].+Xf.^ ] { (.wXDX1XK.L.S.|.XXS.6.I &.oX$.9 1.L e G :.Y 9 0 H a K G.OX<.K m.J -.<.N 7 B <.-.{ 7.L >.5XNX_.P.1XL.{ b.(.A 7 K K ,.(.C.] B a 9 a 8.8.A.H , 0 a 7 e G.S.:.0 0 $.O.< 3.oX.XL 7 7 w B m.:.B [ P.A.L G e D -.-.e ; $.uXaXqX/ * K aXVXOXD e e n.+X,.w ",
"5 | (.V.B ; a G.VXDXqX<.<.[ B [ N B n.vX+Xe w N w -.D.e * e 1.@XK n.].qXnXfXL.).1XnXwX| o.wXtXfXL.{ 7.1XiXpXK.1 h 6.S.:.B G { C.(.nX-.+ > O.>.G ; w B B L >.g + 7 9 L 1.Y 0 ; @ , P -.A.Z.f 9 8 Y :.:.{ G , N XXF.<.[ H G n.A.G 7 7 N :.A.P.}.S.>.oX>.; H L.m.{ K , G P.P.Y a a Y n.K 7 N M p n.K.9.Y G a G [ K C A M.M.^ E Q u.M.p.^ - c ] f.C m.] K K e w K -.-.9 H A.iXNX1.= ; D +.+.O.t * @ 3 e.0., * e / K ] } M.R.[.Y.u.} f.V.V.] K ].zX).w w A b.n.N 7 C Q B.[...o.w * [ G 7 a :.J v | ^ [ ).aXqXF.-.Y T U A.s a 8.XXiXXXf 0 f H e 7 7 ; V Z R } } E a.[.N...q N...7.L.B U L.iXG.N w ,.F.n.L B [ n.m.<.| w W.f.Q *XeX} R a.-Xx.W y.^.E.} c M ..0XgX1Xn.[ ).tX:X^ N ].DXvX1XG T qXiXXXK.6.w.5XCXCXA., 7 G v 7 L a 9 a 9.a N <.n.] | <.C K | K w w ^ ..] K N A.uX2X1X1XL.{ A { V.n.J C D.0X+Xb.7.7.N 9 , = , 0 $.>.a , e G Z.CX4X0 @ f . < F $.1.8.K 5 7 M K { L._.A.<.-.G ; e L Y 0 ; H .XqXN w N e L ;.$.r 7 ; G.(.<.^ ",
"5 ..].+XF.[ -.G.AX2X1.n.1Xn.9 w N 1.qXAX@XN w 7 B :.F.N 7 K g.G.K ..n.(.tX0XV.F.7.C.b...A { o.J.B 9.1X1XA.|.3Xw.6XK.8.A.7.G U 7...(.K 7 0 > d $.7 w w w K >.$.0 H >..XXX>.0 ; @ e >.>.:.L 0 7 ; e G G B a 7 , w p 9 w N a Y 1.T w ; , a T >.0.>.q.4XA.9 f 9.<.:.a 9 a G G -.8.[ 9 [ -.U [ A U _.XX$.9 , 7 p B N C c c q q E ( Q C Q ^ q c A N.W.OX[ q q w K K e f e >.8.>.1.L D ;.>.H D +.H r , j 0.>.7 = 7 7 ; Z c q c Z E Z C p.'.W.A A W.aXaX^ ] A M c w w A z.i.i.W  . .9 w [ w 7 N w q Q ^ ..n.m.{ K B p 9 T iXP.G G A.iX5XY H G a 9 , 7 7 V Z E a.a.} } } } ^ q A M ] ).U [ m.XXF.B w v N J K w 7 K ).OXb.b.V.A C *XjXf.R d.s.s.! Q } } A w w A <.n.7.[ K ] b.(.n.K [ (.0XF.9 w A..XK.:.9 w.XX4XfXP.G J K B K F.G , 9 -.w w ^ b.] K A w M K K w 5 7 M K [ N U m.2XfXwXqXyXo...C.<.C <.aXLX).p A _.7.@ . , = e >.-., * a 8..XFX$XF = = # = X 7 $.<.K q 7 7 A m.wXgXwXF.G , @ * , e f D H ;.K 5 q w 7 0 f $.>.>.e :.<.N.W.",
"c V.0X0X).<.G a A.1.-.G.@X[ 7 a <.P.).P.1.-.n.Y K n.).,.K g.F.).(.V.p...b...] | V.] A b.C.b.w B { { 8.A.8.K.pXDXfX3X8.T { 7.{ N C ] w 7 < # 7 :.K M 7 5 w G H f 0 $.S.P.>.H a ; L S.>.D 8 7 e e 7 9 w 9 7 N K w 7 7 G [ T Y q.S.-.N 7 9 0 H H f f e.3.0 a H -.Z.8.$.Y 9 = L P.8.H G Y A.L.A.n.L.Z.H 9 = = 7 [ ).,.f.| C R a.z.R V E u.Q | ] ).rX)./ 7 ; w -.-.e , 0 >.$., 9 G q.@Xq.r 8 -.1.P 7 $.0.q.;.L w 7 w Q A E u.N.M.u.] C C.m.K K { n.F.{ n.<.M w N K  .^.c.x.'  .l.S w A ] V.(.u.b R M.W.b.^ w M K N ; { aX1XU 9 B 8.S.$.>.G , 9 w w A A C } E.R.a.R x M A M M w A _.<.K K <.n.g./ v q w 7 ; 7 a [ G.qXfXtXG.,.f.p.| p.~ R y.U.} E Q A M K [ [ ] U K A M  .[.].[ 7 M { -.9 9 T -.n.7.a T :.:._.1X(.G.n.K ,.).] v A m.K M w ] ] A ^ M w K ..,.K N ] V.+XV...<.1XbXbXbXnXX.] ] A B g.qXvXn.{ 7.F.-.a 7 , , 7 a D D [ n.1.q.pX$X3.f + y , , e N e c c c 5 A ).vXZXbXL.9 = 9 , = 7 $.S.q.Y v q A [ { L a H S.S.-.F.V.].0X",
" .].0X).F.-.7 X D q.XXXXS.L L F.XX3X8.a , T @X@XK <.].(.b.n.W.tXmXcX*X'.b.] ] 5.].J...7.J.0XX.A 1Xm.T T :.I.hXFX3XXX9.B { _.F.Q Q p.K 7 9 G 1.L.qXn.A M A K L $.= < d g Y 0.>.d H S.Z.$.f 0 P -.7 9 K [ K ..<.N 7 B -.Y e 0 $.0.F.-.D 9 , < 0 > . t j f d d L q.3Xw.8.H = a A.8.Y 7 a 7.A.7.[ N , a N 9 , 7 K W.'.:X[.B.i.h.U.W b Z } A ] A ,.f.<.[ N ; ; G :.H = , ;.H , 9 P A.G.L ; 7 1.).<.e 0 H 1.G.m.B w ] `.B.p.u.u.b.`.0X] A [ { N 7 7 7 e { <.K K ] { b.Y.c.U. .} b.7.A B <.0XcX*X} ~ R.`.V.] M ^ n...w [ { [ U H a a a $.>.f , D G N [ n.N.=X:X*X`.y.R p.N.V.] M ; U w B w N n.:X'.,.^ w q e N 7 , 1.ZXZXaX+Xn.v q ..>X( x ! =XM.A A A ..).qX].b...|  .A l.[.[.] w 7 7 a w w 7 7 Y G.F.a s p C.tXaXaX'.^ ] N.| | ..(.b.A w A C A N.<.M A f.[.[.V.(.rXmX+XV...b.].cXcXyX..p w U b.Z.n.[ A.1XF.p a ).@X-.e a N J m.sXqXG y ;.$X#X;.* f 0 Z.Z./ w c } } V N n.).qXaX7.a Y q.Y , = D q.q.L A A b.+XvXuXL d L H D +X0X(.N.",
"| `.+XF.F.7.a = H >.Z.q.-.D -.XXiX5XS.h = a @XwX[ N b.).'.N.b.eXB.0XtXcX[...~.[.<XtX_.5.] J.5.b.P.fXXXs 9 K.4XXXA.Y s B { n.n.b.| `.'.-.L Z.2XvXbX`.l.| ..T Y >.f 0 > = 0 >.1.f 0 q.S.G.>.e D +.1.D e B B ] | N v <.n.a * * 0 H ;.L G 0 * = < = . = 4 t < = 0 $.}.0.>.H = f 8.>.a , H A.:.G D 9 9 1.F.7.-.K w w (.T.} } ! ` M.Q V } f.V M c ^ C K ,.[ 7 @ 9 L f * , ;.;.y e D -.L e ; 7 n.OXN.[ ; 8 L G.).] V } `.[.`.f.Q ^ T.tX0Xw N 7.D 7 8 * 7 P g.G.F.<...F.p.p.} _ ] C.(.9.<.K ..N.W.M.E M.E.T.u.Z } W.W...C 7 7 U n.n.K 9 f Y 0 , L -.G { '.'.rX'.Y.U.~ ! E.T.`.b.A * w M ] N w f.rX:XN.g.J -.-.q @ , A.gXuX7.K B w K ).mXU.6 x N.h.^ ..b.+XbXKXwXb.| b.Y.i. .p.l.] C w ; J -.-.N w [ I.P.{ U N 7.+XtXrXT.] ^ N.M.b.K f.V.7...C.o.A (.J.U | b.0XmX0X0XtXcXT.} c c ] V.~.b...9 w m.+XA.G , H m.A.-.P.VXqX-.q 1.G.<.V.vXaXL 7 y SX$X;.= ; 0 2.G.F.^ V } y.Q M N B b.L.G a XXwX.X:.9 0 $.6.-.M Z T.cXPXZX>.9 , 9 w XX0X(.l.",
"M ..n.7.n.<.a ; f 0 D ;.G 9 [ 2X6X}.I i s A.gXwX7.w A (.0XT.] M._ B.[.jX`...jXKXKXnX].b.] b.U 7.n.wX_.G G A.K.A.:.:.K M K N.V.f.E p.:X+X1.-.n.aX'.M. .....{ Y :.$.f > . . 0 D 7 e 1.Z.Z.L ; 7 P >.8 & ; C <.,.C C F.A.e X @ < g D P P y ; < g g # @ : 3 * X = t $.>.>.0 , H >.H , = a 8.<.Y N , 8.iXaXL.1.J w C f.} x Q M.Y.-X! Z p.R.A w w ] [ K -.:.a , D $.f * r H.H.H e 7 w L K w q ^ ..] K 7 ; 7 ,.'.N.E E R.*XjX*Xf.] n.:XqX9 w G.1.P D X - D G.dX@X[ N ..W.*XN.] N B 8.A.8.w U <.b.p.V p.E.`.h.V ^ '.rX].A w A [ <.F.[ 9 = , = , L ;.:.G.dX:XtXB.( y.R ! Y.T.`.V.| 7 w ..] C q Q !.'.N.!.g./ v 7 ; 7 >.2XP.T 9 9 e { Q.>XW.x 6 u.N.n.].bXbXnXtXB.C V u.`.[.o.M  .f.] N 7 [ n.Z.1.:.<.{ U m.b.K ] V.`.*XM.Q A M.R.N.c ^ (.(.0XtXb.A C.V.C.(.b._.fX].L.'.'.b.Z q M Q _ _ ..| w A _.+X{ 9 = G 8.A.A.XX2X1.e 7 <.(.n.b.0XqX<.y u uX$X+.< * D -.OXrXh.V E a.M.K 7 , ] <.7 , 9.P.).A.H a Y w.L.A _ ].bXZX2XH > , a 9 <.b.(.~.",
"w A K A [ K 7 # 0 0 $.Z.-.G 1.2Xw.*.1 1 T 2XDX1X{ p ] '.eX~.Q Q u.B.B.*Xl._ tXnXbX0X7.{ 7.(.U U V.F.<.T 9.:.:.A.n..Xm.w C '.:Xp.x b `.:Xn.J w ..p.i.p.B.B.7.:.6.$.d > + . > 0 ; e ;.H f 7 @ ; e ; 7 7 v g.).j.N w ,.-.8 * + = g ;.-.-.y ; < g u + . # 3 : + @ = 0 H f 1 g H g a , # = 0 D D 9 = 1.).F.:./ 7 7 f.f.N.E p.^.*XeXQ c Q b.Q M 7 N A N [ 1.L f Y ;.f ; y H.S.+.e ; ; L { A c c M M C N w 7 C p.} c c `.[.[.B.A c | G.[ 9 9 1.S.1.e @ * 8 -.A.>.7 ; G tXvXZ.J 9 , &.|.6.9 8.F.<.] c } E.R.a.b Q *XjX*X| M ,.<.K K w 7 , = ; 0 a G 8.qXZXrXjXM.} E.! y.[.:XeX]...M 7 M C K q q | j.h.:XD.J e :.;.0 a 0.$.$.L a N / g.n.j.x 6 ) j.b.].DXZXtXV._ w c _ M.[.' M _ b.V.[ 7 q K -.-.T N 9 9 V.V.o.A } M.`.p.V c } p.B.c V ..b.(._.{ A X...L.b.w A C.{ M B A } } } i.i.` _  ._ S ] L.L.:.a = 8.}.6.9 9 D D J e v [ ..f.V.b.K 7 y 3.{.F 8 ; m k.OX:Xj.E y.R.=X| 7 7 <.A.Y p G G T H 9 1 i T 9.l. .[.0XF.:.0 # + 9 9 [ ] l.B.",
"B A p w G D 7 = 9 f >.>.-.:.-.a 1 6.8.T G 9.+X7.M M N.[.=XB.W W c V V B.Q 5 } Q w S p p U _.:.U m.+XF.H H H H :.8.-.e ; w ..f.} V c F.+XF.-.7 7 M A X.p...[ U I 0.j < > , f g , @ D f 0 7 ; ; X L A./ ; e ,.g.n.w [ $.D y ; , +.S.q.$.8 . X @ . + + 4 z 4 : @ . # = # i >.g = a 0 e e 9 , , a G Y K B <.G.K 7 ] V.:X..] Q u.`.c W Z p.b.N.C M w w [ n.[ e a f 8 ; 7 2.Z.2./ 7 - w ^ ^ C C C A | F.F.b.[ ] M w c ^ u.M.M.^ c q w 7 N ; 7 n.g.w 7 L / K e 7 = B ).dX@X7 * d H S.5Xe.= Y <.K A q c } a.Q q V `.:XM.| 7 [ m.K 9 = 9 >.g d f , , ;.2XqXF.W.C C M.Z Z Q T.'.].b.<.w N ^ ,.v 5 n C ( '.<.1.G.XXS.$.a 0 , D D e K :.<.| n q 6 n K w K (.bX].7.] Z V W } _ Z M M ..+XD.; 5 B [ [ K 9 s 7.(.(.] M C } N.} C q c V f.c 5 ; p p p 9 M A M C...= 7 7.U 9 w p c a.R.z.p.B.z.` A B { F.XX1X8.i 1 h T Y f @ o 7 v 7 J 1.{ w 7 ; & t ; ;.y * - - r v q 6 b y.a.y.} q v F.aXtX).<.] U B 9 = , a G B.Z  .{ a a , . @ 0 G 1X[.B.B.",
"D S.P.H 1 9 a 9 :.s w [ A.<.N , 9 K.vX+XU K ..Q N.p.V ` ^.-X-Xc.t.t.z./.z.Q V A | K 7 = f 1.Y 9 f >.8.a @ = G >.Y H 7 . a G.n.)..X7 f q.S.>.* * 1.4XG.D D D 0 g #X>.f < 0 >.8.0 7 a ;.q.;.8 ; r G.%X-.* * L S.8.7 1 a >.$., , f 0.>.H > + @ $ + + + @ g %.8 . @ 8 , , 0 0.>., f w.|.&.h 1 > &.8.7.1XnX1X<.w a 1XsXvXqX<.M | V...} *XkXR.z.R.p.c V } ..M 9 L >.>.K ; D -.[ J ; 7 7 K V.F.A 7 ..aXfX1X9._.+X^ c q c M.jXjXT.Q Q | } ] w q A ..b.N.'.| | ] w A V.N.1.1.= . , , z &Xj > , [ ).~.} Z Z Q ] A M ^ <.{ L n.[ w 9 , = , H g H f = = f -.L e J N ^ N...c c ..j.,.| w 7 J g.1./ - q J | c v -.@XS.XXS.8.= , G G w e ^ n.OXW.^ C <.F.-.B N 7.{ 0X]...l.} X.p { K N <.g.J v w A Q V.b.7.+XN V.(.b.M 7 N ^ A C 7 v | F.V.| <.F.(.C...{ B p { { p m.bXqX:.s , M t.c.x.~ ` } W V M M 7._.iX2Xa + 2 d f #.h , < 0 0 8 y F 8 * * * X < ;.+.; * * J K 7 5 } E.p.} } Z M.mXjXT.p.M.`.~.l.S 7 M m.+X[.b.A B A.K.a , = T 2XbXwX5.p ",
"0 }.pXS.f a T T T s s :.).L.{ N 9 L.ZX+XN 7 A } B.R.Y.8X8Xz.U.=Xt.t.U.9X^.} b.tXlX).G ; , H a # , f $.f ; 9 G H G f 9 # >.gXiXiXS.0 8 $.3.%.8 = H.pX}.F 0 , ; y ;.%.+.a a $.8.:.>.H a f F F F P m J D e f ;.Z.S.H h I *.>.Y a 9 G I h > = 4 4 + + : @ : O.0.;.H H 0 g 3.oXq.d H K.pXoX>.K. X6.8.L.aXfXn.{ n.A.XXVX2X7.9 w F.qX(.l.8XxX=X-X9X=Xs.x z.T.K w L >.-.B 7 [ n.<.,.J L w 7 -.[ B K [ 1XbX<X7.<X0X .E c Q T.kXjX=XE.h.p.Y.b.Z q Z b.`.*XM.} M.R.p.p.p.C N Y ; * H %.=.z > = a L.cXyXz.W Q  .N.[ K ] J J XXiXK.9 # 1 1 > > j >.j = = D >.H 7 e q v D.n.J q ^ n.D.2.e ; , G..XG.K F.dX:XC v L G.G.oXS.8., 9 H G 7 7 C j.:XmXV.[ G.qX).-.G <.A.qX_.V.b.X.b.(.b.K :.@XOXj.] 5 A ..]...B _.A.G.qX).N 7 K <.B ; ; [ ).qX+Xm.(.aX_.C.L.n.9 9 ).P.B U wXDXfXA.p _ W t./.^.x.` V E A C n.XX+XP.G # > 1 i &.*.H 0 @ , ; = 0 y < = < X * F +.D 8 ; m.N.^ M b.*XeXeXY.Z ` ^.`.R.=X=Xs.^.[.' A [.aX).bX*Xb.] F.@X-.9 0 A.fXDXwX5.p ",
"F S.oX$., 9 Y 9.m.<.U { L.L.<.K 7 :.tX1XK q ] V.(.`.B.=XeX^.[.*Xc.~ y.*X8XB.V.lXPXaX<.9 7 H G = + , H Y D H H , a a f 0 0.BXpXXX$.< + < H g 0 X H S.S.L e = @ , 0 $.$.e 9 G :.K.@X:.7 ; D >.3.3.7 r D -.>.L $.A.S.w.&.T 9.G.1.a , H H , # 4 u 3 $ @ + = @.$X4Xq.8.f 1.iXNX4XA.A.S.CXZXS.gXFXw.8.P._.m.a Y .XP.G.2XZ.a = A wXZX0XM.=X8X^./.=X-Xs.i.8XeX] 7 N 1.1.L 7 e N J <.<.Z.B 7 [ G K m.<.qXfXL.b.yXtXR.p.~ b y.E.E.R.[.R.p.N.W.N.Q A ..T.`.`.u.M.].*X0X`.] M <.N w >.H.3.d , , H 1XnXjXB.W l.V.`.n.F.F.w w S.iXiXY 1 h I 0 . f 0.#.y $.S.S.;.D / N e D.G.] ; w g.Q.1.G e ; Z.uXuXL g.qXzXg.w e 1.P.4XXXA.f XX.Xn.K N v C | +XK q <.aXiXZ.K G n._.).0XV.A b.m.F.<.K 2.OX%X,.w M ] (.7.B F.Z.n.).G.K w -.Z.-.N 7 K n.G.Z.[ <.].+X).L.7.w 9 m.).T G K.CXDX3X9.B.W ` =XkXY.}  .R.p.M N [ K T T a 1 1 h &.w.S.>.g ;.$.d H 3.$.u ; X & r -.A.n.K W.:XW.^ E } B.[.Y.V W E.R.-X*X^.W i.Y.Y.N.).+X(.KX0XV.[ n.uX.XY $.3XDXDXMXJ.X.",
"f 0.S.$., , H 9.wX_.U w Y <.K N w K (.+X<.N K b.].:X} A b.`.*XY.Q V } `.T.] ..0XfX].<.N e -.:.a = ; K 9.<.Z.8.0 , , f g H 8.>.H O.y # f O.d f X * D $.L G 7 * * ; L L 9 9 a Y F.F.K ; * y >.3.+.P v D -.L 0 e $.}.q.H a L n.n.[ ; a a ; X = u @.%.4 : j e.NXFXpX9.a 8.iXgXVX2XI.G 2XfXA.1XfXI.I.7.a 9 9 G >.Y >.-.G 9 w b.bXZX].B.^.^.z.z././.z.^.kXrX..M [ F.).F.N 7 7 N K K K 9 w 7.n.F._.F._.qXC.b.8XeX[.E.a.! i.i.! ` z.p.Q W.+X'.] w K W.].B.A C b.*XrX*XB.M.W.] J L H $.H e , w <.].].M._ b.b.V.<.+XqXa e D A.2X0.a $.8.h @ # H {. Xq.;.$.>.Y F.-.e :.n.K ; 7 [ Z.L e 0 ; H S..Xe e <.OXn.7 ; L .XuXoXS.$.@XfXsX).[ w v j.).K q 1.aXiXZ.f 7 N 9.qXnX].K ] B m.).-.e P 2.^ c M M C.m.7.S.-.:.D D G D L Z.q.Z.e 7 a [ Y 9 9 B <.n.A.n.B 9 [ K.:.G Y P.2XXXL.b.} l.eXxXR.l.`.eX].N 7 7 ; 9 U G a Y q.S.XX2XS.>.A.>.g +.0.>.H r 5 5 e [ ).+XF.^ W.'.p.b b u.`.~.W i.R.h.h.E.! V ~ /.8XT...n.).:Xl.| K ] ).G.[ G K.qX].(.B.5.",
"0 H +.e = , L A.1XXXJ * 7 N w e w B n.).<.w w N m.].<.M w M [ [ A M M ^ ..<.b.F.).F.[ w w Y -.a N p B Y -.A.A.:.0 a H #.d 0 h H *.O.j  XoX>.;.0 f G G D G N 7 ; 7 K K N K U B Y B w 5 ; 7 e e 7 L F m e 7 ; , 9 H f 9 7 9 N L ,.w 7 7 ; * * t %.{.j t O.0.5XAXgXT 9 { m.L.fXwX9.9 T 7.9.7.m.1XI.H , , , , < 0 $.a 0 a K <.].+XN.} i.i.` ` s.c.^.i.p.M.b.n.F.).@X.X[ N -.[ w ; * , U <.+XaXwX1X7.<Xl. .z.U.z.U.^.xXxX=Xi.W ` ` E <.F.(.<.] V.].V.M c A N.`.`.`.`.=XM.C ^ K 7 9 H e ; * 7 ] N.M.p.Q ] [ K F.F.9 e :.>.>.Y a T 6.h 0 + d 4X5X$.= = 0 e >.P ; D -.L w 8 K P ; @ = * 0 H $., e J 1.[ 5 ; G .XoXA.Y f 9.sXDX@XJ - w N.<.e 7 :.@X@X8.G , = >.CXvXL.n.n.b.7._.aXG.w 5 v q A ] C.F.L.G.-.H * * 8 r L 1.$.L = * 9 L $.a G Y p p n.F.a , 1..XZ.G 0 Y >.>.$.N ] b._.0XV...N.:XqX,.M w 7 9 s p p -._.3XfXiXA.a a 9 9 H :.>.>.n.:.[ K J j.N.f.c u.M.( c b } i.^. .i.p.R b ! ~ c ~ c.z.Q ^ ,.,. .M ] ....7.] N L F.(..._ ' W ",
"+.8 = 7 -.8.1.Y A.).[ ; 7 ; * q ; 7 [ :.K w J [ K [ G K N ; w K ,...] N A <.F.G.0X+X{ 7 N Y K w ..{ A p a K Y Y Y -.H I f , d H H H q.SXNX|.1.G .XZ.L w 7 N J v 7 v N [ m.n.A 7 B ^ { L v 7 5 7 -.-.D 7 , 7 , = = ; w D e 7 v | F.K w J G 8 0 O.%.%.3.3.>.A.S.:.G 9 U U U 1X1X9.B p w X.o.o.m.p G f I < + 2 #.q.H 0 9 w M A ] ] Q Q ` ` W R y.Y.~ c c _ f.n.F.].n.[ K :.K , , ; [ F.K m.0XwXDX[.eXM.Q M W ` y.*XIXIXkXM._  .B.(.<.K L [ 7.1XqX<.7 A b.`.N. .B.rXkXa.V f.N.N v B N w ; 7 C f.M.b.] m.n.-.Y 7 * = H.$.f H :.8.&.0 j *.e.*.=.e.e.H @ # 8 ; ; N L >.K K [ H , * 8 f 8 8 0 * 7 8 [ :.7 , D S.1.H , , 1.XXXX-.w 7 v { w * X e 1.1.H 0 ; ; >.iXA.U ).wXwXL.n.XXqXn.D w K [ | ..m.F.:.0 8 X X * ; 3.%XD ; . = , 9 a Y .XuXF.J N Y 9 ; H 1.1.>.H , = , 9 a U s 9 Y { K K 1XwXm.U N 9 p 9 K M N { _.gXfX_.9 , = 9 Y 9.A.).).N.N.f.^ E ) ) u.( E b x E d.R i.Q } p.( E y.Y.W W W Z V Q f.,.C M M.0X0X(.] N N.+X].p.Q V c ",
"Z.D e Z.VXVXn.7 -.>X).[ J ; * L N N G N N [ F.G.Y N , Y A.>.8.G.Y ).qXn.7 7 <.+XqXqX[ 7 <.F.[ ] [ V.<.A K a 9 H G :.i a #.H g , 2 k  XNXhXoX>.a G.F.<.B w ^ j...w 7 c | W.[.b.w | V.:X>Xn.N w D >.;.D 0 d L G 7 X ; K ,.K c N ..`.b...<.[ e D ;.$.H.oX4X}.$.G :.K.9.F.{ G m.L.m.{ B p B A U A = a H >.0 @ $.#XoXS.D , w w w M C Q } M.Y.y.V ` ^.z.` Z A } b.V.].7.:.N G G G -.N 7.).{ ] b.1XKXnXyX`.} c } p.} jXmXrX`.} _ ..'.0XqX:.a 9 a A.+Xn.; M | b. .A } *XkX-Xy.a.M.....C v K / ^ ^ ] } ^ n.1X).P.-.; , * g H $.w.3XXXw.&.q.4X}., = S.NX|.0 ; = ; H ;.f L D -.1.;.H 0 g 3.g < ; @ 9 e -.;.7 7 G S.L e ; 7 [ 1.L a [ F.Q.F.1.e * , g f , + , G H Y a w ).fXfX1X-.Y ).OX-.w m.b...] { Y 7 = 8 X * * < {.$XH , = a 0 ; > G oXCXaXY ; 7 e , , 7 H S.H.0 = , , I 6.h = a G w w (.F.<.<.K p G p ] ] K ] F.+X+X_.p 9 ; 9 { 8.F.+XN.} u.T.M.} ( ( N.( E b b U.=XU.R V E h.!.h.u.=X=XY.z. .} T.>X:X .l.*XcXJXlXb.] f.].:XR.i.V x ",
"dXg.D K 1.7.<.{ K uXaX(.:.7 q .XgXOX-.e N A.XXZ.A.8.D $.oXpXAXAXS.n.1.Y Y -.-.K n.G.e 7 ).aXF.V.w V.(.F.).<.N <.Y S.H &.pXBX|.d > j 5XhX5X2X$.9 N ,.F.f.| N.*X!.Q q c ..`.rX:X..| W.zXZX+X^ v K Y D 7 , H q.8.L * w { f.] J J ..) | M.,.N e >.4X>.>.H.2XK.1 a iXLXVXvXF.G G K { <.{ { p [ C.B B 7 0 $.d < e.5XpXpX$.0 [ <.] A A w V p.Y.} c Q ~.~.~.~.Y.T.`.*X0X).P.Y Y 7.)._.w p b.)...] (.cXKXrX*XM.^ '.'...cXnX0Xn.U A ] n.L.@Xq.S.A.[ -.<.w 7 w ] V.'.B.l.^.=X=Xz.W c ^ h.C 5 J f.| A C V c n._.m.1XG.D :.7 # Y S.XXiX2XXX5XhXe.#.h 0 2 H 0.Z.H , e S.q.; ; 7 $.1.>.O.< < $.3.0 = = Z.}.1., , 0 H S.G f e L <.).L.-.1.+XqX@XS.e . @ 0 d > . < 0.a # , a L.iX2X1Xn.n.OX1.w N <.n.L.<.a = = +.@.* ; t t 3.}.H a h A.q.H 1 9 8.sXF.e , a 7 = 0 , < 0.oXq.$.H = #.#X}.>.8.-.9 w J w K ).L.{ <.K w b.).].0XL...<.U K p B m._.1XtX .V Q `.=XM.u.y.!.U.a.E b d.R.U.p.} n u.'.u.E U.=XGXHX} R kXLXrX=X9XjXrXnXcXf.A } '.jXjX*Xz.` ",
"@X:.N 7 5 B n.m.{ ).aXzX).D w -.@XgXS.D f @XsXpXuX|.a < |.oXpXAX}.= 0 Y 8.a G 1.-.-.n.[ m.bXvXaX[ w L.].F.K <.n.A.8.a Y oXgXpX}.j d 0.5XiXoXK.<.7 K C b.C Q B.R.B.x c T.kXeX`.T.W.(.cXJXbXn.; B <.:.e @ 7 n.).<.; K m.+X>Xf.q c E Q N.f.w n.vXiXG G 0.K.8.a G 2XVXNXsXZ.>.w e N J [ w 5 <.F.^ q 7 0 >.0.H y q.NXpXA.D N { (.F.^ Z E R.`.u.Q C } b.eXGXb.X.8XeXtX).1.e F.@XvXwX[ A n.(.b.] C.tXKXrXF.g.:XZXaX@XiX).XXK.H , T 8.G $.G 1.-., w K 7 w 7 M (.0Xp.] `.R.=Xa.y.u.( } | C C n.'.D.N 5 | +XfXqXL @ ; 0 ; + $.XXoX2XVXbX3Xw.H 0 f d # * Y H >.;.$.q.Z.L 7 9 e $.q.3.=.%.*.{.g = # $.>.$.0 q.P.H a L H G e = :.n.-.<.{ <.1X@X, , f 0.e., d t 2 f $.$.Y -.:.L._.[ L 1.-.L N w m.1X7.G e 0 3.;.y * ; 3.{.3.+., G 8.A.A.8.Y G G.;.P f = , f y = + f e.3.F y < {.6X5X6Xq.>.; , , , w [ L.wX1X{ p b.V.0XKXaXF.0XwX] p p U ..7.].` ~ ` a.h.} E ( j.N.h.R b ! z.R.p.M 7 x j.N.C ! i.*XR.Q E.rXdXlX*X^.[.mXnX*X..C p.T.jXGXkXR.U.",
"F.n.N 5 C b.V.F.n.+X+X<.[ [ J 5 $.q.f , D iX4XS.S.$.< 0 S.oXCXNXq.; G >.A.G e e -.F.OX[ <.bXKXZX..p 7.<...B [ n.A.8.9 a 8.XX@Xw.#.H q.XXP.A.n.U 7 <.] C q V B.R.i.R ! `.eXeXW.u.f.N.:X0XqXN.7 w [ -.N ; N (.qXW.7 ] N.].eXN.V c V Q V.j.w [ P.9.= # 0 H H 9 , $.oX.X.X>.-.; 5 e / [ 7 * v J q q 7 a Z.XX>.G >.|.}.H 7 9 K ..<.^ q c T.W.| M 7 w | 0XnX ...B.[.V.<.L , ).aXwXG...] V.'.5._ M.yXGXvXQ.:.F.@X.XG.@X2X>.H T h , # = 9 7 N w ; p [ w w p ] (.'.....'.R.R.a.M.M.} p.b.C c j.Q.N.K q K U 7.7.N * = 9 0 * , G G.ZXLX2XT T T G G G 9 = = D Y D 0 $.Z.1.Y $.e e H $.%.@.t j t < , d H q.G.pXP.G a >.q.1.L , 7.F.:.-.K G <.G e >.S.5XNX3.g > d &.6.:.:.1.{ 7.m.G a -.k./ & N { m.{ L a , +.+.8 X ; 3.S.L 7 * ; a 7.P.L.7.Y a f L D * ; L ;.8 * = 0 0 f g > k e.5X5X#.e @ ; 7 7 K m._.aXwX9.w <.L.wXZXqXF.L.V.<.<.U K [ [ b.Y.~ c V } Q b c E h.h.b b u.R.E.} w 5 5 q x q ( R.=XR.} } b.k.f.p.y.R.eX(.] C A T.[.lXjXT.( E ",
"..W.| w ] <.] ] M A K K <.:.J 5 X G e ; 0 oXoXS..XG , , L >.4XS.e , >.q.8.L f f A.8.:.a -.iX1XA.a a <.K K w 9 K <.[ , ; a -.7.G 0 1 G >.T [ Y 7 B 0X].M q M i.i.V V Q i.T.=XT.E C ^ f.....U 7 7 F.F.[ 7 w <.W.b.c ] M.W.`...c q c c | ] M { F.T , + , a Y L 7 7 7 8 y 8 y = 8 -..XZ.e - r e 5 5 7 7 [ n.L 9 f ;.D @ o = w B K N c 7 ^ | K N 7 7 w (.].w ..] ~.b.).-.N +XqX..w w A V.~.X.M } ^.eXOX2.e D -.G 0 G a g i < = + . = , w w 7 w U ..] K A K | ] M A b.*XR.h.Y.u.c Q ^ 5 ; | n.J q ; 5 w w a 7 = = w L P a N m.2XXX{ 9 9 a G G a 9 9 a 7.:.e , ;.XX}.1.a , ; , = = = = O.$.H 0 = 0 Y S.S.0 = , D >.Y G L G.n.N 9 9 9 G e 1.S.8.q.$X}.%.= #.}.|.A.9.[ G s s , 9 P >.-.* 9 ; 7 w a , X y F D ; ; e G J J 9 , 7 U 7.<.B w = , f 0 X * d L ; # X + = f t . > i e.e.0 < = , ; 7 -.L.).qX@XU 9 L n.F.Z.[ a 7 K <.(.{ K ,.<.b.} W ` i.p.Q x 6 6 ) u.c x } E.p.| 7 ; - * 5 x u.R.z.M.} q q v 6 b q } `.} c M N ] b.+X].| w w ",
"N.:X:XN.u.Q M w c A b.F.m.<.K q , H.H.Y H @XiXuXXX;.9 , a e Y 9 ; G }.0.G G L q.:., . = L >.a = * L G.<.Y 7 @ a <.[ 7 , w U [ 7 ; = a Y -.m.<.w K cXmX . .W W Z Q V c V ( M.| 5 5 q C N w 7 w A fXqXb.9 ; c ^ ^ V A  .T.B.A w S A q w M K ).uXA.a = , 9 G -.0 = # ; , * * * e 1.,X).L v / 2.J q q ; v ] N , 7 e 9 @ X ; w B N 7 q q | <.K e , 7 = { N 7 .._ B.[.<.v <.ZXqX| C M w l.~.} c V i.M.,.J w / F.1.D a > H a = , 0 0 N A b...A ] b.N.V.f.N w M w , v ..].b.^ ] c 7 A c 7 w ).'.J w q 7 { U w ; ; , N :.m.{ { n.C.U B U , p b.(.[ 9 Y 1X@Xn.9 , 7.qXP.Y a 7 a H , . # 2 0.%., = X 7 7 a f . = 0 e f a G Y n.[ ; # , a T Y Z.;.7 * 0 >.*.# #.oXpX2X8.K B o.9 , a e e 1.1.L ; , N H 7 * H -.[ v ; 7 N K { n.n.b.<.[ B w w , 7 7 ; ; y H F 0 < = X # t 4 + # # #.>.0 9 7 , N N n.XX).2XXXa = e $.$.D $.n.1.L <.F.K N ,.,.b.c ` Y.`.W.h.^ q - C ( c q E i.} ] ; e v 5 5 v f.B.p.`.M.7 w 2.c c - c M.p.b.n.p ; B (.].{ w w ",
">X[.jXlXY.p.M.} X.'.tX].C.].).L >.5XoX>.H S.S.q.q.G.-.G F.K w ; G Z.oX8.f H H q.Y , @ 9 Y Y G 0 , S.2X8.D ; * <.qX(.] K ] <.V.N 7 = 7 K <.).(.K 7 N.8Xl.~. .Z W ^.y.V E } | C - 5 c ..n.K w ] (.wX0XV.C q M } M.Q V } `.B.S o.J.n.[ L K Y I.iX3X:.a f a a -.G , D >.$.0 # # , L F.OXQ.:.g.Q.n.^ V q C f.| N w 7 D G G e 7 N K J 5 N OX@X>.0 * = , T , { (.b.l.0XB ; @XPXrXW.W.C q p.=XY.Q R ` i.^ C N N.vXfXL.7._.T , G V.[ w N Q R.Y.` ] Q Q b.b.w w ] v ; N m.<.K w 7 , N n.[ w N +X+X,.[ [ K +X).[ w w B K <.m.] A 5.C.b.C.(.A ..fXKX).B n.vX+X7.7 ; { ).F.-.:.G :.P.$.= # < oX>.* = 7 Z.Z.q.h @ < $.H e 9 e w Y L 9 , a :.q.-.D ; , 7 = 0 0 = H XXCXgXn.B { L.X.s G e G @XzX).N J <.-.0 ; +.<...C M f.N.} c } (.:XV.A c M N a H D e H 0.S.q.q.>.2 . . < j %.> > 0.S.H a a w [ K -.<.7..X.XH < 0 H g 9 8.NXAXG.n.<.N w C c c M _  ...V.'.j.q 5 N / ] A _ l.(.[ 9 >.G.L e e | [.8XnX<XM <.qXD.C q E N.'.cXwXp # G 1XfXA.N 7 ",
"=X` Y.yXY.~.kX[.V.~.0X0X).+X_.Y ;.NXSXe.0 0 9 e P.aX).n.uXV.<.<.:.A.S.Z.q.S.H L Z.>.0 < H >.q.H q.4XoX$., , 9 1XDX0Xn.b.b.B.].p.N ; ; w K m.V.A 7 M l.l.Y. .o.z.^.y.! p.M.h.f./ f.F.qXvX).U m.'...N.B. .E Q p.Y.Y._ p.[.B.Z X.J._.1XqXK.Y &.A.K.8.Y 8.L e -.>.$.0 &.$.H 1 9 p :.F.vXKX+Xf.F.W.f.a.W Q p...^ J J D 1.A.G = e n.F.D e g.G.Z.$., = H >.G iXtX(._ [.f.7 >XaX,.j.'.E q i.*X=Xz.~ ~ y.a.( C f.rXaX(.b.nXL...].tXM.C E ~ Y.^.z.` c M p. .w K V.K * w -.n.8.G 9 w [ L.<.7 5 / <.<.F.1.K ).+Xm...n.b.<.N.:XF.] A X.B.8XxX..b.yXcXV.] F.qX(.7.p 7 K <.(.iXn.m.1XsX1.= * 0 4XA.f e Y 1XvXVXI 1 = #.8.H G e K -.:.G 9 s 8..XP.7 X L S.$.; = 0 $.}.gXfX{ p 7.1X<X:.G L .XLXLXOXK [ A.>.0 * 0 ^ u.} } M.Y.u.E c p.*X`.} Z Z Q [ }.S.Y g L >.q.S.e.g # = @.{.5X$.9 $.:.Z.Z.Z.-.1.[ N 7 N A..X8.< < t < > >.pXCXS.>.-.J J J q q w A ] ] | <.L 5 7 w K ..| l.<XnXwX>.q.uXsXG.N w ].cXIX[.A <.@XF.^ ^ h.`.].cXqXG , :.hXFX3X#.0 ",
"} W z.^.x.B.8X[.xXB.V.[.n.[ K 9 0.AXFX4X0 , 7 $.@XqXG.<.(.N.+X+XL :.>.}.4XpXH f 0.>., + = d *.f 4X4XS.6.Y :.Y 1X1Xb...V.p. .~.b.{ q q K ] n.N.] A M _ .._ ' Z Y.Y.M.Y.Y.f.f.Q.:XdXqXqXaX].b.J.{ M  .B.Y.} W ` z.=X . .B.C.X.X.o.L.uXgXXX&.h G T h a >.L , D >.8.h I h 6.G G B m.1XZXKX_.] ] b.b.^.` R ` } ] | <.J :.Z.L , e >.S.-.; 5 D ;.q.g = g $.A.bXwXJ.S b.D.w ,.v 6 ^ !.p.c ` R.=X/.d.~ t.*XY.Q Q Y.(.V.b.8XyXjX8X=X=X=Xa.i./.9X9X/.` } `. .7 M n.[ w w w 8.K.>.H H G Y K N 7 w N <.G.:.L { V.V.).rX(.n.0XJXnX(.M w B.xXnXl.A b.[. .M b.].].b.N w B K F.bX<._.vXiX>.0 a f >.$.H 0 K 7.).).I I # 6.2X8.q.G -.7.A.:.w a 8.3XiXw , :.@XP.< , f q.}.3X).B w V.wXfXK.{ q.4XAXgXF.N :.XX.Xq.u 7 V z.z.` Q y.z.R.y.p.R.*X=Xz.} } <.pXpX>., = 0 H q. X>.0 #. X$XoX6.9 a T 2XuX).n.).).Y , G A.K.S.@ + 3 d O.e.oX#XD J 2./ J ,./ j.w M | n.<.N 7 7 / 2.<.{ o.X.[.fXDX0.>.4XFXuXe 7 n.8X].X.p B [ -.| u.N.W.V.V.7.G 0 &.6XBX|.*.h ",
"V M.8X=Xp.} l.B.xX(.N.] w ] V.[ S.SXpX|.D f f :.:.{ [ A ] | eX[.N Y :.1XgXsXD e $.>.f 0 = * ;.S.5XoXK.4XuXpX9.A.K w A V. .Q M. .K 7 w [ [ ..f.]  .C _  .p Z S J.xXmXmX`.A C n.:XdXOX,.n.N.V.[.C V  .R.^.i.V W p.`._ Z ..V.L.C.p :.K.3XP.:.H h h 1 1 8.-.7 G A.P.gX3X9.XX9.B 9 7._.].(._ w M  .p.Y.~ ~ z.B.M.M.j.N.f.b.:.K N J e 8 * 8 D H L 0 , , 0 P.2X_.b.M | G.J J & q K ^ ) V E a.=X^.i.! d.=XU.V w Q b.b.V.{ l.b.} ` R.=X! ~ s.=X9XY.W Q Y.N.; ; [ n.Z.1.9 1 I f H H 9 7 a D 7 ; 7 G [ N K M ] n.qXbX).F.ZXnXZX].M B 8XIXMXb.w 5.cXV.9 K _.1X..7 7 w w K L.K 7.F.-.D L P = # , G e Y [ n.-.0 #.= q.2XY -.w w ] L.P.T h 6.XX@Xw K :..X}.e D 9 q.P.A.9.N K 2XgXDX1XL.S.Z.Z.D.K ; K OXaX2X$.5 M i.a.! ! p.U.E.R.W V Y.=XM.Q E K iXgX:.9 , a >.4XBXP.a $.oX|.>.a 9 -.S.VX2X<.K F.OX[ ; a Y H H = > t @.0.0.H 7 X e 2.J v ,.D.+Xn.A A m.F.J 7 e dXsX1X{ 9 9 o.5.P.:.>..XuX:.; B U V.| w p e 7 P ,.| | <.{ N w a p I }.6Xe.#.j ",
"p.Q C Q Q V C | rX^ c c q N.lX+X1.>.1.H ; ; w 7 ; A N.B.u.E p.jX7.b.K n.1XF.U p N b.] M K N w Z.>.0.P.uX@XXXXX<.9 F.XX<.K p 7 w U s { K C ] | :XjX'.].S 7 p 1 9.MXwXqXF.N 7 w C ( ) c b U.=XR.s.! y.} } } Z M ] ..[ A K n.<.K e 7 G -.Z.A.K.2XP.Y a Y Y J P.VX.XiXCXsXqXwXV.X.V.0XJ.w M _ M W _ ..M _ i.x.Y.z.t.i.! E  .N.V.7.[ N w ; ; e [ G = 7 B { L.n.w N ] <.<.K K 7 N v / N q ^ '.'.} c V p.| C w w 9 G A.G T , 9 ] | p.V Q p. .M. .M  .l.X.A ; N -.1.Z.8 = + 3 g < X # < g 8 , 7 7 , , w 7 M b._.].B n.).1XXXT 1 T 3X3XA.N B [ 7.p w <.[ F._.m.n.:., , f ; * 7 e -.P P e , + 9 >.:.-.<.{ a , 9 U { b.b.A w S ] _.9.= I 2X(.F.N.N.n.K w J 7 ; -.S.9.:.:.I.iXCXA.a , * ; w ; N ..'.jX'.Q q q ! T.E.} } u.Q } c q p.'.h.C Q w l.(.tXL.B 9 K.NXgXG.f D n.F.<.; e :..XOXg.D 7 <.(.{ - ; M { A.e ; = Y 1.D 7 * ; ; K -.[ L H 8.(.p w <.{ e e D dXVXgXA.p , s { w [ OXqX<.J 1.@X<.[ 0 f y * * , f K a 7 9 = = a Y T w.&.1 f + ",
"N.^ C | j.j...C u.c q w C W.rXW.w , 7 ; * 9 N ; w f.W.M.} } M.8X<XL.A B | ..{ N ] V.F.F.N.C M F.Z.4X2XA.Y $.A.Y 7.XXXX7.[ { Y G U 7.9.w q ^ M.jXlXeX:XA N 7.G :.9.m._._.7.K N 7 N.u.b b z.=X=X=Xc.d.! ( V 5 ; 7 N -.:./ D e J g.L K G n.XXiXgXXXY 8.P.:.e -.G.:.L G.).].cXtXC...[.[.B.B.z.W Z _ M p ] i.z./.s.~ R R ~ } } _ ] { <.U w w B { ] w K w w V.n., ; N P.1XXXF.w 7 7 L ,.N v ,.N.| c q M C | F.-., , 6.K.6.9 , e K N.( w } p.B._ 7 Z p.] ] ..f.-.J m P < # 4 z u # + # t +.+.7 = , B { [ ^ A ] <.B Y G :.&.i > I w.#.> 9 w a a 7 N 8.H A.VXgXXXY = # 1 = @ ; r k.D.,.q = = I A.:.K [ [ N 9 7 w w A ..l.M ] o.X.9.9.w.G [ `.*XW.b.,.,.1./ 5 e >.XXiX.XA.w.8.G = = , w [ c ^ } u.Y.E.y.V q x | W.W.u.) C q C C M V A f.`.Z M M 8X0XU # s 8.P.A.L K <.<.K - ; e 2.g./ e 5 e :./ 7 7 N K ,.P P 8 , ; ; w w ; * N -.:.Y 0 G { 9 7 K -.G e 9 >..XXX9.T :.{ B ; J ).+X<.Y A.P.8.Y H H.3.* @ # 0 h 0 = # @ # 9 f K.pX>.= $.9 ",
"*X..} n.'.aX:X] c c c q C F.'.N.;.Y H a G 8.7.w B n.V. .] } p.T.1X(.B 7 w { (.{ b.F.].qX].<.[ -.P.CXiX8.9 = 9 a n.F.).L.L.XXL.U { fXfX[ K f.f.'.N.N.N.M ..wX9.G { { K.3XXXA.K 7 W.N.| ( h.E.R.=XR.R V } V - * ; w <.A.[ 7 ; / aXCX).L 7.OXqXiXF.K L.1Xn.w w L :.S.Z.L :.sXZX)...7.V.].(.B.] w M ; w | p.R.=Xs.` d.R R }  .] U B n.<.[ ] ..<.<.{ F.B w G.F.7 7 U @XvXCX@Xa ; 7 -.Z.[ N C | ,.^ c M | +XvX@XG 9 $.S.Y , 7 w ] F.| 7 C  .B.} 7 p _ b...qXaXqXZ.e >.< # < O.O.4 : . * %.3.0 = H A.L.].m.w N U -.:.a a 8.K.6.I 2 > > Y f , 7 9 H q.h 0.FXAX|.I > # = 0 7 7 - P ,.-.; * 9 9.K.[ w v N A K A p M C } B.A 5.A A F.iXP.= 7 f.'.W.| K ] n.n.e N Y G.uXXXP.Y a G 9 a L e -.g.n.f.} } z.i.E c q n j.W.j.C q 5 n.).^ q c b.0Xp.M M ].].U # i H Z.}.q.;.1.:.L * * 7 -.Z./ 7 & 7 :.m.K w w N L 7 H L [ J w K B [ 7 w D L H , 9 ..A w p { <.L K Z.G.-.7 s L.).{ 7 N F.D.B [ @X1X8.a D |.0.= * # = f H a , = = , >.A.P.L e .XA.",
"W.] K ^ ,.+X+X[ M f.[ w N ,.N.G.}.S.$.7 0 1.1.N <.<.<.b.f.] } V.(.(.{ w 7 n.aXF.n.<.F.OX@XqXL.G Y S.q.1.G X # a H G [ 7.A.@X_.U { bXvX7.7.b.K K f.m.F.b.wXKX).K G G A.gXgX).[ e / g.f.^ ) } y.i.!.b V M.^ q 7 ; G <.7.L w 7 >.vXqX7.N { G._.qX).K m.G.7.B ; 7 -.}.q.-.S.sXqX<.a G U n.<.b.C.w 7 * 7 K  .=X=Xa.a.U.R R a.j.| A 7 K [ <.V.m.<.<.m.<.B w { <.w M G 7.XXiXP.e * 9 :.Z.n.-.J [ n.,.C 7 ^ n.F.S.$.0 1 >.1 # , 7 ^ n.^ q c | (.`.] M w ] b.fXKXZXG.v $.= @ = g O.O.t # = O.%.f f 8.K.8.aX).B <.<.A.:.H a P.NX4X&.# > &.>.y + = , y $.d 0.5X{.*.H d 3 # f $.-.7 v ^ ,.w * 9 :.m.[ M q q ] V.V.b.V.p._ ..l.V.b.7.F._.9., c | `.:XV.C ^ '.).-.L N K P.qXfX8.G A.A.G.A.7 w n.n.N.N.M.M.p.} V n c M f.N.^ 5 w n.)...M w | '.`.B.} V.n.:.a G d >.e.>.H L >.1.8 ; 5 P 1.-.v 5 q K [ K J C v 7 e D -.G.F.K [ g.(.K w w G L 0 e n.V.K 7 N [ <.Z.F.L.<.a K m.m.B w J Q.Q.N N L.3XY , , ;.F = t 8 o 9 ;.>.e # = a H >.1.H D XXS.",
"(.D.<.N 7 K { w ^ (.F.K K K <.OXBXCX2X>.>..X2XXXL.<.{ (.(.A N F.(.+XF.B 7 <.uXG.-.D :.oX4X4XP.f # 9 , G L , 7 -.e , 9 w N b.L...V.bX+X<.L.L.U B F.L.)._.vXnXF.K 9 9 8.ZXCXS.D 8 N n.n.N c ^ p.M.R.c A Y.f.C w ; N H G N e 7 P ).B w w [ <.{ m.7.] L.G.{ K 9 * 7 P 4.;.-.2.>.Y D 7 9 K D :.Z.9 , * - w ^ !.=XU.=Xa.R u.!.j.K N 7 7 B 7.F.n.[ <.L.{ [ w p [ <.<.9 e Y Z.;.e = ; e >.1.-.J { F.<.M 5 v v N L D , + 0., # = * w J c ; q j.rXcX'.K w M ).cXDXuX1.<.:., = = 0 j $.g = < g #.#.#.&.#.I qXZ.w A.L.F.Y D 9 H >.q.*.0 2 &.*.H = + = d =.d #.*.d 4 #.k > + i :.F.K | j.W.,.; 9 B U [ U M w [ V.V.~.[.~.p. .].8X+Xn.{ Y w ; A u.`.rX:X,.,.:XaX<.w ; a ).fXZX9.G F.F.G.G.q q J v ,.'.V.| p.N.Q Q c c p.N.| K ,.] A K U N K V.[.b.A <.<.Z.H 0 # , < = @ = g $.-.v ; ; v L [ L K w 7 K F.).{ ; e $.S.uX(.J K f.F.K w w P ;.f e [ (.b.w 7 w J 1.).+XG.{ K U ] K w J +XaX[ 7 K 7.:.f 0 d = = j 0 + 7 1.S.H = 0 8.>.sXuXf . 1..X",
"dXaX).N ; , 7 , [ A.F.<.{ K { XX|.NXBXoXoXoXS.8.Z.L Y F.F.w , ] n.OXn.e * e F.Z.L 0 $.oX}.&.d = a Y f D a 9 K :.G N N w w K <.[ (.lXF.<._._.{ 1 U { :.m.0X:XV.n.U i T P.P.Y 0 ; H n.[ ; - M ..b.p.M C ..<...] p 7 9 9 a N 7 7 G N A A K w 7 C B N ).+X<.,...w * 5 r 5 X 5 1.D.L X ; e e G G ; * ; ; v / N.!.!.lX!.E u.:X'.g.[ w 7 N ..b.[ B [ m.n.F.K M <.1X(.7 ; 9 L H D ; * X D e 8 e -.L.n.B { [ K [ Y 7 # = $.0 f G w w q c - w W.aXbXwX<.N ] )._.wX+X).sXS.f 0 7 < d H g # > 2 #.0.*.d 2 j S.J ; 8.2XXX8.H , , , a g 1 1 j 0.{.H + @ f #.> + > + > j 4 > # a N J q C ( N.f.; 9 9 9 K ] C c ] ......B.Y.M.p.T.`.(.K w K w * V p.`.*X'.W.W.:XqXL 7 * ; { F.+XB , N G K 1.[ -.q ; K Q.| q C f...^ c ^ V.f.| L.fXV.] b.F.U w A A c w <.[ -.a < @ X . .     + , >.-.D 5 7 N J e N 7 N <.G.).1.w 7 Z.uXsX).:.F.(.).<.K 7 7 G e 8 w N.+XN.J q w K G.G.F.<.N p K b.w N n.).[ ; w 7.K.G.>.0 . . , o @ , 1.@XZ.f D ;.Z.iXoXL = Y G.",
"iXgXm., , 9 w K -.K G :.-.N N 8.q.5X5X}.S.8.G a H :.7.8.1.G 7 9 K D.2.D q 7 G G 0 < d H H g < + $.9.9.9.e = G <.7.m.<.K N N N K V.:X,.K 7.A.:.# i { 7.L.+X:X:X+X8.I a i D >.$.0 0 a , # , 9 s A | A C A [ C.n.{ 9 , 7 K 7.Y 9 w K | ] ] w w ^ A q b.(.V.b.b.] N - - - 6 P Z.2.7 ; w 7 7 a 7 ; * v / W.N.j.=XjXGXkXE ) :X:X).f.7 , w K [ K M N K ] <.K N [ b.<., ; , f 0 F , , * 8 7 , 7 D -.<.<.,./ D J G 7 @ * F H |.OXg.K q [ K L D.F.OXqXn.K [ N K -.<.XXwX[ a 0 9 , , g f # @ = #. X{.k 3 d D , * G P.A.A.;.e e 0 7 = + < >.oX@X$., = , 0 # . = . > #.j d i a 7 7 5 n c E A p { U s A A V E A X.p.} Q } p.} Q Q ^ 5 q <.J q E M.[.*X'.T.W.:Xn.C J M 7 w N { M 7 w w w [ n.1.v 7 <.Q.N * w ] V.7.A K <.K N F.vX1Xm.9.n.U 9 9 ; 7 w [ N >.1.$.8 = + # = # + # -.D.D.L N L K 7 7 ; N -.-.:.:.G G Z.G.P.F.G.aXZX+X(.<.; - N e e 7 ..rXrXj.v v B v K { <.K N B [ K K N N N , w 8.7.P.0.f = * , X * * D 1.:.L D = ; H 8.2XS.-.N ",
"sXfX-.= G 9.F.fXA.9 ; G [ 9 , G S.}.#.> , , , a f }.2XA.A.A.-.e v D.Z.Z.1.e ; * . = =   > q.0.> = , Y P.N o a F.+X1Xn.w 7 7 9 ^ :XlXf.p U I.2X&.l A.I.XX+X(.N.g.Y h , = G @X2X$.9 , 7 T F.F.:.7.C.C.] w U V.m.7.B 7 , <.uX@X[ a A b.N.B.} C C ; q M ..V.p.C A N.,.x x ) n 6 q C ..| 7 w / B K w ,.].JX:Xj.:XGXGX*Xc Q '.T...^ 7 * 7 B K K N 7 ; w ] [ [ N 7 N a , = 0 ; f 0 H H F H H a ; , f 7.w v 5 = N -.f = >.S.CXpXD.K w Q.qXn.[ w { +Xn.K Y , -.{ p 7.9.p , , , * = f g = # = =.5X5X=.# + ; ; ; ; G 0 $.H L H 0 = + @ g XXLXaX1.8.>.e e L G Y , 9 >.>.>.H 9 9 ] f.N.C b c <.1X+X7.U A C  .V X.Y.M.V V Q M c 5 q 5 w | J K Z ` z.`.M.c M W.| c ..N.<.] M A { { [ [ N K n.L J J Q.OXN ; B ..).].[ 7 w 9 7 K 7.m.U , ; p B K w N 7 7 e sXCXH.u = . 3 k k 4 < P Q.OX:./ Z.G.1.[ , 7 L n.XXXX8.0 0 D .XaX].+X+Xn.W.W.N q / L v 7 C W.:X,.v C C N v 7 ; ; w [ n.:.1.e 5 N 9 ; a 9 :.Y f d g >.>.-.e 8 9 G Z.1.; 7 G.dXVXA.-.P ",
"Y $.9.a a K..X2XP., = h G f a = $.>.h @ + h P.2XXX@X}.XX2XA.L Y 2.K g..X>.e ; * = < =   = *.0.j 9 e a 7.7.7 7 K m.F.7.w K M ] b.N.W.D.{ -.2XDXpX5XBXVXiX).| ^ | , >.$.9 >.4X2XoX>.9 Y XXfXgXXX8.1X1XL.N { n._.(.{ B 7.iXfXwX_.<.7 `.T.T.eXp.T.b.A M M A Q ] p.W.h.E ) ( ( E c Q M.`.M.] M | '.^ M b.cXjXp.p.`.M.u.5 c C X...V.w w N L.aXV.w 9 w A m.B B b.<.<.<.-.G f a r F 3.Z.$X1.H.>.f 9 1 8.7.<.n.e -.uXL = Z.uXoX@XOX:.<.n.sXvX:.[ D ).gXOXY [ Y K..Xa 9 U A.n.Y 9 9 f H G # # j #Xe.h j f q.1.1.g ; ; < Y 1.1.G < , = , L Q.b.f.).'.F.<.b.M B A { F.m.m.qX{ ] ].eXB.Q V C 0XbXfX1X{ N.N.`.V l.V.} `.0X] ] V...j.f.c c | M.R.B.V B.R.Q C - 5 C (.].(...^ V.(.(.V.{ B J :.F.L 7 uXuX7 ; K K +XfXV.K p 9 [ { B 7 p s :.m.B T F.G.K 7 L S.{.#X0.0 . 4 7X&X4 + e +XvXD.L <.Z.G.[ a , Y S.G.3XA., -.XXsXvX+X| c ] bXzX,.q N 1.e 5 c | j.N.,.A V.+X).B 7 * w K G.Q.g.{ g.<.a ; 9 ; # >.q.S.A.}.pXG.Z.e ; 5 [ G.e N :.,XOXK q e ",
"9 T 9.a G P.P.S.8.9 , a a H T 9 9 h H 0 < G q.}.2XsX4XXX4X.X:.:.N / Q.OX-.D P H , 7 , @ + < 3.oXG.D , A.1X:.N B 7 { ).F.C...b.F.] j.m.{ N :.XX6XI.2XiXiX1Xn.v w -.P.>., D A.oXsXS.0 :.uXCXbX2X1X_.L.F...b..._.cX_.F.1XvXaXwX2XL.N eXcXmXnX .b.b.A M c A } u.B.`.E.( a.E.U.y.b b R M.!.Y.Q } `. .V S l.B.}  .b.Q M.5 ; 7 _ l.J.S ; 7.vXfX(.<.K 7 <.<.w <.qXG...{ 1.S.oX1.e F S.uX#X;.>.8.>.H 0 Y 7.n.+Xn.XXAXG.H H 1.1.Z.n.[ { { aXvXZ.:.L @XVX2X>.-.H K.P.a G K.G.XX).-.a a Y 9.i 9 1 i h 6.3X}.S.S.}.$., < f 0.oX@XZ.;.>.L 7 7 w M | `.[.f.Q A ] V.| M | '.].].(.b.(.0X[.B.p.^ C.+X_._.[ <.h.`. .X.X.} *XtXV.].V.N.].:X..c C } R.x.V ~.*X} p.^ n A N.`.[.b.A  .V.b.b...A v -..XG.G A.Z.e e L -.+XnX+X7.U ] (._.7.B p s m._.9.7.:.Z.L ; 7 G -.1.H H g *.AX5Xz . e g.Q.F.m.1.:.1.G a , D >.Z.oXA.:.S.XXuXfX+X| N ^ 0X:XN.N w / J 7 q ^ j.n.| M [ tX).B w w / K g..XOXZ.[ [ K N p w , &.A.8.q.>.}.F.D.K 7 * 7 / 5 N J n.F.K 7 7 ",
"= Y S.H a 8.A.A.8.G a G Y A.:.= # 9 G H f a f h :.P.A.8.XX4XXXP.[ g.+XOX-.1..X.XY Y G , . = 3.NXK.a * [ +Xm.{ B w b.qXqX..A ] f.aXZXvXn., 9 :.6.K.3XiXfXqX<.7 ; m..X1.9 8 f :.OXS.L ).ZXDXbX_.F.{ { V.b.C...0XKXaX(.F.].0XcXaXV.M [.cXKXnXA ] N.b.} C M A  .B.`.E.E s.R.Y.U.~ c W a.R.^.! E E.p.B._ _ l.p.l.N.] p.] _ M A _  .S 7 m.].<.{ F.n.K [ n.<.(.+X<.K <.:.2XgXZ.; e G.dX2.7 0 $.9.T 9 p n.7.+XL.XXvXOXZ.8 9 7 e e N { U A.L.[ G e 1..Xq.L A.>.$.$.Y 8.8.Z.XX@X1.9 7 Y A.T Y a 9 0 >.oX}.e.}.oX>.d G $.P.4X2XZ.Y 8.1.N 7 - q Z y.y.E Z E u.Y.} w Q `.8X[.m.{ b.].0X[.M.A { <.[ { M A ..`.'.} S ..tXqXL.aX{ ..].lXW.^ E } =X~.Z i.Y.T.eX*XE C p.T.`.p.Z u.[.].tXqXn.v e -.G.P D H -.;.L :.(.bX0X..M A (.wXn.L.<.{ m.F.P.F.D 3.;.7 * ; 7 e 9 e f H 4X#X%.< e B [ m.F.{ G -.P.8.D H >.}.pX|.e $.K.gXDXqX] q A M.W.V.J ; v K / 7 c ^ ^ A c A F.).n.<.B B K )..X).<.B K [ { -.{ a G K.}.oXH 0 K / J N q q ^ N J q K N.,.w 5 ",
"a S.2X9.a G :.A.3X8.:.A.2XgXK.= # = 9 G Y G , # = a a a q.2X4XiX<.[ [ ^ B -.F.n.1.8.Y , = 0 >.P.Y T a G U [ b.K L.L._.0XN w M ..+XvXqXa @ G 8.:.A.2XsXiX).Y 9 w n.n.[ e 7 ; 8 -./ { +X+X_.wXL.U 9 B m...[ ] '.rX(...] ..V.tXwXb.A p.`.jXrXc A T.(.b.A w w A b.`.p.x R y.a.R.z.W i.` i.a.V V p.M.~.Z M X.} X.] Q  .`.T.] A V M M w { [ K <.b.B 7 N m.G.n.{ K K -.[ ).+XL 5 -.@X@X$.7 7 $.n.:.G T L.<.F.1.[ n.n.n.L 9 * * * N L.F.[ G w 9 ; 7 e 0 7 >.Y a G 8.A.G D -.:.G 7 7 B { :.L.L.n.D 7 Y 8.q.q.w.H f Y H Y 1.S.[ a Y <.K A c c c b V E Q Q Q E Z A }  .Y.0X] U ] b.W.T.V...] s 9 a N N K j.V.A w A 7.K B m.U A ..'.`.} Q  .Y.[.` M Q R.jX`.c c | Y.Y.} V M.`.yXnXlXn.q * - L y ; f S.H.F H { 0X+XK ; w n.wX(.aXm.U K K m.n.0 ;.;.e * * ; 7 9 9 9 7 q.A.w.>.K B B / / 7 , G P.Y f >.P.oXoXq.a G [ F.1X(.] C ^ | M.N.^ 5 v <.j.; q K ^ ] M p M b.F.m.N w K @XF.-.w 7 J Y 7._.T a :.3XhXXXh X 7 w A ..| ^ | | ^ w C f.f.C q ",
"f >.8.$.0 = 9 G XX-.f >.XX2XZ.a 9 = ; G A.m.G , 9 a , , [ A.A..X[ 7 7 M B [ <.[ <.K a 9 w N K L Y F.).m.N w ..] L.{ <.tXJ.b.| b.7.2XqX-.a Z.iX1X7.F.L.L.A.Y a a n.{ K K N 7 w / w w ^ N M V.'.V.A B m.7.^ q A A A ] N.p.A ..(.C.f.K | '.0XA ] W.N.f.^ w 7 w K b.Q q c V i.[.~.p.` V } z.E c ( M. .c w Q <...A w | ..] <.N.] M ..].+XF.{ <.[ w w K B N M [ n.[ B w [ [ 7 - -..XG.-.0 , G -.H U 7.m.7.m.<.U G B L Z.L , , , { fXfX9.p 9 a e = = , 8 , * 0 H $.;.f ; ; 7 e K Y K p n.tXtX(.N ; [ K.4Xe.&.h #.q.H 9 a A.A.[ L K B ] ( E c c ^ p.} M c q C | ] M p.yXm.9.p N f.(.tXqX{ 9 9 I 7.[ N v ..] N N p , G F.L.{ K b.`.M.Q W c z.Y.` V ! M.u.V b } M.Y.y.V i.B.0XjX[...K D e r y ; 0 3.%.0 f w W.0Xf.c M <.qX0XaX{ w 9 p [ N ; f H g 7 7 w w A ..7.K F.XX2XF.K C w w N w w D a = G oXpXoXq.6.P.A.:.-.<.[ N M | | f.f.^ C / W.[ 5 K (.wXtXL...w B w B a G e L g.L 5 ; B -.m.XX1 s 2XuX4Xh f = q C f.N.| c c ..| ] C V ^ ^ C ",
"; ; = H :.G D 9 Y 9 ; 7 a D L 9.{ p , G P.XX<.9 Y T 9 9 :.9.Y { K 7 w { 7.C.F.<.7.p w <.<.w 7 B { A.1XwX[ 7 U { K M ..mXnX0X..A { w.2X@X[ N -.G.m.<.L -.A.:.1 = K A { m.<.C v K N 5 M C V u.~.8XV.B b.).M.7 q c Z u.[.B.M M 7.7.{ 7 w ..].....n.b.b.b.<.A 7 7 M w 7 M A J.cX0X[._ Q *XtXf.c c | } M w ^ ).+X,.q q w K tXtX..c W.DXPXbXn.[ b.G.(.n.7 ; M 7.m.K M v ] | q & e 2.-./ 9 * w N , w B U C.L.).L.U 7 w -.{ a w p 7.fXvX_.p p G Y 0 ; 0 u 0 # = < H #.= * & ; K F.G.[ 7 b.cXtXb.A A n.F.P.h > > I 6.0 # :.2XqXm.K w M <.N.u.V c ] V.f.V w c ] ..M w ..).I.L.9 N (.tXKXfXL.s 1 G G.7.[ J <.F.V.<.N a .XDXiXL...J.MX8Xx.W w x.8X[.Q x } [.h.Q ( i.R.U.R W M.8XtX`.b.n.,.e e +.8 = 0 0 f f q b.rX'.,.A N <.n.qX).<.A p p 9 = = 0 D D N N w ] [.0X] .._.tXC.A v ; 7 1.@XXXF.a , >.4XoX>.#. XgX2X8.K U ] A A ^ C ) V v ^ / n.D 5 J F.fXKXfX1Xp p = , 9 L , @ -.g.K 5 a 9.L.m., p _.8.A.# H a q } `.Y.Q q c `.W.R.^ q c } p.",
"7 , ; 1.@X.XS.D 7 a G D 9 , G P.).7.K [ )._.<.9 B T B G P.3XA.:.U 9 p U ..(.'.{ { w A +XrX..w N [ 7._.qX[ 9 <.m.B U b.(.tX]...w { 6.5XDX@X[ ,.Q.OXn.K Y A.6.1 . w A F.qXF.N c C j.E f.M.} p.E.^.b.9 [ ].(.M Q ( ( M.*X`.S M b.L...; 7 B V.<...[ ..<.F.].n.p ; 7 B :.9.<.qXnX1X<X{ ] tXcXn.v 5 C ] ^ c w ,.Q.2.7 X e n.zX:X..c ..m.+XqX(.m.qXvXaX(.N M A [ <.N B ] n.W.[ 5 7 / 1.1.J 7 [ 7.s s p B L._.qXaXn.w N B 7.[ K U 5.1XMX<Xp p 9 L f , ; < +.g @ . f $.  * * 5 P Z.m.K 9 A ].(.p. .] ..{ S.j #.e.5X5X&.p 7.1X1XF...A ^ W.:XQ./ q J D.F.] N N { <.w 9 K Y { m.p ] 0XzXbX+X).h 9 G XXP.F.,.K F.F.8.a 0 P.fXwX_.7.J.mXxXY.' Z x.8X*Xi.R M.mXR.a.y.y.R.=Xy.`  .B.B.b.<.<.D * r +.u , * < 3.H w ^ ).'.F.[ 7 M [ 0XZX].U w w Y y @ , L T B M w _ B.[._ A X.[.J.,.] w N ).DXDXgXY 7 #.6.g > 2 S.BX3XH = w n.].rXu.V C c C ( C ^ e 5 ; 7 <.1XL.m.s U w 9 a :.0 * e 2.-.q w { n.7.p 9 B 9 T 1 6.Y w } [.B.} c c *X*X*X} q V p.N.",
", e 7 $.S.8.Y = @ D 1.:.N , 9 { 0X(.b.b.).].7.p 7 U Y :.gXLXfXA.m.A p M { 1X1XU 7 ; K tXKXaX<.N <.G.qX_.N N _.].U 7.{ 7 <.V.L.:.h #.}.pX@Xn.<.,.>XW.[ -.A.6.i > K <.+XqX,.7 c | !.N.`.f.E a.E.B.K ; K n.b.A p.^ C V.bXeXA p _.DX].B B K b.{ ] N N N <.].(.K w M OXgXuXF.iXcXm.V.[ p m.(.{ v 7 N <.D.^ ; 7 +.+.m & +.-.-.C N.^ w B w N A { qXKXZX).U K w B m...K w N | K 5 5 J g.n.K 9 m.+X{ B 7 X.wX1XqXnX).U <.] +X(.n.m.8.1XfX1Xs s ; G G , X = f g < X 8 H # * ; , e N N M w M } Q } | c C ,.&.j e.hXFX2Xa = a 7.L._.+XV.b.'.rX0XN.K ^ V.F.{ K w K 7.G 7 7 7 a 8.s [ ).+XaXXXY 1 i >.gX2XG.L e 8.A.q.0 @ H :.K.A.] ..8X8Xx.W w Z M.Y.B.B.E.=XE.h.a.i.R.=X/.^.i.` Q Q | 1.[ e = g F f ; g }.H v c f.W.'.V.v K '.qXfX<.9 9 p F.>.> < :.-.B w ; A S V.~.l.M b.0X0X)...U F.aXvXgXY , H I i , 3 =.A.8.D 9 7.fXZXbX'.| ..| ,.g.D J 2.[ N 7 <.).{ U K 7.K K -.OX-.w * v J N v N U n.w 9 9 1 a 9 P.P.K ..(.N.p.C 5 } '.[.^ q Q M.M.",
"8.S.D 9 a 9 , * ; w 1.n.N w K A 0Xi.} M.T.T...9 w <.1.2XpXoXpX>.1.L.N N F.).F.A 7 ; [ A.2XCXS.D [ g.qXF.q ] 0X0XV.5.C.U B T a H j {.*.&.S.K 7 7 B ; B n.>.H H a [ K D.qXe & 5 / W.eXW.Q Q h.D.h.B N N U F.L.-.N p m.KX1XB G 7.1X3XsXXXL 7 7 w G <.n.0XZX0XK w [ ZXZXdXQ.g.<.<...-.9 * G 0 0 , D Z.G.g.e @ ; F $.e 0 ; K ] b.A M w ; w A N n.cXcX+Xn.K ; C ] ..c 7 w B e w N K L e L * 7 qXgXF.T p { 7.7.b.b...{ V.(.qX<.0 Y S.5XG.N 9 :.>.G 7 = = 0 $.F o y H H f = , a M A _ M M M.p.Q } c n '.(.H Z.XXXXY :.:.8.:.VXZX].[ c '.GXjXR.] C ] <.b.U U n.n.K 7 ; = = > 1 h w.3X4X|.#.k i #.K. X&., $.0.S.0.>.6.I = I :.9 w n.].B.A ] B M N K ^ h.*X!.M.~ b R x.-X9X/.b b '.zX+X1.H . * = +.D 7 >.K c b | N.>XT.c ..).qX(.<.:.G H .XS.8 0 Z.1.v 7 7 w b.V.{ N ; N qXwXb.A ] 7.n.(.qX{ G 0 h *.I 2 3 G a N U +XDXbXbXtX+XF.<.K e , ; Z.F.n.; w G.,.^ M M w A :XJX:X^ * 7 { | w 7 C ..] m.A B 9 , q.Z.<.<.b.7.] 5 - } `.Y.} C } T.'.",
"4X5X>.0 , 9 G w [ N [ G...q q Q Y.} Q } M.T.F.<.w G :.S.A.>.$.0 -.G./ B ] K U N M 7 a N >.}.0.H L K n.,.c ..0X[.5._.MX_.{ h > + 2 j > 1 &.{ U B , w (.sXS.>.S.S.m.K K g.D ; - 5 ] (.(.^ C | Q.,Xn., = K <.Y G s 9 G I.8.G T G { S.sXiX>.e 9 7 = -.iXLXZX+XG.n.[ D.k.,./ <.F.(.F.7.w ; P 0 = @ 8 -.G.A.P 7 0 f G >.G 7 N ..V.X.w B A ..K 7 ..qXqX(.F.] w w K A 7 B 9 N -.:.N 7 w 7 N ; 7 <.F.m.U 9 w w p } ..Q c n.f.<.9 , L 0.oX:.a G S.}.q.Y a 0 * f +.* 5 L %XS.:.Y U A ] A - c p.E.T.W.^ c ^ / 7 L Z.XXS.oX.X8.Y uXiXn.K w b.jX[.i.V C X...{ K B { F.n.Y N , + d > # I *.#.=.j *.*.#.j =.=.j g g #.e.oX6X>.# = G 9 N n.(.(.V.L.7.G 7 7 C | N.!.N.! b V t.c.-Xt.y.R.lXbXuXq.8 8 * +.q.e 7 K C x c ! u.`.N.w v ] K K n.@XA.e 7 r 0 L G.).<.v ; ; A ] B B w 9 Y 7.U B B A U ] | N p i #.e.*.j j >., = w n.L.m.+XvXwX(.$.7 # # , e F.D.K v v N c c w 5 q h.jX*XQ v J f.f.M q A f.] b.] n.L w >.Y a p U n.f.N q ^ u.( E E p.W.W.",
"5X5XS.&.a a A.S.<.K K N.N.C 7 C M.M.Q w } :XqX].K 7 a e , = # , D n.<.[ M ; M ..] w 7 , w 8.S.Z.[ / F.F.Q  .`.~.~.nXKXwX7.s i > # > > h 8.A.9.K = K sXZXS.L q.}.fXn.G 9 v r 7 ; v n.V.] v v / g.Z.7 = G :.Y T H 9 , a G &.8.I 9 f 4XgXq.G D 9 # e L.qXF.n.).Z.w 5 5 w J n.+XqX).F.U N Z.1.f ; e G -.:.H 8 , D ;.>.K a w ..V.V.o.<.F.+Xn.w B b.<.N.'.f.] w b...] m.w N L.OXK 7 w K { [ K w A V.b.M p 7 M T.eXE.} C ] ] w w a ; e 5 e 1.(.Z.>.q.S.>.e ;.L e e 1..XXX5X2X9.K ....c Z E } f.N...C w w ; 9 D q.XXNXpXS.$.qXiXn...^ .. . .} | <.<.K 9 a , 9 Y 8.1.-.D > 0.#.# 2 #   > #.K. X*.=.e.S.>.= # g $XAXpX*.@ @ H a 9 N K F.0X3X@X7.w * q J ) N.N.y.R V ~ x./.t.~ M.eX:XZ.$.+.>.0 oX@XG e w C N.M.h.Q V C w w 7 7 Y qXZXXXG = * 7 P Z..Xn.K N w 7 w [ <.K 7 ; B U K M w w w w , ; , G 6.6.*.{.0.H T T H B K (.fXwXF.H = + + = 7 Q.OX+X<.5 C ^ f.| Q c ^ :XrXf.C B | <.C q c Q ] f.N.qX1.7 f , , = w <.n.| ) C q Q p.u.^ ] } ",
"6.8.K..XY a S.@X[ 1.{ K ,.f.N q | B.A ; K qXqX(.-., * = * @ = 0 , K 1.1.B 7 K ].F.] w 7 p 8..XOX-.D.zXaX..C u.M.`.cX0X(.{ 9 #.I # 2 #.}.XX|..X{ B <.qXVXG.D H 8.1XL.[ = y D D = B 7.C.7.[ N 7 7 P n.-.a >.P.S.:.G , , a :.A.T = = }.sXH.D a f a 7 a 9 7 K S.<.8 & 7 D K -.F.+X0X<.B N m.L.[ ; ; D L Z.G.[ 9 P .X7.n.7.9 M A b.l.tX+X+X(.U w K { ).tX+Xn.[ [.+X).+X..K F._.<.C K V.0X(.| c c b.T.| Q c Z [.xX*XM.b p.W.b.n.K * ; 5 w [ [ N -.XXsX8.a ;.G H e L -.hXFXCX3XXXcXnX0Xf.C V ..N.'.N.C -.[ J 7 f S.iXpX.X:.@X+X[ ^ A M ^ | N.+XwX+X{ 9 , 1 0 a a L Y 0 = 6.e.#.f # @ h oX5X|.&.w.hX5X>.+ # >.BXFX#Xh @ 2 K.A.D e K ).sX2XfXXXB ; q v x ( h.h.y.W ~ x.-Xz.R E b.<.Y q.$X#Xe.SXSXH.P w | jXlX:X^ 5 C j.N.B J m.gXAXsXA.a * ; 8 :.Q.| K F.V.w N +XqX<.e N [ { | ] M M ] 7.A p 7 G 0.}.4XAXe.K.6XP.7.7.9.I.XXI.8.G 1 # # # ; [ g.Q.<.7 N ,.V.N.N.Q q M.eXN.{ K ..V.f.A q 5 A [ W.aXn.; e 9 a , , K { ..f.c c p.W.M.Z q c ",
"f >.}..XG 9 Z.).Z.qXn.7 N ,.^ q M [ A w [ n.<.[ -.D * G H 0 $.f = ; L <.K w K '.]...M w p ..L.F.J ,.'.rXN.^ Q Z `.8X'.+Xn.a :.q.2 i I K.P..XiXF.N N Z.2XZ.7 , Y F.1X2X9.@XiXXXN B { b.m.V.<.N w D CX@X9 $.G.>.-.>.f , 9 h I a . = 0.oX0.0 , H S.Z.Y , , G A.Z.$.e -.g.L 7 e <._.L.<.[ F.tXG.A w B -.>XAX@XJ J G.XX1X+XN M ] eXGXnXV...W.n.C ] '.wXcXtX<.<.V.+X).0X(.<.[ ..b.} C b.jXY.E Q M V  .B.z.` ` Y.=XR.z.V y.M.p.N.f.q ^ ..C w q K ).gXVXXXY .XiXuXH K G.oXK.6.7.wXDXfXW.W.^ ^ W.aXZXqXK ).1XG.G 0 ;.G.oXZ.D 7.F.[ b.'.W.'.F.F.qXDXVXK.h , &.S.H > 0 g , d G w.}.&.1 9 a NXhXw.0 h }.XX$.= , >.pX5X*.2 > < oX Xf 0 $.OX4XiXsX).G w K ^ q b u.E.z.! ` c.=XM.M.u.K K S.iXpXpXSX4X4X2X:.J F.0XlX>Xj.^ W.nXZX+Xn.{ F.sXZXOXe ; ; 7 P n.[ ] ).tXf.V.ZXZXF.[ 7.n.b.N.F.b...W.cXV.<.G G Z.oXNXLX3XK.3X3X3X3XL.9.9.A.w.&.i 2 2 i 7 ; w K { J 5 K f.W.]...q | :X'.D.{ ,.W.'.N.A ; 5 w n.+X-.; D :.q.H ; 7 w ^ N.V ( f.N.M.| C q ",
"Y oXuXS.H Y XXOX1XqXn.7 q | b.[ w K 7.F.<.7 * 7 :.-., H $.L }.>.; X e L N 7 w | b.^ 7 7 7 N b.f.J x v f.W.W.p.V *X].].tXF.a G q.0 < 0 >.A.P..XY ; 9 -.G.-.# * T { 9.m.:..XiX.Xa 9 o.X.U ] K B J :.FX@X8 D e = G $.G , < a I Y = # f =.j , = $.pX4XoX>.0 e :.Z.>.8 -.A.-.w , w B K K N N V.b.] A q N n.+Xm.e w -.iXqXF.A Q N.xXIXV.c w F.+X..] F.L.(.(.N A K m.n.V.(...w c } _ 7 W *Xa.Q U.` c V i.z.y.! i.Y.Y.Y.R b b C M.N.C ( W.u.^ K ,.+XZXCX-.:.4XiXP.e , Y A.q.:.A.iXaXF.{ | w N g.+XvXqX-.(.vXaXF.G H $.S.Z.N K ..{ (.cXnX:XV.b.+XbXfX8.9 :.4XgX>.= f 0.>.$.9 Y K.>.H f > Y 0.-., * i L f e ; 0 $.=.f t 2 O.4X0.# @ H }.oXCX3X[ w K g.| q x } T.E.i.` x.Y.`.p.K w 9 ;.oXpXpXSXS.q.@XZ.Y F.rXlXW.f.n.+XZXvXvXG.B N F.qXS.a e e 7 ; 7 A | n.0X+X0XcXvX@X8.-.F.F.].tX:Xb.B.0X+X].m.-.S.4XpXBXgXw.|.fX6XK.{ { T w.I.*.i 1 j *.D - 7 w [ [ ; w C f.(...c } '.'.^ N N ] b.V.p.c * 7 A -.J ; 7 :.P.A.7 ; 7 A V.^ M ] N.V.f.^ c ",
"8.2XXXG.8.1.L.L.XX).:.7 w n.).1.7 [ P.G.Y f e , -.>.D a a -.2XXXG = D L e 7 5 M Q Q c C c w | ] | J c C p.T.T.p.*XN.B.).F.L 7 e , , 9 :.A.A.1.7 7 G :.7.Y 9 G P.wXL.9.n.-.Z.1.K w o.S 9 w w w w :.S.-.D f * X f H G , 0 $.}.oXj # = = = 3 2 $.oX#X}.>.0 , d H H ; f $.>.:.T p ; w ....M b. .p.N.M C C N K [ [ K ).F.[ ] Q p.} Q M M A V.].b.N v N U [ N w N { b.b.b.Q q c }  .V W Y.i.i./.c.t.R c V b c R i.U.R.y.b V ) j.j.^ ( N.N.N.b.[ b.+X1XG A.2XXX8.:., 7 1 T >.-.-.K w w w 7 7 v / Z.Z.L { qXqX).G e 9 1.S.G 9 A [ f.(.'.B.N.B.[.].m.U p .XgXVXA.a -..XoXL a L :.9.9.:.a X 9 D 9 , 9 9 9 0 * @ = < f O.j e.4X=.+ @ f {.oXsXA.D w K ,.^ c n | Y.Y.z.i. .} b.A w 9 = , 0.pX{.*.0.0.}.2X>.-.+XrXn.,.n.<.D.G.).<.7 7 L [ [ Z.:.H 8 * * w ] ] V.'.).+XfX1XY w 7.F.0XcX0XN...f.cXZXqXF.G.@X4X2X).{ XXbX_.:.U T B 7.8.I 1 1 h T 9 7 7 7 w q 7 N q C ^ M w C ^ ^ w v N M N | ..M q w w w K 7 * a A..XN , w K V.] ; N f.N.| C C ",
"8.Z.:.P.).D 9 G n.F.n.w w (.+XK * -.S.G e }.oXe D -.Z.G 0 q.2XuX1.0 $.:.N M w C } b.p.B.X.w Q M N.Q.k.^ c E E.*X*Xp.V.:XvXuXe X # 9 f 8.A.A.8.G , N G e a L S.sXKX8X(.0XJ q q N ..5.o.w M ] C w N ; 0 $.H , 7 F H H , f S.SXNX$.< = . . < t f #.q.O.0 0 0 0 a D e 7 , a 8.).7.p ; b.`.C Q c V } B.(.b.^ m.aX+XB B K ] `.[.*Xu.Z } V.V.f.b.b.N ; 7 A K [ w B K n.V. .V c } B.[.[.! i.i.z.c.c.c.W c V c q Z u.Y.[.( q c c q c v / N.j.f...K A ] U a a H q.8.:.= , = K Y a G N 9 w N G K G J G D w N L.(.F.a ; * Y D ; * A W.].rXjXY.*XkX*X..M { )._.iXZXiXA.n.A.n.).iX3X9.:.Y a 9 , , 9 a H H a 7 ; * * = < $.q.*.d =.< + = < O.>.XX9.G D J N M C ^ p.Y.T.B.b.X.S w U -.a = g {.4X#.. e.S.}.CX>.a w N.g.F.F.N v [ <.N X * N w K @XS.G D K N N A M <.b...).ZX1Xw = N <.+XtX0X(.f.] 0XbX0X[ K 1.Z.1.B w V.wX]._.m.U w B B p 9 p 9 , 7 [ N N 7 ; ] F.K K M c A A c 7 ,.F.(...M A ^ c C A q 7 1.Y * 9 >.3XY a G K n.K w w M A ^ ^ Q ",
"G Y 1.8.uXn.w * B 7.1.N p <.F.-.-.-., :.A.VXDXP.T Y .XY Y H :.oXH ; q.@XN w f.^ b.Q T.l.b.C 7 w D.>X>X| 5 q B.mXmX*Xf.'.ZXuXL 8 -.L [ D -.G.8.G.P.-.9 = , :.iXZXIXIXW.W.Q.c q ^ `.(. .w c ..g./ 8 , P 1.H 0 y D S.;., ; +.>.@.@.* < + + j %.t = . 0 3.3.0 + 0 S.S.$.H 9 H A.Y B 7 ] T.| } 7 W [.].].(.W.qXnXqXb.w 7 ^ T.tX*XV w *X'.(.p.A f.V.] ] A b...B { <.[ ....V q } p.8XY.i.W ~ x.x.s.s.i.b j.^ 7 M A Q V.^ 5 5 7 * q ,./ C ) h.V.| w N :.T a Y P.XXT :.T K , N 9 T w , G P.AXCX>.8 G -.D N [ w G J e ; <.7.[ K <.] N.T.^.xXHXGX=X`  .~.J...] V.cXlXb.C A ).sXsXgXA.9 G [ 7 * ; G -.-.e X = e 0 = < H *.3.j # . @ = > < < = q.iXXX[ 7 M n.W.T.Q A '.tXN.M N Y A.G 0 # 0 f f = @ f S.XX8.D * B F.+XZ.J 7 7 7 w - X ; N m.ZXuX1.L -.,.A ] (.| b.F.7.(.[ a , 7 [ <.b.N.| C ^ (.b.F.{ N * 9 w | b. .| V.V.[ ] w 7 w ..n.n.<.[ K [ -.K w w <.+XF.C K ,.'.0Xf.w C { F.F.] q q c ..b.n.K n..XD e $.S.9.A.:.; a { m.w A [ c q w ",
"D D G Y XXF.-.G Y A.(.<.A K { <.{ G G qXuXiXfXVXT G 2X.XY 9 G $.g 0 ;.G.Y J <.b.N.} b.b.] A 7 B n.OXOXj.c c u.*X*X*XN.n.OXQ.L N 1.@XqXN 7 L D e .XZ.H 9 G F.gXPXmXmXM.| j.J n ^ f.p.Q 7 q ] j.-.w ; D Z.;., ; e ;.$.t = = , 4 j < + O . g =.y # X H #XoXH * 0 Z.2X}.w.a H .X7.N ; M ^ b.N.} Q B.0X`...K m.tXqXG.B w [ b.p.Q c E B.} C M A W.rXtXV.n._.F.n.).F.-.(.+XV.C C A 8XeXz.! ~ x././.s.R ^ | ..| A w 7 w K 7 7 5 & 5 P v x c ^ V.n.B w G G T K.iXuX:.G.L.b.A K K <.G a P.sXCXNXP.D , e -.Z.F.N K 7.1.L .XsX).n.n.M ^ p.Y.kX/.c.s.~ ` x. ._ M ] '.`.] c A F.XXG.).7.a K K * ; D 1.<.Y G 9 ; F H , = < f #.j > = < y u 8 * 0 P.iXXX7.[ ] f.].f.M ] [.tX0X].e Y S.Y 0 . = 2 >.g , = g $.G = @ , L 8.1.K 7 7 K [ K J / K <.+XqXP.7.n.(.+X0X0X| ..7.B ..U U N w w 7 M b.(.N.| b.A N ] w ; 7 K `.`.M.! } M.W.'.b.M c ^ | N.N.] B L -.K 7 7 [ OXN.N ] (.tXrX..w 7 K N.W.| w w Q ..(.F.-.[ Y -.L , A.fXXXH , a K.n...G.n.K ^ ^ ",
"K e e e L.).F.1.<.<.7.[ w 9 Y ).F.U 7.wX@XL.L.bXA.H 2XiX:.9 Y A.0 < 0 f e w B <.,.A N b.{ <.9 B 1.G.OX).f.] | B.T.B.] ^ F.F.K e <.Q.).K e D 9 e P.iXS.G [ XXiXaXT.N.} n f.j.C C ^ } Z 7 7 C ,.:.7 ; e Z.S.e ; D H H f = o * j =.g +   = j ;.O.= + f H.q.0 @ G @XAXXX$.9 :.uXZ.7 * w ^ :X`.Y. .].cX0Xb.[ m.iXaX@Xn.N [ n.| A c Z } Q M V | V.0XZXqXV.F.m.A.OXOXL.vXvX+XK M w b.b.} V W x./.-Xc.W ( c | ).<.M p 9 <.G D q - 7 P r 7 5 w [ [ 9 = , a Y 2XBX4XL q.G.W...A <.(.A.Y uXLXCXuXS.H , 9 Y qXtX[ <.XXG.w [ 7.{ b.'.] N.*XkX/.~ R ` i.i.p. .B._ } `.W.A q w )..XZ.1.Y D >.1.a 7 a -.>.>.H 7 ; $.;.d = # , H 0 = = 0 F $.F * , A.3XS.-.[ [ ..0X..A n.qXcX0Xn.e L A.1.D + = < D H 0 X # f H , , , 7 D Y L e ; N 1.OXqXQ.^ / ).uXS.J K +XKXmXn.| b.L.b.).F.F.n.[ w 9 K [ ,.V.F.n.A w <.w 9 , K E.U.y.b x p.rXmXeX} M C Q M.E.C N L :.[ w 7 :.aX).N K W.0X'.^ w ; N ,.V.| c c } | (.,.[ w 9 G.S.0 A.CXZ.9 , , A.A.qXbX(.] ..^ ",
"Z.P e e S.L.F.[ w G n.).n.G N [ V.o.5.b.{ 7.U 9.-., a 9.H > a 8.>.y ; ; = ; 7 w N ; 7 A.1XXXH 0 -.1.G.'.F.f.p.B.p.p.A K g./ 7 ; / ] / { F.G.-.D $.pXoXa Y XXL.{ A M C C j.Q.v q ^ | X.M 7 7 e J 7 , 7 -.Z.H 0 >.$.F y ; @ g H.H.F = # = < H O.; @ 7 F f = = L 4XpX>., , -.S.-.N 7 w K ).W.M.b.*XtXqX).F.L.1X@XG.n.7 w ..A c M V V } E c C ^ b.0XG.B N K :.7.:.S.VXgXqX7.<.A ] A A V W i.U.^.U.` ^ C ^ b...A B B n.<.{ N 5 v / D 5 ; 7 7 7 , , 0 9 &.4XBX4XY Z.F.].~.Q V.lXvXm.XXpX@XZ.G e e e 7 { V.A n.vXqXN K N w [ ).] p.~.^.~ R ` z.U.Y.[.tX8X5.| V.F.^ 7 ; :.G.P.1.f 0 $.q.f , 7 L >.:.f @ ; $.q.$.0 ; 0 O., * # ; G 1.>.e , >.P.9.K B { (.0X] 7 9 <.fXvXA., 0 $.>.H = * , ; ;.>., @ d $.H >.f , , a D e , ; B G.dX'.^ J n.G.L 9 K +XcXW.w M A ..C.L.n.n.).K.N G A.<.K n.1Xb.A N <.G w 7 w z.z.U.! V T.JXKX(.A C ^ u.=X*X} w G -.-.B w m.VXqXK [ ).:XV.N M 7 w K ..^ w w ^ A ] ] [ w w >.L L }.pXq.G a a >..XZXKX).] K c ",
"qX1.K e <.Z.Z.K w <.qXaX).T a N ] M  .A M | ] { +X7.a A.XXY a q..XH f L a K [ 9 7 ; G .XCX}.$.0 e m P -.[ K | N.} ].'.] v 5 - ; ,.W.N.F.vXLXoX0 ; H.8.9 L F.n.[ [ c C N / -.5 ; K { 5.X.s , , 7 G N 7 7 N a D q.>.+.H y ; F q.3.$.O.O.0 ; f +.7 * ; 0 f e 0 D -.H N 9 9 7 9 / Z.2.7 7 v ,.] f.b.(.).F.7.[ Y L G G ; 9 { N w | b.Z p._ q M ] b.'.w 7 N N K Y 9 9 e f :.G G 9 w w K M Z p.R.=XY.` i.E.} c Z M 7 p b.b...C q c J J ; , , , a :.&.h > 0 &.q.q.g q.n.p.Y.Z } W.+X{ G Y Y f , ; 9 7 ; N ..p { +X+X[ n.K w w <.M A Z W V ` l.M.b.V.wXKXL.B 9 B [ K 9 ; ; H q.$.7 , d >., , a >.>.Y 9 . * F ;.2.+.f d L , = = ; J D.F./ 7 a D a p 9 A L.'.[ M w B A.L.Y = * = F H e = * 0 S.@XL * ; f G 0.Y 0 , , 9 7 ; ; * v n.g.C q w w 9 [ XX0X7.N M A M w B B w U 2X}.G D A._.].].(.M 7 N B Y N D w p.x./.a.E M.:X+X^ N ] b.`.jXxXp.7 w Y -.K a { ).(.K b.qXrXV.N c w 7 v ..| w 7 c M M F.F.K e = @ 7 8.q.8.Y f T :.K.2XiXn.K N w ",
"uXZ.2.N L -.n.G B A.qX@X<.B G { B.i.B._ S A (.cXZX1Xp :..XT = f L ; H S.G.XX@X-.K L Z.oX4XH #.#.; ; ; , 7 w C } `.KXcXK 7 N e 7 q c w ,.@X.X+.* , H H f K Y <.(._.[ a ; 7 7 * = 7 s 7.K.A.:.#.&.L.m.H 7 ; , D 8.0.0.q.$.8 < u F ;.3.q.H < 0 f 0 ; ; ; e P G e 8 = G G 9 ; 7 1.G.%XP J q N w f.n.m.m.7.K 9 , , 9 , = 9 7.n.<.m.f.V } _ V Q b.b.[ 7 { n.w e >.a * 9 = 0 a :.:.[ K K 7 w l.*XyX^.} a.9XU.V ` ` M Z l.C.M.} V c C ( a 9 , 9 8.3Xw.1 = @ # # ; # D B V z.! M c C B 7 ; , 9 D a 7 7 M m.V.M w p K K G.-.B N V.B.B.Q V  .N.N...U K 7.1X8.h = # , G D e , 9 D 7 = , D H.1.d 7 f H H 0 X * 8 F +.>.L d f 7 , 7 w / W.:XN.e = + ; a 9 w ] b...F.).{ 9 , e f ; @ f >.q.D 7 7 -.G.$.; * 8 F $.I g 0 < , ; = 7 7 J <.C 5 5 7 w , G F.n.M N V.[.l.M o.p 7 w K.A.0.9.m.).wX_.{ M 7 N s <.[ :.M V ~ i.` V M A A ..n.V.N.T.*XY.c ; 7 K <.<.[ K K K w ] n.b...A K [ N K W.(.] c c ] | rX).K a ; D :.Z.9 , f H w.:.T G :.[ B N C ",
"Q.Z.G.-.K J [ a @ 9 -.A.7.K B K 8X=X-Xx._ Z 0XKXnX0Xs 8.|.8.G G = , $.oXsXgXiX.XS.S.0.K.>.> g 3.f e 7 ; 7 M A ^ tXKX0X[ L :.L D ( n 5 D.dXZ.-.L 0 H >.$.a w [ F.XX9.9 ; ; 0 G 1 1 s w.5XhX3X X3X2XP.F.<.w = 9 L H >.q.3.O.; @ < y F H F f 7 ; 7 e ; ; q J / J w w { L J w e 1.H.OXH.k.P ; 5 ,.F.n.m.m.-.a , 9 a 7 7 ; Y n.<.,.C c W  .} Q A M ; [ ].+XG L S.>.H H + # = >.A.$.D B ; 7 | T.R.B.p.c.9X=Xx.c.c.x.' ' x.Y.Y.} b R j.<.G 1 h e. X0.i i , = # ; * F v ` U.U.} V M V.[ , = a n.A.K N K ....N w ; A n.aX].(.b.tXnXeXE c | n.F.A.:.9 0 6. X0.0 + # g #.H d 0 H 0 , < d e.oXH # = 0 H d = * = ; f ;.+.0 0 L N N v C j.W.N.-.d 7 G 7.{ M M A ..V.m.K , a P.;.f * F S.pXG.L ; ; D -.-.f f +.#.*.*.H 0 0 e a J D ,.n.J q c v [ e 7 w M N ..'.0X(.A { K B 9 U &.}.3XP.A.m.n.V.C.B w B 7.m.1.B c ` B.B...M w N L.qX).{ b.V.] 7 ; 7 N -.L.).A.[ 7 ; w w 9 A [ b.G.,.f.0X0Xf.C ^ f.(.+XZ.K N -.dXDXpXH # f }.6XK.h = w Y K ] | ",
"-.Z.uXG.L 9 f ; = . + 9 U K G ] z.^.=XB.x._ *X(.).L.[ fXgXiXXX:.f Z.XXsXLXCX@X4XoXP.H 0.d # t *.q.1.$.D G -.<.{ ).+X(.Z.1.H D Z.W.j.c ,.OXZ.:.e ; >.XX>.7 9 [ { 8.8.a a L q.|.h G T I.CXDX5X X X|.m.XX2XY = = , = 0 H >.0.y + = 0 e y -.A.G 8 L N e w J [ [ B w K b.<.n.J * +.}.}.Z.+.P * e G K [ 7.K.P.8.H e a >.Z.G D N e <.n.b.N.].[.] M A A n.XX1XA.}.XXq.S.#.= y y 0.A.>.1.H 7 9 K C w A p.=X=X9X^.t.i.i.M V  .Y.^.l.V R N.(.#.i h *.0.e.e.i 0 d y g 0 $.J i.s.U.z.} Q 0Xb.w 7 N F.0XF.] M Q ..f.N.K b.+XnXaX0X<.+XbXeXQ A 7 K F.uXXXf 0 {. X{.#.# @ g #.g # , q.q.H ; . 0 $.0 = , 2 f g t * @ @ 0 $.L e 9 G.<.K w 5 c ) ^ Y $.$.1.F.<.M 7 w b.(.7.] a N 9.3.f X f S.AX@X1.e ; 0 G.@X8.H L q.H.q.;.G H ;.1.n.N v ,.n.D.,.7 K { U w 9 ^ V.'.].L.A ] { F.{ :.f >.K.XXK.Y 8.ZXXXG # G Y A.Y G c z.*X8X(.A 7 M m.qXn.N b.].L.b., , 9 L XXvXiXF.* , A w w [ n.F.qXn.n.:X].[ C ] [ ).b.1.-.e Z.sXNXNXoX, 0 oX|.K.&., N 7.7.N.b.",
"f 1.$X#XO.< 2 d i + + * = Z.uXn.Z /.^.z.B. .A ..V.n.+XvXXX_.fXI.a :.@XAXDXiXP.XX}.4XH.6.j # j *.0.4XXX$.8.4XoX>.8.Y G L L L >.G.(.0X[ w q w K w * 1.OX8.a , 9 a [ 9.F.L.P.XX).A.H 9 Y 2XuX}.}.4XI.I.|.BX|.$ # i + > 0 f h H g 0 L D n.qXqX<.w ..| ] w M M.| q V C c f.[ [ ; , ;. Xt j < H H 0 0 Y }.iX4XH.h G P.P.iX}.1.0 , :.F.B A 7.1XF.{ 9 8..X4XDXpX*.*.|.}.$.$.= < $.K.uXL.s s 9.{ w , , [ n.0XnX].b.| A ..S A Z ..V. ._ J.+Xn.f = = g 0.}.d < t O.>.q.q.{ ` i.U.M.p.N.`.B.Q w E Y.^.^.U.W ` T.mXcXN.] ).ZX).] [ aXKX].K a 9 a Y ;.H < 0 %.3.{.g = # = $.&.= t O.S.H f = * , f y # + < z z = = , f L -.D & G.n.:./ q * ; B -.0.>.e w [ ^ q A p.`.T.| C M K -.8.< ; q.4XoXS.-.G f A.gXXXG 9 [ XX2X@X-.7 L G.Z.D ; K .XZ.e 7 7 f.] b.^ A A V.wX..p p { +X2X9.a f A.pX4XP.oXpXAXH.= = F D r 2.n.T.h.N.h.n 6 C j.n./ K (.vXqXA.D 9 a Z.qXaX_.[ A 9 A <.m.b.{ G.].7.U <.(.(.<.K { { 7.1.D e L 8.{.}.$.= 0 H.H.H 7 G K N.lX*X} ",
"= ;.{. X Xq.=.0.d # 1 G 1.uXsXD.V ` i.p.b.A 7 w w K m.wXqXwXfX9.w N [ F.P.9.:.A.oXpX4X}.=.> > 0 0.H.>.$.oXAXpXS.H 0 9 a e 7 g 1.G.+X| w q w K N N ,.g.2.G , , D <.(.0X1X).F.n.7.{ -.A.A.L H S.iX|.3X6XAXI.$ # h d 2 > 1 #.0.$.7 [ [ G.+X+XV.A ..f.V.Q c u.M.Z c Q q ^ ..F.a = < 0 %.e.#.0.2 . g H.}..XS.$.e D 8.Y P.P.A.a = H { { T s A.A.T 0 h }.3X5X6.1 I w.H q.>., 9 Y A.uX_.G G L.XX8.G , T Y XXsX9.a U 7.1X{ ] B { L.b.] ..).n.-.Y g 0 d =.@.t , 0 ;..XS.e Z z.=XR.Q Z u.B.p.Z Q U./.-X-Xs.i.=XGXKXeXp.M.0X'.| ] (.qXL.-.:.0 f H Y H , = t g 3.f , , 0 :.:.= < 0 3.-.D * * $.G 0 # + + 3 k f f 7 , D >.L 7 L 1.g.B ; , w a >.$.e ; a n.| q q Q M.B.p._ _ ] 2X}.f = H 0.8.>.S.S.:.$.@XiX8.w <.V.1XwX[ w <.1.L w ; D g.-.8 ; c p.Q l. .} b.0XbXV.N p { wXiXm.f H }.NX$X3.=.3.5X{.y . X D G.,Xn.C | j.N.j.q C ) j...B K :.[ G S.1 , A.+X-.] b.qXU ..1X+XK w ).].n.K N U <.{ B 1.:.8.8.D ; , 0 0.q.H # = $.;.0 8 / m.+XeXB.! ",
"8 >.3.S.NX4X0.S.#.g 0 a Z.uXuXW.] W Q p.| w - - 7 B w B <.L._.7.p 9 9 :.K.:.D G P.4XNX}.H = # f S.>.f f S.oXS.$.G 9 0 H D 7 e :.n.(.[ w q w ^ ^ N q 7 K :.G e T [ V.[.C.B w B ..L.qXfXL.G K F.XXw.3X|.K.I 1 i i P.w.H d #.0.#.= 7 B F.V.f.f...V.T.(.} c } p.Q Z ! 5 c ..(.[ = + y  XpXoX#X< < ;.;.>.A.Z.G a G f G :.9.:.a a A.XX2XI.s 7.8.T H h H H K.6Xw.I h 0 G f , f Z.XX3X9.9 1 7.2X3X:.9 a n.3XXXa 0 9.K.1XXX<.9 9 { 9.U M [ G L >.F * = #.>.*.$.g ;.2XXXG V W l.N.} ^ p.b.f.E W i.c.-X9X-Xz.-X=X8X=Xi.y.*XeXT.......| { <.9 0 e f G 0 * ; g ;.F 7 7 0 L L , e 8 [ 1.[ 7 7 N N e < < 2 2 < j $.e = D Z.-.e 5 J [ J 7 ; 7 7 0 i , * 7 ^ ] M q E f.B.p._ A A :.8.>.I H ;.8.Z.:.L a $.@X4Xq.G p 7 B ..9 w L.F.] 9 ; 7 w N N w M Q c ] } Q | ].1XC.B 9 U 1XwXm.f f ;.e.%.f j =.j +.F = * L @XaXW.q E ^ p.M.6 q x | | w 7 9 w a q.0 = a K [ F.qXfXC.F.1X_.<.{ 1X].).m.[ K [ G 7 ; = a :.L 7 7 a >.3.H = # f $.H 8 N <.'.`.u.Q ",
"P >.>.}.NX4X6.#.8.S.L , K XX+X).} C A ] K c 7 5 F.F.B w U <.L._.9.G w 9.uXXX>.G S.XXpX>., @ @ $.P.8.0 = f >.$.H a , 9 $.$.0 , f K 7.[ w 7 v | n.,.w 7 K Z.$.7 7 A B.].V.M 7 ] (.1XqX0XF.n._.1XF.A.&.G T T h h G oX5XoX>.H j f , @ q n.b.C C ] (.W.N.E c Z E E u.E q V Q ,.<.J 7 $.q.|.|.>., Z.>.Y K F..X<.8.).9.>.:.9.9.Y S.VXDXK.:.9 9 T :.A.XXa 9 w.FXhX&.d H # # = f A.XXI.{ p 9 T I.3XA.H f S.2XXXe , >.:.:.3X-., 9 7._.9.s 7 ; 9 y = . , 3.$X5XoX>.$.H.1.8 c 7 M b.(.].'.W. .E M V ` c.-X=Xc.c.d.y.c.! W =X*X*XY.] M V A K N a e e G f 7 ; -.3.+.f a a s N K <.K B ..| c N 5 A K a G w.0.h 0 8.H , Y A.-.J J N -.OXG.G a Y q.G.A.Y N N N v c C }  .} A c 7 = I oXA.D L q.}.f , = G q.8.L a U M p A w w ..{ <.p w A s s U A E Q q Q | c w ] K { K , 1 U :.G , + @ = = < $.3.O.< = * X 7 D.0X0X_ _ } a.[.p.C V ] ] N A U T Y , , * . * 7.aXaXKXwX1XV...U B <.].+X).A.-.G 9 ; = X 9 >.;.9 , , H $.H , + , +.q.G 7 w <.W.R.Y.",
"-.D 1.uXpX4XA.a Z.sX).w K '.:X'.A ^ | | ^ K J w F.).<.b.V.] ..).qXm.N K A.L.A.Z.8.q.P.$.a 0 = H A.8.a = G P..XA.0 ; 7 >.q.D ; ; 9 [ { w 7 v / F.n./ w N 8.>.a , w  .].*Xb.Q ..[.0XV.[ ] V.fXbX1XA.9 a XXuX:.a :.S.hXCX}.g 1 d H N M N.(.| A C ..f.p.Q c q V } E.` R E c C (.Z.G P ;.>.Z.$.f sX).G.N K <.<.XXCX1XF.A.2X2XA.A.uXfXXXY T 7 $.2XXXNX}.8.6.w.0.&.#.#., 7 e e D :.9.A.9.7.{ m.XX3XP.1.f }.4XI < i 9 0 8.G 0 >.uXAX@XL ; 7 0 8 # + < O.{.e.%.f f ;.1.P K w N V.qXaXwX).[ [ A c V ` z.U.Y.c.d.d.U.! b y.a.R.R.} V M V C C.m.[ a N D e 9 L L -.:.n.-.B K n.0XV.c A ] Q } A ..<.K 7.2XiX|.d S.>.e Y Z.1.Z.<.e K 1XaXn.[ K.gXpXXXA.-.[ ^ K q q w V Q A M w a q.uX-.= 0 G ;.H H a ; ; D G 7 <.V...C.[...o.] b.A ..~.l.A A A p.i.Q p.`.Q w w U _.wX8.s 9 s H = . . @ = t H g O.; , e 5 ; J b.M.l.Z  .Y.8XxXz. .} K ..+XwXA.:.< # = ; 7 N n.L.ZX].V.5.A w 7 U A.7.1.1.Y w 9 a a = 0 >.>.0 = * ; e H d = # y >.1.w ; K W.eXrX",
"+XL <.OX).@XXXT n.fX+Xw w W.:X'.f.(.+X'.G.n./ N v [ ] F.L.B A b.L.F.Y w w N Y 8.9 9 G >.XX2X>.G S.K.T 9 1.iX2X8.e , 0 ;.q.H ; # , K n.C q w C n.<./ 7 ; D Y L K q V p.B.p.Q } V.0X`.N.b.(.cXnXtXB B G.vXDXqXY G G.sXAXoXH 0 h >.).C ..'.).N.^ C } T.B.M q u.[.`.Y.y.! b C eX).B K @XOX).@Xn.vXZX0XM 7 K ..+XvX_.F.A.vXiX$.H 9.A.iX8.}.L XXLX2XiXpX6.a H >.=.g d G ;.S.Y 7 9 G F.9.7.a B 8.XXuXG.0 >.}.>.#.$.0 0 ;.e 0 $.}.uX.XL = d H f t t t < k t t < ; D S.iX@X-.G 8.2XgXXX[ N ..] M V ` z././.U.d.s.z.d.b ~ W z.^.z.Q M c M _.1XF.G e G [ :.{ J :.).uXL.N K b.0X*XC C } T.].p.] [ V.qXgXgXfX>.S.>.0 9 G 8.@Xn.J w [ A.9.Y Y iXiX3XS.K N ] N.c c w c C ] | ..:.8.S.0 ; D , ; 0 7 0 0 , 0 L Y K b.A | 0XJ...V.~.C.J.[.5.S Z X.E.E.i.R.jXM.Q M ..tXDXfX9.s G K.e.*.@.j j O.j = @ , $.g.[ J ^ } Z v.o.z.^.*XmXB...] A V.DXKXP.G 3.O.H D 9 w [ n.F.b.b.A A ....7.K J [ F.A.Y L 8.H ; , H L a < = # 8 $.0.H = , H >.G w w ..'.eX",
"bXm.[ n.m.).+XV.[ ).V.M M N.Y. .'.dXdXuXuXF.K K w C K V.(.] ] ..{ F.n.p , , 9 a = 7 w S.AXDXXXK n.K.-.N :.XXA.D 9 ; ; e F e = . ; K G.[ 7 7 q <.n.<.v * = 7 N <.} Z V ` } _ } M.=XtXcX8X~.[.0X`.c ] +X0XaXvX<.7 S.XXuXK.h , h q.cXQ C b.T.`.M.} A B.Y.A c b.[.B.=Xi.! Q V *XT.N K +XaX+X(.<.aXbX*XA M f.n.(.+XL.7.G P.K.a a T Y Y f q.D }.NXXXP.q.0 = H q.F = = 0 H S.1.D a a :.T B # , T 8..Xq.O.g j j %.>.0 y >.8 = , 0 L ;.H , d F g O.#.k # 4 j $.y X = >.uXpX8.a G q.}.1., 9 <.b.A Q } U.=X-XU.s.y.` ` ` } Q p.R.Y.` c c M (.wX].K w [ (.qX(.K b.qXZX).w B | W.:X| ^ ] *XmX] p N F.gXVXqX|.S.0.#.a , , Y P.A.-.N a { m.:.a 3XuXiXP.N ; w f.| ] ^ C M ] V.+X-.G L e :.A., ; = o ; $.D 9 Y P.[ [ 7 w ] o.] l.(.8X[.5.S M _ ~.Y.U.u.a.kXB. .A A 7.L.L.{ 1 p I.SX5X$X{.0.e.>.y X y L -.,.,.M.R.o.c.l./.8X[.yX[.b.[ K F.VXgX1.9 ;.H.S.L 7 G n.n.b.V.(.] X.(.C.[ N L Z.2XuX.XS.}.A.f , a g f 0 < ; < $.}.e.0 = 7 f Y N w | W.'.",
"0XV.] b.].].W.B.M ..N.b.B.R.} 5 F..XG..X,Xn.B { w N A n.V.| ] M m.+XF.p 7 w w 7 G 7.-.XXCXiXF.w U m.<.G Y 7.:.L D e 9 0 f y < = * K (.{ w 7 5 ,./ / e ; ; 7 -.qXb.R c ` z. .Q ` M.eXxXY.Q p.B. .N.c ^ V.0X+XK N K :.Z.>., = G .XKX| V C Q N.W.V.c A ] C c Q p.} =Xy.! } x M.p.^ ^ | 0X).K [ ZXcX..w C | A N <.F.{ ; T <.G Y G , a $.q.a $.-.Y a 9 0 ; * , 8 = @ ; = D H Y :.H { 7.G = 9 Y Y 8.Y j 3 = = < > @ t O.= * = * < O.H D d 0 0 g j 2 + @ < f 8 * 7 ;.Z.S.>.g 9 < g G 0 a A.G.] Q ] u.~.`.Y.B.p.} } } Q ^ } M.B.} c c ] V.tX0X] w [ +XnXtX[ <.tXZX).w K ..b.+Xb.^ w G.wX-.a 7 H .XpX|.&.}.6.&.&.0 ; a <.-.K w a :.L.9.G H H [ [ B 7 w ^ ....| N w B L.cXn.B J J Q..X7 D 8 ; e D , 9 >.S.[ N 7 M B B ..[ { yX0X] p S  .~.Y.U.} ! =Xp.| A K A A { U = , K.oX5XpX5X$X$X{.H @ 0 K g.).N.} } Z o._  .Y.B.b.].].F.<.S.oXH.e # * H H.>.e N [ [ m.X.7.V.J.V.{ <.-.8.G.XX@X2X4X4X}.H 7 e H >.0.>., = d Z.q.0 + = 0 :.Y B V.0X0X",
"0Xb.] p.N.B.b.} q Z M.Y.u._ W M L q -..X1.L / K ^ w b.'.f.A w M U Y n.p B m.a a (.+XwX+Xn._.K M N K M 9 K n.F.S.-.1.>.a , 8 0 0 7 D L J N B v q v ,.F.N N w n.+X`.! b a.^.M.` W } ^.Y.Q V Z ` B.*XM.| | j.,.v N 7 w Y K.$.1 &.XXrX] ] A M ] A ^ 7 w A A w w ] W.N.E.} c c Q M.f.c ^ V.V.| ..n.b.| | ] c M ] [ F.[ 7 7 { A.:.s = 0 0 0 a = e 9 a D D ; X = * . X , * e G.sX.Xa w p 7.U , w a 9 G = = + = # . < j t =.;.< X 8 ;.;.F g 0 , t O.d # # # , = = w J n.>.g < 2 d 0 = . 0 >.).<.C ^ ] b.j.D.[ N w v / B K A N K <.n.<.<.F.fXtXV.[ N { tXb.w ] _.n.K A M w F.OX<.L Y Y Y H $.0 > 0 >.}.0.K.I I H f 9 9 [ B B K Y [ .X2XG , * ; a ,.{ N ^ [ ,.f.[ N N K ..J [ g.OXdX@X).).-.7 G.1.L 8 ; D L w ; v [ v 5 C A n.0X] w M w ~.R.~ R q V u.[.p.] M N m.9.9 s 7.@XBX4X X#X{.;., X , [ <.] ] ] q w Q _ S ] V.).+XuX.XD 0 y +.8 * = y F >.-.a N M M A ] | V.+X_.m.[ Z.1.>.1.e Z.P.S.D = 9 >.A.w.0.= , 0 H 8.>.H a , 7 , 9 ..'.:X",
"V.] M M Q } ] c c W M.Y.M.z.} c w ; q v ; 7 n.aXn.w M C M N M N 7 p 7.F.).).7.[ ).bXvXb.K ).F...7...N 7 w G [ n.Z.uXCXuX|.S.$.9 9 9 e [ G.).f.v [ W.0X(.n.K <.W.`.Y.y.` z.=X^.a.V _ i.z.l.} x.=X'.*X'.^ ] W.N.n.<.w ; K L , 9 , N.N.:XN.w w w M 5 7 C W.G.w ; ^ } W.M.V q } `.*X}  .N.V.^ w w w B ] <.] <.F.F.+X_.B , p U H s 9 * = 0 f # = 1 T H :.$.f 8 ; * * X 7 G.sXVXXX9 9 :.m.{ G Y N a 8.>.d # d *.$.$.g t O.;.O.8 u 3.H.$.f , y H.4X{.f 0 , H $.K N w <.G 0 < 2 2 0 0 # = 0 8.<.B w w ] G..X-.7 ; D Z.n.Y 7 , 8.iXXXZ.K.qXwXnX0Xw ; ..[.X.p B A w K V.n.w e 7 , e 0 = = = g 0 # + 2 e. X0.a h >.A.8.e q w * ; K Y 7.F.T a 9 = X 7 -.<.,.C ] b.b.K 7 = ; 7 C ] | F.qXdX).[ -.aXOXZ.-.;.G.ZX+X[ G.aXqX/ v 5 K +XN.| | w A R.} ! c u.=XjXB.A A [ 1X1XT B H CXAXpXoX$., 0 0 , , 9 M M A ] Q C `.:Xn.K K 1.XX;.;.8 ; ; F u g $XNXsXgX1XA.b.] w A ] [ n.(.m.[ N e ; 7 D ; L a -.Y Y G 9 a Y S.8.D = 0 |.pXS.H 0 Y G 7 7 N ] ",
"b.b. .]  .R.R.} V W i.z.M.~.z.M 7 ; 5 q v M ..qXn.M M A b.0XqXqXn.B A +XbXaXwXn.+XKXnXb.[ V.aX0X[._.V...A w Y XXXXCXAX@X{.#X{.$.>.a , J G.+Xn.N C <.'.aXF.K B f.B.U.y.b Q R.*X`.Q c ` *X*Xl.l.[.*XzXcX..C V.+X0Xm.B 7 K Y D H a <.V.0XF.] { K w ; w N <.+XG.[ <.v N.f.C - } B.`.N.] | N.<.N , * a [ m.<.L.sXiXfXaX{ 7 w U 7.n.-.D y g A.&.Y T 9.).P.G.-.f F ;.-.r G @X.XG.F.w K +Xm.[ 7.(.<.K q.|.*.2 $.#X#Xq.0 ; t %.;.F y +.3.8.H , y {.BX4X>.L e :.G.n.M q | -.G f 0 = y H d < 9 >.8.-.B 7 w :.S.$., * 0 q.Z.;., = S.AXgXG.F.(.V.1X1X] M 7.J.J.A M U ..].aX+Xw 8 e H H = + 3 : 4 # + # 2 *.>.>.i a :..XOXK w <.w w w w B n.F.A.:.7 * w K K w e N | m.-.7 * ; N C Q C C F.:XD.K OXAXaXXXZ.P.dXsXsX'.zXZXJX).n.v M F.V.N.W.K M Y.T.R.V c } `.B.} K A V._.n...K n.q.q.1.0 , Z.@XS.Y w K (.0X].].f.lXJX'.B ; e ;.$.;.t 8 < O.@.;.}.pXpXsX@X7.[ w p A ] [ <.F.m.-.[ 7 & 5 K J ).:.7.).1XK.Y G 8.3X9.D = , 0.}.#.> q.2XoX<.Y [ ..",
"] f.b.|  .[.>XE.! R Q p.B.~.B.Q c / / <.n.[ ] '.V.....[ L.vXZXZXZX<.[ +XbXnXaXb.].tXtX].'. .eXcX'.].0X0Xb.N [ iXsXCXoXD 8 3.#X{.A.G , 9 -.n.[ w v / W.bXF.K p b.u.y.Q c b } E.R.M.V } yX8X ._  .].cXKXW.v K F.aXn.K 9 J K G -.L ).].+XF.n.Z.:.J D 7 ; 8 Z.sXpXG.7 [ K K 5 f.]  .N.C M ..V.n.K , G >.S.1..XVXgXgXvXm.U 7.+XfXaX_.H H >.gXwX_.P.XXDXqXG.:.L H.#XZ.D 7 L D [ n.w [ 1XL.m.XX1X<.N -.S.S.Y $.H.|.A.0 = 0 ;.>.f 8 F >.;.G 7 ; D Z.S.Z.:.D -.V.b.Q c ] (.:.G , X 0 >.#.g < d $.8.<.9 ; ; $.-.F ; * H >.L 7 = Y 2X@X8.Y N n.(.).(.] A (.yXo.M (.ZXLXcXG.; e P 1.$.= . 3 z z 4 4 k k O.y H a Y 7.L.).<.{ F.).).K 7 [ ].qXCXA.7 H F.{ N v K v K 7.:.a a { V.Q Q A q A n.<.<.aXZXsX@X:.1.G.OXvXzXcX'.>XW.W.[ w ] <.N.:Xn.M p.R.eXu.V w } f.W...q M ..f.<.M e K [ L , H sXNXpXXX<.n.cXKXcXtX'.vXzXG.K , = ; ;.$.8 ; ; H F H XXpXVXZX1XU p 7 ] ..{ K { D.L.F.:.w 5 e K -.ZXsXm.A.).+XL.7.7.A.A.:., # 9 H f d H.oX2XXXXXF.<.",
"w U | C M z.=XR.` b W M.~.~.B.l.^ W.'.(.W.} | tXL...U N V.CXZXZXqXU F.].+XcXL.[ F.J.`.eX8XV B.[.B.B.T.(.b.p M n.n.S.Y # . 0 H H H 7 * , Y 1./ q N K F.bXb.w ; A ^ ( Q b c R } p.Y.Z _ ~.M.W M c V.0XKX1XN N n.qXaXn.7 w [ 1.:.7 N [ [ K N N >.P..X; = $.S.pXpX8., a Y n.A b.M ] | M w s U :.{ i g =.3.$.S.pXoXK.iXF.n.+XnXKXcXF.# f q.DXwXI._.1XbX+XF.1.-.H.G.4.7 o , e -.-.= w F.L.).XXA.G e L :.P.>.D Y S.P.f ; D 1.;.0 8 +.1.G e ; = ; e -.Z.Y N ^ | M.M.` } b.K w = . , H H 0 # = , D -.e ; * H >.1.e X e :.D 7 = 9 -.-.K K N +XbXaXV.9 9 V.yX5.] (.cXaXF.K q w q D ;.+.; . g 3.e.3.g < H $.G L n.Z.F.G.<.| ^ '.mXb.c <.(.1XZX8., 9.gX+XG.G.:.N K 7.<.a a 7.(.p.u.Q 7 M b.b.m.1X+X1X).Y a K ..V.b.b.] b.b.f.A 7 c | W.:XN.c Q } `.[.*Xp.b.B.'.b.q w | b.| ; v A ,.<.w G @X@XiXgXXXA.2XbXcXaX).'.F.<.[ G , = Y $.0 < , g e G 8.P.1XfX).s N ] F.C.] w w { A.F.g.N c K / [ vXaX<...L.wX1X{ B U A.:., = a $.j 0 I >.P.iXsXF.G ",
"B U ] c 7 E M.E.y.R } R.[.[.`.~.^ W.*XeXcX~._ 5.J.5.U B ).ZXsXuXF.7 K K n.aXb.] ..V.[.8XT.Z  .M.*XB.] ] ] M 7 7 ; 7 7 ; = ; ; = f , X @ a :.[ v q q ,.:X[ 7 7 w x E E c b } p.} } V V _ _ W Z V ..).ZX+XB [ m.G.aXm.q w <.).(.w X e B G J a >..XS.e 0 g H e.H.< 0 f 8.P.[ { 7 A p p p 9 9 a I f = < t d 0.oX>.f :.Y -.F.1XwX(.] a q.S.ZXwX_.<XJ.m.7.-.[ J P 2.k.Z.P D K Y a 7 K { B N U [ Y K G Y A.H , a Z..X>.8 D L e * ; L 1.1.K N N e 7 e { B v A Q M.`.i.W c w w 7 9 0 f H d 0 y = = 0 < e f -.:.>.N * B n.J 7 , B { B A m.n.L.ZXbX..M X.7.yXtX]...K K N 7 v J x 7 L 3.g X < 3.q.%.0 , $.q.G.8.<.K K ,.C c C | W.^ w N M <.qXP.K L.ZXaXqXn.K w N n.8.a 9 K ~.[.~.W q _ B.| ] ] [ G.F.8.G [ M w M M M Z l.b.Q w q A b.`.V.] ..| B.R.].}  .`.N.p.w c | T.N.V q q A N.K 7 -.P.2XXX:.G A.bXbX0X| | K B Y T a 0 I 8.&.G 1 i 0 I 9 s G 7.B , K F.+XF.J * * e [ -.g.^ C ^ | N F...| b.0XbX].A M { m.9.a = 0 H H f 2 H w.uXfXL.{ ",
"U K ] ^ M V Q W M.i.i.l.Y.8XkX8Xp.M.Y.kXKXkXA ; <X_.C.U 7.A.$.>.+XM ; , 7.qXV.| Q b.*X*Xz.} _ M.mXeXb.A ] K w ; ; , D 1.0.H 0 < H H e ; 7 K [ J c q | W.n.f.(.N.V x q x E } u.u.E Z V Z  . .p.B._.m.1XL.U U U K U K 7 w [ F.).K N .XOX@X@XZ.;.D F >.H .   < g , f i 8.:.U { , p 9 9 U 9.6.6.&.h +   + 3 3. X#.i 9 a [ <.{ ..| B 3XpXA.2X1X1X1XU S B A K N r P %XdX@X:.-.-.B 7._.[ 9 ; a [ { [ G :.7.s 9 p :.XX).[ N e 7 * - J n.OX<.<.D.<.N N <.<.] } Q p.R.t.V c | ..7.n.G 9 H >.$.=.d = = < $.2.g./ L K B [ ^ ^ K ^ f.b.Q C | <.<._.+Xb.C.L.7.wXbX1XU w w 7 5 q | ( q 5 e r = 8 +.F y e L D.n.@Xn.K ; w ,.| E N.V C w A [ 7 A L.2X<.n.+X).Q.e w ; e 1.8.f 9 G [.8X^.Z c  .l.] M w { F.A.qXA.F.5.' Y.B.x.Z B.~.B...c w A ..V.(.B.l. .A ] 5 c p.( } c c ) M.`.h.E V V b.<.7 N Y $.f , 9 { XXXX<.A C w w G T B s G w.6.&.i s 9 B 8.A.8.7.B p ..V.+XF.K ; ; D +.-.,.| J ^ | 7 ^ C C ] V.J...S M U _.P.T + . 9 >. X1 i G :.P.XXL.",
"<.{ b.(.B.} Z c W.Y.u.Z ] 0XnXtX].V.f.T.tX0X5.A wXwX_.U a G H }.aXn.7 M V.T.B.b.c Q [.eXl. .V Y.xXcX[.| A K M 9 w e 1.uX2X$.; = a q.}.;.e D / L / q ] ,.F.+XKXzXW.n 6 C ( c n p.} } Q ] B.B.B.0XKX7.7.A.T 9 = , B G w p Y A.F.w . P.pXCXCXXX$.= >.pX|.g 0 > 2 }.a , H 9 K m.B M M p 7.gXFXiX6.2 #   . 3 e.5XH.>.0 Y m.n.U A ] A XXsX1.9.T m._.A 9 N K :.1.e 7 2.1..X1.G.OXF.qX1X{ U -.m.Y w D -.m.9.G B s G _.gXXXY e e 7 7 L G.OXn.m.+XG.J [ +XqXW.N. .p.M.Q V  .].:X0X0XK ; Y Z.H L D 9 , 0 Z.f.N.^ A f.V.b.q A b.V.b.<.] 9 * 9 8.A.9.L.C.{ 7.).C.] ] m.<.v 7 x N.N.n 5 7 5 ; e +.D e L Z.OXZ.[ K J 7 L +X:X'.:XC C A :XmX[ B n.XXK N K Y m.G N 7 9 -.:.f d Y 8X=Xz.W Q }  .| ..[ +X+XF.CXXX).5.p J.[.yX..8XyX[.~.Q w A A ..(...A c q | M q q c } Q C C ^ f.( } ] M | F.n.:.K , 9 -.7.U U ..]  .Q w 9 U { G s 7.I.A.A.8.A.{ { L.2X_.m.{ ..(.V.[.F.[ w N >.A.g.,.Q.g.j.f.w n.G.N M w w G <.[ a 9 Y G , , a H &.H g > , :.3XXX",
"N N ..f.(.M.q M [ N B B s I.BX6X.X8.7.A.gXCXw.H A.NXiX$.0 f >.}.0X~.A M  .Y.U.a.R y.8XmXY.V ` `.tXDX_.] ..n.n.K 7 N n.>X+XD.K ; 9 :.P.Z.G , D G.1.N w [ _.bXKXZXQ.v ,.g.q 5 J f.F.rX'.<.b...N.tXCX{ T >.9 D 8.D G G L.P.a 9 G , # i =.0.S.6.f 1 2X4X2X-.D e S.iXG K [ K U <.K w w N Y .XgXFX6.0.d # @ + y 3.>.;.7 Y <.<.N...v w -.3.>.; e G Z.D.w K n.F.1.f , ; G >.H D Z.L.A.).:.<.:.P.;.-.>.uXaX0X).{ N U K.3X:.A.S.S.9 . G Y 1.[ <.0X:Xq V.GXlX*XT.V.T.V.p.A | +XnXjX]. .c `  .B.A  .c 7 N f.Q ` _ } R.~.} M V.0XOXXX9.a f , ; < D >.n._._.b.X.w M l.N.| C 7 c N.N.u.c q K ; 5 J Z.F.F.@XiX.X= >.e 8 ,.n.Q.W.W.^ ^ rXnXtX+X[ Y T :.H , w 8.L.A., = , L H.H 7 | Y.z.Q A _ ] [ (.1XCXiXq.H.4XiX8.0 a m.].0XrX:XmX*Xp.] C 7 w n.] M C p.} w V N.b. .N.u.w q Z A | ] N w ] n.f.,.w ..f.A w c Q p.^.` Q q w <.-.-.>.A.2X.X_.wXV.7.1XwXvXL.b.C.cXcXlX] w K (.vXgXF./ Z.OXQ.sX/ 1.G.$.D . @ F e.u = < j 2 d 0.f = &.#.q.G a XXCXuX",
"N w C ] T.b.q w m.[ Y G i 6.6X XI.h I |.5X}.f f q.4XSXH.0 8 $.G.tX~._ M Q M.R.Y.d.a.*XkXM.Z E  .L.+X{ s B n.qXqX| A K | b.N.f.c G A.P.-.0 , e -.[ N q ] 0XKXnXaX<.e 1.D.J v / D.(.+Xn.C ^ ] b.0XP.T a a $.@XsX}.9 B wXbXT , Y q.2 > $ $ # > i h XXiXVXP.A.A.qXaXm.b.<.N K m.n.<./ ; K sXDXoXi =.e.g = # y >.L f = J 1.F.m.^ q ; * 8 H 7 G -.Z.[ N e L P.}.Y = + f G D 1.XX8.J -.G.Y 7 a D $.1.@XaX+XF.] w N G a 9.uXq.a 0 9 0 0 w / G.aXN.c b.GXmXT.b.l.A ..m.K m.aXcXB.p.z.W Z s.^. ._ w ; w ^ l.x.~ W } Q c q V.aXqXP.$.h #.2 + # , 0 T L.1X(.C.p X.].T.^ V q ) ^ ) ) C C | C w N :.F.@XCXVXS.8 {.q.L [ J N c D.n.| ).rXg.[ :.7 a P.3XG , G I.A.9 = # 0 %.F e w `  .X.A M N K m.iXCXAX.X0.4XoXd > f P.+XV.W.eXmX*XN.M.f.N w -.| C K ,...C ^ N.N. .b.b.] A  .| A K v 5 7 N ..V.^ f.u.E V c V i.U.i.} q M ).).>.G L S.).qXwXn.X.wXMXMXV...b.:XrX0Xb.n.0XvXKXDXiX-.Z.,X,XsXa e e 8 0 . # 4 @.@ . u 3.=.g >.=.1 1 i h G T 9.P.XX",
"K w w K W.V.C v m.:.7.:.s I  X3Xr.# > I >.#.0 0 H H ;.H * * H A.L..._ S V p.=X^.! y.a.i.Z V E M B G s B B m.bXDXV.] N C ..W.f.7 e :.8.G f a w 7 w e 7 M ].cX(.[ 7 ; G -.J e w -.).'.| q q 7 7 N p 9 , f .XAXCXiXU 9 G 9.{ A.4X4Xe.k # # # , d 1 >.2XDX2XXXP.qX1X+X_.n.w K (.).+X[ [ @XsX@X>.Y 6.H y 0 = ; 0 = @ 7 P G.OXm.K v 7 = , L D D L -.7 J 7 a P.uXZ.0 = 0 G L :.8.e * 9 9 X o ; >.S.}.G.Z.F.F.<.K K a @ :.8.>.>.>.0 < , 7 L G.0X^ c c `.tX`.0X].N U ).<.K F.+Xb.b.~.` W i./.l.C w ; N K `.~.u.E E C M C f.OXG.H , > d > = # = , G F._.7.J.b.0XjXf.Z Q V V C f.h.f.j.| K K w -.OXNXLXsXH X $.;.H G e v N f.F.^ ,.).K e 1.* , 9.P.H 9 :.2XP.G ; = , e = * 7 V } l.] c w M 9 7.n.oXZ.L oXA.0 1 a n.F.^ ^ [.=XT.f.h.j.C w L n.-.[ <.:.[ { <.m.] ] { U A [ ..<.,.K 5 - 7 ^ f.E E E } y.Q W i./.z.i.c ^ +XOXA.G e -.A.+XqXb.o.m.I.L.L...<.b.F.N...).ZXvXwX3X).7 L .XuXsXa D H a d = < t @.: @ u t t $.q.I 1 , 1 = a Y G G :.",
"m.] C ] N.N.K p <.-.A.8.i i #.w.I # # > i w.0.g d , @ = 0 8 7 G N w ] | C Q M.i.Q i.z.u.} l.B.] ; 1 B m.{ [ L.V.F.b.] C ^ N.f.7 9 H $.1..X}.-.9 ; J w 7 <.F.K 7 ; * 5 7 v 7 & w w | | N q ; ; 7 w = ; Y .X4X@X2X9 9 p , ; 9.gXsX0.z #.l # > 2 + >.XXAXiX3XF.XXXXL.).n.w A F.W.+X| f.qXn.Y Y P.P.$.g G 0 0 a = = 7 a 1.Z.{ { <.L 9 # < a 0 f [ N K w N 7.L.>.0 = ; y D H 1.1.a 7 , = a L G.>.L 7 w <._.L.7.7.[ 9 T a XXCX>.f q.8., ; B <.| b.C f.tX].0XF.N K S.Z.8.<.D.V.B.p.M V l.Y.Y.Q A ; N K W.(.f.M C ..n.D.,.1.K ; . + # + y , = ; D A.m.B [.cXcX(.p.p.p.C c ^ >XW.| f./ | D.N -.uXNXgXS.* , O.H 0 , ; ; q K [ 7 v g./ J L 7 ; 9 p 9 U L.L.:.T Y >.H ; * e A C ] p.} M w w * 7 7 a a 9 1.1.8.H , w A w q ( ! Q E ^ Q 7 7 K D 0 , , 7 9 9 7 [ a 9 9 9 9 B <.).V...C c ^ ..| Z c c p.[.E.` } ^.U. .E ^ | n.P.n.G e K A.F.{ M 5.L.L.1XC.b...).(.<.).aX_.:.Y Y ; e g.).G.; a -.Y 0 . @ = u # . #   @ O.>.g , , 1 1 s G G a 0 ",
"+X(.<...<.<.[ w G Y 8.6.1 % > h h > 0 > = >.S.Y 8.8.f L oX;.X = , w n.(.] C C q c } R.R.B.[.[.C.[ { A.fX1X9.7.K F.F.b.N c ..W.n.B a a <.2X2X1.D 7 :.K 7 A 7.....{ J 7 ; J N - w 5 g.:XW.] c c A V.p 7 D -..XdXXX= B 7.G , a :.$.0 =.e.j   > &.H &.&.S.}.@X8.:.Y H -.Y 7 N <.,.).W.q 7 N [ M 7.n.G.G 0 a 8.G.H , * ; a G K F.qXP.H @ = H 0 7 w w { 7.<.K w w , @ * * ; +.uXNXG.N :.A.1Xn.-., 7 ; w [ m.7.{ n.7.G , 9 XXXX9 f XXXX[ = w A (.W.] K ).F.K , , e ;.}.4XL w B ..b._ ] B.N.[.F.F.7 ; w L n.K ; 7 -.Z.n.1.G e 8 0 2 = # y 0 0 < 9 T <.K ].bX(.^ R.[.} Z Q E T.| q v ] >XqX{ -.OX.X1.D @ y O.$.f ; @ X ; w w ; 7 e Y 1.G a 7 w N p U [ s p :.@XgXP.7 D uXN.Q C ^ ^ ^ A w M w K w 7 9 p m.2X).N * 7 w q c x c C Q M - ; N 7 , * + # ; , , e 7 , ; = = a 7.b.....| | `.rX*XM.Q V a.*X^.y.~ x.Y.z.} C w [ OXOX>.8 9 Y <.[ w { m.A.1Xm.] A ].qX<.[ <.K a T -.7 5 w Y Y ; a H 8.f # = @ > # # + + , d H $.H > 9 w.n.Y :.L , ",
"].1X(.V.n.(.+X<., 9 a G h i s I 6.G I 1 . , &.}.iXsXS.q.4X1.; 9 7 N F.+X<.A A M q M ^ ]  .~.yX0X_.F.A.fXbX1X_.n.<.F.)...C b.rXzXF.T 9 G G.G.-.G w 1.-.7 w 7.].aX).7.G 7 N K q K [ :XJXaXj.^ ^ ..+X<.K e L sXAXZ.[ B U m.m.[ 7 . d *.e.#.2 *. Xw.=.1 9 Y XX1.D ; , a 9 ; J { K N.'.A q ] ,.7 w w w , a 9.2XiX1.a a [ :.T 1.iXZX4X>.d I 6XS.G , 7 F.aXqXK 7 N K e 8 * ; -.{.A.-.L A.iXDX.XG ; e K G N w 7 w -.7.K = 9 -.Y G 0 a K.).N B B L.<.K w w { K 7 7 , H pX.Xe * @ [ aX].] K K L.@X@XL * ; f >.D X * D -.L -.; ; f >.$., = * y 1.0.D 9 N G ..(...] W.p.V M.} q w C q 7 | vXvXG.-.-.F 0 0 f + # f H f 0 ; 7 J K J D 8 H S.>.L a { F.[ 9 w p 7.P._.aX@XG L +X'.| C V C b.B.A ] K (.{ N B 9 ).fXvXL.w w | p.Q b Q | f.| w ; w 1.>.Y a 7 0 f H f D e , , = , N M Z p.p.} R.mXGXR.u.V W U.R.i.Q W 8X=XM.| K g.+XqXOXL e Y n.m.s 9 T m.fX2XU p ).vX{ 9 9 a [ .X2X-.w , K 7.[ :.H >.$.#.q.H O.@.3.y = = y H &.>.T T fXiXA.9.G = ",
"7.[.'.V.n.qXCXA., = = 1 &.w.w.w.I.0.w.Y , 7 -.gXgX@X1.P -.1.>.>.D L :.1.K B { V.| M w M _ J.tXcXL.:.p 7.1X_.F.<.B <.).V...N.:X0X@XL.-.[ Z.S.:.L ; L [ w 9 { ).1XF.7.[ 7 7 w N <.^ F.:X).f.j.n.b.V.).<.e -.sXsXZ.n.] { L.).1.D 7 0 j #.j I >.6.$.q.0 < g P.q.Y 9 9 a e e Z.n.v | W.0XN.b.| A A w @ , n.iXCXiX:.H 8.uXXX:.A.CXAX2Xh j e.FXCX3X-.<.0XKXbX<.B b.G.1.P 8 y H F 0 0 a A.CXLXiXY a G Y K w , = 7 Y 8.-.G 9 a :.A.G = 8.[ B 9 N 7.n.b.B & w $.>.g = u #Xq.L 0 * G gXXX, , 9 :..X}.>.* ; d #.f @ X 8 H 2.L * * , $.3.0 = + 0 q..X>.e e B w N ] | } V Q *X} C M } A v n.qXaX,X-.7 7 e H Z.O.# ; f 2.1.e ; -.Z.Z.Z.1.>.S.|.7.G [ F.7.K U A L._.[ { m.L J ^ W.j...C c T.:X| M S ....b...S L.fXbXqX .} *XkXE.p.u.u.N.(.f.B B P.S.Z.H 7 ; a -.1.1.G 9 e 9 ; ; w Z M.p.c } *X8XE.M.W x W p.i.! V 8X8X*X`...<.F.uXvXZ.J Y ).1XU , s I.DXLXn.T qXCXA.Y :.8.3XZXZX@X<.K 7.A.F.F.H Y Y 0.2X0.>.>.e.3.= . 0 $.&.8.P.8.iXfX_.7.G 9 ",
"B V.V.<.[ (.wXK -.a # = :.P.w.&.G Y 6.>.$.H H S.2X-.D e 9 n.@X1.>.-.P w 7 7 [ +Xm.N w o...B.V.V.+X8.9 T 1X_.<.B M U b.| A ] b.b.<.F.n.{ :.1.L e * a -.G w K -.U <.{ <.w = 7 A (.| f.n.,.^ | | v n.0X<.7 G Z.G.OXF.7.{ m.+XqXn.e @ d &.=.f 1 h e.q.H a < $.Y $.G G H H 1.aXOXw J N.tXp.p.f.W.V.| p s m.1XqXP.a , 1.iX}.a $.iXpXK.d r.}.FXCXiX7.7.tXKXbXb.] F.Q.-.y 8 8 D ;.Z.-., -.iXvXwX-.7.7.A.[ G N a a Y 8.n.-., a a 9 H D H G :.7 B U F.m.a 7 X ; H t : < g F F H , f iX2XH , 9 G >.>.;.* = < d < # + * F H.;.; @ @ f 0.f , = # e ;.$.D Y 7.M ; q M M } `.T...[.`.b.A K +X(.@XsX1.- 5 +.1.}.NX< o ; S.sX>.8 -.).Z..XsXS.0.oXG.K B { m._.b.7 w b.M 7 B B [ [ j.g.h.C q N.:X] N M w X.].J.X.5.tXeX'.p.f.mXGXT.W.p.Q f.+X].n.{ m.A.n.K , ; N m.G.F.B , G [ a 7 M E B.M.c V p.} M.`.p.c b } } Q c Y.^.jXjX] v K qXAXG.a G ).iXT p s 7.1XbXU U iX2XA.8.K.P.4XiXXX:.L G 7.9.L.2XK.A.:.q.4Xq.>.H H e.H @ . d 0.A.A.F.m.P.XXF.8.7.",
"7 ] b...<.<.G e D D = # = P.I.T , , G 8.>.D D :.L.Y 7 ; v [ n.G.OX>.e * ; -.A.B K (.b.{ M b.....+X-.9 :._.V...N ; ] [.[.N.Z C ..].F.U 9 w Y 1.n.J e e OXF.[ p p N ] V.<.9 w 7.V.+X<.7 q v ; 7 N ].F.m.J ; ; 7 L K 9 , p ).CXQ.f = 2 d 2 @ # f 6.e.#XH , 0 d H < a , $.VXZX/ - v ^ f.q c b.W.0X+XY G K n.A.K 9 a S.CX}.f $.}.}.H > d 0.|.K.:.K U tX0XV.^ b.n.OX1.y - - ; -.P H a G Y @XiX7.[ L.1X4X2XH a , G 7.:.G p 9 7 7 9 , = w { B ; 9 <.n.-.= = = 0 O.k : $ = y 0 d $.w.w.G 1 = 0 0 = g g = = u u : . @ u ;.+.* X = ; +.H.$.= + = $.L 9 -.F.D.n.7 ^ | M.Y.`.0X0X<.).F.(.G.n.L Q.S.w * e D.sX4X;.. < pXgX-.N ; 1.4XiXFXoX, >.>.w w T 7.L.V.U A p N M q M [ K W.F.j.c 5 ^ V.V...b.M { (.0XX._ (.T.} u.*X*XT.W.p.^ ^ | n.<.[ B ] K [ b.w [ n.n.f.^ ; 5 <.F.| A C W p.R.p.E V c } u.p.V q C E }  .l.~.`.N.] C q ,.Q.G.-.-.L.).9.T 9 G A.:.Y A.P..XS.Y H -.$.D f = 9 9 8.2XiXfX_.I.Y :.P.oXXX0.< @.t + # a Y :.8.{ T m.F.L.F.[ ",
"* A N.V.m.{ e ; G.A.a , w wXbXqXH , 0 1.:.7 7 [ A.1.[ K w 7 e [ OX1.e * e XX+XN K ].+XL.A ] Q ..V.{ w N ] [ <.] w X.`.8XB.Q Z _ f.<.K ; = G .XsX2XZ.F.gXaXL.Y U A _ ..| w w ] [ N v ; q v ; 5 w A A <.-.q * ; / B p w U m.F.:.f = d *.=.2 @ > g #.q.g < < 0 O.0 0 d Y S.OXZ.N w q j...^ N N ).fXA.Y H Y Y a a Y oXsX}.6.>.I f # + j 6.G 9 a N p N K <.V.(.(.aXOXy * * X * ; e 7 w -.n.:.K G Y 1.@XK.a a # = N G L.a 7 9 = 9 N = = N s 7 w U K N 7 = X + 3 k u $ < = 0 %.q.#., = j I $.H 0 d H < # 3 4 = X X < F y * = 8 0 H >.3.d = @ f H f G 8 N K 5 5 c Q u.`.nXcX..<.V.qXG.w w L K 7 ; G Z.OXH e = D 2X@XY w K >.XXsXsX>.= 0 >.9 9 Y { <.9.{ p A K B ] f.| C f./ J w - ; ] ].aXwXb.] M 5.o.7 V } } } B.f.^ ^ ^ c 5 7 K U N 7 A ] b.b.C A } Q V C w w ..N.f.p.V V i.R.Y.u.E c Q Q } V q V Q M.p._ _  .| ] A c 5 { ).OX).F.:.G T G , = 9 :.S.K.0 G Y Y $.a , , D 9 , n.sXiXfX2X7.T :.9.8.A.q.H 0 0 = # 7 a G :.9 a { K U 7.[ ",
"5 Q N.V.N.[ v e uX@X>.J K aXKXvX-.e 7 G G 7 ; e K <.F.G.,.w w B OX).-.7 e 1XvX).L.vXbX0X..A M ] 7.m.K 7 q ^ (.V.} ] R.*XY.i.p.u.w U [ w * ; e G OX:.2XVXVX@X<.<.| Q  .N.X.C M q 7 7 * 7 a e N N 9 9 K K e ; * w w U U m.-.7 D D # 0 *.q.I = # , = O.g < # # t 0 < 0 , 0 -.Z.K ; q ,.D.n.B 7 [ <.$.a G $.G h h 0 $.L H q.>.0 , # @ 0 i = 9 :.7.B * 9 <.qXn.<.OX@XF 8 ; * X f :.G a A.<.a N G K 8.-.G a >.9 = 9 a K.9 a Y 7 p K * = w w M K A w 9 L 0 , = < %.3.4 2 X $.pXNX0.@ 2 0.5XoX}.$.y $.g = > < < = X ; y y 8 8 y F y d H , # X 0 ;.1.-.; 5 N C 5 C Q u.eXqXL.N { qXDX).; = ; ; = , N [ >.>.L D K n.F.<.K <.[ 1.oXS.0 = . 6.-.Y a 9 B [ U w ] [ ] ).qXF.C N v [ { 7 * K ).aXaXqXm.p b.b.7 7 W } f.T.f.C q q 7 7 w Y 9.T 9 M  .Y.b.l. .u.Z c A Z c ^ b.N.N.V c C M.T.N.u.A c c } ] C A ^ W.~.A q c } M.p.K ; q [ A.F.-.9 , a :.a 9 S.iXoXK.>.e.0.6.>.h , , , >.q.A..X2XfXXX3X8.G G Z.pX2XL ;.H.q.Y G G Y m.s 9 B B T 7.{ ",
"q Z u.M.N.[ N v D.G.H.-.K F.+X(.[ D , ; w D w = 7 B m.qX0Xn.K B D.F.<.w K 1XZXfXwXZXbX:XT.N.} ] b.+Xn.N C (.nXtX[.} i.Y.a.z.^.B.A ..7.A w J -.-.G 8 uXgXVX@X:.n.~._ } R.Y.p.] c N K ; = e L q.Z.Y s N e G -.8 * 9 m.L.wX7.; L >.1 1 d &.&.i = > @ j 3.O.# @ t O.H 0 = e Z.A.P q q D g.A.G 9 f 0 0 = d $.H $.$.< ; # ; ;.>.L Y 9 = , 1 0 >.).L.-.7 p <.aXN ; Y q.Z.H.y * @ P G e -.A.[ , , e G >.a 9 G P.L a a a [ a [ n.K N U N p M N [ b.{ N B K a H #.g %.0.k # . S.AXBXe.@ d 0.AXpX5X0.0 $.$.O.k y y 7 * * 8 f L -.S.oX;., 0 # # * f 2.3.k.e ; v n.] W.b.p.cX_.[ 9 <.iXvX).G ; * = ; , 9 K :.XX1.L K K F.0X]...[ w Y Y 0 0 @ j }.XXY a :.9.B K K [ n.+XbXqXK ; e -.-.w ; e K n._.+XF.7.1X0X..E Q p.`.].n.v 7 5 e D a G -.>.H A  .B.p.].`.B.A C } ] M C | M.N.E q q } N.W.W.f.q c n.).N.] K N.].l.w 7 | ].W.| q 7 w K N = = a P.P.:.$.|.hXpX5XhX3Xw.w.oX|.$.0 ; .XVX@XF.XX3X9.I.K.Y 9 H XXoX>.>.{.#XH.Y i U P.P.B s 7.P.A.{ ",
"q V ! f.N.[ 7 * P ,.Z./ v C } ^ <.G ; ; N -.K ; w N ..'.+Xn.A c ^ K N A m.qXqX_.1XcXtX(.(.`.M.^ ] F...K b.cXPXmX8X} W ` ! a./.z.A ..b.[ J K -.-.G 8 4XiXNX2X1.b.*X` W z.Y.Y.B.<.{ Z.L 0 0 H S.XX8.s a >..XS.D ; s 1XfXDX_.L .XoXA.d = d $.$.f 0 = H {.3.# + t %.>.f = 0 1.1.D 8 - r 1.1., ; g %.j = > 2 < O.3.H g d e L ;.q.S.0 + d $.Y Y 1.7.{ J w B OXN 9 G a 1.uX$.; 7 1.-.F.uX8.G 7 = 8 G a f G >.P.>.>.H a Y [ { <.{ N B n.B v v ..(.F.| [ N N q.S.#.O.0.3.< , H.|.oX{.3 3 0.AXSX5XS.H #X4XS.>.H D a , ; 5 e q.@XCXFXS.0 h H 0 = e D f P 7 ; 7 D.W.lXT.} :XqX8.K D <.A.F.F.B 9 a G w B m.@XaX).F.<.N [ (.W.n.(.w , G L H < @ 0.oXw.w.3X3X8.L.G { G.m.+X+XB D G 1.Z.-.f N N -.n.<.G n.+X1X0Xu.Q p.*XW.K 7 q P 8.q.f = 0 >.}.b.....] [.'.f.w w ] f.] N ^ F.'.] w q ] N.'.'.V.w N ].ZXaXZ.B [ (.].l.c A Y.T.| C c K [ 9 # 9 q.AXiX|.w.&.e.|.K. Xe.*.e.BXFX}.F 1.XXNXpX@XP.8.{ F.L.Y , G P..X1.f 3.oXoX1.7 a L.1X{ { L.XXF...",
"~ ` ! ^ ..^ 5 & J / g.J q 6 Q ^ g.e ; e -.:.{ [ [ B C | ..N w c A A M C <.L._.qX+XfXaXV.f.^ V q c C q c M.kXnX=XR.! R W y./.=XU. .V._.(.{ B N G -.9 :.Z..X.X:.U z.V R c.R.Y.B.| b.iX3XZ.G 0 #.8.7.9 T uXNXq.; 9 U 1XfXbX1XS.iXsX4X$.= < #.0.0.0.$.>.$Xe.# . = t %.H ; * y +.y ; * ; ;.;.t < 4 O.j # + + . = g d H L e e H 8.Z.0 = $.>.f e 1.g.B K 7 , 7.1.:.Y = g oXZ.e G G.uXPXsXY 7 7 7 H -., 7 $.P.2XXX2XT 9 G -.[ -.b.p , { w q q C N.V...] p a >.0.g 2 =.0.L D +.f %. X#.2 #. X X{.>.$.uXCX8.L a N L K D e D G.oXXXS.f 1 6.H.H * = 8 y H 7 5 5 j.:XnX[.p.V.<.>.1.7 e :.L.XX-.B [ 7.{ n.wXbXqX0X0XV.w 7 | n.cXZX<.7 L 8.H , + 2 f I 6.w.K.2X3X:.m.L.K [ <.7 -.G q.pX2X>.D D L -.G 9 8.8.F.>Xf.Q M.'.j.q 7 D e 1.S.#.= > *.2Xm.] A U V.F...7 X N m.n.N D F.uX,.C C ..N.F.N.<.w B +XZXVXG.e a <.jX0XA V } f.N.V.^ w N D a Y A.gXpXpXK.h 6. X*.{.e.*.q.pXBX}.+.q.oXSXoXq.8.Y :.A.m.a , Y S.Z.$.$.{.NXCXP.9 = G U [ m.7.n.).).",
"U.Y.y.b C J w ; P L g./ E x ! Q / 8 7 D -.1.D.+XF.^ v A ^ M c M } M.] w M { _.bX]._.'.| | x x n ( C 6 C M.T.!.M.a.y.R R a.9X9X/.Q A N N w 7 q G P 8 , f G -.H N ` V ~ U.z.i.} c <.3XXXS.#.2 k h G 9 8.pXuX$., G :.8.I._.I.A.oXgX5Xq.d < d >.{.oX#Xe.$Xe.3 = = < $.$.e = 8 H f 7 * * u g O.k . + : $ 3 < $ . + # ; < * ; J L Y D , F F ; 8 1.1.N <.K e G :.&.$.= e >.Z.a 7 K ).@X-.N ; = 0 -.+.8 = $.P.oXiXiXH G a K <.F.b.w 7 [ f...C q C | | K w a e , # # 2 d 8 7 ; # , j j 2 # 3 j f = , $.8.N 9 7 N <.m.:.K K >.Y 7 #   # $.0.L ; = 0 ;.1.r 7 7 J '.*X*X[.b., 7 $.; e :.L.XXG.Y -.L.).wXbXtX..b.F.b.M w } '.cX0Xn.a K G.>., > + . , H f h A.F.).XXA.K N N 7 0 , L }.P.$.a 0 9 f $.a L D >.n.| E } j.K e e 0 . 0 =.j = + 2 &.Y a a :.:.<.Y a # , $.$., , >.XXF...| f.| ] ^ J q 7 <.XX@X1.7 7 ..0X(.A Q } f.`.:X| 7 7 a H f i P.}.}.w.>.e.}.{.3X{.#.f >.H.;.H y >.#X$.9 f G $.G :.H , , ; 7 H F }.SXpXS.a ; 9 , M ] s K ).+X",
"a.E.p.V C J q - J ^ W.N.N.R Q c 7 7 q w K n.@XsXaX<.M ^ f.| C M b.V.Q 5 M b.(.0Xb.M c c j.Q N.rXrXW.^ M.W.f.h.a.E.U.! b i.=X-Xz.Q w M <.m.L 7 ; D D , G , 0 f B E.t.d.y.V V C w B [ D h I h I G s K F.).P.S.:.A.9.U :.8.8.8.S.NX4X|.>.i , d 0. Xq.t #.g @ = = # f f 7 ; 7 0 , ; = X # # t t   + 3 k =.*.z # . = # = . 7 L 0 9 G @ ; 8 ; ; 7 N K n.n.[ 7 0 0 &.G 9 ; -.D 7 B L.G w 7.[ 9 P >.$.+.9 >.8.9.A.).a <.G K G.+XK 7 [ +XbXzXn.q q ^ ....<.<.a = , 0 1 = * 7 , , = # 2 d # @ g f @ * , , a 9 w K n.G.:.w 9 e , @ X . + , H ;.D 8 r -.1.; - 7 5 f.| `.eX..N = 9 * w K 7.XXiX7.b.1XfXKXDX).[ ..N.V.} w q M b.w B N K 1X.XH # # # f 6.G , 9 K iXiX7.<.K 7 N 9 9 f f a K -.Y 9 w :.e ; = -./ Q q q c N K a X = 0 H g = . # a f 9 a Z.a G f 9 f ; < 8 + # g ;.XXm.:.[ N 7 w 9 ; @ 8 L >.H = = -.b.N w ..N.N.[.N.f.| A w ; @ . * 0 &.3XBXe.k =.0.#.# . 1 H H 0 7 X 7 9 8 , = H :.:.a , 7 = X , @ ;..XG.8.9.7.m.p 9 7 = p n.m.",
"^ `...M N.N.q q c Z E.T.z.z.R q C f.| n.K a @XiXFX@XG :.).F.V.K ,.] K C V  .[.*X} p.c 5 w F.ZXvXnX).L.aXqX| M } `.M.} Q W /.s.z.B.A w qXXXA.Y # H 6.>.= , $.&.XX:XM.p.} C ..n.w [ a ; , 7.ZXbX7.N c ..(.N.F.tXZXL.U U s G T a I }.3X|.I 1 #.}.{.#.# 3 #.j t z #.g $.y < < # = 0 + > t >   + #   2 &X5Xe.z =.#.4 j e.j =.e.0.*.2 > h &.3XA.w J K g.W.G.-.a 9 i i , ; a { ] M w w A L.m.K a Y S.>.9 , <.+X+Xb.c | '.+X>XD.w w L.KXVXaX1.; = Y <.G [ OXL.w * 9 L [ g.J 7 v 8 * 8 e 8 @ F ;.;.H @ = ;.T , 9 D D :.-.; @ * 0 8 . o = q ,.n.g.N v f.N v 5 ..b...`.].(.U N U p p U B ] 0XC.9 { bXLXbXT ^ j.W.).n.^ C C A <.U N <.L.m.A.I 1 H 2XBX3XY 7 w F.wXqXV.w w ).<.K w , w <.+X:Xf.^ v q 5 * ; w E R.V q C N [ 7 = a f 7 9 # $.Y w = G N w Y L L e D f H j @ . k g f O.g * * 0 e 7 * . 4 *.=.4 # >.:.a , w ..n.b.Q B.R.M.Q c c ] v * 2.pXNXe.+ + = # # # = Y 9.N 7 5 q / n.[ 7 , L A.1.D 8 ; ; H 9 9 w w 7.iXXX7.9 , w N , ; w ",
"v f.^ c ..b.^ ] c q } Y.z.i.R V p.T.f.b.p 9 iXLXpXoX:.n.n.<.].qX<.-.n...C Q h.} } Q V f.:XaXAXvXiXwXgXfX).7...] b.M.l.p.z.=Xc.Y.0X_.p U -.>.I 0 f q.e.> > >.K.sXvXp.} W.(.).+X).G w N { +XDXnX[.c 6 x c c b.tXnXV.m.2XXXA.&., > 6.I.K.I h |.BX5X=., , j j >.{. X#.$.H.>.*.O.= f #.e.}.*.k #.#.2 2 {.BXpXe.*.e.3X5X5Xr.*. X5X Xj > *.3XNXXXK q 7 C F.qXL.G 1 h 8.H 9 N n.(.l.M 5 _ b...N 7 a A.XX:.G V.0X0XN.q q j.lXKXqX-.A.uXiXS.-.e , ; 9 Y Z.A.XXF.L w w B <.[ [ ] / 7 5 1.G.2.8 H.4X$X5X+.+ e >.:.A.1.D $.$.f = = d F 7 * ; 7 C ..n.N q ..f...C f.] M b.V.n.{ V.1X] 9 M o.b.0XC.9 G I.3X|.{ <./ | Q.0X'.b.| V.tXfX_.m.U p K A.A.S.oXpXuXF.Y N <.qXtX<.w ] +XqXn.B M A f.T.N.B.Q V | p.^ C } *XkXQ w M | +Xm., , p G 1.L Z.F.G B { N ; K Z.A.Z.8.H H %.k # + # # k O.< < F H 0 @   # k z u $ > f I a , 7 M A T.8X8XY.i.! y.E.| e A.SXpX%.+ > =     # , p U <.C c C N.'.).Z.:.L G.S.q.G.}.Z.8.L.U p s m.2Xm.K T D D e ; 9 G ",
"5 K ^ K ,.N.N.V.} c Q z.M.z.i.z.].[.b.V.[ e S.P.1.L w Y <.b.rXKXG.m.qX0X| } B.} p.p.| W.rXcXKXZXaX9.V.fXfX0XV.M l.`.~.i.W } W B.aXbXY ; 9 Y G d , H >.0 , H 8.1X'.] ..W.m.n.OXfXG 9 G L.iXfX0XF.J J ^ c N ).KXnX).+XfXiXXXA.L f h w.w.i i |.DXhXI , # # 0 {.pXoXg 0 oX XoX4X0 >.3XBXBXe.*.|.5Xe.0.6XFXFX}.I >.5XAXhX4XS.|.NXoX#.I 3XFXVXuXm.N J n.+XaX+XY i &.3X2X[ 9 K F.F.] w b.V.n.<.N 9 8.2X1X7.[ { n.b.^ ^ w f.(.1.1.iXDXiX>.f < e a e Y G.P.G.S.).XX7.K [ B ,.F.n.7 7 S.S.+., }.$Xe.$Xe.< f XXsXsXS.f D Y >.e = 7 D e ; & 7 q C b.K 7 C ,.n.| N.[ M [ <.] B L.bX[.A w M C.nX).B s U T w.K.W.C w F.bXlXn.C ].aXbXfXL.B 9 s 8..XZ.T Z.XXA.<.w p F.0X[ K '.cXZX+XV.{ M c ^ u.`.Z x | N.] C ^ Y.=Xy.Q A b.aX].B , s <.XXF.:.n.<.+X+X7.N <.aXsXS.S.;.g j d #     # z %.t = e H O.= . . @ u k $ # h >.$.a , w A f.`.[.M.z.U.R.*Xg.D -.}.{.g . # 2 2 < 1 , 9 U [.p.E Q p.N.+XqX).n.F.A.A.).S.:.-.wXT p B F.1XA.8.:.8.8.H 7 f L ",
"5 w J K K | F.(.W.C C _ p.R.Y.~.b...U <.K , 7 = , @ * G 7.m.+XvX+Xn.qXaX] c p.p.tXnXeXN.K U F.F.[ 9 <.fXtX+X(.A b.tXkXY.V W V *X0XaX{ @ * f H g = = 0 G a , 7 { ] | n.,.K 1.2XiX$.9 9 -.K.L.b.K [ g.F.n.<._.aX].F.m.9.9.A..XA.$.I w.w.i # &.4X4X:.0 = + e @XCX}.8 + 0.S.oX4Xg 0.oXNX5X*.H 6XFXpXA.m.L.XXF.T n.iXbXiXDXuX1XZXXXI :.3XZXiXuX).K N.rXdXaX@X:.s 8.hXVX9.= ; [ n.[ K ] b.n.n.G = e $.<.G B U b.N.,.[ w w N G G :.A.8.1.I 0 < a H L G 9 7 7 K A.7.a = w K G.XX[ L Z.L 0 * $.H < O.O.j >.pXBX2X8.e 0 L G.Y w N Y [ J w M c C M.f.c c C ] [ <.K e K { K w B F.+Xb.p A 1X[.7.p , 9 T 3XZX+X^ c (.JXvXN.A (.).1X].b.M s { K.uXZ.G n.XXn.<.N 7 M U M A (.tXaX).n...M q E p.B.Q E N.'.b.C c b i.a.z.A ] '.C.B ; K n.+X(.J J <.aXfXqXF.Z.sXaXL $.f , < 4 < # . > O.@.< + ; f O., = +   4 z $ 2 f *.H.Z.$.B M M p.B.p.B.[.[.`.,.w ; 0 H f # + 2 e.q.0 7 N b.8XY.Q A A M C.tX1Xm.U U 8.7.s K XX3XG ; 9 8.2XP.S.0 ;.S.>.f 0 e ",
"e 5 7 7 7 v ,.N.n.M w w A B.N.p.N N N G w 7 $.>., = a 7.A.7.F.aXvX<.G.qXA ; ] V.:XcX0X7.w ; G [ w w 7.).(.wX0XM A `.eX[.} i.Q `.F.-.K = o , ;.;.9 = ; G K 7 7 w v K B 7 e Z..Xq.>.H a a D Y -.K Z.n.G.F.Y [ 7.{ K G a e K -.Y e 7.w.w.i > G S.K.A.H 9 9 -.iXVXZ.e = 0 H $.$.0 0 I S. X&.H #XSX2X..o.S o.] X.V.0XtXL.+XL.(.aXn.9 a &.XX.X@Xn.7 / F.).qX@X:.a 6.hXP.$.; ; J K M N K b.:.[ e = , ; p B U ..<.[ ] K 5 ; a Y a , 1 1 f i , # , d 0 = = a 9 , G 9.T , 7 a 1.OXn.-.A.$.0 = 0 # > t = #.{.5XoX&.I f 9 H G e e [ <.f.f.f.^ ^ p.f.| N c K J N 9 , , a >.>.F.-.K { U w A b.M M s 9 9 :.K.3X).| ^ V.0X0X(.V.0XtXbXtXC.o.b.0XaXsX).n.1X+X{ B K N 7 7 A A ^ N.F.B w ]  .} } } b Q M.W.'.W.] q Q } a.p.W _ b.] w w <.m.V.F.N v Y XX@X1XF.K :.-.r * . + , g j k # < 4 f g y 0 0 < = < = . 4 z 3 > t 3.4XNXoXY , M <.b. .M.R.z.} K N ; = 0 H O.0 y q.>.9 w | M.~.Y.} } A w X.0X0XU , 9 T K , N L.XXG = = H A.Y e + , g H f , = ",
"e ; 5 D K K [ / K w w 7 M ..[ N M 7 , 7 D S.iXpXL , D Z.).F.m.wXvXK U ).{ w ..'.(.V.[ { N ; K m.L.[ ..C.V.].[.] p.p.p. .V i.A Q N 7 -.G , 9 $.>.H D w N K | f.M 7 v N 7 7 a D f $.>.>.G , a <.Z.S.Y P G 7 9 N a 9 G N N e 8 G G T T h 9 1 G 9.-.9.a w K :.G.G.L G a , 0 , = 0 = # f 0.S.0.q.0.I U o.Z p w M ..V.V.] A A N A M w B T 8.7.:.e - N / [ n.G.9.G a Y Y L 8 = 7 ; ; N G.).<.N , * ; * 9 G { n.{ w M p ; ; 7 w a a 0 # > = > 0 i 9 9 f 9 S.P.T s G p * , a J L a , H H < 2 0 . @ > >  X4X5XS.f I &.9 a ; 7 N b.N.p.| p.Q } p.V q q v m.K J 7 0 f d L L G.A.J w w M C 7 7 M 7.7.n.L.9.[ ).(.V.b.b.V.].tX0X].<X<X(.[.yX0X).).F.+XaX(.N 7 7 K ] N.rX(.K ] U 9 w ..N.p.} Z V E.`.p.} M.f.C ` R V Q i.M.l.S ] (.qX).[ ] v w n..XL.n.[ 7 ; ; 7 = , 0 , > j *.*.O.< y S.#XO.= = < j t # $ 3 + + 3 @.e.{.0.f , w A A M A _ V w w -.[ a 0 G e.H.H.Y 9 w ] u.` ` M.p.M. .w p { 7.9 > 9 G T U U a >.>.0.H 0 < = 7 , = @ ; f y , ",
"D ; 7 1.OX).7.-.[ N K N w A B G D ; @ = -.pXpXG.>.; e 1.(.F.<.+X).7 , n.L.b.b.b.].V.[ ..A ; N <.L.V.).).] p b.tX0Xb.] Q w b.p.^ 7 e XXG.q.H G ;.G.G.<.[ ] V.eXf.w <.Z.:.f , ; < f $.q.Y ; , L 7.L ; = e D Y G = , L -.>.G 7 -.n.B T G 9 , T F.n.[ 9 B <.[ C J N -.:.Y L 7 , $.G > , $.oX}.I , * , S _ A M A l.~.b.| A | ] q v <.F._.A.{ w 7 K <.,.J N L :.G > + $.3.F ; ; * = L G.S.G 7 ; * ; @ @ N <.@XF.w , @ [ T G 9 1 i f > j i h 0.0.H f #.S.BXLXVX3XA.T a a 1.G 9 , = ; = # < O.#   $ 4  X{.oXw.0 &.8.p B [ K ..`.[.p.` i.i.} } q q M ^ 0XF.n.G >.8.d 0 , = L N 7 w [ V.K M A F._.qXsXK.A.+XmXcX`.b.`.tXcXV.] Z _ J.cXMX....<.Q.aXzXG.A w & v F.zXbX:Xn.<.A M ] b.M. .} ` z.kXjX} c | V.M.` V c V M.`.b. .V.IXnX0XN v ^ <.iXiXXXL a 8 * ; 8 H }.|.f > =. XpX}.y , S.4X%.+ = g *.@.3 +     + < t t = = , ; = 7 9 w Z Z M c M L.@XG.G 0 A.oXsXG ; ] M.} R W } | f...S 7 9 B 1 , s 7.L.2X_.[ 9 ;.pX$XH @ X H q.$., * f +.O.",
">.e ; -.uXsX@XOXA.L { T w 9 a -.1.H D f Z.CXNXP.G , L n.<.G w (._.p 9 L.bXfXL.] U b.b.b.U s U [ <.(.).<.N A V.0Xb.M A ] M (.].V.K F.VX.X.X$.f Z.sXiX).'.V.`.cX'.w 1.G.>.$.F ; X 8 f $.Y , @ , e e = 0 H.pXCXS.= X N -.).1.w L [ T I.I.B , { 2XwXn.A <.:Xg.q c / n.P.@XG.G L G.S.$.0 H oX|.f # + 9 A 5.C.5...7.C.L.7.M F.qXL J <.1XvX+X7.w w G.(.,.K e w 9 , , , ;.S.;.r 8 * * L 1.-.D G G e D e w K K m.-., , = Y A.3XS.0 > I K.K.6.6.|.|.0.h i S..X4XgXgXXX9.:.1.qX8.G -.Y 0 . = > 0.j > d < 3 d *.#.> T A.B { )... .~.~.` W ` eXB.u.Q M.W.W.JXVX2X;.8.>., = # 7 >.-.J q w V.F.qXF.]._.+XXX1.A.f.tXcXT. .W.*X`.<XJ.b.l.[.IXmX..N ^ '.vXqX,.N q - 7 f.)...| W.).[ M M | B.`.~.z.Q =XeX} q C ..| R.z.E M p.R.B.].p.bXlX0XN C '.bXZXZXuXa 7 N ; 7 e 1.NXCXS.0.$XSXBX$Xy . H {.O.# + g 3.%.t + . # u %.3.O.t t f f 7 a K [ N.M. . .] 1XfXsX1.9 8.@XsXG w f.M.! ` y.C ^ ] <.[ p p T T 9 s 9.m.F.m.[ 9 g oXNX{.0 * f @X4X;.< u $.;.",
"H 9 7 :.@X@X@XvXG.:.8.:.9 G = T q.XX$.H 8.oXCXgX-.a K m.{ 7 B 1X).K N { L.bXDX_.7.<.n.n...[ <.{ A b.'.tX0Xb.b.n.F.V.).[ A qXfXn.G ).PXgX}.L f 1.2XvX+XV.b.T.*X| L 9 7 D $.$.F , = g ;.H , ; 7 e e = d oXFXpX>.9 * 7 L -.J N ^ .._.1Xm.9 w <.7.(.n.] f.F.^ q ^ n.+Xn.qXsXG ; 8.gXiXS.0 0 ;.d . = 9 B C.1X_.n.n.L.).a w A..X1.:.Z.bXvXZX).K <.OXZXG.K ; 7 G H D D H 0 F H * o @ * H -.Z.-.-.g.2.:.{ K [ n.A.<.H N H A.2XS.h H }.pXFXw.6.e.}.5X|.&.G :.3XiXA.T 9.XXsX.X9.:.$.H d a , = #.0.3.4 + z *.e.&.#.G 7.[ <.(.p.} z.z.W R c.*XR.*X`.Q N.mXvXQ.:.D f 0.}.%.= 0 L >.v K n...'.nX0Xb.[ F.iXqXF.b.:X0XN.Q ] p.b.~.~.Z (.MXB.B.b.^ M ^ W.:X(.K * - f.).<.[ ,.g.n.{ M 7 A N.`.R.l.W z.p.V q q C f.Y.B.} c w } `.eXb.rXlXb.w N '.bX1XiX@X>.G a ; D D L iXCX0.0.5XoX0.$.F < = f O.= = t 3.e.@.= + . * 8 %.%.< O.e.%., 7 N U p.~.~._ | qXiX7.:.$.a q.$.[ w C E.^.-XU.C q w e -.:.e $.$.Y 9 = e L L L D +.3.{.Z.+.y 0 8 ;.+.; ; D +.",
"Y e 8 :.2XsXiXgXqXH a T a a # $.S.H.a a S.uXsX).[ [ <.7.A 7 B V.7...F.n.B U F.m.w 7 a [ 7.C.n...N | N.0X:XV.(._.qXF.).n...m.n.{ K F.VXXXXXP.1.>.G.8.N w c A `.(.J , , G >.q.;.y , H $.D e D e ; f < D }.2XZ.G e ; v :.g.K 7 7 N <.J.m.7 9 m.).).....).+XK ; N n.).aXgX8.7 :.iXuXdX.XD 0 >.+.#   9 n.1XuXuXA.Y 8.Z.0 7 >.P.S.;.D V.+XnX(.N [ G.aXF.L 7 , e D f a ; 8 +.%.8 * ; * t 8 e e -..XQ.G.[ K C ] n.F.7.T 8.3XNXP.0 0 S.NXBXe.e. XpXFX3X#.I S.uX}.H a :.A..X8.a = * 0 L $., j 4XSX{.2   O.oXSX3X#., 9 <.0XV.p.} i.i.R t.9X*XeXrXa.q Q n.] N N L q.}.S.H ; 0 P S.Z.D.m.f.aXLX].^ ] ].fX).A ^ `.0XV.A M Q } A (... .p.Z M.Y.^ ^ C C | ,.^ w q n.:X).n.{ [ <.{ N w { '.(.p.V C p.l.Q c 7 w A  .f.Q 7 w B.cXGXW.N.N.F.<.K n.fXVXVXoXL Y 8.P G G L oX4X$.G >.#.0 0 D y ; < 0 @ # < %.e.3.#.g < 8 * ; < * < j g = * ; w A B.[.Y.N.7.[ G <.$., a a K K W.kX8X/.a.C - ; 7 f 0 X ; $.>.H , ; a K L 2.y 8 H H.Z.G = D -.G = * 7 D ",
").[ e N Z.qXgXvX1Xa 9 H G a # H 0.$.= = Y F.(...[ b.b.A 7 ; q w A | _._.[ N a 7 7 @ 7 7.V.[ A Q } p.b.].[.b.n.V._.qXtX7.K :.G 9 9 K n.Y XXpX}.Y 9 7 N V.b.] b.<.[ 7 ; f ;.3.$.0 y O.+.F -.Z./ ; 7 ; 9 Y >.L J +.; w J ,.N.^ w ^ V.(.1X..K (.+XF.K K F.>Xn.B K K [ m.m.G 9 B -.Y :.D , ; e y ; . , q.P.}.XXH = G D = + 7 ;.S.>., w ..0Xf.w N { n.OXF.L 7 , 0 0 , @ 8 %.%.u < = . * X ; ; P ).OX>XD./ N [ G.(.<.a $.6.w.&.0 h P.pXq.&.0.K.hXFXoX6.9 I 8.-.9 9 G T Y [ N * @ 9 H H g %.4XBX$Xk . 4 0.6.H 9 :.L.+X_.M Z Q i.~ b R /.a.R.`.p.V c c 7 w 7 N :.S.8.G 0 , 7 a D L [ N.bX:X| q M (.qXn.w 7 [ (.V.C q c Q N.mX~._ } p.`.B.f.V.| c A [ K B OX0X+XF.[ w B n.[ p 9 [ L.V.] M w C A c 5 ; w ] K ] A c A N.:X0XK M f.aXrX..K n.iXiXS.9 D .XG.1.[ a H Z.S.>.f @ = 7 L $.0 = = + + # d *.e.e.>.f f 7 , 8 ; * < O.0 ; ; w M  .Y.Y.(.w 7 N <.Y = = ; 9 N (.jX^.z.a.v X & ; 7 8 = , 0 >.1.a ; 7 v D D ; * 8 / -.v ; e >.-.e 7 8 7 ",
"F.{ w ; 7 -.P.).-.9 a T >.>.9 9 >.$.7 = 7 N | b.T.`.M.C w C C c c C b.).G.<.N X * * w ] [ ..B.W. .} A  .| w w w [ qXvX<.p B 9 9 B { 7.[ 2XVX2X>.9 , [ L.[ w A { m.J 7 7 e D g 8 = , 8 D 1.F.,.7 7 ; ; 7 m +.2.1.g./ w [ 0XV.c M ..] W.b.p U { M N w <.+X).n.Y 9 K { 7.m.<., * N Z.L L $.0 = , 8 f >.S.oX}.H a q.L a ; @ 0 q.S.D q C N.| w w v K aXaXG.a , a g 8 # , F =.O.u =   X ; F e e ,.Q.zXrX..c / D.n.G 9 = > 0 h h >.|.4Xh i H $.S.|.A.}.H 9 H A.A.:.K N w [ 1.Y e 9 7 , H H >.S.e.t . = = h 8.T n.<.n.f.M Q } i.y.V x V c R y.`.!.Z q A ,.C 7 M -.m.<.L L 7 = ; w K b.*XT.B. .A ]  .A 7 ; M ..<.K c c A B.eXp.M E } p.} :XrXf.N [ ..K K aXaX@XG.-.7 = 7 H a a :.F.b.A p 5 7 w N 7 ; w Y K w 7 w B A K ^ c N ,.F.b.B N :.#.&.H @ , S..X).-.9 ; Y oX.Xg + , a >.8.f @ @ < # + = d =.q.>.e e L >.-.f = , ;.$.L -.<.^ E } u.N.w B n.Z.-.9 , 0 a 9 A | _ x.Y.g.r ; ; ; f $.H ; F 8.>.e ; q v ; - ; 7 D J N e v D.G./ N K q ",
"K { :.B 7 Y G.K.N , 9 Y XX3X>.e 8.q.1.G w w ] [.*XB.Q V Q p.p.} c V | V.F.m.-.J 7 Y <.w c (.jX*X`.M.C A ] A K p K F.sXK.B , 9 F.1X1X).7.XX.X.X8.H Y K.K.G 9 K m.).[ e , ; 0 L $.; * ; J Z.W.n.,.N L J 7 7 L 2.,.OXf.M b.nXtX .] b.f.rX'.] ).qXF.K G :.n.[ Y Y N K _.qX].m.N 7 G Z.Z.@XuX1.+.+.f 0 ;.pXNXS.1.}.oXXXXX8.i 9 7.L.<.| } `.(.] N J m.ZXZX@XL d $.;.$.= * < @.3.O.= + # d q.Y w N f.lX>Xh.n q J { L e @ = f $.H Y H.@X>.0 , 0 $.8.A.gXA.-.7.2XiX.X<.B e <.).L.[ 7 , 0 F F g $.%.< + = * >.pX.Xn.w A ..'.R.p.i.U.z.~ b c Z y.*XjXp.V M.N.f.^ M ..'.].n.1.a e -.,.M w M B.yXtXb.C A ] A K K K ] | ] C c c p.| Q V q V B.lX+XA w <.n.{ n.qX@XA.-.Y w * X 1 9 T A.L.7.N 7 7 , ] G.-.7 , 7 :.Y K K { g.,.K ; M ,.n.{ N w a a 1 < X = $.q.A.-.D , f q.q.G 0 7 J 8.S.$.> = j 3 + + > g ;.;.D v f.Q.1.D ; ; y +.>..X)...Q i.E.p.C Q.sXuX}.$.d 6.q.N 9 w M l.`.aXS.G = * Y S.>.f e >.K.-.w v K v 5 * 5 / n.<.K ] N.N.,...| A ",
"K <.F.<.N 7.iXsX[ ; = Y gXfX.X:.$.8..XF.<.A A R.eXM.W W } u.p.p.Q Q } b.).G.n.-.K [ n.N.j.N.B.M.KXrX| ] N.[.:Xm.K L.vXI.G a 6.iXDXnX<X{ 9.7.|.I.G 6.2X2XK.7.T F.1XZ.[ e ; 9 -.G.H 7 5 J j.,.| f.C ,.<.v 6 w P / n.| K V.mXjX~.R.] f.:Xf.c '.vX).<.a 7 ; = G :.H 7 n.0X+XG.K w N K P.VXpXoXsXoXy * 2.AXSXP $.G.-.P.@X_.{ p U m.b.R.Y.lXnX(.[ <.qXAXvXXX-.H ;.1.;.f < < =.{.%.= + # 0 ;.P 7 w ^ W.N.!.j.c N n.1.7 9 , 0 H h f $.1.}.0 = , $.}.uXLX).L..X@X+XqX).<.7 ,.>XqXg.e D 1.H.;.f ;.H.@.< = a 8.uXsXqX<.C A N.B.} } R.=XU.! V } p.R.*XR.u.Y.h.`.Y.Q A B.*X+X1.f [ uX).w 7 M  .eXjXB.A } B.V.0XF.] K f.n.^ 5 C p.T.`.M.c V *X(...p A (.+XG.L.+XA.N 9 a a 7 , > 1 i G { :.[ K a 7 <.qXA.e , , L K..X8.A.>X).K ; 7 { OX@X:.9 , #.0 0 = ; f G D >.G = ; H 8.>.>.; N >.S.q.g t %.4 @ + , f ;.q.n...N.N.{ G H d ; 8 L G.F.| } =XxXN.,.>XZXAXsXH.H S.XX1.B p M l.V.qX.XG ; 0 S.NX5XA.a T .XA.K ] <.J q - 5 ^ V.W.b.| A ^ T.*Xb. .",
"| K ] M 7 [ 1X_.U 9 , a P..XXX8.a $.1XqX).} V M.kX^.i.i.i.} u.B.p.} C | F.V.{ K B N F.vX].Q Q R.lX*XE V V.aXcXm.K n.wX9.1 $.XXfXnXKX1XU 7.A.hX2XG I 6.8.|.A.h 8._.m.<.K 7 9 $.Z.-.q * 5 C ^ ) ) ^ ^ / ^ x 5 v ,.n.| ^ p.Y.Y.z.l.C K N.^ 7 ] D.1.n.a = # = #.6.G 7 N <.).].<.B J 1.dXVX%XH.sXuXF r -..Xg.e G { w A [ n.7.B S X.b.B.h.rXbX+Xf.[ F.XXZ.-.G G H +.$.H.;.t j 0.%.3 + # , H a 7 q c | U.!.h.E ) F.Z.G D = = e f e 0 7 S.a e e H }.iXsXXXF.n.m.G.+X@XF.5 f.qXOX[ e L G.pXS.8 f 3.O.u = D n.iXKXqX[ q K } f.} R i.R.E.a.V Q } M.R.B.u.z.E.*X*X} c Z M.`.<.Y -.1X(.] f.p.p.*XjX`. ._ l.T.ZX+X{ C ,.F.| 5 ) p.N.T.!.u.E N.} ] U b.].wX+XL.F.Y 9 H 8.Y 9 1 j h < = 9 <.L.L.[ 9 -.uXS.f f H 0 6.S.>.Y 1.:.J [ N N -.1.T H Y >.H $.a = 7 8 7 L e * * a 8.Z.>.; w D -.>.g 0 z 4 @ = t H >..XiXb.} ] [ ,.G.S.F ; F 1.,.c ( *XmXrXg.n.G..X{.$.g *.A.>.Y U M ] b.F.S.a f A.uXLXDXXXs G P.L.<...| C C C V C | M.B.^ C Z N.*XB.p.",
"N.K K N w ..F.K = p G = 9 G 8.H 0 ;.NXZXqX<.A `.u.} _ W V c Q M.p.} c w M M N [ <.>XKXzX] q Q T.N.p.q c W.JXZXn.L w Y K = a S.2X0XmX(.M { m.wXm.a 0 H 8.gXXX, G -.[ [ K 8 9 L >.n.D ; 5 | ).OX!.N.C v | / x v ,.| c 7 w A p.V.B.c - C [ 7 * ; N -.-.:.Y f #.6.a 9 w w N ..m.<.J L G.G.e 8 H.4X#XL 7 X & q N N K 9 w [ b.] M ] b.| C N.].).7.w ; a ; * , f D H ;.#XS.f , O.%.d < = 8 $.G 8 7 w | =Xj.n x C 2.G.@Xf < d $.f ; ; , >.H 1.L 7 -.Z.>.).N ; a [ :.-.Y w F.+X-.* * L G.@XS.= @ # . ; < a L 1.sX@Xn.K F.+XrXW.M c u.T.`.R x Z Y.R.Q c Q `.eXrXR.A c V ] N L J K K <.`.M Z M.eXyX~.l.`.mXnX:X] v ] W...5 q } h.p.M.M.} f.<.7.7.<.n.XX2XL.uX:., G :.G 9 Y K.q.h ; a S.@XP.9.a m.CX@XK G H :.:.Y H 9 9 -.+XK J e w 9 p B T G H A.H + = < 0 , 7 0 ; ; D -.H * ; = ; y > + = k : 4 $.;.q.uXLXC 7 w [ g.2XsXS.0 L 1.J 5 V T.*XGXj.c 5 7 7 = 0 f I G Y U 9 o.C.F.F.G :.2X2XgXgXL.p s F.F.n.<.A C } p.| } } } }  .u.E M } B.B.",
"F.F.<.B ^ +X(.w - (.(.n.L = , D $.+..XsX@XF.7.N w M p 7 7 N ..N.f.M.} 7 ; c | b.m.).cXtX] 7 C ..N.v 5 ,.aXvXOX:.,.7 L -.1.e G <.Y.p._ c c Y.:Xf.f...K sXLX2XS.9 9 = G G 7 7 e Z.1.J 5 7 -.Q.OXQ.n.C C 5 5 ^ C f.^ C v w N b.F...5 5 7 ; ; a D , H 6.:.&.K.|.K.|.V.7 M ] ..+XK n.G.S.G.}.{.q.;.;.>.L 7 * * 1.-.Y G N w <.e * 7 g.^ ] K ] , , = 1 > # 0 =.O.F g 8 F H , . < F +.>.H < f >.H * * 8 K C K [ [ G g O.2 e.3.d y H %.g 9 L ).G.8.Z.G = 9 , Y $.9.0 9 9 , , 1 a 9 , 1 f >.I = # = H #X>.#.j {.SXBX Xi , H 1.-.9 ; A b.b.Z W } M.Y.B.| ^ W.+XZX+X[ N 5 D D J D Z.+XW.f.M 5  .p.| M b.'.tXrXf.j.W.h.J q M ..rX'.M | ..q w K U p 9 9.2XiX2X|.0 a K.A.G 9 w n.:.N 7 w [ G.1X[ [ (.nXbXn.K ] A ; * K m.m.m.).qXF.<.K M _ l.X.f.b.G N = i 2 2 > k O.f 8 f H r = < = = j 3 . : k 3.{.%.g 3.oX@X, = L @XsXgXiXXXf -.-.w ; w | N.W.) c C N C K K G 9 9 p p p l { L.b.L.C.X.L.L.m.B s T -.L A.e 7 Q p.Y.M. .} } } } T.Q c C C Q ",
"G.m.G.+XF.,.^ M A zXvX@X8.9 D q.{.%.F H.pXP.a 9 N p B <.<.[ ..W.W.].V.C c <.).).[ K b.(.b.[ ] N <.N ; ; K n.:.v v - v L 2.v N N ^ V R ! R R u.!.N.| c '.ZXaXsXn.G = 7 , 7 G N K F.-.w 7 K F.OXOXqXV.N.n.f.N.f...C ,.N.K ; 7 K G ; * * ; G A.Z.D 9 G G I w.S.w.L.n.7 N U [ +XY m.iXiX2XoXoXq.H +.Z.-.e , 8 S.:.-.a G Y 8.e ; * L G.D.<.w = # i T h 1 2 #.*.@.t * ; 0 , * = y $.H.H , y ;.y . X 0 7 w K <.<.L 0 , >.pX Xt 0 S.hX3X1.1.uXZXaXn.7 @ = 8.gX4XS.i I I &.i 0 I *.I G I S.6.i 1 h |.BXpX{.%.0.6X5X{.< @ + 0 T a 7 w N A B.} } B.0X*Xf.C ] n.uXOX1.>.H -.-.G 7 J ^ N C N c C A n.V.[ w N f.( g.n.C 5 q C '.).b.N K A p 7.F.I.A.:.6.w.K.4X0.G Y S.F.n.[ 9 B / B B :.<.<.G.m.n.(.0X]...S V Q M B n.1XwX2X1X7.XX).] ] jXKXkXlXJXtXK a w.e.2 # #.{.3., = y F < = + 3 O.4 . < u =.3.g @ < $.;.H 0 a Z.iXVX2X7., G <.[ N N K ] ( | j.| ^ ] V.m.F.G 1 1 1 1 1 l B { 1X_.] A U .._.n.9 , * , 8 N l.=X8X^.` M V Q B.B.c w ] | ..",
":.J <.qX'.] C A W.zX>X).F.L H ;.;.@.* g oX>.0 8.Y U 7.qXwXF.<.<.0XaX].] N n.]._.m.K [ F._.+XF.B <.Z.L ; ; L :.D w - 7 D -.K J 7 c } p.} Q Q u.!.'.| w n.0XvXKXXXL 9 7 ; w <.-.B [ K q ; w g.OX+XqXm.F.rX'.F.W.] 7 ..OXn.w N A.@XA.-.L [ Z.@X).T 7 H :.{ G p T _.n.w C A A L.K <.gXAXiX}.S.$.d >.q.-.e 8 e A.-.[ 9 :.@X.Xe 8 * N G.F.n.9 9 p K.3X6.&.I 0.}.0.t # < F ;.+., , +.H.y = ; 0 , * * = q A ..V.V.-.e # S.CXoXg f P.CXpXXX).ZXAX+XY , , :.uXgXuXP.6.iXBX3XT i 8.3XP.8.6.iX|.>.a >.iXBXFX Xk 2 =.e.0., # # 9 T <.[ N w c M.Q E R.jXjX(.,.N w B e 0 D D Y G.:.v v 7 ; B <.C [ <.n.+X[ w K w / D.n.v 7 / n.rX<.K M M A M B n.XXXX8.I h I 6.g 0 f ;.8.A.<.N * 7 w K n.[ q v m.<.[ ] A A A ] b.F.(.).qXVXsX}.L }.@Xn.F.cXKXKXPXmXtX9.XXpX5X2 + j  X{.0 * P S.@.k # = O.j 3 < < O.*.g . X r +.;.L 9 e 8..Xn.J a <.(.V.K N [ W.| } !.N.n.^ (._.fX8.s s H i > > B <.tX0X[ w 9 K (.).9 w , @ ; w  .~.=XR.` V Z Q N.p.c M | ^ ^ ",
"J 7 q [ b.f.] N W.).m.7.Z.Y e 0 g t * 8 q.>.:.fX{ :.m.1XgXiXA.G F.L.7.N w K n.m.].[ K { m.).m.N K Z.n.q ; J -.L L e 7 e -.Z.F.J N V.V.| j.N.h.h.*Xp.n ..W.0XcXm.9 [ ).+XqXvX+XK w N v 7 w ] N.V.b.K ..aX+XN.:Xf.v K n.n.K -.1XZX).F.m.A.).sXfX+XB [ n.b.N 7 A +XF.K ] K N F.K G Z.gXsXXXP.D # f Z.Y e 9 9 -.G K G P.LXuXK Y ; G 7.m.A.K U <.XX2X{ Y H 6.oX0.< + 8 $.oX}.y ; F ;.0 , ; 8 f +.d X V } B.B.n.{ w * -.S.L 9 e Y L..X1.qXLXqXL G K Y [ F.XXZXVXA.2XuXiX:.G |.CXiXP.S.pXoXP.>.H.oXS.pX}.2 @ > H $., = , ; 9 { n.] M w } C Q N.'.(.N.N.[ 7 * ; a D G [ n.F.<.-.w 7 :.+XK (.L.[ 1X_.A.n.; L 1.L 7 7 ,.g.<.K b.K w [ [ 7 w 8.K.>.H h 0 1 f , ; a Y -.:.1.7 7 L ).OXD.[ N n.<.] N w w K n.wXvXuXA.P.hX4X&.H oX2XS.m.V.C.F.0Xb.G.@XCXFX5Xj $ k e.e.< . 0 ;.{.S.d @ 2 %.j , < F 3.%.; @ 8 F ;.1.D * 9 -.:.7.qXF.[ B B [ C.'.f.q ] | n.7 ..L.gX_.:.{ 7.7.G i G K n.<.K B w p K F.[ n.1.D * ; Q  .x.p.p.p.p. .M M c | ..C ^ ",
"B 7 ; 7 N [ ^ 7 K <.G.F.Z.L 0 0 +., . = $.P.2X2X9.:.:.L.fXvXL.G w w N U K s K 7.G.G w B -.P.A.N 7 [ 1.J 7 e / -.1.L 5 e [ G.OXL B ..<.N.'.N.^ ( W.| V A | V.).[ w 7.0XaXcXZXcXn.] b.b.] C A | | ..B { tX).V.aX).n.B N K a a :.XX_.F.m.F.].cXnXaXA C ] V.N.] A } N.] ] / N n.N w L.iXF.T $.e = G OXZ.[ P w Y N U (.wXAX).K A.D L A._.m.7.U 9.n.n.7.T a Y XXe.2 # * f {.{.D 0 $.q.F 0 y -.q.3.H ; M } a.p.} C q * w K 7 ; 7 N 1.D.7 m.vXQ.B [ <.-.N Z.@XDXuX:.F.3XiXA.8.2XZXiXP.A.q.A.2X2X4XP.Y }.}.h , = a T a N p , w | n.] A A f.^ Q ^ ^ C ^ f.<.7 ; -.XXA.T K B m.F.n.J a Z.@XS.@X8.9 .X3X8.a , ;.>.H ; ; :.1.Z.XXZXP.w B G 7 , D $.>.#.f 0 f H.>.f 0 e G :.F.L 8 D.AXzXzXdX[ n.<.n.n.K w K F.AXAXoXG H {.S.d 0 3X4X$.G -.U w B { m.3X2XBX|.j 3 4 %.>.0 = H S.NX4X#.# = g g , ; e ;.;.0 * = ; D 8.Y , 7 G n.@XiX(.{ N M U F.tX,.5 B K <.7 ,.).A.A.-.a G 8.K.Z.D w e 7 L n.Y N w n.F.7.<.1.; 7 }  .i.x.M.B.M. .N.b.| <.K q C ",
"w 7 w w 7 w M w w N <.1.q.q.d = y + + = , S.pXI.fXm.T A.uXiXA.H 9 9 :.@XP.H a [ Y , = 9 :.@X).N 7 v K J e q J -.1.1.7 e w L -.; 7 Y F.+X0X(.] c ( ) c c C } p.f.] 5.l.V.[.tXtXl.N.`.*XT.} A Q } 7.K { (.m.m.0X+Xm.7 ; a a 9 G w.m.{ K U ..V.V.| w c p.eX*Xp.M 5 C w v N 5 N 5 ; ).L.N = w h a Y 2XOXG.F.[ [ N <.cXqXG.J w n.G a 8.I.{ { M b.V.).'.] 7 N q.0.d # = F q.q.;.1.}.oXD = e Z.q.D 0 J c W y.y.^ C q - 7 ,./ N B [ <.K 7 w | ^ N K K K N -.g.<.G <.XXDX2XP.A.P.XXI.9.H 0 >.iXCXpXq.a G G 9 , = w 7.m.L.[ U [ b...A M M | C q 7 q v [ V.<.p 7 n.2XL.{ p N g.D.F.-.K S.XXNX4X$.= G f > # , $.>.>.9 , q.S.iX3X2XF.[ Y G Y G 9 9 $.H # = 3.pXNX}.r ; D -.2.2.e G.KXVXZXsXv N N K [ N 9 :.sXCXpX6.> = j f + = I >.L H K G N { [ p 9.w.}.j > # # k =.f 0 >.XXNX}.;.H e , , e = ; f H a 0 8 ; 0 D D 7 ; , N -.7.-.] K K { n.F.B 7 K a N ; L <.w :.7.N 7 G -.-.r 7 7 7 -.n.J w N 7.F.[ K 1.; 7 A } l.M.B.B.l.} lX+X<.K q q ] ",
"w K <.[ w w ^ | B 7 w 7 L S.L = < 2 #.j > #.2X2XDX2X8.8..X2XA.H H :.4XDXuXT 9 a a = = 7 H K.S.e * * ; 9 w 7 7 e -.F.a G ; 7 Y e 9 H S.@XqX+X| 5 n ( Q c C V V N.B.B...`.0X8X~.w  .Y.8X*XM.Z V _ ] p N K [ V.(.).n.w ; G >.&.#.I 1 = , 9 p U ] S c W `.xX=Xa.W x 6 5 w v * ; ; w K { U B T G 9 , <.n.).+X<.K w n.aX0X<.B 7 K e 9 h l l B M X.Y.eXN.Q M N a i 1 # 0 ;.1.3.}.pXpX2X0 + ; $.>.H Y g.^ ! } p.p.^ q ; q D.G.n.-.J J w [ q q w q N v J q ; N J B G.n.1XiX3XA.{ :.A.:.9 9 8.uXiXS.Y f = = 7 a , p L.0XtXN.b.| X.X.Q c 7 c N C w q v ] <.<.{ p [ F.V.m.U K K [ Q.L.-.8.w.NX|.f > # @ + > 1 H h &.f = Y H >.G a G S.A.1.iXP.H , 0 y * = $.$XAX$XH 8 e v / -.F 1.@XdXVX.X7 - ; 7 7 ; 7 1.sXoXS.Y , = , = . , = N G.G.Y B K F.{ , 9 T h # 1 2 > , f 0 1 0 a P.1.A.@X8.7 7 B N 7 q N L n.q.L 7 ; 7 9 = X ; N F.a X ; n.qXC.9 7 ; w a a , 9 , w A.qXL.B , w G 8 * * 0 ;.G @ * N <.n.n.[ <.w 7 M Z } B.`.(.f.A | ..^ M 7 / +X",
"Y OXaXm.N { F.V.{ w 9 X = q.0.$.0. X5X}.#.>.2XgXCXgXI.Y w.pX2XI I 0.iXBXXXh , 9 >.Y Y H H q.S.G * * ; e K J e 8 [ ).L :.9 G OX@X8.= e 2XaX1.w - c p.p.C E q 5 p.mX`.Z A _ _  .M Z l.8XkX~.V q M M = 7 7 K ).(.+XqX-.a T q.w.i   s B ..7...5.V.B.i.` Y.8X=X-XY.y.x N / ,.5 7 w <.n.L.F.Y 9 , , 9 = w n.).[ M 7 f.:XaX(.m.N e a a $ > l p M 7 Q z.h.p.`.F.a > i h , L $.;.uXFXsX}.0 = = 0 >.oXuXOXN.u.} f.f./ w 5 D k.Z.Z.P ; q L N.^ | ^ C / K / F.C n.'.F.+XK ).bXfXF.B T A.7.9 a }.2XG.G G >.* D <.m.B A '.0X0X8XY.} Q N.[.N.C w <.Q.2.q ; 5 7 w U w p U V.<X..K 7 7 G.@X>.H I }.=.# , , j , > e.0.h e.>.1 d # = h G f >.H a iXVXP.e ; f H t < H.$X%X>.L 7 q 2.; 8 5 v Q.uX1.7 ; N / D 7 , F ;.>.$.H D f e 9 9 e a V.cXaX'.| w U _.m.# , , d *.#.1 , H >.>.H , H -.qXDX1XU M A F.[ v N :.@X@XZ.0 = e L 7 = K F.qXF.[ K F.aXtX(.U , w A..X8.Y G <.3XZXsX-.7 N Z.+.; * +.}.;.= w B <.[ ).1.{ -.N C V Q B.tXtXb.w * K <.[ w [ qX",
"L 1.G.F.<.] ..F.F.N ; a e 9 q.pX5XSXFXpX6.6..XXXCXU a A.gXCX|.0.I 3X4X5X0.I i >.iXS.S.1.e 1..XD N K G.OXOXP.-.e K -.1.-.w -.CXAX}.H   0 -.w 7 7 C V.N.} E q w l._ l._ Z M  .*X` c Y.^.[.U.` i.W | 9 , p ] [.bXvXuX@X9 >.pX6.h 1 1 L.1X1XwX1X<X`.~.i.V ` 9XxX-Xy.E q f.Q.C ; J n.+XsX7.7.9.T { 9 w G <.+X0XW.b.`.'.rXW.).A w 7 a > s T 9 w M a.U.=XT.'.).K i h I L 1.L G G.2X@X@XY * = 9 8.uXS.1.F.p.v / n.1.-.0 * * t +.f = 0 1.D.n.].:Xn.f.'.rXtX'.F.:XvXrXW.m.vXwXXXa G _.A.L.P.@XP.:.:.8.Y , L.vX0X(.b.} R.^.eXyXB._ B.0X'.V.K D OXL w 5 ; <.+Xn.K 9 L.tXcX1X..U U XXZX4X&.H =.3.e.*.y 1 I  XBXoX6.I G H I G 0.S.w.A.L , Y S.sX-.8 = H H.g ; 8 f D Z.2.5 J 1.; 7 X - -.g.<.[ D 7 -.S.f @ = , 7 Y 7.Y N K n.W.'.`. .} `.[.} c V.ZXgXK , L H.}. X>.0 S.S.8.a 9 p m.wXtXL.A w A W.(.{ 7 9 L 8.S.H H G.@XL * , K ).A.[ B .._.).7.G a T XXDXgXA.Y a gXZXuXA.7 w G.H.+.F F ;.S.n.N N p [ +XqXm.] U M ] A b.cX0X| ..7 F.ZXqXK G :.",
"7 G [ [ [ A M ] G.m.L N 7 0 S.3X X{.3XoXH , K F.XXU G 9.4XFX5X}.e.3XhXBXK.H G S.4X$.G D ; e 1.$..XqX2XdXOX1.8.D 7 e J >.:.:.OX@X0.>.= 7 ;.e * * q N.`.N.p.M w ..B.B.p.x.z.[.kX .V p. .x.M.z.^.[._ p p A ..(.qXtXaX).D oXAX0.6.P._.fXbXKXbXm.B.~.~.Y.y.y.z.Y.-X*XQ ^ OXzXg.w K F.).qXL.+X+XP.wXL.m.G.+XzXlXT.u.B.u.`.N.N.N N { 8.l s T B ..] u.i.E.y.T.].U , G K..X.X:.D -.Z.G.@X-., ; , L P.S.F.D.,.v K L G ;.>.* * < u f 8 0 D { N.0XaXN.<.0XzXJX'.f.W.0XrX+XF.).7.L.9.F.).-.L.@X).-.e N -.-.N F.aX(.] M V Y.=X^.eXR.Q b.].).n.K 5 1.1.:.w K aXaXbXL.w K _.wX_.] b.+XiXNXFX5Xj k 3. X#X0.>..XCXiXXXH I |.>., a >.H.}.2X8., a >..X:.P 8 f ;.f 8 ; ; ; +.-.q v J D +.e ; 7 e K K K 7 N ;.H y < # = e Y <.F.].].`.`.M.y.Y.jXxXR.W K iXZXF.7 = G P.S.S.f G H A.A.T K <.V.V...S M Q B.B.| N w 9 0 D H q.pX@Xa * 7 e 7 -.<.w w { <.B , G &.8.2XiX8.9 7.gXvXsXF.9 N .XH.y < y >.@X@X[ 7 7 K (.qX)...K V.| M M | C.m.n.w <.aXgX1.7 ; ",
"9 -.<.7.).7.N B F.qXL.N = 9 >.>.d j K.3X&., 7 Y [ K Y H S.AXNX6Xe.r.K.e.&.f Y >.Z.Y D e = 7 >..XZ.P.:.P..XZ.2X:.* 7 7 :.P.1.L H 0.{.e = G G e N v b.W.W.T.} A l.8X8X~.b.Q p.[.B.} R.M.Y.[.R.*XmXl.5.| ] | [ ..F.OXL.G >.A.q.5XpXI.1XbXLX1XS ] V.V.eX`.V R U.=XR.V | ].jXN.c v <.V.+X+XaX_.P.bXiX[ (.aXnXjXM.V R y.`.Y.N.C N <.F.l 1 9 B L. .Q E } E T.'.A ; T .X2XqXn.w N 7.).@X-.e 7 ; w [ :.F.f.^ N n.OXS.S.3.# = < F >.;.F 7 [ 1XZXKX).<.bXKXKXV.] n.(.eX:X..K p m.qXtXF.B F.vXA.7 * w -.[ w Y _.L.| C V i.U.z.8X^._ ] b.<.B ; - N D / J n.qXvXLXwXB s _.wX_.b.M m.gXhXNXNX Xt 0.5X4XP.A.1XZXiXA.a -.sXA., 0 H >.A.@X1.* = a Y L P 7 7 L f 8 * @ * D G ; 5 ; +.2.-.e ; v ,.<.{ K N f H O.k > e G :.(.0XeX*X`.a.` a.=XxXxX*XM...n.F.A.-.e e -.S.S.0 7 G XXgX1X<.U M w M M Q } p.b...K a ; * 0 9 >.pXsX:.a a 9 , { 7.w ; M [ U a 1 , a T T a 9 G.K.S..X7.9 9 H F @ X 0 8.pX2Xa 7 , 9 K | ] A A ].7.K w 7 K n.[ w G 1..XA.9 * ",
"N L.XX1XZX0XU K B _.S.a = i 0.0.d I 6.>.G 9 9 w N K Y 9 f H.w.0.h i h 1 h &.q.9 f 1.8.N ; 7 >.@X8.1.D S.uXiXgXZ.* e ; a Z.Y 7 ; h j < # = N -.-.[ ] ..W.0XV.| b.b.b.V.b.A  .eXcXu.`.[.*XeXY.B.eXY.[.B.} Q w w | F.m.G a a >.5X|.h 9.2XgX9.9 [ b.N.].N.A u.=XT.! Q } ..M...q 5 N [ b.(._.U B XX1X{ qXZXlX*XR.a.y.i.U.u.u.M ; 7 9 p 1 , 9 n.| A M Z } `.W.N w <.G.@XiXF.7 7 <.F.-.J w w N G J L G.V.] w n.vXVX.Xe + = u 3.#X}.;.a A.cXKXKXF.[ fXZXKX,.A ..p.*XtXf.w N (.aXaXF.B b.+X[ ; * w K B 7 w <.L.'.Y. .` ` z.`.[.p.A A p 7 * ; 7 9 [ -.1XqXsXvXn.N w F.L._.J., 9 |.5X X X XH q.oXoXP.F.].tXaXK N m.(.A.{ e 9 a G 1.$., < 0 9 N e * ; F D < = ; 7 J D 5 5 7 H H >.J w ,.F.n.^ 1.-.7 , 2 4 4 F $.8.D.f.| p.E.y.i.=X8XU.a.Y.R.] K K { / q v Z.A.[ ; a <._.sXsX).:.U ] l.B.M.p.A  ...K e ; , g 0 7 -.G.1.G N 9 w a N p w w M B a , = 1 , = , a T H H :.D = 9 , 8 . * e $.oXXXw N 9 w A M ; ; N V.n.n.b.U B K K [ n.-.a D e ; ",
", S.@XiXKXwX[ K <.+XZ.G e f 0.S.6X}.#.1 , 9 w w / n.Z.K D G 2 f 1 > h i 8.XXoXa 9 [ [ e 7 7 K F.1.L Y 8.XXsX2XS.a D = e :.D a Y 0 = f G = N n.<.<.A K (.qXL.7.F.] M ..V.b.p.N.N. .}  .M.T.u.Q p.p.B.b.} } c q ^ g.-.1.G.$.H e.e.1 i &.K.:.w G N m.[ ..+XrXN.| T.W.u.C Q  .A 7 7 w N <.7.7 ; n.XX+XvX0X| p.eXkX=Xz.} E p.p.7 , = a Y K 7 { ..| ] | ..W.V.] f.:XaXaX+X<.7 = w N 7 a a G A.).{ [ L.0XY.c M b.(.Z.7 = ; D S.XXG.8.1.P.1XqXqX[ p F.].tXK A ] C ).JX:Xp n.aXcXtX).[ ] N w ; ; 7 v J K N B <.'.[.x.W ` z.B.`.(...w 7 9 ; X * w <.[ XXaXqXA.p B w p B _._.7.s G K.|.0.k 0 d H :.7.<.p.l.W.A ^ f.^ | <.J 7 e 7 a Y $.>.f w G a , = 7 f e f 0 e L [ / J L v e -.D 7 ^ ] A N n.9.0 + + + @ = 8 g G N c A u.^.*XHX*Xb 5 ` R.] M 7 q v 5 7 / Z.,.K 1.F.n.qXvXXX9.n.(.'.(.z.Z V N.F.[ e , , y +.7 , 7 ; 9 G a w 9 w U { K w 7 7 f Y e ; a G 9 = 9 G L , 9 1.>.F 0 d f a :.L.:.K M { ].W.c ; c [ C.F.).).K N F.sXVXG.7 = , , ",
", A.1XiXCXqX<.[ 1XsXL.8.q.#.q.4XAX5Xe.S..XF.K M J ,.D.1.:.f = f I 1 0 a >.K.XXP.Y w 7 N / J K m.:.$.Z.:.L :.1.Z.S.L a 8.Z.-..XNX>.i 0.8.; a n.1.m.[ K [ [ [ L.vXV.| ).0X<.M c ^ ].^ V C ( u.E Q W `  .p.f.^ c c J 1.>XOXH d >.e.#.1 # I 8.Y G 7 -.A.uXZXqX] ] tXjXY.Q } b.b.^ w N M { <.w 7 :.)._.].] ; ( xXGX*XY.` W p.(.] B 7 w n.1.7 <.F.).(.(.] ] N.N.`.mXLXqX<.N w ; = N <.n.F.n.1XgXA.[ ..Y.[.p.V w M b.n.K a N <.m.n.(.wX_.<.n.m.U p A U [ w | b.^ W.nX0XK 0XnXaXqX].b.K w ; X ; K n.F.m.a , B b.[.M.V ` Y.z.^.*X<.7 , 0 7 9 G 9 K [ F.F.9.B B _.m.9 9 +XvXwXU 1 &.}.r.j > @ = B | Q V V b u.u.E C C C ] K K 7 7 D >.&., w K L K , X 7 D q.f e D g.W.| J 7 7 -.N 7 N w c K n.S.$., # + + @ @ = f :.n.f.} eXmXmX`.c q } '.f.C 5 5 w q - - C <.D.n.<.{ wXZXfXm.{ ..]  . .V _ `.0Xn.H 0 = # F L L 7 * G A.-.a G K K ] ..{ K w a Y G ; 0 $.Y e 9 = 9 f w.iX}.H $.>.$.a 9 G { ] M [ 0XrX..c K K { ] <.F.B N uXLXiX-.e H >.>.",
"-..XqX1X+XF.[ K n._.F.oXpXS.}.SX5X5X6XhXKXvXf.c q C / K L e = $.I.&.1 1 a :.A.XXn.a 7 [ N.,.] ,.OX2X2XA.e , H -.8.H :.}.:.8.VXgX&.I 8.f @ ; e [ G.m.[ 7 , [ iXKX(.{ ].+X[ N | tXzXf.j...^ b.j.p.W V Q l.E.h.) q 7 <.+X1.e O.e.}.|.*.> i K.oXP.-.0 ).CXiX<.N [ ].mXY.i.p.p.T.'.V.[ A [ <.[ K K :.L.F.^ w } =X8X=XY.i.! Q N.| <.B q F.G.B L.1XqX2XL.M w | h.!.>XrX{ G -.7.p 7 { +XiXCX(.L.iX(.{ M W c././.` M N.0XV.[ N N | T.jXKX1XB 7.L.m.7.9 w K ] '.].| n.0XW.| ].+X).G.n.<.] K w ; 7 ,.OXOXn.e 7 B ..`.~.~ ` U. .B.'.[ 9 e G K L.fXG N 9.m.:.B 7 [ aXaXN w F.fXm.B h h h #.*.2 = , [ l.Q ~ s.b a.U.} V c C ..f.<.9 ; 9 H T 9 7 N K n.L * 0 ;.S.D 8 e 1.)./ w ; ; Y [ <.b.w c ] [ 8.8.0 $ 3 3 $ @ : =.4XCX+X] ].bXcXN.C C ..(.] | / ^ J q q J 6 / g.] [ ] 0XaXKXI.[ B M _ M. ._ N.V.7.$.d # + ; L S.-.D F.iXOX-.Y N w B ..L._.Y e G L , 9 8.}.S.L = i 0.4XNX|.>.S.}.K.:.9 = p { A ] b.f.^ ^ f.U N w B K 9 w Z.2X-.0 D q.@XpX",
"P.1X@XF.[ G 9 , -..XXXgXAXq.Y w.3XSX|.>.F.@Xn.v / <.-.J L H f K.3X|.a 0 H P.8.9.Z.{ { <.f.[ C 5 1.oXA.Z.f , A.8., 9 8.1.; ;.sXY , -.Z.e 7 7 * J Z.F.<.w 9 L.bXgXL.w U <.N w K +X+X<.qX+X[ n.).'.E q c u.E.R.h.c q v 1.F.Z.q.q.oXoX3Xf = >.5X4X0.+ G q.9.G 7 w <.tXB.l.l.X.V.bXnX[ N N { Z.,.e N ).).,.M q c ! R.=X=XB.} T.W.wXF.J +X+X,.qXiX1XXX{ p w N ^ h.h.c 7 -.iX@XB 9 Y :.aXFXA.Y ).@XZ.w V ` z.=X/.W p.].Y...c q Q ].GXLXfXs F.2XwX.X7 , XX1XvX+XK | '.'...b.{ ..{ K ] <.^ { ] C A ..b.f.U B K B b.[.z.M. .A ..V.{ T 8.A.{ m.ZX<.N Y Y n.U 7 N A.@Xe 7 U { p T 8.0 = 0 0 > . # B ] M } =Xh.u.'.!.q c N.,.V.<.w , 9 L A.K.7 7 a .X).N Y Z.n.v e N f.'.| K 7 = L 7.tXtXw w A w T $.#   4 k + + = %.NXLXaX<.F.nXbXN.A M A ,.'.| v ,.:X'.j.u.f.b.F.N.+XF.tXqXgX9.U U A  .M._ c c M K Y f = = ; e <.<.{ G.aXqX+X..B ..L.).wXDXG [ F.:.9 :.2XXXuXXX8.G.XXXXuX4XiXBXiX3XP.a = M [ b.n.[ c w ^ N.| p N ] N 7 7 ; D f Y $.H H.SX",
"+XwX_.:.G 0 = # >.oXVXZXiXn.[ 7.}.|.#.G Z..XZ.w J Q.sXP.P.S.h >.$.A.a = 0 G 6.P.w.A.-.F.:.N j.r g t 0 >.G , Y U 7 B , G 0 f f 7 Y XXG.8.H P ; , y Z.>.G G G.vXL.:.p 1 B <.9.<.8.Y @X@X-.G -.1.<.c c c Q p.Y.`.~.M 7 ..<.N G 0.4X5Xe.f + + j e.#.> 0 h 9.H T p 7 U s B N p C.vXaX..[ C 5 ^ ^ - ^ V.W.j.b.f.c Q W.[.`.0X(.~.8X8X_.<.K J a G.+XqX(.n.{ 7 ; K <.K 7 D 4XgX7.B 7.9.T 1.H f 0 1.4Xq.s ^ Z } E.p.! ! ( h.p.c - C ).qXaXA.8.K.hXfX6.1 = K.iXZX_.[ ] N.JX`.A q e 7 ; 7 J w h.h.Q y.z.` W w S M M p ] '.V.[ A K [ L.oXq.n.F.T.0Xn.N [ n.F.9 @ 7 8.m.K N G G 7.L.9.N w D G 0   2 f f -.OX/ N n.F./ w 7 N <.).K ; * 7 n..X>.0 i Y P.-.9 [ (.(.} C Q | b...B 7 = a 9.A.<.U B n.:.L e * . : g $.7 = K +XOX<.] n.(.f.n.7 ^ ] n.W.D.N M ] tXeX~.Q } (.0X].e :..X}.9.G N ..T.l.V c W } M.M.C ; - q c } p. .].cX'.[.] U V.1XfXbXqXm.iXvXF.e e 1.uX@X-.-.L.L._.tXqXpXpXDXFXG.7 9 -.m.A <.^ 7 M } *XE c c ^ <.g.n.K 7 < g 2 0 q.$X",
"qX1X9.a 9 9 , = $.G..XXX+X<.w p -.>., = L F.G.L w <.1XgXgXA.a B a Y 0 ; 9 0 f T H G 9 -.:./ D.D t + < >.H = s { 7.<.; 9 ; 7 , @ G XX@XOX>.;.0 = X 7 0 G Y 1.F.G 7.s p :..XI.>.a 9 Y >.L a 8 7 v j.( c V u.~.^.B.w w A p = , f 8.&.&.&.i + > k 0 + # 0 G a T :.{ , , , , = B n.b.).+X] c Q c 6 n ..j.f.N.j.w c N.| ..~.[.8XMXtX].9 , = ; -.).+XD.<.[ w 9 -.A.Y 9 +.oXuXm.{ I.3XF.L ; @ = f ;.h a n.A Q u.E x x E u.) n q 7 w J K 9 H w.2XpX|.h = 0 :.9.w w [ ..f.| C v e , = ; ; q j.N.a.a.z.t.W w Z p p B ..1X0XA.Y G L 1.:.a K A ` ~.b.M N [ L.n.Y a w L F.F.Y T B U { B w K >.I 1 3 3 g ;.Z.-.D L L [ 1.1.K 7 L v 7 7 e -.n.>.= 1 0 f , = [ ~.p.p.p.Q w M <.F.U G G G Y { { [ ).F.-.e = ; +.H.:.K w N n.F.b...n.n.] b.w } ] ..F.m.C w c x.B.z.Z V p.tXqXN e D 1.:.D 7 ] '.Y.V ! } M.Y.p.C c c 5 c p.l.V } [.*XeX..S A C.qX<X] +XKXKXF.w 8 J / -.7 ; a [ V.(.7.G $.G.S.e @ ; K c [ '.N.E Q ` i.Z ^ ) ^ f.'.).K ; # ; # , 0. X",
"L.F.<.a , 0 g H $.>.Y <.+Xn.q 7 N 8.[ a w K N.W.n.n.<.L._.L.L.L.D D G H Y G f f i 9 + 7 e / Q.1.< . t $.f 1 9 G m.m.N a , , = X 9 L Y L a $.f * ; y 0 e 0 9 L K 9.7.:.9.A.9.H 7 a D [ Z.1.e 5 J `.h.C c E b.B.b.w A 7.{ Y L 0 G H &.S.K.*.#.#.j # 1 H { L.wXaXL.U T G 9 7 p [ <.0XZXN.^ ( q x q C Q p.W.N.V c b.] _ .._.tXcXtX(.s f 9 9 w L K e J K N G A..X8.H L 1.}._._.fXCXXXf = * * ; 0 0 Y n.N C h.j.b x b ) C ( / q 7 v a = 9 I w.}.w.h = 1 G -.w 7 A ^ ..| ..<.L 8 , , ; 5 J j.h.U.i.` `  .V.o.M A [ F.+X7.a , , e 7 + 7 w Q `.(.| N L uXiX:.9 7 w G n.).U 9 N 7.[ 7 7 a h d # # 0 g 7 ; - e -.Z.G.Z.G ; e K L L L D e P , a 0 , = w ..X.Z l.[.b.p N ).vXwXP.U p :.).F.{ F.n.[ 7 X = +.{.F.F.{ N [ L.].+X1X(.<.).| ..c w ,.<.f.Q Z Z i.z. .Z Q mXvX[ ; @ , a 9 ; N V.B.V } } B.R.} ^ N.W.V V y.p.Q Z } l.`.(...B A (._.] K V.:X).n./ J v N J K M M A  .] 7 ; 7 w w w v w ] ].eX[.p.W Q } ^.`.M.( | W.j.v ; ; a a e $.#.",
"K 7.K.9.9 9 $.}.oXS.Y 1.qXn.7 7 M ).0XF.C q | '.W.(.| b.'.fXKX_.N 7 G q.A.8.G 0 0 Y f 8 q [ OXG.8 # O.g a :.K p [ F.L.F.Y f y d H e 7 7 7 +.$.8 +.q.3.D = = H P.2X1Xm.U G U B 9 w 7 N 1.n.v 7 K N.M...M w C ..V.M U 7.9.K.:.= = A.8.S.6XNXNXoXw.h a T U 1XbXfX{ 2XwX_.[ N B { G.'.bX'...f.) C c E V p.'.'.p.^ V.B.] S 7._.<X].9.a H G :.a J w e e K J D :.A.9.Y 0 , G m.I.2X1XT , y +.8 = 0 f [ K v ^ W.*XN.E 6 q q | ,.w N :.Y a , 9 $.#.a a I 8.G -.m...N C W.W.Q.).8.e 7 y r 5 w ^ h.E.z. . .[.tXV.] U p B <.[ 9 = * 7 7 X * w } '.+XF.K K sXgXY 7 a e 7 { 1XY s [ ).F.N 7 , w.&.3 > + 0 7 7 X e A.G.>.G e 7 D -.Z.G..XL 8 G D 8.9.{ <._.[.M S B.eX].b.V.wXbXDXwX{ B m.+XL.<...[ L a * . 8 3.@X+Xb.N K F.qXbX+XF.n.tX'.(.] N c ] ].`.Y.W z./.z.` W cXbX(.N ; @ = 9 G [ ..] C Q V u.N.} b.lXnX| ( | E.M.C c M V.[.F.] ..1XfX].<.] N.zXvXD.K J / W.(.f.A M A l.[ 7 5 N  .f.Q q } R.B.8X*Xi.R.kX=XY.i.W } M.b.V.7 M A.8.H a 9 ",
"7 Y P.S.0 , $.}.S.$.f 8.,Xn.J <.w V.(.W.} c E p.*X*Xu.b.[.jXmXb.N ; Y .XiX4XY 0 , P.}.K 5 N n.1.g = f f >.4X.X:.<.).fX@X8.Y ;.q.q.$.$.D e H ;.F g $.3.3.H , d XXDXwX9.N G 7.[ w ; ; ; N [ N 7 N f.b.f.C 7 w X.L.m.T G H 8.-.; 7 .XA.9.K.iXiX}.w.K.9.:.s 7._._.M +XiX1Xn.K w B <.f.).'./ | N.| h.h.Z p.`.].`.f.(.V.K 7 K m.L.].7.a f f q.1.>.N J -.1.L 7 7 a G Y D # = B T 9.:., * f 1.H , , 9 G [ C J ,.F.'.f.5 q C g.:.D >.G.-.L 9 f $.f a 8.5XgXa p ).tXF.^ | n.1.Z.8.d > y L m 5 v N.'.Y.u.X.C.wX(.C.<.w 7 G <.Y a ; e H , * ; w ..n.<.v w }.uXS.H 7 a Z.).n.a a -.F.n.[ P D w.&.r.K.f >.1.L ; e 1.S.>.P 8 X 7 H D.sXAX}.F L Y +XtX0X0XmXbX..A ..(.L.7.F.2XiXfX1Xn.U U ..(.qXW.[ K :.L 7 r >.qX_.{ p B <.).tX_.V.V.qX].).n.<.c | 0X*X^.W i.^.x. .M (.+X+Xn.L e , G K.L.K M | Q c ] f.] b.lXbXc ^ h.`.`.Q 7 M (.V.[ B b.tXvXwXM.c q | N.^ q q ) p.M.p.} Z Q M.~.Q V  .p.} _ W W p.i.eXxXY.^.eX-XR.z.W } Y.B.*XA A b.b.[ [ Y ",
", 9 -.>.9 , H 1.f , ; G 2.L / F.w ..b.M.^ q b } mX*X} _  .l.b...G , $..XCXNX$.a q.CXgXG X ; K >.>.# = H S.gXVXiX_._.qX7.Y G $.8.|..X}.f 7 F {.}.g ; 0 q.}.g = 8.@X_.m.[ U <.{ B w 9 7 w K ^ C N F.f.] K N M [ m.L.U B G 8.F.:.A.P.P.m.9.9.:.Y :.3X2X2Xn.<.C.V.K { n.L.A.[ w q q K / j.c n N.N.>XT.V } u.h.W.f.V.V.{ 9 { _.wXCX.XG 0 9 $.P.@XZ.K G.G.L * X , G 8.Y ; # > 9 B U B = , %.;.e = + p <.K q 5 N D.Q./ v / g.[ G Z.S.L D L q.8.a H XXgXLX-.{ tXKXbXb.q N q D >.f = 2 $.r - q f.N...A w U V.m.F.n.e 7 e Y Y G ; 0 $.y 7 ; ; N K B 9 ; +.1.A.>.7 q F.OX:., a 8.G.D.n.>.H 1 > *.|.h :.).2.v e -.G.Z.-.e o ; D .XAXLXOXL J <.tXnXtXJ.[.jX[.A M B M 9 K K.2XiXL.7.] A <.tXKXqX[ N <.F.-.P -.L.9.B 9 U b.L.+X7.[ { n.<.n.G.).| M.*X[.M.Z ` z.z.x.Z } b.F.D.[ a = i P..XK N n...A ] ..K ] N.F.6 ^ ( N.rXN.q w | ..N 9 K b.m.F.M.Q c b } p.E q c Z u.z.Q V _ B.Y.V c ` z.M.Y.^.p.B.B.*X8XR.M.p.R.9X9X` p.8X~.]. .M A ..m.).n.",
"e , G ;.7 ; f D $.L $.D - ; e N w ] ] | K 5 q Q N.Y.b.A A A p ] Y 9 D H P.oXa a gXAXuXG ; 7 P .XH.2 @ f 8.XXVXaX_.F..XG f e f $.oXBX4X, 8 q.SXpXF * * f S.>.# e B n.L.7.A B ] { ] A w M ..f.^ C ,.K K ....K G { U B T G <.2XuX1XL.).n.<.A.8.Y -.A.1XiX+X..b.b...{ K <.<.K B v ; q N C q q ( W.>X!.V ( Z E R.N.T.W.m.N 1.@XsXDX.X9 0 0 7 Z.iXaXg.n.Z.L = # 7 H 8.D w 7 7 1 1 s H e , F +.D , @ 7 { A 7 * ; [ D.2.v J D 7 9 $.1.L a T .X|.G a A..XCXn.L.aXbXvXN.7 7 * , h 2 # < H r * 6 J N w B K { { J [ K 8 e e e f e * ; f d P / C | K e e 8 0 0 f P N 7 J g.1.a Y G.@X.XD.-.f > $ 1 > @ 9 F.).L e -.G.F.Z.:.7 5 P ,XAXuX2.J J V.tXjX*X ._ [.8X..M 7 , , 9 { 8.P.{ 7.b.{ [.nXeX'.] N [ 1.-.K D 7.9.X.B 7._.XX).7 7 M A K ,.).+X| p.B.`.M. .W ` x.i.W Q ..] ..K , # 0 A.XX9.K U <.{ [ [ N w w A | W.,.,.rX).q ; w ..<.K [ <.[ [ M.p.E q x V c - c W E.Y.W W i.x.} c c  .`.rXmXmXp.Q p.`.[.[.T.T.M.*XeX .`.KXtXcX(.M M [ m.).7.",
">.G 1.Z.0 # , ; >.Z.G.P X 8 2.G e 7 * w / w 7 ; M n.N.; ; B N m.L.-.G , :.P.f >.8.1.Y 9 9 9 a S.{.*.> < a :.uXF.n.7.3X:.T f f $.K.BXoX. e oXuX$.= = = = >.S., # s { b.{ B N ] ..(.n.[ <.(.W...^ w q K F.m.B p G { :.m.T Y sXDXfXF.n.K ..aXVXP.:.F.@X+X).] V.'.+Xn.e w v 7 w B ; 5 C q x q c W.!.=XQ u.Z E *X].0X(.G.N L n.G.uX-.f 8.8.* e Z.OXJ L -.G , ; 7 9 e [ m.L.m.T 9 1 G H y g 0 e G 7 = B M M w 5 q e 7 1.-.e - 7 L :.8.a a P.uXY 1 Y K._.p K F.).'.} ; w = ; 2 # + # 0 L 7 r v 5 9 7..XZ.K ; , 7 7 P L f f f = * 7 y 1.OXF.Q.,.q e 7 * ; ; 8 e N [ ,.K N e J [ K D e , @ 1 h 1 s w { n.n.w N n.(.qX).N 7 K qXvX<.w J ..V.[.[.[. ._ (.<XwX{ s a a 9 9 , 9 p F._.| (.eX .....| [ / K N w 9._.J.T m.2X_.<.N B ] A v v J N q Z } =X^.Y.Z c V c M Q b.A ] J 9 a >..XuX.XY ; [ -.[ K w ; ; w ).JX>Xg.'.f.; ; w m.(.(.aXaXm.C `.M.R q 6 c Q i.Q R i.p.` Y.R.V M Q B.'.'.qXZXKXb.7 ..0X+XF.[ n.rX0X0Xb.0XDX1XbXwXU p s T 7.:.",
"g f e $.S.$.; ; e Z.1.L 7 e G.S.>.7 , $.>.9 X * J ).L.L.G # :.P.oX8.-.7 * D :.L = e a D L 9 9 $.oXpXpXS.G a L :.7 a w G A.P.>.I H 0.G , L q.1.8.P 7 # 9 Y g > = G n.).tX).(.<.<.cXV.] ..].rX:X'.q 5 N <.gX).Y , p A..X9.T { n.L.N.A A 7.m.7.:.Y -.3X@XY A V.0XrXn.n.J - - N ^ v - q v ^ C q c C T.=X} R } B.:X(.] 7 w 7 w K a Y A.iX@X7 @ 7 ; q 7 7 [ 7.8.Y 9 , B V.1XL.U s G :.S.}.{.S.G.-.9 = 7 K 7.<.K ; ; P VX.X-.9 7 :.).8.9 <.uXfXCXY p T U :.[ <.A w ] ^ K . , H 3 d O.= D 1.G.2.J 9.2XhX.X).D * 8 0 e -.G D +.L , * H }.,XZXLX).J D y f ; * L 1.J K C q e D P 7 K [ g.H 1 6.|.I 3X<.{ [ w C.qX0X].].F.] b.7.] U V.0XF.] M ` ~.^...Z A C.).1Xn.T G T 6.T = F.KXF.M ] ] | f.0Xb.7 w <..XP.A.s s I.bXfXL.U ..).'.| w c C C C b W p.l.x. .Z 7 p. .Q w c (.+XF.Y ;.AXFXuXT 9 , P.@X-.N 9 w <.G.dXQ.g.,.v 5 & q <.qXbXZXvXL.N | u.} R c V z.=Xp.! V Q U.^.z.Z M n.aX).:.w A.sXOX9 a 1.-.1.Y # 7.wX_.G K <.:.T , G Y , ; :.S.",
"H d , H }.Z.e , * -.G.Z.e ; H F H = = >.S.;.e 9 D S.}.}.$.< &.S.>.:.L 7 @ 9 [ J 9 a -.P.P.f 9 >.5X5XoX|.}.P.F.A.B N N 7.1XwXA.I 0 6.8.H Y 1.n.G.1.1.D = a 8.&.0 9 m.iXvX1X1X].].+Xb.A ] (.tXrX(.N 7 7 [ gX3X$.= = &.9.B s [ <...b. .] N w N Y K G @X1Xn.] [ V.F.).W.j.A ^ N.W.n.w 7 ^ ..j.f.C ) '.*XQ c u.'.:X..C ^ G.m.{ K w G Z.sXuXN 5 N N K C v { n.L.K.[ Y V.F.F.m.{ s s 8.NX$X3.2.n.<.B w M A ..V.<.7 7 >.oXG.;.7 ; Y L.n.<.[ 2XDXgXG 9 B <._.1XqXV.C } | n.$.g t j *.#., D D.>XD.D H 6.>.S.A.N ; G D 7 9 L q.H.$.y y ;.oXQ.aXuX:.e G >.>.; ; e [ D.n.w 5 e G 1.-.g.g.).S.h |.5XI K.Y [ ] M 5.J.J.[.0X[...V.b.5...C.0X0Xl.c ` Y.B. . .b.L.fXCXXX:.a H K..XG n.qXn.B f...] ] ].rX<.7 [ sXgX3XT U _.gXaXL.[ <.(.].b.^ ^ f.N.f.p.} Z Z p.N. .q ..V.p.M c N.0XA.D G gXCXoXY H , H qX@Xa w m.aXQ.Q.J 7 w v K v N m.0XqX0X+Xn.M c E p.u.Q c E i.i.Q V Q p.Y.p.Q w 8.CXsXA.7 >.iXNX>.9 0 G g 9 < #.A.T = = 0 0 9 G :.8.0 , >.w.",
"H.H = 9 Z.Z.w * 7 n.aXiX-.7 e r < @ < e.pX4XH.$.e H >.e.&.0 d &.P.oXZ.-.w 7 :.[ J w D Z.}.$.h 6.hX5XoX|.P.A.8.1.K G -.).XXP.9.H > &.S.:.N B { f.m.(.<.9 G |.3X8.a 7.@X_._.+XqX1XL.n.K N 7.:X].b.C N v N n.9.G > = T Y 7 9 ] ..] T.'.n.p ; K 7.Y e K.L.F.<.N K B f.N.W.(.'.'.'.'.^ 5 ] | j.N.c ^ '.>X| q M M.`.f.,.W.bXZXaXOXL e m.aXwX{ ..).F.W...N N K m.XXF.A...[ ] b.m.s a w.pXe.0 7 [ b... .A M A F.F.N D .X@Xq.G , = N m._.2X1.XXfXI.B a 9 U L._.].b.w c ] G.oXH + j e.Y 0 -.%X>Xg.7 9 j j >.+.7 7 >.1.f , >.oX}.f , 0 H 8.G.).J 7 w P Z.G ; , e :.aX+Xc q q -.).2.^ / Z.:.6.6X3Xh q.7.Z.n.M ..5.A M A ..5.0X[.[.(.V.].[. . .i.z.~.(.(.1XfXCXVXA.a , a K.3Xn.Y n.[ N <.n.[ M V.ZX+Xw :.AXFX2X8.:.XXiX1Xn.K ] W.'.| c E p.M.R.[.M.c M V.[.C.w ] (.b.M w ^ +XOXG e OX}.>.f $.D G sXvX<.K n.vXAX@Xv - 5 K g.K 7 ] n.<...7.[ M q ^ W.'.N.C Z } M.} Z Z } M.B.b.0 =.pXBXoXd $.4X|.4XH @ g $.2 # 1 g f 1 g Y g 0 >.A.S.g 0 >.Z.",
"pXw., = -.<.w ; 7 [ ).XX[ ; ; = @ + < 0.4X5XS.$.0 # 0 $.$., # f 4XiXZ.S.-.7 Z.G.[ G G Z.iX4X6.d |.6X3X6.a e Y 7.7.N Y K.P.F.7.G = H 8.[ w w M M ..,.<.{ <.}.5X4XP.7.:.T .XOX@Xm.K K N w w U K c ^ ../ N L L 0 = , Y L 9 w A | b.(.W...w 7 [ 1.a , H f -.-.9 9 ; q A M.`.W.f.f.N.] 7 M V C C 5 C j.W.| q q C ] | ..F.qXzXvXqX,.7 7.).(.{ ).nXrX0XW.A w w .._.(.(.A ..V.1XwX{ a 8.>.0 . * K <.l.B._ V _ V.V.B D G.@X1.L K G K C.wXqXF.m.<.{ 7.7.B p A A K A q q ^ qXNX$.+ I }.8.Y L -.g./ 7 > i h D m ; ; -.S.$.0 0.2Xq., = , 1 Y Z.n.; ; 0 8 Y 7 ; ; J n.:XV.w w N G.qX| 7 / G.:.|.XXw.I iXVXdXF.c | C.] 9 7 M ] V.V.V.L.(.V.b.p.~.` ` `.].n.L.bXiXXXH 9 a 7.iXgXG.D K K 7 B <.K [ F.nXqX[ S.iXsX8.H H A.).(.,.N b.jXmXY.Q y.M.i.R.[.f.V ..tXqXC.N N m.7.A v w N.qX:.v -.e 7 ; e , e Z.S.L.{ 7 m.OX2.5 ; w n.dXF.7 p B B B B M M 7 v f.W.,.M M | `. .M w A f.(.+X;.d H 0.>.y $.4XoXpXH . 9 H g G # 0 H 0.XXoXq.Y 8.8.1.e e 1.Z.",
"hX|.f , T 8.<.<.N w [ -.L e = + # + = y ;.1.;.H 1., 9 1.q.G 0 >.>.>.9 :.-.; / D.Q.Y a Y S.K.&.1 #.w.6.1 = G P.2XXXw = K L.XX8.p = 9 H U A K C 7 V M ] n.<.<.P.2XXXa , G XXS.-.w 7 B -.<.[ A M M ^ ..K J 2.8.f * , f Y L C c A Y.B.| N 7 ; 7 9 = # , = f H , 7 w ^ A E } ^ Z C } | c 5 c V w q q ^ C v N K N 7 q q A | j.N.f.A 5 A ] ] M p.*X*XtXB.V q 5 A V...] A p.(.0XwXA.G I 0 = . ; J K _ l.i.i.p.b...w ; a 1.K.@X1X(.7.b.(.n.n.s 9 :.1XXXL.K w M ..T.N.} f.dXuX$.# 0 0.q.-.q - w +.P , = > G G 9 7 H 1.$.0 f $.9 + = > = a :.m.K -.a @ L 1.J ; N [ K ^ M c M [ D.[ 5 ^ G.A.>.Y f H pXsXD.q ; c | f.| C q 7 7 w 7 N V.f.] ].p.c c | <.N N Z.1.$.9 a 1.XXvXVXZ.0 e Y e N ] 7 N K :.a , , , H D ; ; D <.m.f.^ N.rXnXjXR.a.a.z.Y.T.} A (.cX+X<.w , <.A.m.{ q ^ F.1.J D & * @ * X * e H A.<.w / ; ; & * 7 n.aX(.K B B K U S p w * 7 L g.<.B N ] ).[ 7 ; 7 / Q.uX0.< . # = # d }.4Xq.G 8.:.; 9 [ a a -.G.@XoXn.K Y K J 7 q [ { ",
"3X3X>.a Y n.(.0Xn.A K -.n.G.$.e 9 , = ; e -.n.F.:.7 X 9 G 9 0 H G H e >.:.* ; N 1.7 ; G I i 2 1 i h 1 @ 9 G.iXuXF.a = 9 U :.G 1 # , 9 B 7.V.} c c c } ..N G 8.A.$.= ; 8.iXA.e * G A.sXCXiXF.{ U n ) x 7 q Y H L 0 D >.G.b.c b M.`.b.<.] , @ , f 7 7 e Y ;.H L F.bXY.C c Z Q } b.M.] w Q f.} Q q / w v B J 7 - C ^ K q C | p.u.V c A Q c c E } rXB.Q E Z u.T.} A Q A _ C.1XfX3X6.# * ; y K c C B.x.x.i._ A 7 * * G iXKX0Xb.] A A K -.9 s L.vXiXbX7.M b.cXKXmXR.f.G.Z.G = , :.G.n.K - - L -.g 2 3 H -.;.H L q.q.Y f a 1 1 I G 9 9 n.G.A.OXZ.a A.uXn.7 w w w  .T.B.[ w N f.c v K L D i > = H +.r o - 7 ^ <.[ N q v 7 w * - / / / :XV c c M K B w ; D $.L 1.Z.m.OXXXG = = H -.<.<.7 B B [ a 9 , = S.1.e ; 7 J g.n.| ^ Q R.xX*X~ R z.`.W.K M F.1XF.:.= = Y XXqXD.w 7 w J P D & ; ; ; ; * r -./ [ ,.v ; D D e w [ ).m.] U A o.o.A M w X ; D 1.A.:.K p m.U 9 , 7 N 8.@Xg 0 < g , = ; H -.D [ fX).w N N K G <.).@X).<.w N c v 7 q C c ",
"K.4X}.:.:.n.).tX(.K K Y G.gX@XG.1.Y N a K <.W.:X).N.w p U { L.7.Y 8.Z.F.A.J q v q - G .X}.*.i > 0 1 1 0 H >.q.1.K [ U B s 9 9 s a G 9 p b.Y.u.} R M } b.A U 8.9.Y 0 g 4XCX2XY a Y L.sXbXgXqXn.A C | v 7 * D >.@Xq.Z.G.+X`.^ V } W.V.).(.G ; D S.$.0 H $.Z.S.$.).JX=X} Z E } p.Y.N.p.b.M.B.V.} A :.K -.L J w 5 ,.N...q C f.M.W.p.C Q  ._ W c c [.=XR.`.R.*XyX`.B.b.Z ] L.wXKXDXoX+ , O.Z.g.N Z ~.Y.z.' Z ] N , = G @XqXb.] ] Z M b.L.<.7.F.bXbXbXn.p ).KXGXrXM.Q Q.@Xn.a :.3XsXdX).v - q Y 0.e.0.$.Z.G.:.Y S.oXP.2XA.:.S.2X5XK.Y F.).+XaX@XF.G.XXF.Y B q M B.*XyX).A N W.| f.:.D G &.h = , +./ 5 q v -.g.-.D / n.g.,.v ; 7 / Z.g.C ^ ] ] n.G.L * ;.S.}.@XG./ [ [ 9 < = e -.8.G.G w ; <.7.D 7 9 oXoX-.7 5 D g.n.^ b b E.HXkXt.R a.*X0X..7 U A.8.8., a >.iXsXm.v - - v P / - 8 D +.8 ; , 1.1.[ n.w N .X.X1.L Y F.G.[ C.b.A S  .X.w * ; 8 +.Z.A.L 7 <.-.-.-.G D 2.}.< Y 0.}.;.L e B [ b...V.f.Q T.| ..] <.W.'.].W.A C E u.Q R R x ",
"0.iXiXK.A.F._.fX].] K K (.LXKXZX0XW.<.| | ] | b.(.0XN 7 M 7.qX:.w 7.).Z.G.G.<.Z.<.K Y 9.9.S.w.h > i >.8.Y , ; 9 N n.m.<.7.{ U m.L.).U w } l.u.Y.} c } (.n.:.F.S.:.G D XXqXqX-.B -.L.@X@XiXVX3X[ g.N.^ [ L A.S.@XsXuXOX'.`.u.R E Q ^ n.(.Y 7 G A.>.# 1 0 0.}.0 L N.M.l.} E C ] p.b.b.yXY. .B._ N.n.L :.>.F.n.q w J ^ c C C c a.E.Q Q p.B.B.V 5 u.[.R.`.B.R.0X[.`.~.Q b.1X<X2X3X#.> H }.sX@X^ Q ~.xX=Xi.} M...N w N K K <.[.V.} X.qXgXfXP.U fXDX1Xb.w [.KX*XM.( V +XKX1XY L.gXsXaX+XJ - ; L oXhX2X1.L.(.[ N n.2X3XDX3XK._.bXKXfXm.<.XXZXvX@XF.-.<.<.m...7 V  .p.*XV.A M f...cXaX-.= #.=.< 0 S.G.m ; - r 2.D.,.) / Q.,.[ w - g.dX[ | } ..W.dXuXn.8 $.1.Z.G.1.w 7 = f $.0 , 9 G S.:.D + P.pX>.i 0 S.{.F ; ; G Z.n.K w ] '.mXeXa.W Z :XvXZ., w :.8.P.H 8.F.vXfX<.K 5 q J / / ; r H H.; G * S.KXqX+XV.<.ZXvX(.] w K ] F.cXtX] B B.B.M Y F f H S.oXS.H :.A.@X2XA.$.>.}.H q.A.K.:.F.n.m.7.(.| V.V.] M.p.`.<.] ] } W.*XB.E u.*XR.a.` b ",
", Y A.1X{ { { 9.P.1X7.<.].cXbXp.Q Y.[.kX=XW c w V.0XJ.w 9 <.)._.B B T [ qX1XB _.F.P.:., , i K.K.H I A.4X.Xa = ; [ n.DXnXC.A A (.nXmX[.S C l.`.JX*X| j.'.g./ J ; J | ] | W.W.f.M. .[ <.2XDX5Xe.w.F.OXrX+XD L [ ).KX<.J h.p.y.y.! c E Q ^ [ w a q.6.# > # h  Xh = , w l.T.Q q c N n.+X:Xb.C A B.0X<.N w -.OX.XL ; D / v 5 V } } U.W ~ W i.p.q 7 w [ V.F.].M.N.M.T.(.]._.m.T 9 1 a #.NXLXAXsX[ w '.GX8XV c } N.Y.c q q q Q T.N.l.[.fXBX2XP.K V.(.(. .V M.*Xp.E | } :XJX+X,.<.7.G.>X-.K [ V.:XnXfX<.V.nXtXX.B T 7._.bX1XC.C.8XmX8X_ N F.@X+X).m.K w f.W.F.^ w C f.N.T.Q c A F.bXuXG = 1 >.h = g ;.;.0 ; ; v [ | | ..| | N.N.^ C ( ) Q q V N.'.(.n.L 7 e 1.P.>.; 9 8..XNX8.9 f >..XS.>.9 a 0.*.1 # # j %.t . X ; f -.-.Y -.A.G.m.<.<.iXP.G = = , { 1XL.] V.[.~.Z _ S 7 { G.[ v - N g.K [ a a F.fXwX1XM `.`.b.<.N w 7.+XZXcXn.n.].V.A F.A.G p I.gXXX{ 7.L.1XsX+XN w F.-.9.[ B N 7.wXqX] p b._.V.{ M _ b.b. .q c C p. .} B.`.M.` i.z.",
"w K m.1X{ B U A.L._.7.[ } } M.Q V s.U.8X=X` V M ].mX1XU p { L.1X[ 9 K [ 9.m.p U _.P.7.p , = :.A.A.L G Z.XXG.Y N <.b.cXmXV.] A B.xXxXxXY.T.tXcXKXzXj.,.D.k.-.v 5 c | u.p.E.E.a.a.} A K F.6X}.r.6.-.'.aXOXN / -.F.F.c q ( y.d.y.y.c E E A K w 9 T a # > = i 0.d # p w A ] M 5 q L / n.W.f.K A | b.A N w e G H 0 = , F D q w w c ` t.s.! _ C 7 N [ { 7.n.).M.p.E E | F.m.T B s T 8..XgXVXVXsX-.7 ,.*X*X} Z } M.T.Z q A E Z  .Y.N.{ 7.6XiX1XB A _  . .V } ^.M.p.p.C M.`.W.] ^ [ <.).g.w J '.tXeX[.l._ [.`...7.9.{ 9.m.m.C.l.B./.x.~ f.n.<.n.F.n.C w | N.h.V q E j.h.B.] | ].ZXbX8.= 9 > H H < 0 d H 7 , 7 B K C Q u.=XeXlX>Xp.C n V c q c C ^ | | ] 7 7 K 8.:.e 0 Y XXvXG.[ 8.P.2X|.I > > H j 2 # + u u 4 > = = , h Y 0 , Y XXoX>.9 6.w.6.h 9 9 n.bX(.b.B.B.S S _  .w ] F.n.f.w c ^ f.<.N w T :.I U c Y.`.N...K U G.(.aXwXL.7.<.N._.T 7.T T m.1XA.T [ 1XaXG.-.J C <.<.n.{ B w ] ]._.M 9 ..5.S w p b.[ V.b.; 7 M ] A _ A C c c E i.",
"B K [ L.7.A.7.7.XXwX1X(.^ q Z ` V t.i.R.[.p.} } b.(.C.U K [ 7.F.[ @ N U w G 9 = Y { 8.A.7.> G :.A.a ; G .XsXuX.Xn.[ m.F.[ N w ] [.kXGXeX].cXnXJX:X^ J J ,.-.5 e N f.N.} ! Q Q Q ` Z U m.K.&.i 2 a <.+X+XJ J N :.,.N q n E E ( y.E Q b q C K N s 9 s T h a I h # w w 7 7 N e 7 5 q L 1.n.<.K B N G Y G , = < < = u ;.1.>.J 7 q } =X9XY.` c N L.1XL.m.7.+X'.`.} } A F._.L.8.8.K.3X6XK.>.8.:.8 7 [ aXnX0Xb.K A ] M w | n.] K b.<.w T |.gX2XK M o. .Q c Q M.p.p.} c V _ (...N N v n.Z.7 ; f.0X*XT.p.` x.` A V.1X_._.[ B ] Y.z.W ~ a.].f.C } (.W.} C E } } c x Q u.i.f.} f.tXZX+XK a T = 0 $.H a < e 8 N { g.| M V } `.xXKXGX>Xp.n n q c Q ) ^ ] ] K K w 7 a K N 9 7 8.P.:.L ;.1.S.S., @ @ 2 j =.#.2 : # : f g > # 0 a 0 0 Y q.>.a = #.6.>.G B K 7._.K ] ..(.A o.o.5.[ U { ] ,.v v C ^ ,.n.n.{ 9 1 B b.Y.B.p.] K [ <.L.1X1XF.A 7 9 [ XX{ s s 7.K.7.p 9 <.(.Z.K 7 B F.+XF.B w p [ F.{ K S { ] w 9 w K N ).)., 9 p { b.(...w 9 p A | ",
"N <.7.n.9.iXXXG ).wXvX0X..c Z } } i.W y.Y.z.M.b.U U K { F.n.Y T a X w G w K Y G 9 G A.iX2Xa 9 9 f 0 7 a -.L.1XuX<.a N [ [ K N N ] B.yXB.C f.(.'.^ w q * e D X 7 N ,.f.C q q c V B.N.].aX3X:.i 1 G w <.OX<.N 7 [ m.n.^ c b R } U.!.M.V q Q n.<.N 7 Y 7.G , 1 0 # a <.:.:..X.XD X * r -.Z.:.D 9 , -.8.:.0 = t u 3 4 j ;.3.P ; 7 | [.8XY.Z 7 ] aXbXiXL.7.0XtXjXR.B.| _.fXfX1XI.P.5XK.h 1 D e = 0 <.wXvXgX_.:.B U { N 7.1X).[ [ <.B G &.9.Y 7 7 S _ _ ` p.p.Z M C c w c ].(.K p ; K L [ K A A ..W.[.M.i.c c V.aXfXaX[ A } R.Y.! ! U.=XM.Z Q [.*XY.u.b V E ~ W R ! u.E.b.| ..7.K Y XXA.> 9 >.Z.>.f 0 e { ).0XW.^ Z } a.*X>XeXeXE.Q Q x } f.f.f.f.] C n.N ; ; w K K e N f 7 7 7 9 D L = , y f =.{.S.O.. . = j %.d = > = i T H 0 , 0 g f h 1 = , 9 w w B A ..+XV.] A ..m.<.K w ] K ] ] q ] +XwXn.9 B _.nX[.f.K N K K 7 e $.:.G a 7 7 7 DX9.p s T :.T 9 = a n.P.-.; w Z.KXtX<.B w w A 7 A p B ] ..b.] w w :.-.9 8.:.-.A.L.7.B 9 B { <.",
"N ).qX.X7.wXiXL.7._.wX'. .^ Q ( u.} c Q T.(.(.V.w 9 p :.P.8.f a w w B K L n.G.@XF.G.XXuX3Xa 9 = ; a -.L e e Y q.H 9 0 >.S.P.S.:.] p.].l.M ..V.m.B -.L = 7 0 . = 9 K { K c c C Q R.T.0XcX_.7.{ T m.M U V.G.<.K { m.F.b.^ E } U.*X*X=XU.Q ^ V.V.K w 7.m.{ 9 9 B w H XXsXsXNXoXD @ X 7 $.>.H , = , $.w.w.j < k @.z : # u %.F ; 7 / h.T.p.V q <.bXbX+Xn...tXnXmXY. .W._.qXaXXX:.8.hXP.h I |.|.:.G G K.K.6X3X8.s p T p m.fXXXU U F.F.a 1 0 , = * w A  .p.M. .V c V C c 7 V.(.b.{ ; 7 -.m.{ 7 7 [ N.N.R.a.W Q `.cXqX(.[ V.*X'.E.a.s.y.^.E.Q V a.=X^.U.~ b ~ U.a.b b y.*X'.| q 7 w 7.gX}.9 9 :.S.S.L 7 K m.qXcXeXY.p.M.U.U.y.y.E.E.( Q ) f.f.p.N.j.^ C F.] q 7 A n.V.n.N w e e , ; , 0 H q. Xe.*.e.e.j : 4 t g >.$.1 @ # 1 a 7 = 0 >.}.$.$.9 * = 7 7 w [ K ] K [ B U { XXXXA.N <.F.(.f.c ^ F.+X..w -.cXKX).[ N 9 L ;.a = 7 0 a G f w e XX9.w.K.G p T 9.:.1.A.P.:.e 7 7 w [ <.<.B A ).qX7.A M ] C.F.{ , 0 = # h NXS.0 a G :.K 7 B n.L.",
"<.XXqX1Xm.2XgXbXL._.qX(.N.T.f.M.f. .M  .0XtX0XF., 7 a 9.A.>.I >.-.m.-.B -.7.G.iXCXiX2X3X2XT a # ; G n.1.D , 0 L D 0 = d 3.oXNX2Xb.M.`.`.(.qX+X(.n.2XS.D H H f H D G :.F.j.p.p.} T.b.(.].C.m.XX1XL.] [ K F.1X(.[ { n.'.V.p.p.^.*Xh.-X=Xa.Q E.].N.U b.).V.{ b.V.m.:.@XAXAXoXY e H 8 y L $.a = = 0 G 8.K.*.t t @.e.u # < O.F 7 7 e f.h.| A w [ qX_.{ U [ tXDXnXB.Q F.G.qXbX2XY { 2XDXK.w.hXDX3XI > I l r.w.#.1 # 1 9 I.iX9.9 G L..Xa 9 H G a 7 N ] _ Q X.p.M.l.p.p.Q w A <.)._.N 7 K { U w M A ] } `.U.y.p.:XnXaXF.n.).zXGX!.E R h.R.R.} c R z.R.R.U.W ! R.U.b x ! W.`.f.w v <.).2XF.9 7 D :.G.L ; <.F.+XtXeX*X=X8XU.s.~ y.!.`.a.Q ( b.N.'.rXN.C V (.p.V V | T.`.V.J e 1.1.D , * ; >.4XNX#X#.O.#.g +.3.%.j $.&.0 . = 9 s , = D P.fXsXP.G w [ :.K w [ <.:.9 Y :.A.q.fXbXXXp { ).rX(.] K f.W.,.B K ..F.<.[ G 9 H A.H.H 0 , D L 9 7 Y 6.w.|.|.T i 8.gXiX>.T Z.q.f = @ 7 K n.G.<.K G.+Xn.U w N ] { 7.B 9 # 0 S.AX&.# = a 7.Y , w :.n.",
"G.uXiX2Xn.@XwXqX+XL.0X+X'.'.N.W.V.b.C f.aXcX+X-.7 w H q.P.6.>.}.G.G./ w D -.G.@X@XZ.:.Z..XY D , = e -.>.G 8 e L H y X . < 3.SX@X^ } B.W.0XtX(.L.@XiXY g $.I e.S.-.N Y (.).F.N.p.W.f.T.[.C.V.1X_.] M ] B L.aXXXN N [ ).].b.u.B.R.~ s.U.y.E Y.rX`.A M N.b.b.W.b.b.(.dXVXOXL L A.OX:.L G G e ; 7 N H :.A.A.H 0 g 3.O.* = F f 8 , ; ^ C C C 5 7 <.Y { U G L.1XtXC.] b.G.qXZXsX:.T P.FX|.6.|.5X|.I 1 1 > l s i h i T 6.2XuX9.w 9 B -.e = f D G , N K M C } `.yX[.l. .} A w N V.F.U N = 9.1XC.N ; w N.B.u.Q ] '.nXcXV.<.F.qXdXj.6 n !.B.M.Q c b } a.E.R.! R p.p.b x V Q f.N.^ N <.G.7.-., 7 e J 1./ q K [ f.N.N.B.E.^.i.! ! U.=X*X!.u.C ,.).mXJXN.x Q :XM.Z Z u.Y.B. .w 8 A.Z.f , @ = $.}.pX}.t < j =.e. Xq.j g H 9 @ 9 -.<.a ; a A.1XsX7.7 w F.).^ - J n.P.P.oXS.H.oXiXiXF.7 K V.+XW.C C b.].W.| N - w N Y G 9 y ;.0.g = + 0 $.$.$.S.K.P.P.P.8.T w.NXP.1 , 0.q.g 0 f N N N ,.{ ^ n.f.c 7 ; M ] 7.qXqXa G A.}.oXa = , 9 [ a * w K G ",
"A.DXPXsXK <.7.{ 7.K V.).(.N.Q j.).n.v ] +X+Xn.e , , 7 L >.H i H A.2.e 7 e 1.uXuX:., X 7 $.7 0 9 * 7 K L e = , H g H = X = O.{.%.N | W.`.0X+Xn.).uX.X# = i , 0.e.H * ; <.F.N.N.f...C ..V.] A B ; 7 ; ] { qXwXF.9 , w n.'.] E p.p.a.y.! b b E.eXY.Q q  .p.M.`.Q E W.0X).7 & <.zX+XG./ w w q ; 7 N [ ] 9.P.8.e ; 7 H * ; H -.[ L e c q v / q 7 7.<._.9.p B A 7.] B n.Q.+XuX).T G A.oX6.G *.|.w.#.I &.l I > > I T 8.gXVXaXXX:.; X 7 H * ; , D 7 K K K | ~.jXmX~.V c ] <.c 7 A N N U [ 1XqXV.b.[ c w A M w M b.tX_.p 7 m.L.N - v j.j.| Q c w V C Q f.W.Q q c E C c x x | W.] 5 w L N J ; 7 w e [ -.K ; 7 w M M V V W s.R W y.a.R.*X!.c ] F.zXlX^ 6 p.jXM.c V p.^.E.f.5 ; Z.1.0 ; = 0 F e.$X0.= + d 3.e.}.e.g 0 0 7 , Y q.Z.H e K :.<.n.B 7 [ >XqXg.J q K >.pX#Xg = A.A.L.7.w { n.V.{ 7 v n.'.N.f.^ 5 ; e K D 7 , , < H 2 + = >.}.S.q.P.3X2X3XXX>.$.}., , H >.L ;.q.1.[ J q w ; * c N M c 7 [ b.b.qX1X<.:.9.Y <.G a ; ; N 7 9 <.V.<.",
".X3X3XF.-.<.Z.m.7 C 7 ^ f.C M c w 5 ; { <.N Y L :.G , a $.0 # , 8 e v - ; L -.-.* * * , 7 ; 7 e = w B a 9 , 9 L $.+.* X = : < u 7 C } N.:X(.L N T , G H 0.6.*.I Y -.K L <.C w f.f.^ q 5 w 7 7 9 { 9 U C.K U { , 7 = N 7.V.b.Q p.U.!.h.Q b u.`.Q c ` l.M.^.*XY.Z Q ] q * A T.`.`.B.| f.N. . .f.] 8X8XV.A M q q w 5 - N n.D.'.).^ q w J D e N -.1.[ U s w K L.V.p 7 K OXqX7.w ; a , 1 h 6.K.6.r.3Xw.0.I f #.6.>.:.qXZXKXVXQ.q 5 ,.OXe * e , L J { { nXZXnXeXQ Q p.^ N 5 7 w , <.7 N <.b._.].).M ; ; w w M <.F.9., K w 9 = * 7 q / K <.<.K q 7 v K K 7 - 7 L <./ 5 ^ C C q 5 w K G e 1.:.q q K N ; 7 ; K b.b.` q c ^.` b R y.i.a.E.C q C f.| C n q M.p.} E Z ` ` w q X 5 1.>.Z..XD ; f %.g # . < j {.f 0 g F $.$., f G.XXZ.7.T a N <.w ^ ,.OXD.,.-.7 7 e f 8 # = 0 1.).A.U N w B n.K v ^ V.:X:Xj.q 7 7 7 e , X < {.S.@.< = , H :.L 4XXXgXgXiX>.* f f , = $.0.S.CXNX@XN N K K C q C E ] ..V.F.<.<.L.N U n.[ N w L.F.N A C w C V.0X",
"A..XA.D K ).OXm.W.] ; w ,...C ; q J 7 K F.7.>.:.1.L 7 0 Y a = ; D / 2.q - q 8 w 8 7 e L Y L $.<.N [ m.G.A.-.D 7 L H.%.0 * X ; ; ; 7 ^ ].aXG.[ [ , 9 q.&.e.K.e.h -.L.XXn.K w ..cXlX| w ^ } C ] (.C.A ] U , U F.K 9 , Y ).+Xn.w w Q a.M.a.V V l.} c Q i.p.E.=XR.! V ` R q c z.=XkXi.p.^.8X`.R.M.E `.yXyX`.f.} } N.^ q c N.:XcXtXF.,.w - ,.:.n.G a U K p 9 { ).F.K G K <.n.[ w , 9 + # 9 I I h r.hX6XoXq.>.}.@XZ.L / F.Q.Q.D.J v OXVXS.-.1.L Z.:.:.n.@XqX+Xn.M Q T.j...v 7 7 w ).{ B w p ].rXF.c N K [ { n.:.B T { B 9 a H T L 9 w e G :.L 7 ; 7 G 8 = @ 7 >..XH.-.g.^ ,.| e 7 ; 9 [ F.F.K q v K J w w ..V.B.u.V W Y.i.~ R R W u.T.C 5 v g.n...C q V | N.M.| p.u.c v e 7 1.sXVX@XD , $.$.0 =   < oXpX+.= , y 0.P.$.f 1.P..XXXL.{ K G.n.F.K J N L 2.J ; & ; , = = 0 L.+X).<.A ] ).ZX+X] w ^ W.rXW.c w L n.Z.1.$.3.4X$XoX>., < $.-.7 8.2XVXZXuX>.1.pX@X0 ; H Z.XX4XsX[ p n.:X:XW.| p.'.f.p.].tXV.U { A A ] M A ] 0XV.l.M. .M c _ i.",
"$.S.-.7 Y XX@X).'.J 7 7 K n.^ q 7 1.J L OXOX1.-.D 9 # = Y $.e e e | F.J ; 7 w J J G [ 1.8.:.1.n.F.<.b.V.V.F.n.a 7 >.>.y * 8 q.1.N 7 ^ :X+X/ B [ e H P.$.$.#.#.a G m.].<.7 w ).KXJXf.] (.B.} b.].C.C._.L.{ m..X6.G 9 T F.@XF.w 7 V i.B.R.u.} b.] M Q _ _ z.=X^.y.` R.=Xi.c R U.-Xz.U.=X=X^.^.Y.` V x.~.R.M.a.U.=X=X} c Q Y.*X*X'.Q.L q @XG.F.9 9 N T a , G :.1.7.K w q L 1.1.{ K [ N G :.T h &.6XZXsXA.1.@XvXOX:.q K N ^ n.) ) >XLXsXOXG.Z.uXoX}.1.K [ [ w ; q b.N.W.| 5 ; N tXL.V...M | n.W.] ] n.V.m.F.G = B I.T 1 , T K.P.H a 7 , L G e e 8 ;.>.+.8 y #XSX$X#XQ.g.+X).<.[ N [ G.-.K K L n.D.K ; = N ..b.p.V V Y.z.` b c V ^ | ^ 6 q j.Q.g.J 5 6 Q b.p.A ] p.] N 1.e N @XsXP.:.D }.S.$.H = d AX$X+.7 < 0 >.H.;.7 e -.P.1X1Xm.K <.F.+XB q v ,.g./ q ; D +.y = ; K F.aXaXm.{ n.).qX..7 q ^ N.h.C q ^ n.Q.OXOXG.{.#XNX}.< 8 Z.1.7 7 F..XgXuX-.S.2XiXY H 0 0 >.>.XXA.{ G.tXzXlXW.M.M.h.W.cXnX[.{ 5.{ A c w _ ~.cXB.l.M. .Z V } z.",
"Y S.1.L -.:.1.+XF.q q q C F.| M N 1.L N [ -.:.1.[ G ; = L $.9 ; 5 / G.[ 7 e K Z.Z.<.[ Y G G -.F.].X.K A U ).aXG.[ n.-.e * D OX.Xv & 7 ,.,.K m.1XXXY $.a < # 9 Y U { n.{ N m.vXaX+Xf.N.].(.`.`...[.0XbXbX+XF.8.H >.a D Y 8.7.N w c M.`.*XW.b.C.X. .p._ V } ^.R.d.R U.kX=XW W U.^.c.c.z.s.a.Y.U.` c Q } z.Y.E.Y.=X*XY.R q M | '.aXOX1./ uX).Z.a a [ K.<.e a H 8.pXP.-.e -.OXuXqXQ.{ Y n._.m.G 9.1X@XOXn.[ (.aX+XD.,.{ q v D.,.^ OXKXvXqXZ.S.NXNXpX.Xe L <.N v c f.N.!.h.q 7 ] tXV.tX0X^ M C W.f.^ ,.f.] ] p 7 X.m.7.p s 7.P.L.Y :.a ; J D D L 0 +.S.S.%.3.SXBX{.;.-.K (.F.<.n.[ :.A.1.A.n.[ n.OXn.N , p { W.T.Q V M.Y.B.! c c E | ,.q 6 ^ h.,.C q - N F.+Xn.K N w [ +X-.J (.dXuX@X$.uXsX2X}.$.H oX;.L H g 8 y H f ; @ 9 n._.+XF.B m.).qXK q w N N [ D w e D D a 0 | W.zXaX<.A <.m.(.K q 7 c ^ ) c c C f.+XvXuX1.D 1.uXP.7 q Z.F.K { F.<.<.{ a -.OX@X@X.Xa = G -.9._.] A b.rXnX*X} c p.*XtXmXMX_.J._.V.] ] b.0XKX0X[.T.p.Q } M.~.",
"&.XXP.1.1.-.-.OX'.q 5 5 C F.K 7 w J G..X-.L -.-.1.-.w 7 [ :.e ; q { ).<.w v B <.+XA.[ N 9 N n.wXV.] ] U ] ].bX+X....[ K q c D.F.K 7 7 e w -.@XgXuXe , = ; X 7 7...] ..[ N n.+Xn.[ K n.G.F.qXtXb.bXwX1X1Xm.G 9 0 #.0 e a P Y e N 7 | (.rXL.B [ V.].[.b.C E z.a.R c Q R.R.Q V i.i.z.s.t.! y.i.! c c C ^ | p.} Q ( h.E. .M M 7.1XbXOX8.Z.@X@XF.[ s Y n.Y e f D >.pXsXG.e N 1.Z.F.[ 7 / qXvX7.9 s 9.K n.n.[ { 7.7.n.qXF.w w n.,.B n.0X+X_.-.S.CXCXNX4X0 H >./ [ J ^ h.N.j.q q ] *X] V.N.A } ..h.n c c v c / | A ..b...] V._.F.] N -.[ w e B -.-.7 ; 2.-.0 D %X{.+.H N 7 -.S.8.T , 9 G Y F.A.<.qXKXaXZ.a w K m.F.A w A p.R.p.c - q ^ f.C 6 x J J v c q 7 / F.-.; * ; n.G.<.[ m.@XuXn.D S.4X4XoXS.#.0 H H H 0 ; , e y ; X 7 n.).].V.B { <.G.N 7 7 w N D.:.e ; 0 >.S.Z.^ | W.W.C v ..m.).K 7 ; w ^ ^ c q c } '.rXN.q - [ Q.F.N w ,.V.N.0X0X+X<.K N N ).F.@Xn.D w a L w B p M b.*XeX!.R Q i.M.`.MXcX1X_.1X_.V.m.[ C.tX0XV. .Q ] N.].8X",
"I |.}.>.Z.OX>XrXW.C q q v K A B 7 ; G.uX:.L -.{ 1.:.a w -.1.K J N | ).b.K N 7 w { ..7.<.Y K n.1Xb.5.X.A A V.0XV.7 M K f.^ c } j.).Q.<.v 7 L D.F.Z.7 7 ; w , 8 N ]  .~.b.7 7 K J -.B J [ ..(.0X(.1XV.[ Y K , = g >.a , = 0 >.Z.OXN w B ].].N N L.tXfX[.} Z ` ` Z C n ^ } E c c V 8X[.p.E E c 6 5 - q C C C 5 - q } f.M.<.{ <.7.<..X.XuX1X(.<.-.G a 9 = , H O.H ;.$.P * q J v C - C j.rXaX..9 7 , G A.F.Y 9 7 G 7.iXA.w 9 G w 7 B ] { 7.K P.sXNXNXS.= * 7 q D v 6 ( ) ) 6 5 Q N.M A f.| | ( h.n 6 6 - x !.*X} } B.z._ p.b...] p K K c q C f.<.N * v e 7 D 2.F 8 F P , G @XP.9 . @ , p Y -.n.vXKXqXT , , 9 K [ M c `.Y.`.eX'.| A ] | ( c 6 q c v D v & - D e * ; D m.<.[ ] M K 7.N , a Y >.0.K.Y   , 9 0 , , 7 7 ; = * 7 [ F.L.5.p , w 7.K K e N L :.1.-.K :.G.Z.K 6 x ) u.^ v M N F.[ N 7 5 c | p.Z R E Q C 5 ; C f.g.F.N.] ..'.rXcX0X0XW.).V.N b./ <.N K G * , 9 9 .._.0XB.( u.! y.Q _ B.[.B.J.wX_.1X).m.9 B L.).w 7 w ] ).tXcX",
"i 6.S.8.Z.OX>XOXj.| n K ^ C <.+X<.7 v e 7 L F.qXqX+X:.K <.[ B K K ] n...| <.B M w [ F.).<.B U n.).L.X.p S V.[.B.A ] Q p.f.V c V F.,XQ.v 7 K 1.1.:.N 2./ [ D 8 ; ] p.[.[.A 7 v K -.B 7 7 p U <.<.[ ] a N Y e 0 >.S.j ; X 8 S.pXLX:.a = { +X:.B U ).fXcXV.E Q i.u.] v M ..N._ A ..jXyXV.| ^ q ; v q e v J C q q E ^ C <.F.T p 9 1 XXoXXX).T U [ <.Y , * e 3.3.O.f * e ; / n.,.g.v | J f.N.b.F.V.N G m.).9.G 9 s 9.I.T 9 p 9 1 p { A B K w 8.S.S.oX$., . * 5 D ,.v n x ) c V Q f.C Q ~.N.} n u.E n n x b !.*Xy.( y.i.W ! i.M.M.A A Q } c A p...n.w * q Z.sX@XD 5 D -.G e 8.$.# > = = :.@X@XA.<.{ Y ; 0 9.9.[ ] ^ b.`.] | 0X0X] 7 q ) h.| x x v w e 7 - D H.S.2.H D b...] ..K N { U a G 9 9 6.P.T = = a H G D f 7 ; 8 7 ; w <.L...M 9 a 8.[ <.[ N 7 q K n.n.-.K a 7 W.h.| | f.] C K K Y ..K 5 7 ^ M.z.z.y.b 6 6 ^ '.F.] W.0XM.f.>XlXJX].| ] V.N...(.F.b.U 7.n.N 9 [ 7.1XMXyX_ 5 ~ y.! W ` ~.~.X.X.1XXXAXiXS.9 >.iXuXK a a T 7.m.n.",
"9 G q.G.-.J K ^ Q.F.C n.+Xm.+XgXqX1./ N 8.iXaXKXVXaXA.:.n.1.<.F.<.[ ..[ b.(.b...{ m.).V.B 7 p ..yX0Xl.M ..8X0X(.N.f.c E N.p.^ A n.qX).v 7 e J [ D.-.OX.XG./ v w w p  .(.<.w 8 e e N , * 7 B A M K -.G a Y G D H.S.O.0 = D .XiXVXY [ 7 s n.7.G 9 { qXnX].] ] N.'.+XF.n.+XtX<.M ..b.(.(.).F.J q [ Z.[ e v ^ ^ ^ ..C 5 K V.B , s { XX1.7 G , -.-.8.1.9 = D >.;.g , 7 G 7 L 1.,.OXn.^ c C K ] +XfXF.; Y XXiXXX{ B { :.9 p G p a A.uXF.[ K = D 0 0 $.f y X * r +.G./ v q f.f.M.M.B.} l.M.p.W.u.b c U.u.) b ( h.u.( x b ` =XrX].N.C Q N.*XA Q ^ ^ '.| v K +XZX).e J .X).2XT a > # >.f 1 :.3XVXZX).A , X $.CXVXA.K K (.V.p.].KXtXM 7 ..^ Q.N.C N N 7 ; e y -.S.S.3.H 7 w 7 ; <.0X).n.K m.A.w 9 P.oX:.:.N A.OXD.2.L J / -./ 7 ; <.[.J.7.N 9 a , -.F.:.w K ,.D.<.w ; T qXmX>Xh.M.'.N.C A M A ..f.^ A Q C } M.i.E Q | f.F.).K D.rXf.} `.`.'.(.^ b.W.^ f.+XJX(...[ +X+XB K b.(.J.~.Q q y.a.i.y.i.^.yX~. .X.).DXuX9., P.KXgX<.K a a N a N ",
", ; e [ K w M A W.b.7.].nXgXXXF.oX.X$.A.4XiXCXBXBX5XXX|.oXpXgXiXqXb.p U 1XbX2X<.U 9.5.w p B M B.[.l.l.Q  .].8XmX'.N.A C p.N.W.'.G.(.N.n.w v w w F.).+X+XZ.-.1.G.{ m.L.8.$.0 = = H O.7 X 9 A.G.U N $.>., , D a q.$.L $.D ;.4XiX.Xa ..] N [ <.U G B iXbX1XY a L.OXOXsXqXVXaX/ K <...f.| f.N.A C W.V.V.M M A C M.`.} C C ] ] w w K :.8.e . w XXiX}.:.H e Y @X@X$.; e e - * D ,.m.>X<.N w ^ _.DXDX1X, 9 F.sX@X(.V.B F.K w w w 1.VXLX.XL f $.H , * ; H H 9 ; e 1.F.g.D ; D ] j.`.M.z.z.Y.kX*Xb.] c p.N.N.C ) '.T.M w c ] W.:X(.[ A K n.7.K a K A [ (.A V.nX(.| [ C 1XXX1XP.i + j  X{.2 0 S.gXaXqXN.; N P.NXLX).n...'.N.A *XtXu.C Q T.| | N.,.| Z.L 8 +.>.H L F >.D N B o w qXLXvX,.| (.n.N N OXsXF.K C f.:X!.( E.kX!.j.u.Q c Q b.V.n.J ; * = e Y P 5 c N.V.A 7 N P.DXqX'.[ V.0XeXM.M.q y.`.E.! b E u.z.~.l.A ] <.:.-.[ J D.+XN.b.`.T.:XQ.N.W.).<.] N.rX:Xb.] tX[.V...n.].aXN.C ^ } h.R.y.~ y.^.=Xa.V | '.'.A M '.qXb.M ..[ B { ,.K ",
"7 * ; w w w C ] ..A [ wXDX1XT G oXq.f A.NXAXFX5X|.6XK.e.5XpX4XgXXX{ :.9.2XbX9.s U 5.J.J.].J.A } l.R.8Xz.` Y.`.tX(.V.] M C | n.+X+X<.J F.n.f.M c ..b.F.Q.A.1.1.8.L.m.9.:.$.y t *.e.=.; . ; [ F.m.L $.D 0 >.A.a = 9 G Z.8.:.S.Z.<.w ..n.[ K N U L.9.9.8.-., 9 }.uXgX@XA.uXaXn.n.Q.F.[ v K N.p.A } W.T.C c c M M.`.N.A M _ } C q q J n.-.e L }.4XoX;.Y 8.S.AXvXOXL & / g.L e e K Z.G./ K G.vXKXtX<.G , w { { ] ^ C '.| N q w :.).Z.e e d q.4X8., 7 8 Z.Z.7 7 7.).:.7 * q v ] W.M.i.Q M.[.[.i.M A  .N.V.....].:X,.N N ^ n.G.<.w w B XX2X8., , [ n.<.n.] b.] [ b.<.aX+XwXXXh i 6XFX5Xd # < Y b.'.`.] n..XiXZXA.B B ).b.c p.R.p.M.u.p.c c | | [ 1.L D +.;.F f 0 P e e D 9 n.aXcX(.C ^ b.V.n.n.G.(.n.[ c n ) ( a.*XkXU.~ a.U.} V A p.n.v * * 0 H $.D ; c ..N...A ..2XDXfX_.[ <.b.R.B.=Xi.y.a.R.a.b V p.B.[.V.] K [ L L H e J -./ ^ ] C [ D.(.F.,.C A f.tX*Xb...yX8XY.T.).f.N.| c c ( T.( R W y.a.Y.-XU.Q A X.] C M M 7 M ..f.f.'.+XW.",
"8 7 w K [ K C M N w ] 0XZX1X:.a }.G 7 >.oX4X6X>.#.S.$.H oX}.1.@XfXL.2XP._.1Xs 9 B o.L.1X[.b.A  .p.=XeX} q Q B.*X*X(.] w q c K g.1.N v (.).n.C v w C ^ [ -.-.>.:.F.T a D g < g {. X%.8 8 G Y K a L >.9 = D >.L , e G Z.>.G D 7 ; 7 N A A M 9 B F.n.a Y Y , 9 8.oXLX2X:.>.-.G [ L J q ; 7 M C A ] b.B.Q w q c b.'.N.A M } b.} M q 7 / [ N G 7.G.P.:.Y 8.L OXQ.OXg.; .XVXG.v 5 w K Z.{ { G.tXqXn.N :.9 = w K N w c M.N.n.C 7 w B 9 * 9 0 >.sXS.; ; = 7.F.e , <.L.1.9 * ; ; v f.} V V z.z.^.p.M l.b.f.N.f.| N.'.f.w 7 M ..n.{ B [ F.aXbXXXw , m.wX(.7.7 A ] ] Q M n.).P.6.0 d  XSXoX%.< = 7 w ] p.A K 7.).1X{ 7 , A ] 7 c E } Y.Y.u.V 5 c A N v 8 0 f $.D e 8 J J [ J J -.G.aX].M w C ^ j.n.[ K { { C n c x b ( ~ x W Y.*XE.E V } N.D 7 e >.8.$.a 7 C | '.!.^ U P.wXL.n.] [ c E } E.a.W ! R.^.i.} a.yXMX~.M 7 w -.G.2.J q e K A c ; ] N.n.K w 7 w K (.V.] ..`.[.b.B.<.7 w w ; M V.rXW.B.`.[.M.E.`.R.Q M _ V.b.] M w w A ] | N.V.j.",
"; , 9 G <.[ q ; q w C ,.).qX@X7.-.; = f h I &.0 1 h 1 = H G 0 -.qXqXDXfXL.7.s G B p { 9.C.C.p.p. .M.M.V q Z u.N.rX'.^ 7 q q q w w 7 N n.F.N.^ 7 7 w N w 8 D ;.8.Y p ; ; = + = $.SX0.0 d 1.A.Y 9 Y L.N * 7 L ).P.-.D L a 7 9 ; = N N M w 7 ; 7 N w ; L G , ; , >.@XS.Y 9 ; K G.n.K w 7 7 7 9 v w ^ N.f.C 7 7 C b.M q w A ..] C M q N v 7 N K [ -.-.[ { 7 q v | K N G.>Xn.N w w w e K K G G G G T n.-.w w K M 7 M b.'.:Xb.w ; 7 a 8.8.;.8.2XXX>.:.7 N K N w U n.L.-.8 ; ; w ^ C q q V W } Q w M M | | ^ c v ^ C ; ; 7 K n.b.{ m.qXaXaXqX<.w <.wXqXB w b.(.] M C b.(.<.G i d =.e. Xj #.;.L K b.T. .; B <.<.K K M 7 A M V c c M.[.`.p.q q c q ; @ ; 7 P L D w w B <.v w 7 ^ aX0XC 5 5 5 c C 7 7 K ] K J x q E } E b c ` h.y.c 6 c ^ 7 ; e Y ;.Y N ; c C T.W.M 7 G U <.L.+XW.c Q } ` W R ! Y.8X8XR.p.8X8XB.9 * w F.VXOXF.[ ] n.b.A w M N.0X:Xn.w - ; ..V.] | l.`.p...K , B N , 7.fXbXzX0XrX'.} ^ M.p.A B ] b.b.C...C M A A M c c c ",
"H D 7 7 L { K N q 5 q C <.+XdX.Xe @ = , = f #.f 0 1 = # = , 8 9 N ).fXDXXXG 7.A.8.B B U '.bX[.Q V Q } p.u.] Q C ].W.^ q w C K { [ w q K n.F...7 q A / a ; ; H 8.G K w = @ . . = 0.%.O.>.XX2Xn.w -.XX[ a { F.qXXX{ w e e N [ [ [ F.)._.b.N w w w = 9 G 9 N K a K.q.H a = = Y ).XX7.N 9 K G.+XV.M K V.).| q ; 7 ] ] M w A b.n...^ C ....| | K N N K n.m.,.7 C C c q N ^ [ [ ,.K 7 ; K [ 7 = ; a <.L.+X{ 9 M w q ] 0X0X].F.| M N -.XXw.8.:.-.A.2X.XT B B K N p [ P.).J ; w K | } V c w Z V S A 7 ; ] C c 7 ; q N q w w K m.n.L K <.1XqXfX(.w w ..V.w q | l.Q ] B.].N p , = @ @ 2 =.0.@XuXF.n.:XrXY.M K [ { V.].'.n.f.M.} c c u.eXjX`.c c C K v ; 7 5 L g.L w ; 7 C 5 w q [ :XB.C V c q C A 5 ; C [ f.^ 7 q | N.} b x R ! E x 6 x C v 8 9 e -.S.n.7 c x j.N.C w p , F.sXVX).7 E u.` R W ` Y.kXjX*XY. .B.l.p 7 M G.ZXVXsX].F.[.`.p.A N ).KXLX+XM 7 ] V.0XV.p.} [.~.b.U i 9.9.9 U F.F.qXqXqXV.w w b.].b.] B N ] n.N.K p.f.b. .C c Z ",
"{.S.L e :.n.g.N./ 5 q j.D.W.OXOX-.e e 7 0 0.w.&.$.H 0 , = a L a = 7.m.wXm.9 I.wXfX_.m.U b.0XV._ l.M.M.`.R.] A c | b.| C J ,.).aXZ.N w N ] ^ ,...q J -.L 7 * , H -.m.[ ; * = * . + f >.S.oX3X<., U F.<.N K [ ..<.N 7 B K { F.m.n.fXaXaX0X(.(.F.{ 9 K K K @XVXiXvX}.L f 9 9 H :.A.A.Y H F.DXLXqX<.[ V.+Xm.K M C (.cXV.A ] ).1XF.] C T.rX0X(.[ w w K F.).'.c f.f.^ q w ^ N.).'.g.w B G.).[ D 9 0 Y +XcX_.] ] Q C _ [.8X].'.b.N K ).iXXX2X.X:._.DXiX9.7.7.{ B 9 M { Q.L 7 B ..n.'.N.A w Q Q b.`.o.M C N w 5 7 N ] f.g.K L F.G.{ 9 7 F.aXJX+XA w A } ] M w M ] N.M.} ] A.8.G d g H $.$XNX2X-.,.0XjX`.b.U 7.1XKXnXlX0XT.`.u.E Z } [.rX'.E C | p.| w 7 5 / D.| J ; 5 M 7 N M ..`.b.} } } B.*XT.C 7 N [ 1.<.[ N N } } E R ( a.h.! b ! h.D.1.L D :.@X).w ( N.rXrXf.K { T qXAXaX,.& c u.Y.y.W ! U.8XeXkXkXz.^.B.A M S n.wXvXvXtX[.T.Y.l.A | m.).].n.M A ).[.yX`. .Q ~.[.B.7.i 8.P.H , , p 9.wXnX+XA 7 [ 0XV.N 7 M <.).0X0Xb.b.`.`.} V Z ",
">.e.H 7 Y n.g.F.n.q v N.k.j.D.D.n.1.1.a H }.S.6.A.K.Y , e -.-.K p U G 7.G 9 L.gXbXDXwXU B ] ] T.jXeXM.B.B.b.b.A v ..f.,.f.F.OXqX1.K [ w N N n.V.7 w K -.f = = a 1.G.<.e e H e = = y H I :.A.:.p K V.V.M 7 ; 7 ..[ p N A ,.).b.K qX(._.wXwXaXaX).[ K B Z.aXKXLXqXA.q.A.I Y A.w.XXP.K.8.A.2XXX:.{ ] { (.F.n.<.b.aXZXG.M w <.).n.C C B.*X`.V.| M w A b.W.B.c B.`.M.Q ] N.W.+XzXqX[ <.@XuXXXS.D e 8.aXcX).b.B.l.W Z p.~.[.(.V...b.wXP.XX2XF.Y F.wX+Xm.n.C.L.C.] M p n.<.N B ^ b.0XW.c w c A V.].V.] q [ / v K n.Q.>XOX[ K (.sXXXY w ] +XtX(...| p.N.`.l.V A B.~.p.C K n.1.Y >.>.f < ;.A.>.N / '.jXtX<.B b.tXPXcX].V.f.T.p.f.} Z f.R.`.Q E ^ | ,.N 7 5 N ,.^ | w c K K ..C ] B.R.`.} } =XrX`.] M c K a <.).<.M | :XeXR ! a.U.h.! E u.Q..XG.$.f -.:.J N.>XmXjX`.C.m.8.).qXG.[ 5 c u.eX^.M.p.z.Y.=XeXkX/.=X/. ._ o...(.wXqXrX(.| l.M.Q w w N [ b.[ N A T.T.~.} _  .Y.l.F.G 8..XA.H 9 B N _.wXG.K ; 7 b.<.7 = N F.tXbXmX .} Y.[.p.Z V ",
"d #., + D Z.G.qX,.q q C v J 2./ / Z.G.D H }.A.q.S.iX>.= G 1.K K G w s U T U 8.wXfXbXwX..] ] ] eXcX*XE _ T.0XrXf.c ,.N.F.).Q.<./ :.-.<.7 K m.'.[ 7 ; e Y Y 0 0 D :.n.-.P 1.S.;.e = , 0 L K.XX9.N n.).:X[ M w w V.).A 7 7 ..0Xn.c n.<.).aX+XL.0XaXqX[ K ).(.iXPX).f 3XhXG a 8.9.A.8.8.G G 9.{ H 8.G N n.A.F.n.-.1XsXA.w , K n.n.[ Q | } A ] | A M M ] V...M M.*Xb.} | f...F.ZXKXQ.L F.OX@X}.D L VXKX0X] A  . .V M ` M.b.B.yXtXqXwXL.fXiXA.7._.iXfX(.{ ..0XbX_.] M <.G.{ N w ] ].b.C ^ w ] V.V.(.A q W.G.] m.+XqXzXqX[ B ).DXCXL.[ M ..b.b.b.f.p.`.M.l.M M p.l.l.N.N B e -..XA.y , 0 -.1.[ { f.W.].] N ..C.aX].V.A ^ B.V.[.N.c ^ N.N.A C c C j.| K 5 w K M | v C A b.).f.] } B.=XQ W Y.R. .] N w w 9 Y F.-.w <.jXrX! W ( U.R.a.E n <.@XVXP.7 , { ).W.E.u.j.*XtXC.B 8 J D [ C c V [.kXxX*Xi. .`.=Xz.W x.Y.B.B.5.| 7.].[.0XV.Q p.~. .w p w p K U C M l. .Y.M.z.Q i. .7.K [ 7.n.n.B N B F.n.A K w v G.G.Y N -.].bXbX:X .Q M.*XY.p.a.",
"< = # ; H G.uXvX,.- 5 v 6 v g.m w K Z..X7.9 G 3XNXgX:.7 L K 7 e N 7 , 9 , 1 { 2XiX2XF.U A ..].cXnX[.q C T.eXJXW.| N D.vX@X<.J ; K -.1.[ { { m.B w N * a pX}., 0 / G.G.P D q.}.q.@ = = a A._.F.] ].bX]...A w C | ].| w C V.].b.w B G.(.n.K K G.).F.+X).<.m.qX+X<.a P.I.a s P.3Xw.K.S.9 a a = h T w a w a L Y [ :.1.:.:.w a L.).n.| } f.].tX].[ 9 M b.(.c w | `.} ^ V.^ v f.0XaXF.w [ >.Z.1.H }.AX+X^ A Q c i.Y.c B. . .0XKX<XC.1XfXiX1XXX_.7.7.wX<...b.tXKXtXV.M ] f.,.q 7 B [ F.:X(.<.<.K K ..M v g.+Xn.,.g.(.PXuXN G uXaXF.n.F.,.c M f.M...} } T.T.V...A A S 7 ; 7 L A.F.>.f * G G g.L w K ] K w N K K ] { { ^ | ..(.cX'.M c C C K C q w ^ } Q C 7 c ^ C c M c A V.b.C ] ~.Y._ c Z V c ] <.C ; 9 #..X9.K <.W.*Xb V u.!.=Xh.E n n.@XvX:.= ; ; N j.u.( Q b.0X(.9 ; v L ] / A } R.eXxXeXl.E _ l.M.~ i.^.[.8X[.X.M B.yX0XB.z.B.p.` [ _._.K w ..n.] A Q i.~.*X=XY.l.A q C N.n.] M c w c ^ N.N.) ^ N.m.[ N K n.].+X).A ] N.C V ~.^.",
"+ 0 %.>.-.:.F.:Xg.v c c 5 / D./ J [ (.@X1.9 a :.3X3X-.a [ B ; e 7 ; * 9 p , , :.7.A.).m.{ ..N.(.[.b.M Y.tXtXZX].] v <.G.K w L 2.1.Z.OX1.L J m.(.w w 7 1.AXoXy g 1.Z.2.e ; 7 Y Z., = # = s 7.m.b.A N.f.b.b.M w w (.V.b.b.V.V.] w w [ { [ w ; ] m.].qX]...K [ ] w w 1 p 9..XXXXXXXXXP.I :.I = a G Y 9 ; 9 9 , = = N D Y , = Y Z.F.N.eXJXKXfXL.A 7 , N b.<.<.b.N.| | (.] q N b.G.,.; e D -.-.8 a -.F.T.b.E w c ` B.eX .M _ 7.o.B 7.fXfXwXwX_.T ] 1X[ (.wXnXMXV.X.M 7 n.,.q M w w qXaX+XK 7 ; A 7.7 w ^ D.,.J v q { :.F.OX).1.G G <.,.c C b.T.f.Q w | } B.].V.A 7 ; 7 J 1.1.-.-.G 7 * 7 n.Z.{ <.K w ] A w 9 w A <.m.<.[ [ (.n.M w 7 N [ <.^ w 5 w C q 5 c ^ ^ N c q q N N 7 w  .p.Z } Q Q b.V.] w p a I P._.7.{ A ^ Q ! u.h.u.( E ) ) K 2.K w 9 ; 7 } u.u.Q V ] C.7.{ L -.n.f.C Q p.jXmXkXB.] p.`.eXB.W t.=XxX~.V X.(.0XeX*XY.} Q } ).).F.7.7.(.[.V. .V _ 8XmX=Xi.! B.u.| p.| | | E V c ( *X>Xu.b ) N N N M v A b.).p.C A q q V c ",
"= g ;.$.e w n.rX| C v N N ] g.<.J K F.OX:.D D a w -.n.@XvXG.N K B [ T Y 7.:.G T p U <.[ A B | b.`.} M *XnXlXbX0XC 7 N <.:.n.@XuXqXA.@X-.K K m.qX<.N , -.uXH.< , ;.-.-.G 0 9 G >.8.K <.B w [ ^ A w M M N.'.] M M N.).'.b.^ M w ; * 7 L G.g.7 w K ).+XF.A 7 7 M B <.# 9 iXZXP.8.A.2X5XoXiX0.0 6.}.2XH a >.;.G a 9 @ , -.D = 9 L Z.(.bXKXaXF.A.F.m.G G m.bXaXG.] K K F.[ 7 7 B <.{ w w ; N / e 7 7 N.rX`.} W x Q mXxX .q w S ] 7.m.m.L.+XqXL.N w ..p b.(.'.V...B.l.C ] ^ N ..K w L.[ G = * w b.).K N v ,.<.[ K 7 ; e ).L.K N w 7 N ,.c c f.W.N.C - c K '.nXbXC.w ; w -.Z.L e a e , 9 G OXuX1X1XF.{ [ B w 7 ; 7 { OX{ N 7 K <.[ K ; 7 v -.1.C ; q | f.) c ^ N.F.f...M 7 7 7 ; M  .] `.B.p.b.| w 7 Y f 1 T 8.<.B 7 V f.j.} E x b u.Q.aXn.{ -.:.-.J ] h.E.=XE.^ | 1XKXZX).+XvX:X..^ Q ].mXGXeXT.(.tXmX=XV V ~.kXB.M  .*XxXmXjX[.u.! u.tX_.1X1XV.b.0XjX..} ~.mXGX[.t.` *X=X!.a.y.E.`.h.y.b E *XjXh.x x q w C C 5 - M V.`.A C | B.B.} ",
". , H L a w K f.K w c g.N.K K m.K v / <.L [ [ 7 * 9 Y ).qXg.J g.[ aXuX<.A.2XXXF.B p M U ] U ..(.eXp.c b.].'.0X).w ; q ,.Q.uXVXvX.X;..XG N ,.F.aXaX-.; , +.O.< + , f P H ;.A.A.9.3Xn.wXF.A f.A c w 7 q b.V.M q M ].qX+X<.N M c 7 w w N n.Z.[ <.F.N.n.[ M q c | V.m.p 7.gX@XT 9 , 8.5XCXgX6.f }.gX}.0 < $.>.>.$.9 . = ;.$.9 , 9 Y G.sXVX@XP.uXpXoX:.G :.VXiXn.7 ; w n.{ w , w { <.[ N * v g.,.J q | W.M.} y.V Q kX=Xi.C M ] _.tX_.p T L.1XL.K 7 7 M K w 7 M b.tXeX'.M | '.(.n.G e D 9 * 7 B [ n.<.v ; 7 K [ <.L , 7 G G e e 7 7 G g.v q ^ N.W.] ; w b.tXDXZX1X] 7 7 G P D P 1.8.1., 9 1.F.K.F.K p G K [ Y w ; J G.-.e = e >.S.Z.7 * * D Z.,.w C W.:Xb.c C rXZXaX+Xn.N B ] w M N.`.].tX[.[ N N K :.H 1 a H Y M 7 A T.N.p.C c E h.'.,.J K F.XXG.{ ^ Q u.E.U.} p.yXDXKX>XaXKXlXW.p.M Y.jXGXtX(.L.qXbX*Xi.! } R.Y.Q _ 8XGXGXjXrX=XE.p.cXwXvXgX9.U ].IXM.~.8XyXyX=Xc.y.z.U.U.y.! a.R.a.U.( R p.!.u.b c c M ] ..C q C V.]. .] '.mXtX(.",
"= , a G N 7 w N ,.| b.+X+X[ N m.] w w v N <.7.7 ; 7 B 1.n.v 7 ] { vXgX-.G F.3X@X:.p B ).aX+X(.'.].N.A A A ] n.,.B w 7 w K n..X.Xe D @XG 7 L Z.aXuXF.a * ; g g < X ; f $.q.P.XXXX3Xm.aX(.f.eX*X`.] A [ +X).M w M +X].n.K A K K w K J w L n.Z.).(.| ^ A C Q | b.W.V.{ L.2Xn.U a = T 2XAXpX0.>.|.4X|.H H H.oXpX4X>.< = d f < = , g S.2X}.Y H S.oXK.I 1 1 S.S.q.0 = a 8.-.a , ; K <.K v ; K '.W./ 5 E Q p.T.E.} y.R.Y.z.} M M L.1X7.N [ F.XX+X).{ 7 b.V.A 7 7 | 0XrXeX} F.bXaXG.N ; Y Y 9 7 , 7 [ F.K ; * e L 1.:.8 * = G Y ; @ a 1.Q.^ 7 q / n.,.w N G.aXaX+X<.N G .XS.+.H q.P.P..XD D 1.F..XG.a , Y Y <.9.G , 7 L $.G , a ;.A.q., * * D S.n.w v N.N.| q C +XvXqXOXG.K 9._.<.K V.0XF.cXaXn.[ 7.A.A.S.>.&.L Y B 7 C `.V.j.( ^ ^ f.n./ J J n.XXXXn.C c ( U.h. .V.yXfXF.] f.(.T.T.M.V Y.:XrXW.^ / G.aX*X^.z.Q } B.u.z.=X8X*X'.eXeXR.p.fXwXfXwX5.] '.cXeX^.x.z.[.9X/.t.W ! i.i.! ` a.M.E.a.R c ( u.( E V E p.B.| A p.0X(.N.| V.fXtX1X",
"7 e G K v 7 M [ (.:XqXqX(.[ N Y [ v 7 7 B Z.F.K , , w -.,.v c f.G.uXaXF.K :..XiX9.G U 1XKXbX].V.] b.V.] w A f.f.<.K 7 7 J :.-.D 7 D .XH w N K L -.S.>.< = f O.g , 0 >.5X3X:.>..XF.n.0XW.N.eX>X'.j.{ <.qX+X<.b.m.b...K B K [ ] J -.Y w N :.Z.G.{ N M A | M.M.f...F.{ <.m.n.7.-.N G P.oXG.S.}.S.A.>.d g q.4XCXBX|.g = < d g d , < $.>.H @   3 *.e.k > # d H >.O.0 a >.L a 9 , N L { K 7 ^ '.W.| q c x p.*XE.} i.y.Y.~.b.M 7 K 7.{ K K [ 7.G.qXOX[ G.fXwXb.w w n.'.:XT.p.(.KX@X; ; 0 1.$.9 ; 7 ] b./ v ; e L -.>.J 7 , Y -.= = G -.D./ 7 - 5 K K 7 7 { L.XXn.9 7 A.LXNX1.f -.-.-.A.:.G a G 9.:.1 > 8.Y G G e = * , 0 0 , < y O.%., X = $.}.1.7 7 ..N.f.C w J <.n.Z.-.a <.qX).U { F.+XcXqX<.G T 8..XpXoX>.e N B w [ 0XN.^ A ^ ..n.Q.D./ ; 7 <.L.n.w V u.R.E.p.B.<X0X] M M A C }  .V p.W.+Xn.N e L n.>X=XE.} ` u.p.[.^.} Z i.`.M.( ^ <._.2XL.U A b.<XjXB._ p.^.^.Y.U.` W } p.` Q i.M.M.B.E q E p.u.C } i.E.N.Q M  .0X(.]...{ ).XX1X",
"; N :.D.<.N M ] F.].tX+X<.s 9 w K ^ C B { G.G.<.G , * ; 5 5 ^ +X+X).iXsXA.8.).P.7.{ 7.+XnXnX'.] w ] V.| M [ V.F.n.[ w q 1.G.[ ; f H A.-.[ D N ; N 8.>.e f ;.3.3.O.H K.CXpXT 9 T N <.V.p.^ } E x C w N F.G.m.G.n.K K [ [ L L <.(.1XZ.7 ; w K <.[ w C | b.N.b.} Q <.K N A [ [ [ T D :.H 0 $.$.0 H *.g g 0.4XNXSXpXO.= , g $.$.< = # t #.j 2 3 l =.2 # # + > 0 f , , H H >.;.D a w [ [ c ^ N.h.| V x 6 E h.i.( ! R Y.`.`.b.K p U P.[ a e G L <.n.U <.0XqXV.v 7 [ N.`.B.c c +XG.* ; G }.P.8.-.p w 7 N J ; ; e e -.-.Y a e D e 9 9 e -.L v - * q e - 7 N [ A.L.G 9 8.S.}.L = 0 G :.3XP.T 9 9 >.6.i i $.H G a , # = 0 , 2 , = = 2 O.t < < H ;.L 7 w ] ).N./ 7 * e 1.Z.D , G XX_.K M ..tXcX).p * , :.2XpXP.f # 7 w w f.]...C ^ f.<.g.F./ N 5 { iXnXaX..q b y.a.} A o.] F.b.| ] Q C M c C f.W.N.K 7 7 w E.R.E.! V Q } ~.R.Q q Z u.E x V w 8.I.7.X.o.o.B.B. . .z./.U.c.^.W M V ~ Z Z _ _ } } C w Q M.u.E i.U.^.E.Q c Q b.(.0XK 9 G B H ",
"f...| | A c C | f.b.).1X<., = 9 | N.n.,.n.F.n.<.<.B 7 w 7 ; N n.7.:.XXiXP.P.S.f T A.XXuXZXDX).q q c Q V M f.(.).[ | N 7 J -.K 7 8 H G..XA.J -.K [ <.P f Z.4XuXpX$.G $.P.P.:.a w p n.N.} Z b b 6 5 ; v Q.+X(.m.9 ; w K L 9 7 :.uXXX7.w w N w M 7 K ..N.N.p.} Q C ..n...K [ <.n.n.8.A.a = e > . H H.$.g 0.$XoX}.4Xq.< = < g H 0 , < d H j 2 # > k l i k # 3 < j 2 , L >.}.XX-.7 @ ; w w ] N...E q ) C n } T.T.p.| f.(.0XtXL.w N 2XK.G N K w 7 w 7 ] <.K N w w }  .p.! V q w N ; 7 1..XP.1XqX[ w 7 K ,.7 ; q q ,.F.1.J ; e Y , X e J / / e ; q e - w G J -.1XL.a 9 ; :.L = , D 8.fXK.T 9 B P.P.s p 9 T 8.<.a ; e >.G Y f 0 = , O.g ;.H y e a e N ^ ,.K M 7 ; K D.g.K 7 w m.).K 9 ] ).aX].w @ 9 Z.sXXX<.7 * M w ; A b.A ] (.'...w 5 e 7 X a F.XX+Xf.C c | [.`. .A A 0X].(.(.b.M 5 q w / <.[ q * * - C a.M.c q V Q p.^.M.E b V V x c A 8.{ { _.V.M S _ _ _  .R.=XY.Q Z M V Q _ } _ M S M 7 w ] b...^ y.h.E.E.p.} ^ ^ A 7., = 9 , 9 ",
"R.y.V V Q Q _ ] c w ..F.K p B w (.`.b.W.M.C u.b.tXF.K J -.q.>.H + Y }.|.>.0 0 =.f f S.NXuX.XZ.w c Y.rX`.Q V } T.Y.b.f. .Q Q | | v ; B vXqX].b...<.<.A w b.vXfXn.:.F.V.{ ] b.} c Z Q E.a.a.a.M.c w = w G.).gXXXG ; 7 D $.H , 2 >.n.n.7.U K ..] ; A ] b.V. .w M V.0XfX7.{ B 9 K.uXiXiXG f a . , 0 $.>.XXoXT e >.XX2X>.a 9 a G 0 D ; e G H 0 + + 4 *.*.=.> # %.Z.0 ; w 2.).+Xn.B 7 e $.9 H G.g.,.| F.9.s F.+X+Xm.m.[ 7.iXwX8.:.8.2XuX8.n.] A } M w ] N A A c Z i.y.a.! b b ) | C 5 N J aXbX:X..& 7 C ^ Q ^ q w N.g.K e 7 / Z.e X ; ; 1.G.J ; L 2.q 7 q v g.qX+X,.C w n.-.w w a -.3XA.:.p ; 0XIX[.} c K n.F.[ w J F.qXF.A.1.9 @ a A.@XD.{ n.,.7 ; 7 K n.n.C c | N.p.| p.| A A [ ] N [ Q.n.7 * v <.(.`.B.Z c p.f.M 7 M W.aXbXqX[ 9 D , = # , >.oX2X2XF.N L.cXcX].] B n.2XP.XX).N , * w K +.H 0 * ; G g.T.!.B.Q q V a.U.z.~ R a.a.! ) N Y m.(.:XV.Q l.~.W M X.V.0XwXV.b.A b.l.V.] M ] [ N 7 7 B <.<.] J n j.'.D.n.m.7.G G G p = = D ",
"s.Y./.a.i.l.p.Q A w ] n.<.<.b.K ] B.*XmX*Xu.p.Y.cX0Xb.K Z.iXoX$.< $.0.&.d > 2 %.O.t H >.;.L L J C Y.rX*Xz._ ! } Y.Y.Y.z.Q } M.N.] 7 7 (.+XtXn.w n.W.N.K c M A A V.].[.b.p.B.M.Q V V } } R.`.^.Q ; , 9 <.G.fX).A 7 N :.P.0.2 # 0 -.n.V.b.<.C...w M M S X. .Z _ ~.tXfXn.7.{ s P.gXVXfX#.G i # 0 < 0 e n.XXG * K qXZX).Z.8.8.1.Y n.<.K N L H > > O.*.#.j 2 , L A.>.7 5 v g.'.Q.g.-.K.2X*.I q.>.g.g.fXXXG I.gXDXbXwX:.8.iXiXA.:.8.3XuX1X1XX.Q ~.~.V.U [ m.F.f.} y.y.E.s.( ( ( ( | j.K v Q.OXF.] - c } M.p.Q q C '.n.v w w 2.Q.L * * , L 8.Y 8 N -.[ e w q J Q.OXk.^ C V.n.{ [ e a q.G.[ N ; M.*X^.U.^ ^ p.N.u.C C | tX).V.<.w 7 <.1XrXtX'.'.F.B e N +XZXJX(.V M } i.R.p.V q Q n.F.G.N K K C q ; M `.R.^.i.R } p.}  ...:XaX).<.U <.A.&.j = > 0.NXAXgX<.[ 1XfXvXnX+Xn.G P.2XVXNXq.f ; = e $.H.3.8 = f w f.N.R.`.Q c i.U.U.` W z.E.i.| N 7 J F.rXT.} *X=Xp.C ] _.ZXCX].W.} V.] ..(.F.B [ { -.<.G.+XG.[ v v ,.OX>X).n.-.T 7.8.G , 9 Y ",
"` R.=XM.` } u.u.p.c M | b.F.n.N c } eXmXeXM.W } [.].N.[ ).LXVX1.9 H =.I O.#.e.5X{.=.8 = , , e <.f.B.`.R.M.| ( Q p.B.R.u.V E p.p.K J N n.m.m.K w m.V.V.<.N , w K V.<X].V.l.Y.Y.p.Q E Q E `.`.T...K <.K [ N.0Xb.c ; p 7.@XL.G , , K { 7.] N ] ..A w w q M  ... .l.tXbX1XqX_.{ P.iXVXuX#.f 2 0 3.$.e , [ ).Y * e @X@XqXsXF.G N K A.n.N e 1.Z.f > 2 =.#.#.h e L g.1.5 ; v !.zXrXN.[ fXDX}.H f e >.OXgXfX8.I.2XbXgXiX:.9.2X2XK.A.P.iXfXbXfX.._ yXmX[.N <.XXqX].f.} M.R.!.E.} ^ | g.g.D 7 [ <.f.| q A ..W.N.A q J D.-.v q 7 L D.-.5 * ; D -.D - ; v J -.-.v q [ D.,.C C f.V.L.G.L e >.Y a K c p.Y.^.=Xi.! ! i.M.u.Q E B.b.N.b.A N <.).vXrX| f.qX@Xn.B OXZXKX*XQ c } M.^.~.E w f.0X+X).N w v | ..q w f.a.Y.y.b W p.B.B.A A ..b.n.m.n.[ $.H < > #..XoXXX9 w n.+XqXfX].n.G }.iXNXpXS.>.$.; ; ; f 3.>.y 7 7 [ ^ | [.} 5 ` z.^.Y.y.i.E.`.].n.7 w W.rXf.A *XxX].p...V.).1XcXrXu.W.f.V.cXbXK B [ { [ <.G.).D.| J v / g.<.K K G n.A.G w L n.",
"R Q } ` b c } [.B.C q A f.W.b.c Z a.mXkXR.a.V W M.`.W.N.).uXOX;.f I h 0 d H 0. Xe.3.< . * , e n.| ] ^ | f.f.] V c ^ p.Q c V Q C w D L Y N , ; N -.<.m.F...N A 7._.yX0Xb.]  .p.} p.} C 7 ^ M C K ].1X[ ] N.`.} Q A C } N.b.K w 7 U <.F.{ w M ..b.M M M A b.p.A S b._._.1XL.N H <..XA.G , # i oXoXG 7 w L J ; 7 K n.qXVX7.7 7 e L G ; 7 :.q.H > # i I I 9 7 K g.,...V n M.*X!.j.-.2XiXK.f # @ L aXfXbXI.I.1X3XwX3XY { I.XXK.P..XuXiXfX1X]  .MXmXV.9 A.pXVXqX..V } a.=XT.c n D.F.J v 5 D [ :.-.w w C <.g.^ q q N e P r * ; F +.y ; * N -.e ; w N 7 / 1.J ; 5 v e q c A ^ { :.D 7 0 9 7 { N Q } M.Y.U.d.W y.Y.U.! c Q } N.M.Q Q ..b.lXF.7 K vXZXG.N [ m.G.f.C V Q p.l.=Xp.w [ '.m.K 7 5 7 J N.n.Q c y.i.V q V M.Y.p.] 5 w b.m.{ B 7 e G G a a 9 9 D 9 , H K.@XL.<.-.9 $.q.>.F 0 H ;.F H , . 0 3.$.7 :.<.^ ] V.} c } i.U.z.y.B.eXnXnXF.7 e G.+X..Q *XmXmX'...b.).wXKX:XE ..W.tXbXvX..w 9 7 7 w K n.'.OXj.5 & 7 7 ; 7 7 K K N K n.D.",
"b V Z W V V u.`.p.C c C  .T.V.| V a.jX^.y.i.W ` `.[.:X0XF./ L 1.iX2X>.0 = = # > < O., o = , 7 Y 7 7 w N ,.f.A 5 5 C p.} Z Q Q c 7 D H 9 9 9 9 7 a [ A.m.[ w e K ..V.V. .A | N.V.'.b.C - K J L ..G.F.M ^ N.`.z.8XkXY. .] C C A N K 7.+XG.J w K [ A K K ^ | A c M B :.7.7.U , s :.8.8.$.9 . 1 S.}.7.<.K w N [ [ G n.m.G.<.L K 7 ; q ; ; 0 f H I i , 9 , * ; A f.Y.p.E V } j.( C K A.:.H 1 + + G qX2X2X9.7._.1XwX_.Y G 9.8.8.A.S.G.P._.V.|  .[.tXL.a XXAXAX@XG ; 7 c j.j.c v n.n.a e 7 9 a G G 7 7 e N Y Y e * * 0 1.D * X ; y t ; X 7 [ n.F.).n.e ; P L 5 * * ; w | ] N w v f 7 = e e [ 7 5 x Q ~ U.d.~ d.z.c.~ x i.a.M.a.E Q p.N.W.m.K F.uXG.[ a e K K C c q c V  .Y.p.w w N w w w v w K ).0XN.V } ` Q V W M.B.} ] 5 7 M N K V.].{ <.<.<.U ; * 9 G N a Y 1.Y D a . , H d # # y 3.}.5X{.2 = d $.;.P.:.[ { ] [ | ^ u.} }  .`.cXcX+Xw @ 7 [ [ A A V.tXnX(.M U L.L.<.] q M b.cXqX1Xm.p , ; 9 w w K N.Q.g.q * 5 ; * ; 7 7 7 w ,.N.j.",
"Q M.T.M.p.M.u.E } } E Z Q p.M.E.! ! i.i.R.=Xz.~ z.a.W.*Xf.q / uXAXCX2X8.=.g = . = $.H 7 e , * 7 , 9 7 7 N [ B ; N ..'.'.M.u.E 7 e q.}.f f 8.P.Y a a N J L K N 7 7 A X.A M ] N.W.+X,.w ; n..XXXZ.a K w ] p.b.z.mXKX*XM.} W l.*X].K -.D.n.N 7 w N B C N N M q w K [ 7.T s p B A.iXP.oXXX:.1 1 H $.OXqXF.w K L.@X).<.K n.+XOX<.7 7 7 e L G e >.P.6.1 = * M | Q Z p.Q Q } a.y.E C C :.1 # @ @ = 7 -.A.P.9.T 9.7._._.H 9 a H :.A.8.:.A._.(.V._ A V.L.Y P.oXS.$.a w M c M C K N 8 8 e 7 ; = = , 0 a D G 7 f Y H ; @ $.H.+.8 * * < 4 = ; * K uXZXuXn.J 7 -.Z.-.e = 7 [ N.f.C q w G f ; 7 8 [ v C c c b s.! R ~ y.a.y.W y.} i.p.( Q Q C C [ n.@XG.D a e ; e K B w c ^ } b.p.N.V.^ ; 7 K n.n.,.g.'.'.p.) V ` M.M.` } p.} c q 7 7 M V.rX0XqXL.7.n.n.B 9 N -.A.G , , 9 e , # + t t = < @.#XBXpXq.0 @ # H oX4X1.[ B 7 ] (.N.N.T.].[.n.| K w [ $.A.-.p N N U F.m.7...[ p , 7 c C A ] :X].wX].7.N 7 w w 7 q K / K w 5 7 q w B w w ; 7 ..j.E ",
"f.(.*X].*X'.M.V } h.p.E V E u.R.R.! b U.xXxX-X! R W y.j.^ c ,.qX@X2X}.A.S.0.j , O.H.}.S.:.7 * 7 Y 8.-.8 7 K K 7 C b.rXjX`. .C 7 Y  XNX0.H >.pX@X8.a * 7 -.8.L w M ] ..A c c c c ] 7 - ; 8.oX|.f = Y n.(...A A *XeXR.R.M.} Y.jXtX<.[ -.:.L J J N w q 7 q w 5 q [ <.:.B = 1 T P.fXfXgXiXA.Y D 0 a G.+Xn.N [ N.G.(.<.{ +XvXaXF.K { L Z.uXXX:.S.2XA.U w w b.eXU.W d.R.R.U.! b R u.F.8.h h > = 9 ; 7 <._.1XF.m.G F.XXG = , 9 :.P.q.Y n._.+X[.A 7 A [ $.$.g > , &.P.F.<.N N { K * + < 0 0 = + @ , Y >.>.0 0 +.;.y * 3.3.O.g u 3 4 u < 8 - N +XaXQ.-.J L n..XXX8.9 9 1...) C v e e e ; ; ; -.g.:Xp.b ! s.! b b W a.U.a.Q b C | ..^ x * ; 9 -.S.P 9 L f @ 7 e e K n.:XrX[.V.:XrX<.p [ 7.+XQ.<.,.n.f.C c c ! -X=Xi.W _ Q } u.E M  .'.B.] *XT...f.(.n.B 9 n.qX8.a 7 7 G g <   : 4 = = t 3.5Xq.2 @ @ @ f |.sX@Xq.e 7 <.:X:XF.'.lXrX| 7 ; = iXVXLX@XY 7.A.7.K p 7.wX(.p p <.} p.b. .b.V.cX].C.U w 7 w v M M N N J v 5 7 K ,.J | c q Q ( R ",
"f...M.].rXeX`.T.^ N.B.` V Z i.*Xa.Z q Y.=Xy.! ~ R } u.Q V M J K vXiXS.Y $.>.=.H 0.S.oX4XG.8 ; J A.4X@X-.D L G ; ; J '.rXW.} C w q.3.4Xe.H d |.4X4X>.e f Y Y K K p ] b.] A M c q w ; 8 e q.}.e.= # A.gXgX<.w 7 f.M.l.`.T.A ^ N...K e G 1.k.2.D ; q ; ; q v 5 5 K 7.7.G = 9 7.A.P.VXgXXX>.>.Y 0 f (.F.<.{ F.n.{ <.] ..G.F.G.(.] w ).aXLXCXA.S.2XA.F.<.A ..eXkX/./.-X=X=XU.! ~ } f.1X3X5X*.9 D e 9 Y m._.L.XXT 9.8.:., , 9 :..X8.G Y A.L.[.} 5 w 7 f 2 > # d oXBXXX).[ N [ :.f , 1 *.*.d = @ = H &.e.0 t @.e.@.= =.=.u z @.u u z u e q J g.Z.Z.1.L [ :.A.XXA.9 , 1.N.| j.N.:.J D r D 8 / F.zXj.b B.!.z.E x b } h.h.f.c q J | / w * X 7 -.;.* = 3.>.= , , 7 [ +XbXbXjX].qXF.w B G.F.uX>Xn.[ W.*XN.E c Q =XkXM.Q Q Z `.`.u.E u.B.R.8Xp.B.N.N.].[.K = <.+XZ.>.D = 0 #.O.. 3 z t 3 + = O.O.d 1 # # 2 >.S.$Xq.7 7 L <.f.f.^ b.).D.:.:.L 8.XXgXG.K P.iXqX[ 7.+X1Xm.<.U 7 Y.u.B.N.Q S 0Xn.] K p w ^ n...M w J g.<.w 7 J K / ).j.x E u.d.",
"..A ^ F.0XrX:X:XT.*X*Xp.b c } Y.h.c q V y.z.a.! b } B.R.h.V q K n.S.A., < $.S.H f O.q.oX}.n.* N A.XXXX:.K >.-.; ; w K | f.f.X.M A. X X>.> + y q.A.>.7 @ 7 L -.[ A S ] b.w 7 ; C [ ; ; 9 S.S.>.+ = NXNXS.1.a w 9 N N V.V.N K n.N 8 * * e -.L G -.G.:./ L D 5 7 L { { G a 9 K.9 :.P.K.a H H 9 1.9 K f.(.+X)...] b.n.A [ n.,.n.V.] aXZXDXCX8.P.I.K.+Xm.]  .=X=X/./.Y.kX=Xc.d.a.=XN.fXVX3X>.>.G.Z.[ s U XXfXF.{ 9.L.G 7.H a n.G.G 7 N m.[ |  .q ; = , j 3 + k e.NXDX+XN ; -.XXq.g d }.5X6.= # , &.3X4X3.t = t j > 3 + # < @.u = g %.g.g.K N / [ J N J , Z.}.Y 0 , G W.M.N.j.n.1.L A.L 8 8 | W.W.p.V f.W.f.c c v C 2.-.J ; 7 P L F * * 0 ;.+., 0 $.$.f ; * 7 K 7.>XZX:X[ ..L.<.Y F.uXuXqXB ; c N.*X^ R V y.E.R.Y.a.` ^.M.i.` Q } R.kX`.p.V R.mX:X| 7 K A.G.A.a 0 ; < j 4 t t = < t = d f =.j i 2 = 1 g $.Y , ; [ F.<.N w K m.Z.Z.1.D H :.T f :.A.A.3X8.L.<.{ (.n.w w  .`.u.Q B. .M b...* 7 N [ W.M.f.N [ m.m.K 7 ; e J W.'.f.a.a.y.",
"w w C f.+XaXlXtXlX0XN.A q q M Q ^ C c V Q u.U.^.i.M.N.'.:Xf.c 7 L $.1.0 9 0 H y , 7 a 1.G.).w B [ _.qX1.w D L e ; ; q ] n.b.] M I {. X*.d , > , g , * ; J >.1.[ ] A A <.M M w ^ F.N w e $.H g = > *.*.O.H 7 ; w a K -.K ; ; D L e 0 ; * * 7 J g.sXsXD./ 2.K J G.A.2X3X:.a fXP.3XK.:.9 9 a Y 1.a { V.[.)...w M n.'.] A ] K | | w ).0X1XL.Y 9.I.wXbXm.B _ z.=X/.t.=X9Xc.! ~ s.xXGXcX2X8.T 8.S.Z.Z.p B 7.{ 9 , B 9.:.P.7.H n.F.Y w 8.L.n.[.[.M ; @ # > # # 3 0.BXgXm.A B L.gX4X0.I y 0.H > 0 H 0.5XpX{.g . = j < = . # + < t @ u S.#XOXg.v 7 7 7 e e D 8.A.Y 7 0 L.*X`.`.M.,.[ D >.-.e 7 v ] ( c 5 c K J w 7 8 e D H f ; 8 @.+.@.8 ; 0 $.+.= = f H >.f , , f -.G.qXV.K n.qXZ.J >.@XOX).K 5 w | h.R x x Q U.R.Y.a.} R.E.a.Q W i.[.8X=XR._ B.rX*Xf.w w <.Z.8.9 9 0 H = = t 4 @ # < , > #.6.#.6.#.> f g d d 0 8 J <.n.K 7 5 w J L D ; a :.:.G D a a Y D U N K V.<.w 7 } rXjX*X~.Q w ] ] 9 w w c ] ..[ K b.V.<.{ { K w <.g.| C b R ! ",
"| | ^ C ^ V.+X0X,.] A A C w 7 7 K ,.^ w c C } Y.Y.| V A ..^ 7 ; w G 8.>.$., < 0 , = = D Z.G.e w [ ].qX<.7 q / L r 5 q J { [ ^ B f  XoX0.0.0.f = ; X * 7 e e v w { B 9 M 9 w v ^ n.[ [ D e 7 d 0 # + > d ;.1.Y Y w D a 9 , = , L D D r ; * * ; e Z.uXG.1.G.L e G.3XVXgXA.G DXCXgX9., = = , a 7 7 5 M C M C C ] N. .w q c c Q ] c A K ] U F.P.1X2XiX{ B A c i./.t.R./.R.-Xc.R R Z V.7.a , a [ [ / <.{ B 7 = = 7 U -.).m.G K Y e 7 a n.).tX0X..[ <.= @ # $ @ #.hX2Xn.[ ^ n.@XiX}.>.d e.A.>.q.q.:.A.0.*.y   = #.d = = = O . * . y $XD.@XOXZ.>.G ; . . e G 8.q., , -.u.a.M.Q c w 5 J -.G ; - v c q q 5 7 N w * X * = 8 8 @ : u z @.u < 0 H O.= + < g e.=.y , 7 H 1.A.B N m.@Xn.L 8.P.Z.<.K 7 5 c V V Q ~ y.a.U.a.y.Q ` M.R.z.a.z.Y.U.R.Y.V V } } M * * w N K ; = = e H g H O.g f y > . #.>.$.}.H.0 H d < ; 0 H <.m.F.K ; * ; 7 N a , @ 9 a a 0 , ; 7 = ; ; N N.,.c q i.kXPXGX`.C 7 M B { ..[ M M ^ c A C.L.n.L.qXZ.5 7 N ^ C c ! U.",
"^ b.(.V...^ ^ [ ; ; p b.F.] 7 ; [ L.<.w M N C } N.] 7 ; w N N K a :.XX3XXXG a g 7 ; ; L (.n.w M b.(.'.K - 7 J v P L J w w p B B j  Xe.*.}.oX>.0 @ X 7 L J e [ m.n.{ , ; ; 7 w A K <.F.[ w a Y f < . 0 D S.VX@X:.9 9 9 e H >.$.f Z.F , ; ; , e J v 1.D..X.XJ w n.2X3X.X8.Y gXfX3X8., 9 H K w ; 9 w ] Q w M ] ] A  .A M c w C ] A | ..K , :.P.bXDX3X7.U M 7 V ` b c.z.U.=X=X! x 5 B 7.K = 7 ^ / c +XqXm.N 9 , 7 K N A.A.K w 7 ; ; 9 G.qX].N.N.V.7.9 d 2 2 3 H XX1XW.N.] N <.).S.G H }.2X}.XXA.9 a g *.0.$.0.#X3.$.g , * y e ; 2.4X>.2XVXdX.X$.; . * a a A.XXL e 7 c R ` c q 5 * q Y [ q ; M A Z p.v 9 a e = = 8 < ; : . . @ : z u < = 0 j 2 @ # d %.%.O.8 = 7 H :., a -.-.-..X2XZ.L B [ M q c c } !.U.u.y.a.i.Q R b y.R.=XY.z.s.a.R.Y.M q C E ^ C N 7 7 <.[ D ; 0 }.{.}.}.q.=.H i < &.8.#.P.}.H g , , # = Y ).(.<.w 5 ; ; 7 w e , . * ; 9 f f 0 7 * ; ; J n.f.) } p.R.kXxX`.Q M M { 0X0X).] M } M 9 X.m.m.@XsXZ.@ * J D.| c ! Y.",
"M b.0XtXV.N B <.7.N p 9.P.8.G 9 Y XXP.L [ <.n.+XV.<.B K n.L.L..X[ A.3XXX2X>.$.>.d , ; 8.aXG.[ .. .M.B.E ; 5 q ; 1.Z.2.e 7 G U a d #.j d >.S.$.a = * e 1.:.K ,.(.XXP.B w B w K A C | F.D.K K -.<.S.e D J <.qX(.K w 7 K :.8.iXuXD D e a f L S.OXZ.e e L 2.[ -.<.<.A.S.K.8.I }.P.9.T Y 8.3X).-.-.K f.`.].B. .Q ] b.l.] A A } T.`.B...0X0XB U :.3XfX8.7.U U V.`.p.V a.y.s.U.-XU.! c A m.m.s w ^ | | cXKXfX7.s 7 9 U 9 7.).F.[ w ; ; D :.m...p.`.n.N , 0.*.=.>.Y 7.].*X'.f.c K D.:., , Y q.:.S.8.9 D A.oXNXiX@X}.>.8.1.a ;.uXG.-.G.A..XgXgXP.Y 9 7 f D a 9 :.1.:.n.M W d.U.y.Q c ; w 7.L.<.M ] } u.`.<.a e G ;.G.S.F 0 t # + . + u u g = = k z 3 + 3 t =.*.f = * 0 L 9 7 7 9 ;.gXsXY 8 N Z.f.| } C i.`.E.( ~ a.a.d.! R ~ a./.U.t.s.=XY.p.q c ^ p.'.0Xf.v M qXqX<.7 D S.4XgX3X>.a G 8.XX}..X8.8.oX0.0 X , = * G n.<.K N v 7 ; w e 7 = 7 , 7 a G G f 0 e e N C ^ ( h.=Xa.! E.kX*X..] X.0XKXmX[.| M p.} w B U [ n.G.$.; ; w <.f.A } R.",
"5.(.tX0X..w U _.XXB = G P.}.$.9 h oX4Xq.-.7.1XKXm.{ B Y @XgXiX2X9.A.A.:.S.$.Y >.;.f e F.AX).b.b.W z.=XY.C c v w Q..XZ./ -.m.7.s > # $ 1 I w.8.G , 7 B n.).| C ,.qXiX7.{ (.<.n.] ^ C | '.n.<.n.qXcX..B M M ] | | c M m.A.:.iXAX>.X D S.Z.Z.pXVXS.7 ; 7 7 N qXaXY a K.6XK.I &.:.G , 9.@XiXqXqXqX<.N.p.b.`.`. .p.tXp.Q w C T.cXcX0XA `.0Xb.7.9.8.T G A.P._.cXmX*X~.i.! y.s.R.=Xy.c J.[.L.b.[ Q p.:XDXZX_.B p K G a w Y F.XXF.K 7 , , = v ^  .B.b...= P. X X2X:.B V.:X*Xf.q v f.:.w 7 D -.Y L.XX[ A.iXgXAXpXS.L e 1.uXm.F.aXG.{ n.G P.P.8.>.$.D 9 e L G Y -.D :.XXf.i.x./.R.Y.} w K +XaX+X,.] } p.~.).Y w G XXCXXX7 f H < = + + u g %.4 # t =.t + @ . 4 =.O., * 0 $.G * . , -.oXP.0 * J Q.).N.M.} } R.R.y.E z.U.s.a.~ R t.-X-Xs.s.=Xz.} 5 q ^ p.'.jX] c K vXaX<.7 K @XiXuXP.:.a a q.CX2X2Xq.$.oX}.a * D H D K N w K n.,.N M g.G.:.J w w N J 0 7 0 e -.1.2.C q b U.kX^.z.=XGXjXN. ...0XnXcX].f.M Q } C.X.B N a D H L , ; K ).0X~.Y.",
" .[.cXMXC.M B 7.9.9 # h }.|.&.1 f S.4XK.$.Y A.wX-.G 7 a K.pX5X2X<.7.[ D 1.f a $.1.q.1.Z.qX| |  .W v.8X=Xh.p.g.j..XQ.G.n.1.<.{ T i % # 2 H P.}.L ; J { Q.dXD./ Q.qXiX<.{ aX'.0XN.c M ^ '.V.'.[.tX*XT.} Q c c i.z.c Q b.<.[ ).iXZ.L 1..XZ.P Z.@XS.7 7 5 7 [ dXaX<.9 K.hX5Xw.a 0 a a -.qXqXqXZXwXF.B.p.p.[.*X .Q B.`.M.Z V M.*X[.B.u.] A [ m.2XI.&.I.gXLXgX+X].0X0Xl.R W W z.=XR.~.tXyX<X].(.p.U.kXrXL.K , w n.L.[ 7.N G m.F.-.J a 7 @ w N C  ...n., XXhXgX3XB w X.R.`.a.V M f.m.<.L [ m.n.aXZXm.(.uXfXAXiXZ.G e Z.sX+X<.<.f.K K N G i f 6.P.:.9 , 8.XXuXZ.2.OXqX+Xi.t.c./.[.b.A ..wXZXvXV.A A  .M.].(.[ B G.iXn.= 0 H f y t t %.3.3.t + 4 3.@.: 3   = g O.d , 0 H -., * , a >.;., * -.F.F.N.W.!.u.R.=Xa.R y.a.a.-Xt.R ! /.-Xx.t.t.Y.B.V V | b.(.(.A M ] lXrXN.N K 1X1XP.L.K.:.G Y iXuX2X-.H }.A.f 0 S..X1.[ N 7 C N.F.,.<.+XuXOXG.w 7 w N 8 7 e 8 1.Q.OX,.x x u.R.`.^.*XkXrXB.X.Q ..V.].'.M.C c p.tX(.X.B 9 , f 1.D :.(.fXbX[._ ",
"X.(.0X(.] A <.L.9.H a &.K.S.I , d *. X}.&.H Y Y a a a T .XiXiX4X-.[ Y H Z.0 , H Y XXXX1.<.7 K } Z ' c.U.z.E.!.D.W.D.F.Z.G , 9 Y *.1 > 2 f K..Xw 5 n.F.(.*X^ q V.qXiXU G aXrXbX:Xq | b.(.b.qX+XC.] *X(.p.C C M.} q A ] A ] V.F.n.G.:.G.oX;.D P G J e * * e K G -.Y P.iXDXiXa = G :.9 G.L.XXiX<.b.b.:XcXjX]...^ | T.T.} C } B.Y.T.X.M M _.2XDXiXK.iXhXDX2X<._.DXbX] q V E a.E.}  .].+X).V.N.p.} p.] [ U 9 , n.gXiXaXK , U n.7.<.<.a @ ; - w W.'.V.Y qXDXDXL.9 9 M Q M.Y.f.f.V.F.b.N B 1.F.ZXPXm.m.m.XXgXqXm.K M f.N.'.C C W...v B , 0 Y w.6.0 9 $.XXAXVX[ <.qX'.:Xz.t.z.[.8XB.^ f.qXbXbXV.M V u.b.'.aX(.A { D.[ 9 7 G H $.;.>.#XoX%.2 . 3 3.*.k j < < g $.F , = 7 7.[ G 7 ; G :.e 7 F.D.f.N.'.lX!.E.=X} q c Q p.eXR.} R } z.a.W b M.T.^ V | V.W...M w M W.'.).C 7 ] b.m._.1Xn.B Y 1XCXiXL L Z.H 7 G gXgX1.<.<.N 7 A V.F.n.W.W.n.m.N ; 7 J J G J 7 :.OXzX'.E b Q E } p.M.N.`.Y.X.M A A M.l. .Z c *XjX<XV.{ w ; 9 Y a OXgX1X].(.l.",
"V.l.(.(.] ..F.<.:.9.$.>.H >.j 2 , > H |.P.f , a 8.n.-.:.n.F.1X@X-., e P.XX8.I a 6.A..X8.K N w ] Q ` ~ t./.=X/.U.V } f.B ; 7 a , f > 0 f A.).K K q _  .B.`.E q } n.[ L K [ '.rXF.w n.m.<.3XCX|.I 9 [ n.K 7 B n.n.; w c q q E ) C ] 9.XX.XH * ; r v v - - ; ; D r f }.gXsXP.e = a Z.A.S.2XS.:.N K T P._.L.F.[ w J v | N.} Q M.[.yXF.p 9 m.bXCXiXwXiX3X:.H G K.)._...N.V ( T.) c 7 7 / { { K v N 7 7 Y K p :.1XiX2X8.9 9 { 8.1X1X7.9 * w 5 v ,.+X| N m.gX1X7.T B 9 w | V.b.Q N | N.K N M ..+XqX(.F.:.L.m.[.+XA c W.*XT.u.V C T.(.M 9 T 7.1X&.a &.4XpXLX2XN N v ^ rX} ` i.Y.[.W.| C | :XW.5 A ] ] M <.qXOX[ Y -.L N * D S.S.D e L >.0 I f = , j =.*.$.O., e 7 e ; w W.T.^ 7 M | ] C | <.W.G.| N.0X0X8X*XC q w D @XZXvXb.w N [ K q ; ] | C K N.].'.^ N ..7 , ..[ M w Y.8XjXyX`.| N K >XqXF.K Y 1.-.K n.N.tXaXcXtXX.w p p ..V. .} M.p.....U <.].F.U K ] '.0Xf.Q q 5 p.'.b.Q ] M N.V.....Z Q } W R s.Y.Y. .*X`.N M Y 7.Z.G.<.A | `.8X",
"[.| B.jX'.[ [ [ <.).8.f # 0 d d > # < >.}.q.G , 0 >.:.L D L ).XX8.e , L }.2XA.a h 9 s { n.n.K K M.i.R b ~ x.c.Y.i.p.} N 9 < , = , = = < -.n.A M M Z i.^.`.p.Q ] w 7 w w 7 w J N ; L 8.}.BXBX*.$ # , 9 7 = ; w w 5 w c 5 5 c E R M S ] 7.L = * r / j.J v 5 * F $.9 Y -.$.L , = e L P.oXP.-.-.-.K B s w Y G.L e 1.J / n.b.} A Q p.L.T 9 s L.fXbXgX8.I.K.9.9 9 , a ].T.C b.:XN.J q 7 w ; 7 -.A.Z.v G.2XZ.a a Y 6.K.8.a p B T 7.m.{ N ; w J N J g.| w C ] <.L.qXfX1Xn.U ] b.| 7 5 A ..] w 7 K F.1XfX1X].] b.0XB.} E.=XT.R.B.} } } M B B G m.A.G T >.P.}.G 7 ,.W.N.T.p. ._ } M.N.j.) q q c C C ] ] ] N Z.A.1.G.G.-.w G J L Y G N w = a Y $.f 0 d &.}.>.8.D D J n.,...E M.u.c 5 q C | '.V.F.V.K N K [ V.b.K :.>.D Z.pX@XH = 9 Y [ v 5 * N U b.L.(.n.w ; N 7 w ] N M N `.[.`.`.`.b.| ..F.F.^ 7 N f.V.V.V.p.*XmXbX1X] U B 9 A b.p.p.Y.B.0X_.<.<.0XaX0X0XA ..C.| p._ M N.:X:XN.| w b.[.8XV.Q V Q R c R t.V } *XrX..K ].iX).aX].A ^ *XxX",
"} } T.0X0XtX+X[ ).fX3X>.# , G 6.2 , 2 #.oX5X0., * L $.e * ; L $.Z.:.9 7 A.DXiX9.a > T @XbXwX{ A [.Y.~ R s.-X-X/.i.} A K 1.H # @ %.$.< , K <.b. .V c } Y.M.Y.`.T.A M N K w q c N w e e -.XXXX&.0 , 9 U <.Y N w 7 v / | C c C ( u.' o.Q 7.D.P e ,.Q.!.h.| c 5 P q.G 0 = 9 >.$., = 9 K Z.8.[ w Y F.P.{ ; a P.8.L ).n.,.g.(.W.] M M n.:.a , T wXCXfXB T 8.XXT , ; -.:X| 7 ] :X:XW.{ w q * e .XsX@Xe L S.q.f a , = f K.&.a , , s { n.n.N [ +Xn./ | n.b.] 7 U _.fXbXL.{ B K m.<.9 w f.f.V.] 7 M F.aXKXnXtX] ..tX*XM.p.B.u.E.].b.A A ] 7.{ { :.F.a H i f 9 ; 7 f.:X'.b.b.p.} } b.W.N.| J - q V.A n._.F.K K w e 2.Z.:.[ -.w q K n.(.<.7 9 T A.A.G , H }.Z.P.P 7 J +XOXW.^ *XrXN.c 5 q Q V.f.f.f.K w w w w p w -.-.; < L >.a = , N [ / J 7 ] ..F.0XwX+X[ K n.F.].F...V.).l.} V ] `.rXrXaXD.D.^ q N <.V.'.`.].lXlXcXfXL...9.S U (.0XtXmXjXfXaXm.A ..(.+X0X(.J.V.V.].(.p.].vXnXW.K K +XtXtX[. ._ x.a.t.` t.M.*X*X`.w ; 0XKXvXKXqX|  .*XkX",
"Z p.b...B.cX].7 +XgXiXP.9 , a q.=.#.j =.{.5Xq.2 = y 0 7 = * 7 , D -.e * H 1X3XK.G T 1XbXcX(.N c M.z.` ~ /.kX-X~ V V M n.sXP.2 > 3.q.< , G b.1X`.~.Y.z.` Z  .~.`.V.] N N ^ ] ^ J m.K 7 , G 8.K.oXs K n.L.n.{ ] B w | N.f.E C } z.c.c.` } F.<.J j.*X!.h.u.C q J ;.$.0 + , 0.1.7 * ; , [ { { 7 <.qXbX3Xw , S.P.>.).).D.] ..T.N.] 5 Y 8.-.w G L.).7.9 a D :.G Y L 1.tXf.q w K ,.,.N / [ D 1.dXVXOX7 * +.2.;.>.f , L 2XS.G = * ; N 7.F.-.n.ZXqXF.| n.N.f.7 [ 0X+X_.B K { <.[ N w v C b.].W.A A (.aXbXmXtX .} `.`.Y.M.u.( B.eX:Xb.] ..C._.I.7.:.Y K.A.a , w K ,.].*X| ] p.b.b.N.W.D.f.,.w w K w (.tXm./ e ; 7 N J / ,.+Xn...n.(.).<.7 , T @X3X:.9 G q.}.}.K ; v F.).N.c M.`.f.E w c ^ | b.n.| K ,.[ w 7 N K L F ; * ; 0 a 9 , , e / 1.n.n.[ C.aXZXaX<.m.wXDXKX].F.aXcXtXV.C A ).aXdXrXj.n.f.] ^ ] f.W.*X*X'.(.'.].7.N <.w A _.fXnXJXbX].aX].K w ..+XtX0XF.n.V.'.T.| V.qXvXF.A <.tXqX'...C Z z.=X*X/.i.` R.eXW.w 7 F.vXZXaXN.] p.M.M.",
"[. .Q  .~.`.b.A (.qXXX8.7 9 a #. X*.d 2 #.3.O., # = = y d = , ; e -.K , 9 H -.m.:._.ZXaXV.] w c } B.i.W z.9X-X` a.i.Q V.vXXXg y f $.< 9 :.L.cXjXcXmXM.c E p.Y.0XB.p.C c } V.b.^ f./ w ; = a >.S.K U [ [ [ n.n.] q ] T.M.^ V ( M./.8Xc.` M.h.) ( E.U.U.a.E w w H $.f @ = g D 7 e 7 J <.K [ [ ).+XfXXXG a G.L.n.OXOX+X{ M | `.`.w B -.-.N a U K 9 G 7.G ; * 8.:.8 m.,.] w 7 N w ; { -.G 7.2XiXG., - m m F +.y 0 ;.{.Z.L r 7 ; 7 D L G -.aXqX(.K N <.V.M { (.<.7.p F.L.n.K K { K , <.).N.w c p.`.`.[.`.W V p.R.*XeXu.M.`.0X0Xm.{ ..L.wXm.T Y 2XDXgX:.K 1.F.n.(.W.c q A [ ] ] ,.D.G.Z.-.[ J Z.uXvXF.g.C q 7 ; ; K W.).'.+X).f.] A w p [ ).).Y D >.q.}.G.L 7 B ..f.| M ] | ^ C M N ] ..:X].A C G.G.A M B [ ;.+.8 @ ; 0 f a , * = e P m.b.] V.fXZXwX{ b.qXZXbXF.L.ZXnXbX(.N w ] ,.^ J C f.W.W.V.N.`.cXGXN.^ N.W.K w w U 7 B ).aXfXaX+XK m.F.K w <.rXZX).K N ] W.V.A A K F.n.K :.F.n.[ p w M  .*XGXxXM.! p.jXT.C K C N.W.f.M c C V V ",
"0X .M } N. .] [ V.qX).7.G F.L.A.NXe.< @ , f d < = = , #.H = = ; K { [ G w , 9 [ [ F.tX].b.| w 7 A M.u.c V z.=X8XGXjXB...n.L = = y H 7 9 Y F.rXcXJXGXM.c u.B.M.].p.M.X.S  .T.N...| K K N = * ; , B w w A b.].`.Q c ) p.p.C c C y.c.9X-Xi.p.j.) b u.U.*XE.Q M w Y 0.O.= < 0.H.;.-.<.[ [ [ f.| b.V.m.Y G :.Z.Y J 1.[ G.K q N V.rX,.w N N w w N Y [ [ <.N 7 = N e 7 7 U F.<.K K 7 , N e 7 -.oXXX1.* - - - ; ; * * 8 y F ;.k.1.L m e w a L L.+XF.C 7 f.'.| K ] N U { 1X1XL.-.L [ K w A ..] c V ` _ Z } } b ! `.eXmXjXp.T.b.^ A K ..L.wXwXG s U iXiXA.Y [ ).+X] | p.q - ; q w w K 1.Q.8.[ Y [ uXXXF.{ / c ^ | c 5 C n.] V.eX'.] C } b.U N U U w G 8.8.1.1.:.K ] A Q C M ^ ..b.V...C M ] :XL.7 w (.qXF.K 7 D ;.3.< . t H G a , ; ; ; 7 B K M ] V.+XqXL.] m.).).7.F.bXfXF.<.N 7 w 7 - ; v ^ f.V.`.T.*XGXGX!.^ | ,.v w w K w K L.@X1X).<.N K [ B 7 K F.+X(.N w K W.(.C 5 5 w N w -.[ G , p M A ] T.jXjXB.E.B.mXN.^ f.- w C ^ A c c C ^ ",
"M.M.X.M M w ; , <.(._.qX_.qX_.).hXXX>.0 , e a a e f f >.;.0 , ; 9 w [ <.p = 9 { p p U ] | ..c 5 w A Z c w V a.kXIXmX`.A 7 , ; = < 0 e 0 K <.<.(.nXnX[.] A Q ] b.M.z.Q c _  .] ] V.^ { n.L ; ; ; N 7 7 S b.`.Y.Q Q Q ( } ^ c q x t.c.z.Z c C c 5 ( E.kXE.Q B 9 h e.%.2 g }.oXS.G.G.K w f.b.] C | N a H Y a = * ; 7 J ; 7 A ] (.[ 7 8 8 7 w K -.n.B N w K 7 ; ; e w [ ).F.m.Y ; 9 -.G 9 L 7.:.[ e e 5 r D e y F y 8 e >..XG.Z.g.[ a H :.n.F.,.K N C N...w M B { ).iXiXOX:.e 7 7 7 w A ^ } l.i.R b d.` R a.=XeXkX*XM.V.A ; , B :.P.I.P.T U { n.7.p 9 M n.n.v A f.A 5 ; 7 K :.:.-.-.e = * 0 Y e ; * 7 7 f.rX*X| C c Q b.[.B.E C p.T.p.w M <.{ <.n.-.K <.F.[ | M A Q 5 7 c N.aX+X] w w <.] 7 w ..G.+X-.9 e $.;.t . g H h G H K D e e N N , ; 9 U ).@XY B w G K K n.7.<.m.m.<.J ; * 5 K M c ^ f. . .Y.W.'.( q 5 q L e N 7 a Y :.8.:.9 J J :.1.N w K <.).] ^ K ] | M 7 N ; 7 w { G G , 9 w A K ^ ..f.} c Q *X!.'.:Xc 5 c ( | u.M.h.| ",
"S ..b. ._ M M ] A K n.KXaXn.w B _.wXqX7.M w B K { -.L 8.G.7.-.w 7 w F.1X-.a 7.wX7.w 7 q ^ f.} | ] A ^ p.p.V V Y.R.`.Y.A 9 N $.H @ , 1.G.OX).^ ..| b.W. .5 w V.eXeX~.V w _ ] A ] f.q N F.g.w ; ; n.A M Q } p.`.*X[.E.T.].*XN.A c z.i.} c ; 7 q 5 Q y.`.} M G , = =.=.t < t y ;.uX<.K q ^ ] b.E M K :.K.<.7 7 e ; { K ; <.(.<.n.N 7 r e 7 7 w N N ] (.F.{ w L D 7 7 w { 1.L.7.a A.gX.XG w 7 , -.).1.J -.:.L >.G.Z.-.P n.G.2.1.G.n.G Y Z.-.<.v B [ N N.n.w w N p <.qXqX).[ [ n.n.[ w C Q l.^.z.t.t.R.z.~ ! i.i.R.R.T.V.] B <.m.{ T 9 G m.F.L.B :.{ N , q M M V.*Xp.c q C ).aXOX-.0 H , * f , D f a N.C ^ W.T.M.N.B.w V } Q V Q Y.[.`.C ..cXcX+XF.Y Y F.+X[ ] N | f.b.N 7 <.bXvX<.7 w A N w w 7 w 7.Y 9 7 ; 8 < . < 0 G :.A.n.2.-.>.OX).U p p U ).+XF.N * w B 7 9 9 ; U Z.n.K ; - e ).| C | `.M.Q Q N.'.j.^ q 7 g.F.K 9 w G T >.$., * 5 1.OX/ 7 N { :X).].f.c C ] N.[ q L L K 7 Y :.N B <.n.] M C ^ c Q } ^ N.*Xf.^ Q n E !.rXN.c ",
"] ] A b.V.] B n.[ 7.V.F.F.+X].n.mXnX8X..A A _ | ^ [ M C N.].(.N * [ -.A.n.N m.sX]...q ^ } p.*XN.^ K <.N.B.Y.y.c ` R.`.| M w D Y , H P.8.OX+XF.^ w N.W.eX..b.tXJXeXeXY.Z M b.'.[.]...{ ,.<.N ; N ..b.b.Q c V Y.kXeX[.PXKXzXrXC c ].rXW.:.-.N G.K ; ^ C 7 G >.f @ O.t d 0 * 0 q..Xm.w v w ^ *XM.q m.XX).Y A.[ a 9 7.n.OX@X).F.m.>.L L H.1.v e [ +XaXm.<.{ e K 2.J * , e w 8.G.K :.iX@Xn.G 7 w -.(.G.f.<.K <.sXCXCXiXN K A.B w D.OXP.:.H [ <.n.{ v 5 ,.].f., ; N K +X+X+XF.w -.aX<.N w E R./.x.t.t.x.-XU.! R V E } '.(...m.sX@XY Y T P.VXvXL.{ ..<...f.] 5 A A b.`.C ] ,.OXaX@X8.< $.g 0 O.H.$.D >.vXM.c C M.*X].M.} u.E c q V R.^.B.] A V.aXbXaXiX7.G m.].+X] b.F.V.{ 7 K { -.F.{ N 9 { <.N 7 w -.8.L d # ; @ = X @ , Y 2XvXn.J Z.uXiXY K K :.n.@Xn.[ 9 7 -.w w w , N 1.1.v 8 K -.D.F.q M } b.Q V ^ Q.:XD.J q J D.1.-.a , f >.Y , @ e -.-.G.g.5 K | (.aX0X| C | N.[ e w [ e 9 .X@XT , [ +X<.A | ..q q C c ( W.W.`.Q c q | '.f.c ",
"w K V.+X_...A ] K 7.b.n.qXvXaXqXl.*XkX=XM._ Z } M.b.M q A N.'.,.w a 9 G L 7 N L.+Xn.K ..} ^ N.u.v e N ..`.`.} q Q Q } b.7.B a -.$.;.S.-.n.m.N.N.c N.*XnXW.| ,.<.cXGXeXX.S V.cXDXZXn.K ] g./ 5 w | T.`.} c V p.R.=XY.mXbX:Xm.N / ,.g.F.4X}.8 Z.G.w N c N 7.S.*.k #.j < * # y -.-.K w ^ ^ | '.R...7.8.Y G 9.T w N 7.L.@XG.L L 1.Z.P +.G.H.P J :.aXqXm.<.[ w K 1.L , ; , ; [ n.a a L.A.<.G 9 w K <.{ B B ] 1XLXDXgX7.w { @Xn.K m.(.A.:.T :.F.(.F.N.] f.N.[ N ] [ N f.).+XL.B <.CXiXn.K C  .R.U.t.~ d.c.c.y.~ V W  .b.[ N { qX2XF.F.A.2XDXLXbX).{ A [.tXT.5 C  .B.N. .^ f.0XVXuX$., y O.0.S.$.; 8 Z.bX`.p.| | M.T.B.R.eXT.Q q q u.Y.} c c n.cXKXZXgXK G n.F.(...b.7.F.n.w 7 w Y (.L.N w <.G.<.N , 9 K A.}.;.* O . * . , { fXbX<.J OXqX1XY [ :.n.<.-.A.[ 9 N L.-.Y N 9 7 N Y -.-.-.J :.,.5 N | T.p.C ^ Q.OXg.c - w g.).1.G a f Y &.&.7 e L { G.n.7 N K F.bXZXF.A j.0XF.K w 1.n.A.iX.Xa , [ ).<.K ^ ^ ^ w q 5 C N.p.) q c | '.:Xn.^ ",
"N B <.n.[ 7.1XgX+XwX).m.qXwXL.b.B.Y.Y.Y.z._ V W M.R.} Z c Q M...w = # 9 Y a , Y n.<.<.j.^ c ( ^ w 7 , [ tXtXl.V p.Q } N.<.w K sX2XZ.1.9 B ] N.].c } f.:XN.^ ^ ,.bXKXmXV.7.1XnXZXaX[ B f.(.f.q q | ].rXB.W W y.i.=X} ] V.D.L a N 9 Y A.|.q.2 q.Z.K C N K 8.oX{.z 2 O.g * + ; e K -.N C C | '.*X(.K e = e :.Y p T 3XsXiXZ.a P G.OXr r +.Z..XA.L :.<.{ { N ; 9 L N e ; = ; L G.:.J a [ m.m.{ K A K ..M w A wXDX_.F.G 9 B 7.{ K ..F.G a = @ 9 N B ,.f.] C c ] '.).] A N.'.W.U K F.F.<.[ c V U./.x.s.c.c.Y.U.y.V _ N.b.<.{ 7.1XCXqXZ.G A.2XiX1X..M ] jXGX*Xc A b.].0XT.V Q f.'.).a < + d {.}.0 . e .XJX'.( C C ( } Q Q T.} V c w  .`.N.| ^ f.Q.G.<.Y :.Y [ K U w M N 1X3XY ; 7 L G.P.N , B 7.7.[ 9 , p :.>.$.* < @ . = , U qXcX..C Q.qXL.a <.n.-.a a K G N 7.iXA.-.a = , N L D N m e [ K 5 w N N.N.M ; J <.<.K 5 - w [ L N 0 a G I T 7 7 N { f.[ 7 7 | N.tXcXN.A N.lXqX<.K m.).@X3X7.9 , 9 a w 7 w N 7 ; 5 5 A V.f.} c c f.].'.f.,.",
"F.G Y -.a Y 1XgXCXwXL.n.).2X)...Z V ~ U.=Xz.Q _ Y.eX`.} q 5 A ] -.7 , 1 $.$.= 0 G [ n.N./ x c C e 9 = G tXtXB.p.^.M.b.b.] w <.ZX.X;.G * w ^ j.N.c w q A J v [ ).cXnXtXF.L.fXZXiX{ p 7.tXaXW.v w ^ W.eX[.u.Q ` i.`.Z & w K e D , ; G >.q.e.#.q.G | f.f.C K .X Xg * F F 8 , = ; N / N v c ^ f.b.n.L e @ N -.8.U 7.iX@XS.L 7 y >.1.r * 5 +.oX.Xe ; K <.A.Y , 9 L G 1.D 9 7 D n.:.w ; K (.+XF.] K K b.] p p m.F.s B B 9 , 9 K K K K T 8.8.A.1XF.K / w C ] ..F.qXW.w V i.B.'.(.<.G 9 A <.^ V a.Y.c.-Xc.s.c.U.i.! B.yXtXaX+Xm.(.ZXaX[ # f T -.<.p 7 Q `.jXeXB.V.V.].mX`.R } Q <.F.a f # , >.0., X L XXzXN.C q q c C M } b.A Q u.C E N.rX:X].Q.1.K D D q.8.q.n.<.p 7 w K.S.G , 0 G Y :.w = p { m.m.U N , = * , g #X{.F e Y <.V.W.^ c ..qX:.7 n.A.G 7 a N G Y 9.F.G G w 7 B n.n.N ; 5 7 J J w 7 ; ] F.[ 7 7 w :.).n.N q v -.-.a G 8.A.:.N w L m.g.| [ K | ] | | C C N.qX'.,.K K K [ [ p 7 7 = * N K C K 5 w { ] ^ ..| f.M.A A [ K K [ ",
"fXG a T 7 a A.XXiX9.-.:.1.uXVXF.S V _ M.B._ A N.rXnXqX,.; X K G.oXq.$.1 g $.= = e L Z.F.,.c 6 c f d ; 9 V.V.} p.Y.Y.p.} | [ ] [ a e P - w ] b.f.^ C N N K w e <.'.+XD.J B 7.K.A.a 9 F.nXnX+X^ v N | V.T.} c R a.a.} - ; , 7 =.y = 9 0.5XBX|.K.[ | B.Y.Q w :.S.H 0 e r H >.D * 7 - N ,.f.K q w K A.:.7 G [ _.F.F..X:.G f , ; y O.;.8 ; 8 -.q.H a D 8.L.Y 7 9 K Y Y P e ; 7 / :.N B ] j.F.N.f.^ C A U U B U s 1 { a 9 = 7 Z..X[ , Y K.XXuXCX+X/ ^ | W.].N.| f.f.C b ` B.*XtX).K w 7.+Xn.C ` a.x./.s.~ ~ i.} x.yXPXLXbX(.] [ (.OX1.7 a 9 G F.<.c M _ =XkXjXcXyXV.B.y.R p.Z A <.7 < 1 > j $.8 ; H Z.F.N.N.| q 5 V ] f.b.] `.tX| ^ (.JXbXdXQ.[ e 9 e = >.XXuXuX_.[ G 0 9 0 a a a a Y N 9 [ A.).)...B ; * w 7 F {.pXH.-.1X[. .Q E V C F.Y 9 F.n.L N G :.Y D 7 7 ; K K [ { F.OXG.1.D ; 5 K -.K w K +XL.T 9 , G ).).<.J C g.n.K a :.I._.<.N B { | b.(.n.M w M p w Q V.W.W.f.] p w K [ U w p 7 M ).qX(.m.N [ G.n.] | ..(.eXf.M 7 ; 7 D ",
"sXa 9 T e 9 >.q.S.a 9 a L 2XDX+Xb._ M ] ..K A n.aXZXaXG.e , q.4X4X4X}.I &.>., + ; 9 [ <.g.) 6 v H #.f 7 N M C } Q M.l.A ] ..C ; 8 G 1.; 5 K (.0X(.W.V.^ ,.K q J <.G.G.K ; = 9 a G = G F.].0XV.] J K f.N.} c b i.M.b.M 7 7 H e.j = G XXiXBXhXiXn.Q ` i.! w w L >.P e D 1.G.L 5 7 7 / <.D.,.7 q [ 1.Y 7 , G ).1XXX-.a G $.0 @ ; F 3.r ; * 8 q.1.H a :.9.H 9 9 D T H >.D , 7 K 1.L N w N f.'.'...w , G n.:.G 9 1 w.h f = , S.sXD.7 &.S.P.XXuX+XF.OX0XZXnXN.w C b.b.V t.R.R.V.[ w N 1XqXb.c V ` s.c.x.R ~ z.p.~.cXKXwXb.N A K C / D.L G 7 w 7.V.b.l.Z `.`.[.jXIX~.Z W ! a.c 7 N , 1 @ + < g 0 , r P ,.n.W.F.A w A ..] ^ ^ 0XtX| } 0XnXaX).:.e ; # # . A.uXpXVXLX1X7.9 , >.S.8.-.-.A.:.N [ { { 7.U N w w 8.L L 2.uXG.+XtXY.Z } M.} c B Y Y P.A.S.1.N Y G w * , N G.<.N M | (.+X(.[ ; ; 1.@XG.-.G F.A.Y H w N <.n./ B w K <.<.G 9 T P.).[ 7 w B n.+Xb.M ] b.b...b.B. .'.'.V.N w [ ..7.[ [ p N (.tX:X+XZ.1.7.K B [ b.].*XV.K ; @ ; 9 ",
"q.i H S.$., = + G 0 = = $.uXCXVXU B K ).vXXX[ D S.@XoX}.;.g q.#X#XpX}.*.q.>.H 0 , ; e D g.,.6 e H >.;.a ; 7 C ` M ` _ A ] ..K w -.-.Z.7 ; v N.rX].'.W.q ,.<.J D -.G.,XG.D , , f Y , p K 7.qXrXW.J | (.0X`.` V Q Y.W.<.J 0 =.e.#.1 T 1X|.uXgXfXb.V ~ t.! V q v 1.L w D 1.g./ N e L 1./ 1.:.q K G.L a 9 , K F.1XP.9 , a L , . X < 4.< u < , 1.q.9 9 H :.:.:.Y H H Z.2X-.8 v K [ N ; - 5 ^ W.'.p.c ; D Z.>.a , < #.O.#.t ; O.#X{.f 1 T oXgXiX).F.W.W.zXnX(.^ | N. .W t.^.p.c w 7 [ qXOX<.M M ` z.c.x.W s.^.~.[.yX].A M w K ,.v v n.>.H , ; B F.*X*X` ^.l.p.~.cXB.V a.E.R.} M N T >.# = = 0 f 8 ; e ] | n.f.C M | N.).<.] F.V.c M | N.W.F.:.D 9 0 g >.SXpXpXBXLX2XP.&.0 S.pX2X4XG.Y H 9 w 9 w [ [ [ ] N <.A.1.OXsX.X:X(.X._ Y.R.u.| K H T @X.XP.1.9 a Y :.G L 8.uX7.9 7 M [ f.1.[ w 8 G.dX.XZ.0 G G { :.U B [ <...] M v [ F.n.B a -.1X(.A M U C.1Xb.| b.'.0X].(.l.S V.*X0X^ 7 N N { F.n.A w K n.'.qXVXP.-.7 7 M A | V.V.[ w w G L ",
"0 = 9 G 1 @ = = $.8.0 = A.2X3XgX+X@XqXCXCXL.D e H ;.$.>.H y $.>.pXNX>.j O.H 3.q.+.e e e <.,.- ; f 3.H.H * 7 K ] c q 5 A (.(.{ e 2./ g.N N w w J <.n.-.X L 8.D 7 e L >.>.D 9 G 9.K.Y <.<.b.aXnXrXc <.tXKXmXT.W c p.].qX7., 0 =.>.9 , 9.2XDXfX_.b.V z.z.! ! C C [ -.5 ; J <.n.| 7 q 2.,.Z.[ * D OX1.T :.T A.A..X7., , a G 0 = * * t 8 3.H X D q.D X , a :.A.9.a , P G.e = K <.m.[ 5 ; ; 7 v ^ ^ ^ 7 e :.L , , = 2 O.>.$.< 8 3.3.8 = T 3XsX).<.n.F.qXrX).N 7 { (.V.R ` =Xp.M K <.1XqX@X(.,.A } U.Y.~ V s.8X=X*X[.| M ..[ K | ^ E n.P.H ; ; <.tXjXB.} ~.M.~.`.`.A c } U.R.`.<.G :.8.I h < 0 L f ; 7 v / n.[ ; ; <.aXDX'.] b.7.A A B v g.OXn.e ; e >.4XpX}.iXhX3XG $.&.# %.oX5XAXS.@ = + , 9 G A.F.F.(.[ [ n.e -.-.q [ ] ] V.Y.W _ tXG.D e uX4XA.G , :.XXiXn.Y <.2X<...V w M ] <.<.G 7 1..XZ.q.; , , $.Y 9 # 9 { n.N.K w 7 C ..<.K p V.].b.] K [ V.U n.U ] L.0X].b.M b.aXKXF.M A Q ~.V.V...] A p.:XZXsXZ.G ; = w M { V.(...B 7.).L.",
"B 7 N 9.:.9 , 0 Y -.0 a T @XiXZXiX7.L L L >.1.D y ; r ; * 8 D P.$X{.8 ; = X F q.;.; e L 1.P N * = $.H.+.7 7 G L 7 ; 7 v >.:.7 ; ; [ G.J 9 G , 1 d d 0 # = j %.f 7 ; 7 G -.K G 7.uXA.D.g.C f.:XN.K <.cXKX0XB.M.Q ] ..+X7.7 G Y a $.D , H 8.A.m.] S o.B.V.V.).,.C J 7 ; N K | h.C 5 q [ :.0 = 0 $.8.CXiX8.0.{. X0.# = 0 L $.f ; X 8 < y , ; 7 w Y B N ; , .XG.= 9 >.q.a = s T K [ * * & 5 J ^ C A 7 , N Y 1., , g H.#Xe.t : : * # ; ] ).F._.).{ Q.qXqXw X w Y S.<.} ! c } f.+X1.D a 1.F.<.V V y.U.d.R R i.Y.M.u.| c A f.T.f.c V W.P.F ; 7 / F.N.C C M...f.w q w N m.aXDX+XK G K.NX5X0.i @ &.0.>., e ,.G.B 5 <.wXZXtX..9 M m.L.5.S <.<.[ B w 7 w { XXG.XXA.>.H # 2 O.< < 3.$X3.t 0 * < , f :.<._.tX[.p.q c q ; X a K N L.L.B p <.iX3.= f S.}.}.$.7 7.7.n.N 7 N [ F.R.y.W p.| N K K = a $.$.F F 8 ; f a = X , U <.N.,.^ q w M.b.w c l.B.Q w w w M 9 9 , ; a A.2X8., Y n.m.{ w M Y.[.=X/.x.~ ! p.p.} w ; p B [ N U B C.(.C...'.mXnX",
"| A M ] 7.{ a 9 , :.8.S.n..XF.F.{ K K J w / G.G.D * - ; 7 q 7 [ >.1.F 7 * X ; e e * e L Z.L N ; 7 H H 0 y >.1.P ; e K w e G 7 w v [ <.v N T i 1 j i > + % k =.g , w w 7 N <.XXvXKXOXn.n.| | f.E N ..0X0XT.[.tX`.l.M ] K , w G G , 8 = , a G { B K m.1XwXZXcX<.[ [ L 7 N ] | j.| ^ N J e +   k  XiXDX_.h d =.%.< , , 9 D H D 8 - 7 , f a 9 7 7 A N B B 7 a L 0 a Y A.[ 9 9 9 , w D m 7 7 J [ | b.[ A N U ).Y , , {.5X Xu # @ @ # 5 A b.V.W...w B * K e ; e H Y G Q ! c c N J e = e Y S.+X:X`.} x ` R x V M.`.p.w c ^ f.M.| Z u.0XG.H ; * e ,./ 5 w C q C J K P f P.iXuX:.9 Y 3XDX4Xq.G f 3XhX5XA.5 q L w q <.F.).n.p = 9 m.qX).5.].,.A [ | w q A n.+XiX8.a , > f f = X < O.t X . H 2.P L a , { [.kX`.E Q A ] w w a :.XX:.9 a G $.g + g H.S.S.-.a p w B 7 ; w J N.Y.=X=X`.] 7 N a = , 0 H 3.H.+.* e L G w G <.n.n.V.(.p. .p.V w ` V } i.Z w 7 7 D 9 = # 1 G K.2XoXG 9 s B 7 7 W -X9X8Xc.t.V c b Z ] 9 9 { wX+X9.K U 7.{ M ] Y.`.",
" . .M M m._.1.T , Z.oX2XF.F.{ [ V.].0Xn.q q | n.^ q N ,.n.| M ^ N K ,.L K g.D.OXN.^ K ^ ).n.| K ; e e 7 [ qXaX(.B ,.j.c C N...^ V Q c M ..n.{ p A.{ i = = h -.G [ <.K ; 7 U XXZXqXF.F.+XW.( | W.] N ] b.T.cXKXmXb.w A ] w 9 a H +.q.$.0 = = a 9 B m.1XaXLXaX<.(.P.S.G a C N | N.f.w ; 7 # @ j e.1X<XU , 0 0. X$.0 , 9 -.Z.-.r - D f 8.F.7.K M ..n.n.(.Y 9 8.P.-.L :.K B 7.n.K N OX%X-.r v | `.tX(.b.N A aX+XJ ; >.}.q., . @ 4 H w M C b.V.[ K B w A.).G 7 9 7 w } p.E C B 7 f ; e :.@XvXmX*Xz.W U.z.` Q T.jX`.M M | j.f.^ c V ,.-.;.L 9 7 [ j.C C c ; w -.:.-.9 9 f 9 # , 8.uXgXXX>.a G XX4XXXS.7 q ] K q w w K ..p ; 9 V.bXbX0X+XC c F.:X| c A ).DXbXF.Y H >.>.; * X 7 -.-.e ; 2.F.F.m.A 9 b.yXjX*XM.N.N.rXG.G 7 A.iX8.a p 9 a 0 . , H $.q.-.a B M [ [ ^ C w C E.kXmX0X] N <.[ = a 8.oXuX#X-.7 Z.iXqX<.w N { F.qX0XQ ] N.p.[.kXp.p.`.M.[ A a S.}.f 1 1 , $.5XCXY , Y 7.X.Q W /.-X/./.c.W x W W.+X:.N L.KXCX<.N +XfX0X<.A C V ",
"B.(.] K ).@X1.Y 7 1.P.uXXXG.U K T.jXnX`.C n ..N.u.| h.W.W.B.M.T.W.j.D.....'.'.eX:Xf.C M `.T.p.] ^ g.g.^ ] n.V.f.f.[.*Xi.z.=XR.z.W ! x } '.].(.A (.L.<.N p 7.L.<.'.+Xn.M w N <.L.[ [ V.aXrX| ..nX0XB 7 | *XjXmXmX} M N.F.U K K G 3.$XS.g = 9 7.:.U { L.1XsX@XG.CXNX4XS.-.w w W.rXW.N 7 D 0 1 t #.:.U p 0 H oXFXpXH ; 9 L.aXG.m 7 $.[ XXiX).[ M ..0X+X+X[ { CXCX<.w N w ] 0XnX0XN.dXzXOXJ v } `.jX].'.A w aXqX[ 7 G.OXS.H , * = F [ ^ w ^ ..<.'.C.V.qXcXK X ; , B B.R.p.p.V./ F.-.7 G 1.m.f.} } p.z.E.M.Q } W.W.[ w N N K Q q 5 w f >.Z.-.[ ).rX'.n.^ w 7 -.L L = = 9 G f H 9..X3X1X7.s B n.9.7.m.,.C | ..^ C w N V.<.M w ..tXDXmX(.M V :XmXR.E V B.nXtX(.-.H 8.1.K K 7 7 [ g.J 5 N j.(.].N. .~.=XR.T.N.N.f.+XG.D ; 9.fXuXA.a 1 9.q.< = , G S.<.B 7.K 7.F.(.f.c M W.jXcXeXV.V.1X).# Y uXFXAXoX-.8 @XDXZXm.w w ] V.bXaXM C N.`.nXmX*X} Y.`.).m.K uXNXf = 0 , G |.2XH , <.n.V.[.` t.s.c.-X-Xd.R U.nXqXQ.K P.NXiXL Y qXAXZX+X| c w ",
"jXeXb.N.aXqX[ a ; e L 1XaXOXC c T.8X*XM.E E u.N.W.'.T.p.M.[.jXjXeXM.W.M.Q } Q M.B.p.} Q [.~.M.l.N.F.'.'.M.Q c c y.-X9XU.s.x.x.-XU.U.R s.=X[.~._ } B.V. .] `.eXT.].tX'.^ K 7.<.K K B K (.].K ^ lXKXn.M | (.`.[.[.] ] (.C.{ _.L.L >.#Xq.f 1 G }.XX9.9 Y .XXX@XuXAXFXpXSXiXN N aXZX+X<.[ <.L 9 1 f U X.T :.;.S.NX4X$., N wXZXD.D +.-.7.qXaX)...A b.].].<.7 n.LXsX[ 7 q w ] 8XcX0XW.:XZXzXQ.} Q  .Y.=X8X .q `.W.K w { -.:.8.-.; @ 7 N.N.c w M ..:Xn.(.+XfX{ ; w 7 w Y.M.} | W.n.OXZ.K e 7 C | } V c } i.} V w C { <.F.:.K [ f.A q w e $.q.1.<.OXqXG.F.-.w * e 9 $.f , Y .XXX9.G 9.wX(...M N A A { [.tXQ c Q M.T.} C T.(...M C V.qXtX'.} ..*X>XY.} c E *X0X).[ , K <.'.W.A 5 E N.f.C x } M.^.R.^./.W i.M.N.f.q K [ G , H XXfX2X[ 9 8.A.g , = 9 -.Y N <.p B b.].(.] ^ f.`.eXcX0X).+XF., p :..XiX@X-., -.+XqXW.b.<.b.n.(.tX<.K [ V.KXnX[.V M.tXbX+X-.VXLX;.0 h 7 0 >.>.-.7 <.).cXnXl.~ t./.8X-Xy.W z.kXdXQ.D >.}..X;.G.@XZXKXdXD.C q ",
"eXY.} W.JXnXZ.K * * ; 1.).Q.C C jXkX~.Q c x c } N.!.p.Q p.*XkX[.} M p.N.Z c Z u.M.Y.~.i.B.z.[.8X..} N.rXcX[.} V W t.c.t.t.v.c.=X9X=Xd.~ s.s.i.Z M } M.l.} M.E.} f.rX'.C K ).m.w 7 9 w K K 7 A tXtX(.| A ] l.Y.`...] ..N K iXiX$.H 3.$.j g >.2XpXXX, T 4XiXNXsX4XAX5XBXNXG 7 A.F.n.N w [ 9.T 0 = s ] <.A.Z.Z.#X}.7 , <.DXZX<.v <.N U F.V.b.N.p.B.N.`.| 7 F.ZX)...K c w Q [.jX[.| :XmXzX!.| E ` z.R.8XM.c M.M. .| 7 - ; K :.D v ,.N.~.] q w | V.| f.b.F.[ w N N c } Z Z Z ..<.:.-.<.K K n.`.B.V 6 } Q C c q q J -.Z.1.-.g.F.,.w 5 ; G A.8.a w K K <.K ; @ , f S.}.$.T :.8.Y 9 p b.b.| M A M M X.eXmXl.R V Q u.Z w p.T.V.^ c ] V.`.*Xh.p.h.u.M.E.! Q M.M.b.[ 7 w K [.*XM.Z } `.T.u.b W y.R.=XkX9X~ Q p.f.^ * ; N -.9 9 Y 9.A.-.9 9 D d G a a G p N <.M ] '.cXrX..C c | '.bXqXn.n.{ p , = 9 Y -.K w N F.0X].m...<.).).tXn.A A F.KXJXp.V V.vXvXF.P 4XuXL 0 0 @ * d H A.J (.KXPXIXl.W t.c.-X-Xa.y.U.:XKX,XL J 1.Z.>.Z.S.2XdXOXn.N 5 ",
"Q V c f.:XqXD.L 7 w ; w K f.| f.`.`.u.V c 5 x ..( h.) Q } B.[.p.Q M A } w q ] Q  . .l.Z V _ [.yXV.] K '.nXxXB.M ! t.s.t.x.-Xc.-X=X-Xd.b R i.` Q ` Q p.R.p.R b b ( T.N.A ^ f.[ p ; w N N w w ..wX[ [ A w M ]  .l.b.M K M N F.L.L = , < H >.S.hXFX|.a $.oXiXiXoX|.6X X{.}.H = , 9 K 9 9 K { { B , p B B 1.S.q.1.;.= , [ qX0X| J [ v A ] w C N.p._ } Y.~.b.+XtXn.....c q W ^.kX[.Q N.'.!.h.u.! ` x.z.^.M.V M.Y.Y.N.V w q C | ] ] b.p.T.N.M A u.] } M c c M w M f.} V c u.b.f.V.K <.[ K K b.b.Q V W Q ^ ^ c q 7 7 e * e D v K [ J e , a 8.n.e * ; a L D * , G S.4X4XiXZ.T T G 7 = ; b.V.p.B._ _ ` 8XkX^.Y.Q c W V c Q M.N.^ c c | N.`.u.Q R V U.=XU.y.V c c C C q M B.eXeXM.p.M.} V E V Q R.=X9X9Xi.q u.| C - 7 w Y L 7 9 9 e H 9 = 9 G A.A.m.<.B U 7.U V.wXnXmXb.K ] ,.N.:X(.<.7.U p 9 , ; , 9 N K K n.F.b.K w B F.vX+X[ w N b.(.n.V C ^ <.,.D D S.;.0 ; = + ; G -.Z.{ F.qX0XT.u.} z.y.i.R.^.U.R.>XJX.XL 8 G P P D a L [ [ ] N q ",
"q c C ^ A A v ; w [ N w q | f.N.A ] C w 7 & - / Q.:Xn.,...b.rXtX].b.N A M [ :X7.w 9 A M A 5.0X].<.w ; N [.tXN.w ` Y.8X/.c.c.s.x.Y.a.a.b Q ^.b.M.B.Z } *XE.b q b ) ( | f...M w ] [ { [ K [ 7.n.b.M 9 5 w Q M q c f.M ..<.N J D e = = , #.6.*.K.4Xd = 1 f H f 0 >.e.&Xj j >.9 # 7 <.n.F.{ 9 9 { L.X.X.w K Z.H ; X N 9 9 B | | | ,.'._.V.c Z `.M.V V } *XeXeX].] M C c c Q p.Y.Y.} q n ) j.M. .W ~ z.U.z.W M.M.B.} - q c C | ] M c p.T.`.Q ] } w } N.f.] p.A c p._ c V 8XmX0XaX[ F.f.C q w c V i.=Xu.V.W.,.N e 8 7 :.OXS.7 ; J ,.<.-.w a 7.8.L a 9 G f # G 8.4XoXS.S.8.:.{ G 9 7 w ] M.l.~.` _ W U.-XU./.} ` R.R.M.Q p.f.C 6 6 C f.!.) b b b E.*XU.! V V q c ] C b. .eXjX`.N.T.W.T.Q q c M.p.` i.c Z '.'.N./ :.K L S.0 9 7 , e D K ; e 7.L.).n.p S U M ] V.0XcX].).aX+Xg.<.<.<.n.U 7 7 9 9 9 p B ] K w ; 7 N w 7 M [ 7 7 w N [ p , A ^ q - 7 D A.@XAX4Xq.L H $.;.-.F.m.K q ; M `.yX*X} ! R.=Xa.a.!.h.v 7 X ; , D 7 1.<.[ [ { K w ",
"q Q M.b.C ; * ; w :.n.J 7 N n.].F.K q ; * ; G :.,XAXaXm.F.0XfXDXaX7.; 9 a { bX2X{ :.L.F.B P.L.:.9 Y w ; Y 7.N 7 C } B.[.[.Y.} V M.eXrXV ^ rXrX'.b.c C Q Q V 6 b b E.>X:XT.] K <.U U p N K <.).).<.A ] V.(...C M V.).(.m.F.N G H , + G q.A.H.>.I = , d = # >.}.f 2 l # l I H >., a _.fX_.5.o.A X.[.] N -.;.r ; , w U { U A N c 7 N.bXtXA C eXkX} W l.R.B.V.0X'.A q q } M.` Q p.p.c x n W.f.} M V i.p.V x Q } Q u.Z c A f.M.] V M A ] b.b.] A Q A B.0XN.p.w A T.~.Q } `.`.T.(. .C ] '.].] q V p.M.p.| ] ^ N q ; ; S.NX@Xe 7 g.dXvXG.[ w 7.@XL.8.G 9 f , XXNXoX8.Z.8.7.n.N w K M ] Q p.*X8XY.z.s.R Y.8XkX=XM.z.Y.Y.c C c C / c q h.N.h.E.( W R.*X-Xz.i.Q p.*XjXcX:X] tX+X{ A w K n.N.N 7 c C Q _ A ^ } :XN.<.g.e P .X1.9 9 e N A.@Xn.7.[ K [ n...M o...[._.b.] n.cXKXvXn.<.D.F.G.m., 7.m.{ B s { <.[ ] w J <.g.m.n.N 7 N 9 B { , 7 rX>X,.; ; J Z.oX$X@X0.$.S.P.$.e / +X^ w M ..cXnXmX[.E u.=X!.u.n ^ N M * ; N p <.fX2XL.n.b.C.n.",
"V } p.| ] [ N 7 7 L n.<.K N ] V.<.-.a 7 G Z.Z.-.>.OXZ.f Y XXgXAXNXP.0 9 9 Y CXiXm.8..XXX:.{ s , H :.G $.3XXXG ; w w [ ].tX(.} A :XzX0X,.K +X).+XqX] q w C E c C C N.:XrX'...K [ p [ N w K F.+Xb.B ..).0XW.Q c c 0XtXtX0X+XN D G , = f >.A.S.g @ . #.S.#.f w.}.I l l 2 0.S.>.K.$.a F.wXwX[.b.5.C.b.9.{ a H H.>.; Y { [ M 7 7 7 5 f.).(.^ A ].xX*X`.W E [.bXtXF.] 5 ^ !.l.c c Q Q ) c q g.j.] 7 q Z u.Q c Z Q ! u.} E Q b.Y.N.u. .A N ] n.V.V.N.} `.`.Q ] C p.`.M.Q ` `.[.p.A c M M.8X`.Z c  .M.` | c q C :.-.e * H q.-.7 e n.).).G.[ w m.sXuXS.a f G 1 |.pXoX0.q.8.n.7.G N ] A M c A Y.8X=X=Xz.V i.=XxXeXR.p.} } } | C J N.<.v J f.h.*Xh.E M.!.R.Y.E.i.`.jXcXeX<.w 7.U G G 7 e -.F.<.] M 7 M b.V.| Q W.W.(.).L -.G..Xq.-.w 7 G.CXqXF.[ ..).0XC.M A ~.tXL.K ] W.aXqX1X1.n.XX+X).n.K L._._.m.T 7.L.).OX<.[ ,.<.G.+Xm.7 w w U L.[ K +X'./ ; 7 [ Z.S.q.>.H >.oXA.a 9 K G.F.| C n.qXn.(.].p.} M.W.W.} N.T.| 7 S B w _.bXbXcXwX_.V.V.",
"M } | ] ,.n.K = ; w [ n.{ w w K 1.>.9 , 1..X1.D r >.;.G q.pXCXNX.XH.f 9 7 >.FXBXP.8..XP.A.s , 9 $.q.S.oXgX.XL D D e -.qXaXF.U L +XaXOXP.L oX.XgXgXn.7 w / ^ | ^ | N.:X*Xf.w 9 N s V.L.b.] [ V.<.w F.aX+X] w c C b.W.'.+X+XK -.Z.H 9 e Y XX}.f = , $.q.>.0.S.q.&.&.I j 3X6X0.A.>.D 8.wXbXMX[.V.J.L.wX1XD ; 3.{.0 Y <.<.U w 5 7 w ^ V.].p.M N.mXIX[.i.Q p.`.0X).| c f.`.p.q w ] | F.,.v g.'.b.w M b.eX*Xp.Q E Q b.b.} A ] N.`.`.T.[ A ] (.aXmX+X..f.V. .f.C } B.Y._ _ [.eXM.W W B.M.*X[.Q c } Y.B.M.c 5 K G.G.K ; X e J e v K <.Q.).<.M <.1X@XS.D H L d A.S.>.H Y Y n.V.<.A ] b.N ] A Q  .z.R.z.V Z M.*X[.p.Z V C ..<.J N g.g.v - N J N.| V h.`.`.*X`.} } R.'.W.N p { G H 1.:.-.:.[ -.-.w 7 [ +XtXj.c ^ ,.Q.).L -.@XNXpXG.e 7 F.ZXZX).[ [ (.].b.w o.(.yX(.[ ] n.).n.8.0 a n.OX(.[ n.1XiXbX1XT :.P.AXVXg.e N -.@XgX+Xw U n.F.tX).{ F.F.K 5 e >.Z.q.q.H , f S.7.U <.K ,.qXn.w b.V.7 K L...c C h.N.Q T.0X~...(.] 9 1XfXwX1X(.b...5.",
"c A | [ { { e X ; ; N [ [ w 7 7 N T Y S.AX@Xf ; = , , 7 Y S.A.8.>.q.$.H H P.FXCX8.Y A.8.P.Y H 8.>.S.}..XXXZ.;.1.f 9 f 1.>.f 9 f P.2XOXXXH Z.A.oXP.7.p <.F.b.N.| } N.0X:X] ; ; w { (.1X+X..w A [ w (.zX).A M A ^ A ..f.{ :.e Y 1.-.7 9 8.sXP.f $.;.q.q.XX3X#.0 &.I.8.0.pXpXH.q.$.G [ +XnXcX<X[.8XbXvX1XG o ; +.f f :.P.L...M w e M <.F.K 7 } eX[._ } Q c ] qXaXn.).n.,.] M w C ,./ J 5 J G.n.A | bXPXJX].| c C W.'.f.C C N.eXjX0X)...K <.].tX]...A b.(.`.A Q b.`.p._ ~.=XM.` _ B.`.*X`. .W  .~.8XB.C q ^ n.<.N , ; e J J N w K ).'.N.M N K [ -.D , 7 < D f , ; 0 w n.].+X{ ..0Xf...A q 5 w `  .Q w Z  .] w ; w A <.<.K N [ -.e 5 q ; c q q p.W.R.[.Y.V q V ..b.B T _.L.A.3XsXuXZ.e K K w N (.aX0X] 7 q N :.8.D e .XuXoXF.J 7 <.OX).G.<.] <.V.| w A A ..0X].[ { Z.K.>.+ . K L.G.J <.@XgXCX@XG h :.uX.X8 * D F.sXVX).w <.(.b.(.J.U b.F.{ 7 w L -.-.>.;.G L A.8.K K N A +X[ ; G w ; U 7.M ; q A ^ q } M.V.[.tX{ w J.1Xm.U p B 7.C.",
"} Q A ] <.<.G 7 7 7 a [ -.K w ; a :.8.P.iXG.L ;.P ; X * 7 w p 9 G ;.Y D f $.S.8.0 a w.A.qXL.7.n.<.:.L J L -.$.Y 8 ; = , e f e 0 8.}.oXS.G a H 9 H K w n.rX:X:XM.] ..).].<.B p 7 <.<.] ..] w c M q n.0X).N.n.f.^ w K C ; w ; L [ N 7 N m.1X8.e >..XpXNXCX4Xi + h 9.Y H 9.q.8.8.H D a <.+X].(.yXnXLX3X>.8 . X * = , { XX2Xm.A 7 7 7 w p q 7 C ] M Z w w ^ V.0XqXG.@XD./ K B 7 ; q 7 8 * ; ;.Y U n.zXvX>Xn.K ; w ).lX(.K N N.tXcX0X+X[ 9 7 N ..7.[ K ] ..n.| W.(.`. .Z  .M.Y.[.~.R.kX8XB._  .^.8X[.u.c q A ,./ N N Z./ e e N v K V.T.h.V c w w a , = # , y L P D e w b.].qXV.F.aXV.A A c 5 w ] b.b.w M K U w = ; B N e 7 7 a a 8 , 7 @ 5 - * N |  .p.M.A M N U <.] U _.1XwXbXCXqX:.a K K N A F.+Xb.M q 7 7 B -.P D $.-.P Y J 7 J [ w [ | ] b.].V.A M w M ].+XK K <.}.6.= = Z.qXQ.e D .XuXuXA.a 9 , 8 8 o * ;..XiX1XA.9 N U w A ] w ] n.<.w 7 9 9 e 1.XXZ.a K { B 7 9 M ).<.G a + a P.S.a 7 7 7 v C ^ C X.[.(.A p B F.9.N , B L.>X",
"eXb.M A n._.P.A.f D Y S..XF.K 7 ).tX_.U A <.).vX+X[ w K [ [ A 7 w D K J w 7 9 p ; 9 m.+XaX+X[ w w w w ; - ; 7 9 G e ; = f ;.L < 0 I 6.>.T G Y # w 9 7 | 0XmXjX'.].<.] ] U 7.{ 9 A { A M c c C c N [ ,...b.W.T...M A q X ; ; G G U { n.{ [ Y G :.OXNXuXP.S.T 1 p p , = = 7 $.Z.>.L 7 N { U ] (.yXfX3X1.0 @ + + + # a 7.8.:.Y N 7 ; ; w K A 7 w p.T. .| ..[ [ { [ v L K G [ [ a 7 H +.g = f a G T -./ e q q ; 7 F.vX].{ B [ V.V.<.[ w , 7 w G K w M p M A C [.].*XB.` ` ` M.eX=XM.M.=X~.W Q `.yX=XM.V c ..W.F.D.).qXF.J 7 7 5 c b.M.i.E p.n.[ D * 8 X , y 1.A.-.7 v ] n.W.n.V.(.] ] b.[ c N ..F.).K K 7.L.7.9 = 7 e 7 , , a f 0 , * @ e 7 * 7 M ^ F.[.V.<.A M [ [ p ] V.bXKX1XV.] 7 B [ K v ^ <.| ,.] w * ; L G.uXL D 8 P K 7 w N J ^ C w ] +X+Xb.A ..K { B ; N D f f , H @XuXD.7 5 g.D.Z.1.H e * o # X 8 +.;.8.7.n.K N B A o.S , w A K N K N 9 9 -.P.-.= 9 [ { A w A qXiX3X:.= :.pXuX8.Y w ; | :X'.| ] W.b.U [ B Y <.[ w w [ 1.",
"KX].] M <.2XfXiX:.$.q.uXfX.X<.[ tXGXmXT.| f.'.rX:Xb.,.V.`.[.N.w N [ G.+XG.K M <.A w [ F.C.F.] w 7 q C C 5 * ; e ,.2.P e e D y , , 9 9 9.m.1X_.9 w 9 M C p.*XeXjXKX(.] M A (.].A M | ..f.} Q u.} ] B w w K f.T.T.'.N.K w D * = ; b.J.]...w G P L -.q.L f A.oX7.9 p 9 9 , 7 [ S.G.-.7 e ] N M ] U F.pX.Xg 8 3 : t > 0 a 9 G 7.1.K 7 w K n.b.w M eX:X:X(.] 7 w B w o ; e L G.G.$.f 3.3.+.+ > i H 0 f D 5 5 G G e L n.<.U A K [ ..{ G 9 0 G Y :.[ w ; w ] N 7 V.).0XmX^.l.Z V  .~ c ` /.=XU.} p.[.jX[.} C p.F.F.>XJXqX).{ q ; - c p.u.y.} `.OX1.J ; 0 . ; * e -.K ; q M | | ] ] M w <.(.<.w N ..n.(.<.:.A.qXXXT , , q.A.q.#.g I &.H , * D D ; 7 N U ].qX].F.K 7 K ..Z Z l.cXbX(.n...5 N b.b.C c Q } '.V.^ 7 ; e OXFX{.H 7 -.g.J L -.).g.C q C N.).(.(.tX<.N ; ; [ J i I H 1.}.A.-.e ; D y F 1.3.$.; + 4 u 3.0.F D G n._.V.5.V.l.Z w ] M 7 B F.F.:.H , G G B 7.F.b.b.] K wXKXgX8.a 6.3XAXpXA.K B (.vXzXrXD.'.+XL.(.<.e H $.H e ; ; ",
"KXfXn.N K .XgXgXS.>.S.gXgXP.8.L.0X].[.B.Q C p.W.*XB.f.b.R.jXeX_ c [ rXKXbXf.C F.).M 7 N w ..l.b.u.R } T.f.C v C F.OXOX1.a 9 D L -.G , XX+XDXwXN w M | V c i.R.mXDX0X).V.V.bXKXV.B B ] 0XcX`.N.f.^ v q c K | b.F.qXm.[ -.F.9 7 9 X. .].(.K N 7 ; @ 7 f >.5XgXw.p p w N p 7 N P -.Y 7 K m.<.] A , 8.2Xq.f %.%.F >.Y G , = a F.F.L G U w K ).b.] [.(.b.| ] [ n.<.a ; = ; -.2XS.e 7 H.3.%.* 0 :.I.U n.F.-.L D.G.K 7 * 7 B [ f.N.[.wXF.L e N Y n.A.<.7 K n.] w (.(.[.KX8XY._ V _ ` } [.~.*XkX[.] p.jX[.} c M c c V.KXaX).K 7 q c c C Q ( } T.n.D v e H , H = 7 L Z.1.7 c b.] M w - N K b.] w A ..<.<.Z.-.8.@XoX;.i f  XpXpX>.= 0 *.*.$.9 G G 9 N B B n.)._.+X7.p T m...5.C.0X0X'.[.N.c ^ (.*Xp.M V Q B.T.n.f.J q 1.qXuXP * -..XD.F.Q.+XN.| | | ..N.(.cXZXb.K B [ >XF.2XfXXXL.1.G L -.- ; X 7 1.S.1.e X u 0.NXAXS.G w V.ZX0X5.C._ M  .aX..; G 1XsXA.Y H p 7 U ).'.(.tXb.M ).ZXXX{ T Y 8.DXAX).-.1.+X>XdXZX@XuXKXsX@XA.e e L >.-.8 ; ",
"uXXXG 7 >.XX2XNXK.w. XNXNXXXK.XXL.1X(.0X*XA Q R.eX*XU.R.8XkX=X} '.F.].aXqX<.N A <.V.7 7 p ] tX'.i.` y.Y.^.b.A w M m.aXOXJ w <.OX+X1X[ n.qXsXsX/ 7 C ] N...Z p.`.aXqX(.N aXKXKX(.w A b.tXnX`.X.] `.W.b.A w N K L .X8.9.1XiXF.[ b.X.X.*X(.b.7.1XA., , a < , }.oX# 7 | ).N.N 5 w [ n.w D -.:.n.[ f 0 0 < 0 ;.+.7 L 1.D L X J L F.OX{ w M ..N <.A B w N K [ [ n.(.K w @ , 8.8.7 ; L sXOX2.J B M A l.jXyXM.Q V.).[ w , w <.W.u.p.=X*XW.<.M w N N { qXK ; K K F.vX).aXcX]...M M V.L.A M K N V.bXf.c jXeXl.M.} M i.~.^.`.B.} f.W.f.c x v <.W.qXg.L 8 D f ;.S.D , q.2X@X[ A <.b.M 7 c C N.(.b.w ; N <.n.G.D 0 D $.>.O.@ 0.6X$X%.3 # f S.CXH , T :.L.1X_.G U 2XgX_.B p iX8.= K [ w C ^ A 5 } :XcXT.M w ] M.[.*Xp.c c ..).+X[ N Z.OXL 7 <.| T.eXeXT.M.p.Q W.T.C ..b.<.bXKX+XcXKXbXF.] | | q q q v M [ N.v ; K Q.KXvXtXf.C [.nXcX .w A V.tXbX@X@XsXiX7.-.bXCX1XM 7 c } jXKX^.} ! R.[.Q w | ).G.ZX(.* w F.2XpXCX2XS.4XgXXXq.9 a [ n.+X+X1.",
"G.L 0 D 8.@XpXpXS.6.0.3XSX5XK.>..X1XL.].(.A l.kXjX=Xd.d.U.-X=XE.^ <.).tX_.] p B n.V.M w w p C.l.` R t.=X8X~.} o.N.aXKX).w w f.Q.uXqXL [ D.Q.G.5 ; v ^ V.b.C } b.F.F.m.N qXaXzXF.w b.tXKXjX .S l.[.jXtXn.w 7 -.P.|.oXuXDXbX_.7.L.l.b.eX'.<.[ m.Y , a H f d #.#.< 7 K f.N.f.N q N Z.D J P -.-.D 0 , * * e F P L J J J / ; 7 [ 1.-.M M A N [ +X<.7 ] K ] A w N ] N B 9 , a 1.F.Z.-.OXuX+Xf.}  .i.z.=X8XU. .`.0Xn.K 7 w ..T.p.a.R.R.W.n.] C C v ^ F.K 7 A 7.aXKX).n.].V.[ w w { m.<.U 9 N <.,.^ ^ ) E. .M.i.Q z.M.z.Y.B.} Q p.u.C q C 1.).dX-.5 * D >.1.1.e D oXpXuXn.w w ..] w w c ..N.b.C 7 w A K Y 7 * 0 3. X=.. O.e.e.z = @ < $.XX, @ B 7._.fXiXI.A.2X1X:.9 , 7.$.T T N e J C ^ 5 V j.W.n.] A A z.Y.l.M q Q f.b.<.[ K [ 1.[ D N N } '.rXT.( E R Q Q q | V.V.cXbX..V.'.(.f...| C c c w C A | N.Q w } tXKXmXcXp.b.tXmXJ.M ..tXnXbXLXOXZ..XuXY B _.KXqXA M M V M.Y.R.a.! y.u.Q Q h.N.).qX<.7 8 L oXNXpX0.I |.hXoX>.G , 7 Y 1XaXF.",
"L 0 -.XXS.q.1.f 1 h w.4XAXBX|.>.>.F.L.+XW.C p.eXmX=X` ~ y.z.=X`.w w K n.).V...] b...| _ M w A  .^.z.U.8XjX*Xb.| L.tXnX+XJ N n.).gX@Xw ; e -.A.D 7 N ,.'.'.| ] A w N K w n.f.V.,.7 b.jXmX`.c q } `.cXnX].J 9 $.XX}.pXZXDXfX).L.0X~.l.'.(...p K G T H 9 = 0 2 2 H J N q K g.[ v L L e e r P P 7 e < + o , , e A.L e w L v ; J L Y N U m...7.b.<.n.m.] b.K 7 7 ; w U 7.Y w n.VXuXD D.@X0XW.b. .b.[.^.^.} A V.].7.G ; 5 c C V E ! ~ } ^ ] A w w K <.b.{ ..(.cXbXL.A ] ] ....K K { 7.9 p 7 w { G.Q.W.p. .l.} p.^.z. .R.`.u.c n ( ^ c v K 1.OX-.; * N 1.1.-.e :.pXpXiXW.M q A C q 5 q ^ u.p.^ c c c N w e , < +.3.j = @ < t < = # * = I + + a :.@XDXDXP.9.XX1XZ.[ G a Y 2Xq.a K N w C w C A N [ L.m.U } l.} w q A ] A M <.Z.[ [ L.Z.7 B ^ '.mX*XQ b C E E q } N.b.].(.5 w K ] | N.N.^ c M C ] ] ] b.| ] p.tXcXcXcX] b.].nX].] V.MXnXKXZXZ.L 8.iX-.-.1XbX(.M M C M ( y.U.R.a.W R Q } f.^ N.f.N D w , A.#Xe.d , 0.SX4X8.a = 7 <.aXuX{ ",
"7 e S.iXS.a , ; , d >.}.4X5X|.6.9 H A.+XD.M C B.*X`.i.i.y.W u.p.Q q ; N W.tXqX'.b.] V.B.| Z p  .8XR.z.B.[.0X'.b...:.).qXF.[ <.G.1X).N ; 7 G G.G.v L ,.OX:XN.| N * ; w 7 B 9 A [ A ..B.~.B.Q c Q N.(.].V.L e a G >.P..XK.P._.2XvX1X] U n.[ , 9 K <.T 9 , 1 1 H S.Z.<.v w { -.N G ; 7 e e D e * e >.$.= 7 7 D @XG.K ; / -.7 7 -.).(.0XfX<.A 7 K tXV.K F.b.K p X w 7.XXA.a Y uX.X7 w K D.qX0X .A M.R.`.} M n.).m.-.:.K N c V y.s.a.V C | } q w ] ..V.[.V.(.F.b.V.{ w M f.(.[ w N <.7.L.<.K m.qXsXzXN.p.} _ ^.jXY.} M.R.u.c x E | f./ e w [ [ e , 7 J L G e 9.3XP.@X'.j.C c V ) E q C E ( j.p.) V c <.8.L 7 0 0 < g + + = < 0 0 ; + , , 9 G :..XgXvX<.a 9.uXiXiX.XT 6.AX2X8.-.e J { <.n.^ 7 B _._.] C l.Y.p.S M N N 7.1XqXY N XX2Xa { ..'.nXeXp.E E a.i.V E Q Q f. .7 q C ..b.N.b.] q ^ f.W.f.C | b.b.b.N.V.tX0XA ] ] tXcX].).V.L.vX1X8.L Y @X:.K.sX_.[ w ] N.p.| i.} a.U.a.u.Z C ..K ] w w :.L 7 $.I =.f 1 I oX3XH.9 , a <.OXF.w ",
"e G P -.-.e a S.4X>.9 , G &.$.Y < y Z.@XZ.J C u.M.E.M.R.u.q c b b.^ w M N.tXbXmX`. .V.V.l._ w  .z.} V M l.tXfX_.:.G 7.wXiXF.:.Y :.A.7.Y a J S.@X/ K v { N.b.f.U ; ; N N N 7 K n.b.] M C l.x.Q C f.[ K J N 9 = . 1 f G T S.uXiXwXXXK 7 N G G G [ D [ A.1.0 f }.VX,XaXQ./ [ -.e ; ; D >.L f ; . 0 S.5XH 0 a D .X)./ 7 G.1.B ; A.sXZXKXbXc q w | (.f.M n.F.F.,.; A qXqXA.w w -.-.w 7 7 e <.V.] M ] ^ N.| w K -.:.n.aX].f.Q y.R.-X-X} p.[.T.C c | b.| '.V.V.] M b.V.c w ] N.B * w m.L.9..X).Y L.VXOX`.u.E Q 8XGXR.Z Q  .} ^ Q C f.:XF.J ; ; w B p 7 9 9 9 9 :.F.Y <.W.E.u.( N.=X!.j.E n E h.T.j.C q ).G.L 7 < = = j g < t #.>.>.$.9 a T :.$.9.3X2XA.9., a XXZXDXfX8.S.hXpXuX8.e -.<.n.+Xm.7 w L.L.M M  .'.[.b.B N U aXbX1Xa * :.}.T -.{ N.].'.N.u.E h.M.} E V V u.M.p.C A V.[.'.n.[ 7 n.qXcXV.c A b.B.`._ 5.tX'.n.{ [ F.].aXvXF.Y m.uXOXL 9 9.:.XX2XL.[ ..].lX].} E Q } R.jX*XQ C (.F.K 7 [ OX).1.G h w.S.h , I S.S.a a a w K <.K ",
"OXn.w 8 -.P D G.AXP.e # # ; 0 g u y #XSX,XD./ | p.M.R.eXR.c b Q `.] w C T.cXnXmX'._ ..b.b. .M x.M.N.} A C.cXZXwXP.8.F.2XVXZX.XD a :.A.-.e e Z.aXQ.2.7 w K U ..K w 7 C | K v | W.W...c c  .z.i. .V.[ e w a 9 = + = 0 h $.}.2XK.Y T G = = G @XXX7.Y 7.P.7.a <.sXZX@XuX.XP N -.L ; = G H.;.8 * + d |.AXS.h Y ;.A.Z.e J qX-.D , 8.).bXqX'.K A ^ f.:Xf.M ] N.+XW.A b.vX@Xn.{ Y K J N w w 7 w ] [ N w q n.n.v ; ; e :.uX+Xf.Q u.E.E.R.p.`.jXeX .C p.`.p.(.V.V.| w X...C q ^ W.[ ; 9 <.9.7.P.P.1.S.iXqXF.A C } eXmXM.q V E | b...c ^ !.N.U q * 7 p [ [ N , , s 9.m.B p ^ N.'.'.!.E.!.lXN.E x E j.p.( C K <.-.D ; X = O.g = < +.>.S.S.$.H 9.A.S.3XgX2X9.Y , , K.gXgX2XY K.K.3X4XY ; e e G G.F.w 9 <.<.9 M M ] V.V.[ A K F.L.9.9 = 9 Y H K J K | N.W.h.b u.E.E.i.W Q M.`.B.M w b.tXnXcX].N +XZXKX+XB A b.(.[.X.b.tXV.wX].+X<.<.wXvXZ.a D sXpXa , -.XXVXfX1X7.n.].jX0Xu.( `.`.jXKXjX] ] lXbX<.w A.sXgX3Xf #.3XhX&.+ , 8.P.9.Y J 7 L G.m.",
"sXq.e e L L D f 1.q.>.f 7 0 g F u < {.pXdXOX,.^ ] | B.jXeX} u.B.*X} w A `.jXxXtXb.Q  .~.[.l._  .(.(.b.| 7.1XfXbXiXI.8..XCXLX@Xe w K :.D ; , -.pXP.-.; 7 J U { B w 7 C n.[ C ] ..W.T.p.Q  .M.R.].m.L 9 9 f f 9 = = f L $.A.S.Y 9 0 f = 9 :.gX3X1.7.L.7.N G b.).qXZ.-.G 8 8 q.S.0 = 0 3.+.= * 8 $.5XBX3X>.$.G.P.1.7 L @X-.N 7 G :.n.A <.(.| A ] qX..M w ] (.n.] C.+X(.L.F.<.N w e 7 K { n._.).K ; -.OXD.e 7 8 G 1.).)...V u.E.R.R.} `.jXtXB.A | eX`.[.`.`.| w A | | c | '.m.9 , G }.4XP.>.A.P.XXgXN.M ^ N.'.*X .7 C S Q ] ^ 7 c f...K K w N p <.V.K 9 U L.+XL.B 7 c M.!.N.u.( b.rXb.C x Q N.N.f.| - [ ).7.7 ; F $.d . + 0 f ;.q.Y G :.G.XXqXXXA.9.G D 9 Y K.K.A.a &.h >.>.e = @ = ; -.>.9 9 <.Z.K N w M <.L.n.K w 9 N G a a 9 9 L a 7 7 N ,.N.u.x E U.=Xa.W ` U.=Xb.B w U (.vXnXqX] wXnXDXtXb.<.C.].~.{ ..].(.fX0X1XK Y .XF.f , 7 S.4X7 a -.2XVXgXm.K [ b.].:Xf.} eXlXnXmX(.Q f.nXnXn.7 <.iXgX2XG >.4XCX8.+ ; :.8.1.Y K G n.@XG.",
"G.e ; e D -.>.G 7 H $.H $.q.>.y 4 o u ;.3.k.L J q c ^ 0XeXp.b.W.*XN.} } p.B.`.yX .} M.yXjXB.Z M ] K B N B { 1XDXgX8.I K.fXiX:.= 9 N -.D ; = f S.H e * 9 [ <.<.N w 5 K V...A C C ] p.} C C _ l.(.{ 9 = , D G 9 = * 0 D f Y ;.Y L H H < $.P.4X:.G Y 3XF.K { ] A V.L = ; e H }.}., 7 e 1.H # ; H q.}.e.w.a , 8.S.e e [ L.A.T 9 , 7.M w [ V.M A w A A w & w ..K C [ m.G.).n.N = ; N Z.7.-.n.OX(.n.7.S.S.F * 7 $.1.F.<.n.C q ( U.R.=X} =XcXjXR.V Q 0X].(.T.b.S 7 M V.!.^ ^ D.<.7 ; a K.$.a = = $.2X@XN.N ,.(.W.T. .M M c q q q 5 v n.{ K 7.<.b.M U 7.B N 1XKXbX).B 7 C f.C 5 C N.V.b.7 7 A '.zXjXN.A c N.aX).[ 8.S.L ;.= @ , = e L w a -..X2XG.a , H <.A.e , e H <.G , = 0 < a f = 7 = G L , 9 S.@XL.U U [ m._.L.U , w N a a h , 9 9.0 * * w ^ ..E - q ! U.! b ~ z.=XB.n.[ w w <.F.{ ..qXtXfXcX_.F.L.tX..U B F.).qXL.A.7 w -.f = ; ; L OX7 Y D 1.q.A.9 = B 7.].:X] c Y.eXtXV.A M n.bXqX7.* p @XuX.Xa 9.4XCXq.= , G a D e N K n.).(.",
"f , = , f >.q.$.X * 0 3..X2., = : . O u H.S.-.J w 5 C N.f.A ] W.(.b.] A | N.b.| A M A b.[.0X~.A ; N U B 9 , s w.T H a , T :.= 7 :.L.G.Z.H , 7 , , , , 0 D 9 e :.8.).B B K A 7 7 7 V.N.M M S M A G 9 = , G $.H a G = * e D L Z.oX0.#.I g &.; , G n.L.F.).V.K M 7 = = , H }.pXS.9 ; 7 = ; * @ 7 0 0 0 1 = = 9 G w N N U <.U T 1X1X[ c } C M Q w } N.^ C M C 5 ] w K J w 7 , * 7 Y -.<.<.G 7 G OXCX;.8 O . g Z..X@XF.G.f.c x ( u.( Z M.rX*XN.A q b.:XcX0XA ; M b.(.W.D.,.C w 9 ; + , I #.1 = = S.Z.7 w ,.F.W.n.A A ] A M w ^ N ; m.U V.].F.+XU p A K C._._.aXwX..A 7 ] ..U { m.m.m.p # 9 n.+X_.] C | :XbX(.{ L e e e = * * 7 :.n.N G 9 7 7 ; = 7 , 7._.[ = w 7.7.Y H 0 , a >.G = . 7 D L P -.G.OXL.7.n.7.7.A.<.s 7 a N Y :.a , 7 7 7 ; 7 D J J C q - b b q c b W B.L.fXXXs @ :.L.{ [ L.aXwXL.{ [ [ { A A [ n.+XqXOXG.8 = 7 ; 7 0 * , e >.>.L , * a G = , <.).].W.^ ^ ] C M C w w b...U 7.<.G F.1X-.8.3X2XG a 9 a ; , e * ; 9 D n.",
"oX;.0 ; , H $.H = @ * y >.L 7 ; . : u %.%X}.1.[ ; w ] | c w K ..n.b.| M c M A A M A _ o.M.tX8XA , B [ T a > 1 &.XXP.T 1 T :.L <.Y m.n.A.>.H f ; 0 0 H 1.q.L D >.uXOXw J n.G.L 7 7 V.0X(.b.| B.qX).;.7 ; 0 Y [ [ e N N 7 7 Y Z.8.S.>.h H f 9 9 Y L 1.G.aXwXn.] 7 9 e , 7 q.iX@XS.H a * 7 L :.Y , Y :.T 1 . 9 <.7.K B N B N { iXvX(.A Q C Q b.] T.cX].N.N.| A N.[ 7 a [ 7.<.K w 7 9 K :.a = a }.pX%.= * 0 D q.@XXXOXQ.F.N.( c x c q Q T.p...f.C M f.].0X| 7 9 ] V.F.).G.1.[ L 9 + h 0.0.=.f = 0 , e q K | f.,.C A (.] A ..'.n.w [ 7._.wXwXfX7.p U F._.7.U V.1X_.7.B ].fX_.7.T { 9.> 1 B { L.9.9 N b.`.0XW.n.-.e D 9 ; 7 e w K m.F.K w p [ b.m.<.B K ).F.A ] V.G.m.A.:.a a $.$.0 , f L H e 7 N [ 2.n.{ a w N w , , 9 Y F.A.D 7 w a 0 , , w N ] g.h.E q x } p.V c Q V.uXL.a , .XsXP.G K.iXP.Y a 7 ; N K A B { <.7.P.8.G 0 8 0 +.+.0 f ;..XS.8.L a >.K.G 9 w A ..N.| c M c M N 7 ; M F.tXaXm.7.bXfX9 G H [ N -.G D 9 D -.N 7 ; 8 Y ",
"pXe.0 # # y $.H , * . ; L L 8 ; + u z u F +.L L L w w [ K w w A <.b...A c w M M | (.0XL.V.yX0X] { :.:.:.T a I |.FXpXT h K.XX8.G 9 G a T :.;.H = , 0 $.oXNX}.&.>.S.q.e 1.OXqXn.w K F.cXcXV.] (.bXfXS.f , 9 [ m.G.{ :.G.Q.[ 9 e a >.>.f H f A.-.e a -.XXDXbXF.] 7 G >.e @ a q.Z.G.8.1.D a Y 1.A.Y >.I.3X<.p [ @XtX<.U w w p { tXbXV.A }  .b.B. .`.KXlX].*X .] p.| v K 7.G.).).9.s H 7.Z.a X 0 S.4XS.0 0 F , a <.K n.n.F.).f.x 6 x w q C A ..(...w v ..V.{ w 7 A b.+XaXqXn.Y $.G < 0 &.f j $.$.g 0 D 7 q w B K A [ ).] [ ).aX(.N p F.2XwXfXwX7.p ..1XvXn.A { V.(.U K fXDXI.T T l 1 l I._.8._.L.B b.B.B.`.(.'.F.B N n.9 = 7 7 w ,.).[ M A (.bXKXtX<.] ].].] B 7.].aX1XL.T a $.w.>.Y A.G.S.Y 7 * 7 N -.N 7 w a w 7 , * 7 Y <.-.[ [ N , = , 9 v [ N.N...q c T.`.} c w Y A.>.9 = S.@XA.a .XCXpXP.8.G , ; [ n.n.7.D 9 $.A.}.1.0 F H.3.F f $.S.}..XK.>.A.:.Y Y N w K | A ^ ^ A A A w w | +XnXcXF.F.fXqXK 7 G K a F.@Xn., L S.:.e * ; e ",
"#X>.t # + < H H # = # , H H 8 = @ 4 : . . # , a :.w w ] K w 7 ; K K A K [ { ] A [ _.nXcX[.(.[.).<.Y H :.q.6.S.hXpX3Xi a P.@XA., a B 7 a 8.S.q.0 # = H 5XFX4X$.h ;.L 0 1.S.2XZ.9 N K _.qXn.7.0XvX2XA.H e N <.].tXaXF.).zXOXD - * , I $.D 0 .XP.9 w 7.wXDXqXn...9 G P.-.= , 9 7 G -.A.<.K N K n.<.a T 8.-.a K F.].| ^ q 9 M [ (.(.] C N.].`.f.A b.tX*X`.eX .} }  .m.Z.8.<.n.+X_.U -.8.S.$., , +.3.q.g g L a 9 9 ; 7 K m.V.f./ ( | ^ ; 5 C <.L.N.A 7 p K K p 9 N { +XsX2X-.9 f I H # d @ 2 q.pX0.H H e e 7 ; 7 w [ <.K n.+X(.<.K w 9.wXfXDXwX9.B (.qXDXL...] U V.N ] 1XvX2Xw.T l l 3XDXhXA.1XwXF.].} } B.`.rX:X[ J F.B 7 w w w A f.| M A T.nXPXmXN.] '.*X .M ] (.tX)._.<.a G 7.:.Y A.}.@X).L ; 5 v J a N G K Y K a ; ; N F.OX+XG.:.H 9 7 9 w [ n.n.K w ^ V.(.'.b.w 0 H Y Y 7 $.>.1.0 1..X}.S.q.$.0 , [ @XpXZ.7 = 0 >..X;.= y ;.O.d d 0 L Z.oX}.H Y , -.A.{ M N C w C C A ] ^ M C <.:XJXcXn.b.).]._.N -.Y G @XLXqXw N >.1.J ; * ; ",
"0.*.j 3 + = d j # < < < f g y < 3 3 # + # = , a Y L.+X<.J [ Y ; ; ; 7 G <.7.{ K V.1XnXtXV.9.(._.9 , 9 >.XXw.&.>.>.6., ; G 8.OX<.Y B , a q.S.0.0 = 0 0.5XBXe.0 > S.$.# d $.}.q.0 e G ).@X-.7._.K.8.8.>.Y [ V.tXKXKXT.^ N.'.D.D @ * f 8.a 9 Y XX7.9 8.iXiX7.{ 7.w e P.Z.e e 7 ; w K { B M A [ b.A G , 7 B N w K f.N C 7 7 C ] C.b.] A b.*X].p.A  .B. .b.]. .M.N.(.qXOXn.J [ _.L.N a a :.S.$.< * # , f a H 8.:.p w , N <.b.<.{ ,.<.<.w 7 B [ n.Q.<.w B { :.G 7 w Y L S.}.G = 2 I &.H j , >.SXNXf * L L >.L w 7 7 K { { m.m.K N / N s XXfXDXqX7.B _.bXbXn.b.<.<.qXF.<.F.fXKXfXT &.bXFXDXgXL.).vXtX].V _ B.R.rXtXf.B w [ F.V.^ q w ] } Z V } R.jXeXb.V M.*X*XM.p.M.p...L.n.N 9 s s 9 9 G 1.F.,.w 5 w K K K e q [ n.[ J N m.vXZX+XF.F.P.:.e 7 q ,.(.).M w K b._.vX1XN = , H S.H < 0 $.$.H 0 < 0 0 d f e e }.uX$.< e 8 F 1.d # y H g H 0 * 0 8.|.>., i T P.L.B * ; c ^ c q n f.N...A c ,.tX:XA A ..<.<.K N 7 [ qXZXOX-.7 D -.-.e * * ",
"=.=.=.4 + # d O.j =.g < y $.$.#.0.=.4 > 2 0 a T A.qXvX).<.n.7.e * ; w Y 1.7.-.[ F._._.{ N { L.F.:.P G q.XX8.1 = H $.0 ; e Z.qX).T s , G q.>.H = f e.5XpX Xk # # =.$.= y H >.>.$.f >.@X).H T :.a :.8.n.<.<.V.tXKXeX^ c f.N./ w 7 G 9 H H 9.T 8.1.a :.L.A.a a -., 9 :.:.G K a , w [ [ w 7 w ] W.C._.N a L.+Xb.] } c } C M _ ..[.0X(.] V } N.b.p.N. .M ] b.Q ] ] b.aXuX-.7 Y 1X1Xm.8.H $.}.q.0 X . ; Y a , T { B { B M B [ K 7 ; w { n.[ B J 1.).<.N :.G.F.K ; , H f q.A.a # 2 6. XoXH f #XAX#X= ; P -.%XQ.g.[ K n.F.n.{ K 7 w { K [ XXXX_.m.[ [ wXKXfXV.).0XtXZX:X^ N.].+XI.9.9._.iXXXI.9.n.0X].M.p.U.R.B.`.[.] v q n.+XW.| c q C p.` V c W Y.`.p.V } =XkXeX*XE._ Q (.(.[ N G G G , 7 N -.,.J x q ^ [ <.K 7 N ,.K L N g.vXvXG.[ J 7.U w 7 w ,.G.F.[ w w <.2XVX3XT 0 < O.oX=.= . y 3.f = # * = 0 F 8 ; ;..X;.+.+., 0 F < , H g 2 j * X 0 >.q.$.0 >.}.@X7., X - ^ W.u.c c f.W.T.} q c ^ C M ] ] w w w w ; 7 { (.:.K e e >.Z.-.8 X ",
"2 k z k $ # 4 k e.{.*.g %.{.e.*.0.0.j 2 d I :.:.A.n.F.F.:.Y -.-.G e e Y 8.8.-.K 9 a U s 7 N 7.n.2XS.$.;.q.$., = H Y $.0 D ).@X(.-.B 9 Y q.;.O.d y 0. Xe.#.> + # > @.0 f y f g $.0 f $.$.D $.9.G D Y -.{ ] | N.[.p.c C N.f.7 5 N 1.N a :..Xn.Y [ <.G G H 7 G A.G G K K [ m.<.A N n.(.<.A c A ].cXqXU K tXKXrXf.C ^ '.R. .] | 0XKXcXB.M M } M.`.*Xp.c p.l.] M c M qXuXK * [ aXgXbXiX9.T 1.>.d , = H K.9., , B 5.).V.{ N w w , ; ; G F.:.J D K 1.K a H :.:.f , , D >.S.H.f = 2 *. Xe.< g 3.%X;.y 1.-.+.H.G.G.F.7.L.).7.N B a w n.G.iXgX.XY 9.9.L.bXvX@X).+X+XaXrXN.E N.f.A ] 9.G > a G :...N.V.^ p.jX*XR.p.M.V.| ,.| ,.K A ,.p.C Z M.z.y.V W Y.=Xz.` ~ z.9XxXmX8Xp. .[.[...K { 7.m.G a N ,.W.D.( x v J G.Q.J q J v J c J n.n.| C w 9 9 w 9 w U <.[ F.[ a H K.3XP.w.}.O.j #X0.d + = 8 0 < = # = < g y 8 y 2.#X{.H * = < < g #.d @ # * # < g *.0.>.oX}.A.N = ; 7 ^ '.j.C C f.f...| C } c c p.`.f.V M w ] w ; ; K N v -.[ ).OXG.1.e ",
"# 3 z j > # = = e.{.0.%.}.5XS.f > j #.h =.w.w.:.H n.XXZ.N K S.OXA.D , a 1.8.K 7 G Y L.+X[ , w [ Z.-.e e Y Y a 0 7 G q.0 = 1..XuXT 9 = f $.f H O.. , , = > = @ + g %.# # = , = 0 1.D , , a >.>.a * , e e w w w c | Q C n C / / w { F.<.n.<.7.{ L.).9 # w a 7.gX@X<.G B A.iXwXF.{ ).wX1X].b.| `.0XqXK N ].JXlXN.Q p.mXjXY.Q V ~.IXGX8X} _  .M.eXmXY.W *X*X`. .C M ).qXK * 7.fXiXbX_.T 9 a f y < = +.@XsX8.a 7.wXfXwXXX{ , 9 -.1.L e >.J D D ; 7 9 9 , , , 9 0 e f 0.}.P.&.0 1 d j = + H y D F >..XG.-.-.[ :.g.[ <.L...w { { G +XAXgXiXS.e 8.7.Z.L.F.m.(.<.K n.m.^ N.N.b.b.<.B , 1 + U F.).fX].] *XGX=Xl.] b.W.(.fX] w - w W.].b.u.R.U.z.t.i.=X8XY.` V i.8XGXIXjXz.Y.0X'.K p N { 9.Y B B g.rXzXQ.^ q w F.>X^ 5 v K ^ | g.] w w ^ ..7 p N w 9 B -.{ L.L.Y 9 G 8.K.4X#Xf * $.%.O.= + = f H > . + t O.;.;.= ; #X#Xy = = 0 H q.}.>., # 0 , , = H P.S.}..X>., = w p B n.^ ] W.:Xj.^ ..b.f.,.] ^ f.N.| w [ { e K 7 7 7 n.Z.Z.qXuXdXdXn.",
"o @ 4 z z < < @.#X-.H D 0 f -.Y H G , a &.>.$., , D H $.Z.>.-.F.).).[ w 1.XXn.K n.vXbXF.f.7 C C { U B A.).uXXX>.a e 0 = H y ;.}.3.< * = . * H 3.< < = + = F H = + d >.q.8.G [ qX@XK w a G ;.$.d 8 0 ; D G.Y 7 -.uXqXF.,.N.'.W.h.C N.] f.+X<.[ ).{ F.b.N U +XfX1Xn.N n.gXgXgX5Xr.K.6XhXfX3X1XaXcXjX[.Q W Y.Y.j.`.R.`.^.Y.i.~ v.HXkXY.Y.c.' x.=X9X} Q R.Y.p.p.A Q V.-.7 9 :.XXwXF.a 9 a H H >.>.f H.pXSXq.H A.iXpXgX2X9.T K.VXsXA.w D D G G 7 , L OX1.-.0 y >.e ; H >.H e G 0 = , a S.:.1 1 , 0 P.V.] q M b.N.] A N [ [ V.aXqXL.+XA.2.D ; L 1.7 w [ 1.:.B 7 w N N (.W.T.cXtX] K A B 9.1XDXfX{ { bXnXmX5.p L.DXZXZX-.7 w <.+XcXF.C s./.HXkX` W ^.8Xz.W ! -X*XR.s.W p.'.f.+Xn.w N L.L.F.[ V.(.:Xp.| c ^ f.p.C 7 c b.b.n.rXN.c A C w 9 9 7 <.7.A.sX<.L.fX.Xa 0 { K.3XP.>.; , 9 ; 8 = * G H < # > 2 j 3.z 3 t *.0.g + = 2 0.SXAX}.g = 0 :.T , 7 H q.oXVXS.:.8.9.T G s A B.cXcXb.w w B -.w N 7.).1XV.[ <.).1.-.B # G vXvX).b.W.>X>X!.",
": o O @ u 4 < F 3.;.-.D ; = w K D e 7 1.@X|.>.= , 8 e -.G.g.,.Q.(.G.K w n.@XOXL.ZXKX+Xb.p.Z } } [ p [ vXKXDXNX2X$., = 8 *.> , =.=.g < = X * y H ;.O., . 8 S.S.y = >.4XVXgXF.m.aXtX(.[ (.oXoXpX|., r 0 H #X.X>.>.@XiXqXF.N.lXGX*X) | ^ ..M.] ^ A ..(.V.A M b.<X].(.<.V.1XiXBX5Xr.&.I.hXhXiXfXDXbX[.<Xl._ } } | W.h.a.a.R./.t.t.c.i.x.v.Y.v.t.c.kXR.V R p.B.l.C A [ { p 7 9 K 7.H , , , , G 2XiX>.t {.SX{.H >.K.w.|.K.{ U K.vXaXn.; a G L -.-.Z.sXVXNX@X-.L q.-.y ; = 0 q..XL 7 K XX1XA.G i i H A.A Z Q b.R.p.M w ..V.F.V.L.7.K L k.k.D ; P 1.J P L [ <.m.[ 7 p <...:XrXcXtX+X0XL.9 7.1XwX1X9.{ _.nXnX).{ _.CXgX5XS.a N <.+X:Xb.Q ` c.9X=X` z.8X=Xi.` ` i.a.U.a.E f.0X'.tXG.K N 9.L.1X1.[ ..+XV.} q u.R.M.} V N ^ (.N.'...q c Q f.N w 7 m.A.A.gXXXT A.F.T G 8.I._.8.Y ; , w w N ; 7 D H 9 # > l 6.e.@.3 @ 3 g j k 3 2 %.4XSX#Xu @ G m.n.B N [ OXZXCXXXXXiX3X:.T { J.8XcXwXn.T :.9.a a T 9.).wX+X<.K ).+XG.[ p F.DXbX).] | B.E.y.",
"o o X : 4 * < %.{.S.;., X . 7 -.Y a 0 S.pXoX>.0 , $.}.@XG.-.K n.+X].{ N -.Z.8.Z.DXKX).b.A M Q M...p n.fXvXgXAXNXS.e = y 3.2 # < H %.H < = = ; 8 f f , + F uX$XH = >.2XvXvX(.V.tXlX).A qXKXVXCX>.@ < 0 f q.4X}.Y Y n.+XF.f.:XrXM...f.f.f.C w C ; ] F.'.| M A 5.C.'.V.n._.fXhX3Xw.T T I.I..X2XZX+X7.V.b.A 7 q C / / C C p.Y.` V ' ' x.x.v./.` ` kX=XV c } B.b.M w N { T B 9 7 K K 9 , = = Y gXgX1.; u +.g f 0.oXP.iXXX:.T P.gX@XL ; = , L :.D L P.CXAX@X>.1.@XsX}.$.0 0 0.S.H D F.fXCXgX6.1 f S.XXw N ..F.V.A 7 7 ] 7.n.-.G w w e k.OXL - 7 J J w B B <.).b.w M n.'.mXbXnXZXZXcXV.B 9.I.I.m.{ 8.iXDXfXm.U n.fXCXiXXXG G <.m.f.C c R z.=Xz.` [.kX`.^.M.p.i.i.E.E.y.c F.L.0XA.G , 9 :.L.<.J K F.b.^ ^ Q } V.b.w 5 ^ C ] +X0Xb.^ ^ b.m.K w A.F.7.sXvX[ <.9.T p G m._.@XF.N w K { <.J L :..XA.0 # 2 d e.=.< + = d #.$.> > f q.#Xq.8 . w ..V.b.b.V.+XZXvX).+XvX2X9.L.vXyXcXDXcX_.P.P.A.:.A.A.9.7.XX1Xn.N L.1XL.B G 1XbXDXL.U | N.f.} ",
"o X * : * o X g S.H.D ; , , e 1.8.7.Y q.P.Z.q.$., ;..XA.L v J { F.(.<.e K -.-.<.@XaX).n.M C A | [ U _.1X.XiXFXNXP.0.H y H H < X 0 ;.;.H F 0 , y q.3.f 0 H.SX@XH 9 L L [ b...f.].KX'.A G.vXiXXX$.X * , , f K.K.a , :.@XaX:XV.| ^ f.'.'.f.7 - w 5 A b.(.V.] M M S b.] ^ V.1XA.9.I.9.1 G T :.<.+Xb.{ { { U w 7 7 5 q q v | ..M w o.` x.x.x.x.W R z.y.Q E } W.'.<.K ; w s U p = p K [ 9 9 >.iXNX@X1.u * . * 0 *.oXhX3XA.T :.@XZX@X/ 7 ; w 8.@XP.-.L -.8.f G S.SXUXCX5X{.O.0 7 9 G 8.XXZXuXa @ 0 &.>.w w [ L.Z.K 9 7 7 9 a e ; ; e K 2.@X/ ; ; 7 N * 5 7 N [ K w w M ].0XtXbXlX'.F.n.U 7.2XCX2X{ T I.XXm.K 9 G P.4XP.>.9 e K | ,.V q b p.^.z.} Y.*XB.0Xl.Q } } } Q V 7 <.F.iXqXZ.7 7 a G a 7 a -.n.F.].| V ] ] 5 * M v { ).L.K w K G.m.K a 7.7.Y A.G.[ K [ K 7 w n.1XaX].U 7 M ,.n./ w K OX@XD = 1 < O.y = = 0 H L G , 0 D L $.g , * A } l.M.b.b.V.].f.A m.ZXbXm.b.].xXmXKXnX0X_.).K.XXuX2XK.:.7.L.<.9 [ F.8.s s K.9.m.p , N ..[ | ",
"@.u # = t < @ + < F H L 8.;.e 0 8.@XoXS.$.$.H.S.0 = * = ; 5 N { n.+Xn.w e G D D Z.L.Z.n.] W.f.] 9 9 A.XXXXVXsXoX.X4X#X$.f H 0 o 8 $.H.{.}.$.e D .Xq.8 7 q.4X}.1.1.[ 7 7 ^ f.p.B.eX^ c q N C e 1.0 # # , g w.q.1 # K.CXZXaX{ 5 C ,.rX].] 7 ; w M C ] N.(.B.] c q E E C _ { s s I.I.p T 9.U w ,.[ 7.:.n.A.L ; * * * 7 D <.m.] M o. .i.Y.U.R c W Q Q } } b.qXwXL.<.B B G F.n.a K <.N , 9 P.VXuXS.Z.+.; ; f 0 1 I P.w.8.:.:.S.).Z.K a T A.XXgXZX.Xe = , * a 1..XVXNXpX X>.< X = 0 a uXfX8.a &.I > # ; = H S.S.>.f ; , * , 0 ; * , a v D./ w w N ] 7 w w M ] b...S 7 c | '.'.] q ^ 0X<.[ <.L.7.p , 9 ; 9 a 9 = = > # ; @ 7 v | '.N.} C } T.~.p.X...7.qXF.<.] c c n c w H -.iXNXoX0 1 H H 7 + , L ).vXvXrX,.7 w K w * K F.G.K * X a n.N w 7 G K J K B w * q ] ] | V.(.`.B.A 5 q ] | ^ C w / <.e , 0 7 0 7 - * 7 G Y Y <.F.F.[ 9 , 8 w Y.z.z.i.V c } V.] q N (._.{ M M [.[.[.L.[ B Y :.8.XXuXfXP.[ 7.[ w 9 G 9.G B { 1 a a 9 , N 7.].",
"@.#.O.*.{.0.0 . , O.H.}..X0.y ; L uXCX@X$.g 3.q.+.@ X a e - q ] m.+XA.N 9 9 7 0 Y -.1.{ K (.).L.p , T .XXXfXq.S.NXAXAXpX$.H 0 = F >.}.4X@X>.0 7 D >.+.f D f F Z.OXF.C N V.'.B.f.T.c ^ ^ f.b.N ).>., = f 6.|.w.i . .XZX1Xm.w ; N ..:XV.^ A A ] ] Q Q } B.Y.p.Z c Q M. .c w w U L.2Xm._.tX<.w w v 7.F.XXXX$.# . ; F H J [ A.F.7...R.Y.=XR.x x E.*XrX*Xf.).vX).U p T K G 7.-.9 9 N G N e D :.8.G.4X.XF y $.+.< 1 f P.XXK.Y w w [ Z.-.G :.XX2XXXF.<.G G e a a D G.uX5X{.3.g * + , f XX.X:..XFX0.@ 0 , = d $.H H L 0 , , e G G 7 = , w <.f.| ] ,.n.^ ] A ] V.0X[.| M q ] W.| 5 5 C ).).{ w , 9 K U 9 , Y S.S.H = = 0 = * q q ] :X*XB.} ] <._.L.B p { qXvXaX<.5 w <.n.D 9 9 8.#XS.# # O.0.%.= , f 8.A.qX+X[ 7 J n.[ q w F.G.:.a , G >.K N 7 * 7 K <.F.,.5 - Q T.T.| Z z.Y.~.i.i.^.`.`.W.C w K [ :.$.w L K v 7 7 A V.0X+XcXtX<.7 ; e C z.c.-XY.W M u.W.N.c = 7 M U A 7 .. .b.b.K N N a :.K.3XZX1X[ F.L.7.p 9 { { 9.A.B I.gXwXH B 1XbX",
"# *.oX#XS.*.2 @ g $.e.{.H.3.$.0 a XXgX@XY 7 D H >.e L G.:.w w N N { -.-.1.Y H q.;.9 L e w ..).tX:.8.K.2XZ.oXf P.DXDXAXNX$.H H H ;.;.1.1.-.L D , D uXVXH.0 . @ -.OX'.p.p.:XjX`.B.V 5 V N.rX`.M | Z.D 9 f $.0.0.&.9 9.XXA.U K K ] K b.n.b.] | B.} Q E ] M.Y.M.} W a.`.Y.Q A  .V.[.cX+XF.qXn.f.V c U L..XZ.L * * D A.Z.L N :.L.L.n.*XR.R.E.R c E.IXKXnXn.F.qX9.a 9 9.L.A.A.Y a Y -.Z.G.-.7 8 P G.NX.Xy = d $.$.a > $.9.9.G ; 7 <.qX<., , 7.F.F.1XvX7.<.1.L D Y :.P.#X3.%.O.= = G Z.Y H -.iXDX6.> H $.$.>.H * , $.Y 7 Y { { 1.{ w w N ^ F.N.| ..,.b.] b.b.b.V.V...M f.W.:X,.C ^ C ^ G.<.<.n.F.@X).L , d H >.$.= @ D -.D N q c T.*X*X(.K B ).wX9.s T A.3X3XK * 7 :.n.:.f , d >.S., 2 t *.0.d d , 7 , >.-.e e -.n.:.[ N :.K L Y D 8.XXq.:.w X * N n.rX'.C - C !.E.W c z.^.xX9X[.8XeXmX`.| c / Q.+XD.L <.j.f.] Q  .`.eX*XtX:X| w N K C W i.=X*XB.M.F.m.{ B , = B ).F.w | B.'._.].qXK.a T A.K.gX@X<.0XtX_.X.p X.V.1XvX_.fXDXgX<.H A.).",
"j 5XDXoX*.h 0 < , > f $.>.q.3.f G F.OXG.D @ ; 7 >.D G [ [ g.,.w w K 7.@X4X8.Y P.XX= ; = N { L.qXa 2XgXuXa 1.* Z.pXpXoXS.8 F $.>.P N w ; ; K 1.G L dXuX;.0 ; 9 1.W.`.f.p.:XlX:X[.c b ^ *XmXN.Q f.<.Y f 9 , 0 &.K.6.> w -.K { V.K w N N.(.C A T.Q Z E } B.R.E.i.` z.U.U.B.Y.`.*XtXmX'.c f.M.mXT.| M V.m.K K w w -.<.F.<.K [ V.n. .M.u.Q h.E.n n :X:XlX<.U L.A.w.6.Y 3XoX9.a a n.Z.L Z.1.D e 7 J G.D ; * , D $.H = , a -.Y B w v K m.U 9 , p _.fX).9 a n.Z.L.@X-.G H f O.H , 9 1.P.[ a Y 2XsXP.H 0 S.oXNXS.; , -.-.N G.F.[ N.T.| A v N F.N.^ K K V.n.cXbXb.] (.[.[ f.F.aXOXn.f.N K n.[ n.).G.n.n.-.D 0 , H S.F = D OX<.^ q q p.*XmXqXK 9 P.DX3X&.&.T $.&.a = ; G -.1.H ; = H {.j O.> < H g Y = ; e f -.P 8 K Z.g.K ; w ; f >.f $.q.$.Y G ; * ; M V.| n 6 ! =XE.~ ! ~ v.kX-Xa.z.U.rXeXW.^ J ,.<.J w ^ | f.N.B.Y.M.u.Y.`.B.Q K f.<.A } ` B.[.W.'.).-.Z.1.0 . e iXVXn.] M.B.b._.DXiXa = T 7.sX1Xn.aXtXB.l.X.V.tXKXKXyX).V.n.<.[ B K ",
">.3X6X#.1 i H g < = * 7 +.>.O.e = a -.-.e * @ = -.S.-.7 w g.n.] ; [ OXvXiXH , $.>.D < , , , G Z.a >.S.oXP.f 9 8.Z.D $.$.0 ; f .X[ w ; ; 7 e K [ L Z.G.G.e * H G ^ p.^ N.N.jXjX'.- q f.*XW.'.p.].m.H G = = G >.iX8.= = B G <.m.A w c ] ^ c ] [.*XM.p.Q y.U.a.i.V y.=X=X=XkXR.} Y.M.b.B.[.*X!.M.p.Q V.l.b.*X| q b.rXlX:XA M ] M M V x u.lXjX| x E j.g.w a H S.w.3XXX>.H q.>.D G , 9 L qXqXN ; v e 8 * * , 0 G D , = 9 a N N 7 5 w K { w , 7 9 N s w 9 a :.).sXY f g H #.0 @ , A.sXL.N G OXqXuX:.G.sXsXZXOX7 N '.'.:Xp.W.`.N.R.u.c N p <.<.[ A w b.+XcX0X..<.1XaXtX+XQ.ZXvXF.{ w w N / L K [ [ K K G H , 7 ;.H ; 7 g.Q.| c c ] [.jX1X:.G 9.2XK.G #.. 1 H f = + 7 $.;.D 9 + > O.d < < d $.0.>.f , , r 1.+.8 e :.m.v B w J 1.>.a 2 j L a G 9 7 N A ] b.x V E.GX=Xz.~ R c.-Xc.y.Q } B.*X'.N.C - 7 J J Q Z } *XGXkXz.} R.p.p.| K n.Q.K M ] W.:XOX>.$.>.oX*., # 1 oXP.-._ _ } ] n.ZXsX7 , N A.qXn.V.V.V.*Xz.p.^.eXjXrX[.C q M ] c - 5 ",
"I 6.K.w.H 0 h &.d = . X 7 F f 0 7 7 w G e ; 0 >.@XdXF.e q ] j.n.J G Y Z.Z.0 + , >.>.y + + e G a , , , 9 f , = 0 a e >.H = * 0 1.K | | C 7 7 M K F.1.[ 1.8 . 7 w ^ E c f.N.:XW.p.- w ..f.M.eX`.(.).L.[ # = H 9.K.8.a 9 9 w n.L.M M C ^ C c V u.M.*XR.! R R R y.d.z.z.` y.R.a.V V R Y.eX`.} V } B.i.i.W W p.} Q M.[.jXmXY.i.l.Q Z ^ c N.>X:XN.x ^ v v 7 9 G :.6.K.oX#., 0 D H Y = = -.OXG.J ; ; ; = 9 L H ; = 0 d 7 7 8 K 1.-.N N , T { 9.m.<.-.K 9 9 D 8.@XVX:.G + 0 H a = N G.qX<.M N <.m.).<.).qXvXJX'.c | eXjXrXM.Y.[.`.^.y.Z 7 = w G [ K w { G._.m.{ ).vXfX).+XD.OXZ.J B q 7 w w w N [ L B G }.oX>., f G 7 5 / g.^ C M M | ..+XA.T h :.S.I 0 + = h $.0 = , 7 D 0 e 7 0 d , , . = $.4XuX1.9 ; , 7 * 7 w e [ [ K K K L f 1 2 H e 0 <.F.+XqXF.| p.Q b E.=X=Xy.R x t./.-X=XR.i.} ^ ..f.C ; 5 q q 7 V p.[.eX=XU.Y.R.E.M.Q 7 K 1.B - 7 [ G..X;.y > j # # = @ $.=.$.| M.N.A w b.).<.G N G { 7 N ] b.p.W c V y.R.=X!.p.b V p.u.C c ",
"1 &.oX4X8.1 , G D e , , 0 G -.>.N ; ; K L 9 H OXVXAX@X[ e N | N.K w 7 e H 0 = 0 = = > , > , 0 H Y a = = f H f 0 = , ;.Y 8 , ; w f.(.W.] 7 5 A b._.7.K K a 9 D e ^ Q V C C f.| ^ 7 ; M C p.f.u.f.F.).K 7 9 a T :.P.A.:.p p +XwXA q V Z V Z Z Z Q E.Y.! V x c i.U.Y.d.R d.U.U.y.` R Y.=XM.R V } z.c.~ V R ~ s.z.i.z.=XkXR.M.M.W V | n W.W.!.'.^ f.J B [ [ :.:.7.T q.H # # 7 L >., @ L 1.1.<.J ; ; K G.sX.X7 @ < F +.e ; w / L v N a L.wXbXvX@XF.-.G H G :.G.2XL 7 + 0 H 9 * w n.V.| A c C K F.<.n.'.lXlXM.c C h.Y.M.E.8XkX=X} q c w , 7 w K K 9 D a .XaXZ.N w K n.-.-.Z.L 7 e 5 X - w [ G.OXZ.-.:.qXDXXX7 5 D v 7 J | ] ..] M S p 1XiXXXH i 6.0.i # . < H , = 0 7 e e K G f 9 * 0 , , $.uXgXA.N 7 , 0 , e J K | ^ C K N 7 , 2 f f , 9 S.iXZXZX+Xf.^ } E i.a.-Xs.R R i./.9XkX8XT.p.C ] ] c * * 5 w c ] } } i.y.! } i.M.N.A * 7 K e * * e q.oXe.d + #   4 *., 0 g :.F.Y. .A K ..<.[ [ a 9 G 9 M M A i.p.} b x ! U.R.R.} y.T.!.h.( ",
"9 8.4X2X>.9 9 f oX@XG.L 7 9 8.iX<.w N L.L.D G .XuXaX@XZ.] N ^ n.K N e f g d O.0.0.g f *.$., = d I H 0 < Y A.q.Y ;.a L >.>.1.G N b.T.B.Q q c | V.m.n.[ N -.G.Z.e M N.(.^ 7 N N K N w / N ^ M ^ | ,.n.K F.).a G A.vXgX1X[ K +XqXA 6 b b V p.u.V b Q i.} ! V b i.U.i.b R d.y.a.Y.Y.a.U.E.a.} } u.z.U.~ R t.c.Y.s.` s.t.i.i.M.x.V c } c K K / ] c C K B m.A.K.7.6.i h I 1 = ; H 1.D , 7 e :.).F.K 7 w 1.1XP.D 7 f L ;.D 8 e L J v C @XDXDXDXvXXXZ.[ F.G.Y G L 1.0 * , e H D w M ^ C ..} c q c N.,.^ W.:X'.M.} b x V Y.=X*XM.} V q | K 9 * * 7 7 = , :.@XuXq.0 * = e L @XsXS.-.G.S.G ; :.dXCXgX.XZ.F.XXDXuXB 7 J K v q v ^ n.b.X.5.X.F.gXNXA., a 0.#.0 . 9 >.g D >.-.w A { G J 9 = a L f K n.(.n.A w e L L 1.D.<.| c N ^ N = , Y =.y = a @XgXaXaX(.b.N.`.[.! i.s.z.R ! a.=XkXeX[.V.| N <.7.K q 5 v | ].'.u.Z i.R.u.b V Q f.| w 7 a e y ; * H {. X*.t #   j e.0 f ;.OX0X~.A A '.).{ K 7.G 7 -.<.b.N w E B.R.y.b x ( -XR.a.U.=XR.u.y.",
"8.>.1.8.:.Y :.Z.Z.OXqXG.L D n.qXn.A { qX1XK a 8.1.n.Z.D.n.K A j.F.n.7.>.L $.{.5XFX{.O.*.e.*.0 = $.S.|.S.S.iXpXXXH 7 e e L Z.-.w Q M.R.p.A C ] b.7.n.<.[ S.2X8.7 w N.aXF.[ 9 = a :.2XiXK M K (.b.| | ^ 0X+Xw B _.bXgX1X<.K n.n.c ( ( b R E.E.! V ! z.p.i.~ V  .s.s.R ~ d.! y.Y.c.s.a.R.^.i.V Q ^.-Xz.R t.=X/.i.z.Y.~ W i.Y.u.c ^ ).<.q C K q c w w 7 n._.fXwX2X8.f *.0 @ # e 8.1.L * 7 Z.Q.G.n.K w [ XX@X>.D D y ; ; 5 D 1.,.N w vXKXsX@XP.:.Y a XX@X-.D D >.F 8 7 ; N n.V...Z q ! p.V x q M.W.M.'.`.T.'.rXf.c V W.:X(.| N.W.^ | -.H * X = , 8 y H ;.;.+.H 0 , 8 $.iX4XL Y uXsX1.9 P.AXAXsX.X8.<.F.tXqX| c C ^ J 5 q ] (.(.m._.L.G n.P.K.a , >.w.Y = d S.S.}..X2.7 ] b.] <.<.a K [ [ K K ..n.} w D 0 f OXrXf.^ A ^ b.[ , , $.>.j , L uXCXaX0Xm...b.*XyX .p.Y.8X^.W ! Y.*X`.b.A , w <.).(.m.[ <._.bXtXN.} [.mX=XQ c c ^ 1.Y 0 , 0 ;.r X ; O.0.0.*.4 @ , D ; L F.tXrX`.Z A (.F.<.G.).Y 7 { (.+X| M w ] M.M.( x R R.U.a.E.=XE.! E ",
"uXH , -.P.Z.:.8.K n.).(.1.[ [ <.] M K F.A.J e L D N N { f.^ ^ N.sXqXXXS.>.S.pXBXSXe.*.$X5Xe.H H &.oXSX|.>.S.oXS.H 1.@XXX2XAX@XK } ^.yX[.Q c ^ V.+X).).).qXXXL a N M n.<.Z.G , 8.sXLXVXn.N w b.N.N.f.f.W.,.w K F.F.n.<.[ C K ^ C !.a.b b a.`.U.y.a.Y.a.i.~ V z.Y.c.t.` d.y.U.R.s.R W a.R.i.c Q =XkX=Xy.` ^.R.U.9XM.` i.M.B.| C f.aX+Xw [ n.K n.K 7 7 [ ).vXCXbXXX>.3.2 + = 0 >.q.-.* e Z.,.-.n.{ ] m.sXVXS.D r y y 8 ; 8 2.n./ w G.@XZ.-.Y a e ; $.G.H f D q.Z.;.a * 7 <.(.N.E x R U.y.E x h.rXmX*XN.p.*XbXW.N c ^ F.OXD.'.F.e e H.0.< @ = = u g O = g @.g # X < 0 S.$.= H uX4XG ; >.4XCXAX4X:.a { B.V. .c c C ( ^ | F.tX1X_.wXL.p J K P.Z.f q.}.q.; = P >.A.k.e 7 p.`.V.rXtX<.{ ).(...M A N.M.A 7 , 7 g.:X'.W.p.] V.n.7 @ 9 H H f D S.OXOX+Xm.] ] 0X8X~.` 8XxXGXE.E E  .{ [ B = G L.2X2XXXn.n.wXtXcX0X(.jXKXjXM.V q 7 G H , + # 1.P ; * , g %.3.#.0 9 K K W.N.`.`.B.Z M ,.[ J <.<.K 7 [ ).aXN.[ F.(.(.[.].} Z M.U.y.z.=X`.p.R ",
"uXH ; K Z.-.N J qX>X).<.N 7 q N p 7 7 N K G D D 7 ; 5 v ^ N C b.qXqXiX.X>.e.5XpX Xe.#XFX5XO.f e.4XBXFX|.$.q.2X.XH >.sXCXVXsXZ.B B.8XxX8X} q A T.:X+XqX+XqX+X-.A.n.N K 9 q.q.Y XXLXNXS..X[ ; 7 K W.} N.V...f.n.<.w 7 w B N c ^ h.*Xa.b b ! U.Y.i.i.U.p.i.W Z M.^.x.t.` ~ ! c.U.` V b ! z.i.R } `.kX9XR.i.} B.[.*X_ ]  .] ..f.^ <.+Xn.7 N <.n.V.A w w w U 9.A.:.{ 6.e.H f H f L >.L 7 q D J ^ ,./ w K F.OX-.8 H S.#XS.F 7 J g.,.K D 1.-.Y L e 9 ; ; -.8 7 7 ;.Z.>.-., = M p.b.} V ! R.y.y.R u.=XkXT.^ v | ).n.v ; J -.1.P D 7 , ;.{.{.t # * # 8 < # # < =.3.g + . 0 w.$.I }.4XoXH = e 1.4XNX}.D 7 A  .B.l.Z c V C f.f.N.+X_.1XMX8.a K w Z.L.H 8.Z.Z.a = ; 7 e e 5 q x.[.eXKXnXb.<.rX+X..c c p.M. .7 f 8 N N.rXeX} E b.f.w @ , f g e 7 L 1.F.+Xb.A V.jXyX~.V x./.8X*XQ w M w B U 9 7.1XwX2X1X7.{ +X1XnXbX:XrXmXjX'.C q ; 7 g d # @ F +.-.F 0 < f #.>.H p ..`.*X` y.`.R.} A | K 7 7 w B w K b.(.[ ] iXgXiXtXfXV.Z } M.! } Y.R.M.i.",
"@X:.7 = ; 7 e N <.(.qX+X<.w ; ; M w 7 7 N -.-.D ; * * 7 v q c | F.@XgXXXG G q.S.j *.e.3.g y H >.2XuX2X-.7 -.qX1XG.K n.qX@X<.w N  .~.tXtXb.q w [ <.(.+Xn.S.@XG.qX+X(.F.7 A.qXZ.S.NX@X-.OXn.C q q Q & Q j...N.{ w ; ; 7 M w 7 C N.>Xc.! R b ! y.b ! z.z.z._ V  .z.z./.U.` ! z.z.` R ` z.z.Q c E M.*X=X*Xp.c p.[. .M A A q ^ W.j.{ ).<.w 7 { ].n.c ] ..w c p B ; 9 H e.S.oX#XH e P D e * * J <./ J [ N Y -.8 = $.pX.X#X2.; ; e v q 7 >.>.>.;.f e , * $.; * X y ;.-.[ 7 ; N p.R.z.R d.U.! i.W Q } Q | w - 7 / 2.D ; e 7 e e r , 8 {.oXoXO.y f d @.g = + = =.e.O.: = + H e H >.$.$.d d 0 f 1.q.0 * e [ V.*X'.} c q 5 V w w [ <._.fXm.7 [ 7 K [ , e a 1.1.<.J q ; 5 q c i.R.8XKXxX] | V.b.Q c V } z.p.K e = e <.V.N.C C ] K w w f G a ; 7 :.).+X@X{ w [ V.8XX.S M Y.*XN.n c c ; 7 s , G _.wXfXfX7.B m.7.+X).<.f.W.W.N.Q C q 7 $.>.j , ; +.}.H.D , 7 f [ w * M T.[.R y.eXjX].p.A c w w w { B w 7 w 5 w { XX1X1X0Xb.V E } V V }  .p.B.",
"oX0.0 = e 0 = * :.S.1.A.P.1.= G D w e 7 ; [ <.B 7 7 ; w / N w K G.oXXXP.a @ 0 > = a , f 0.S.XXZ.] b.*XB.Z c W R.mX0X} c C ] K N w <.qXZX@X7.n.L , f ; , L $.8.A.~.8XM.Z N.'.h.( N.C E N.E.W b ~ R b R ^ | T.b., 7 p { <.v 7 [ '.`.*XU.V ! U.a.b V E E Q ] A A ] ` z.*X[.Q z.yXi.M.Q c Q M.Q c Z T.=X>Xf.V T.tXV.5.M w b.N.f.N.c J -.K w [ b.} ^ } :X`.C c w ; 7 >.oXuX.XS.>.e ; e f e 8 7 ; N A.@X1.7 a L D P F L $.-.L , ; 7 7 , , #.$.w.K.f *.$.0.$.8 * X * F $.7 7 w N.jXM.V ` s.Y.~.yX[.w S [ ,.1.r ; 4.-.e ; U +X1X[ 7 y ;.G..X@X.XS..XXXq.H = = w.0.$.0 , , ; e e = @ , 0 f H $.L a , * * n.OXqXdX+X] 5 * 7 C.(.B w n._.7.a 7 M ] B B K c ^ W.'.p.c c } M.U.! } *XGXjXb.A M A Z c b i.`.*XL.9 9 9 N <.N ; ; , w n.n.n.K K A v w A | <.J 7 ; 7 +XF...C f.:X:X( x q x ^ b.b.9 S C.MXDXfX8.a N (.[ M N w ] ..b.] M A m.XXg.e * / 1.2.2.v ; q K A ] ^ E j.N.E `.l.eXtXN.c ; M w [ n.A ; 7 B B w 7 7 f.B.Y.E V W C c q M | m.",
">.3.H 0 a G 7 @ D P.S.>.H G = ;.L J e ; 7 B L -.<.n.<.{ ,.K N / D 9.8.A.:.T Y 1 G T 9 a 9.oXNXCXR.M.`.R.i.W ~ ^.jX8XM.C A [ / [ 9 , 0 A.4X4XP.7 = H 0 = , 0 H Y J.8XM.V p.N.u.) x 6 b N.R.y.! a.R.R c } N.`.V.A { 1XvX).J ^ F.'.u.=X*Xz.i.R.`.p.} c w p.].'.X.p S l.M. .Z p.yXeXY.p.} p.`.B.E V N.:XmX(.Q B.mXtXyXV.A  . .| h.C 7 N 7 ; w A C Q *X[.*XN.c M ] w ; D $.L ;.L , . -.H 7 = @ @ e S.XX-.; 9 L Y ;.G , e -.L 7 7 H ;.g = h I S.5XK.S.e.oX}.=.8 X * y {.L 7 w V.jXE.x q ` =XyXcX[.S U <.Z.S.m r H.S.-.7 A L._.<.e e D N A.qXXXG.1XuXG.Y = , oX3XK.I G e 7 J -.e ; a L $.S.oX}.:.e - & D 2.G.OXG.K w M V.1XwXL.<.L.1XP.{ w U +X].n.f.( V p.`.E.} ` z.Y.z.! ! B.eXjX0X`. ...l.u.} ! i.B...o.:.B K }.8.9 , ; w ).].V.| V.0X:Xb.q 7 [ { w ; e +XG.f.^ C J D.D.,.| W.rXjXxXM S X._.gXgXK.G <.OX<.A M w ] 5.[.[.N.] | V.N.,.v 7 -.,X.XJ N j.:XV.j.u.j.*X:Xf. .} `.`.~.`.] 7 7 ] ).F.N 7 A <.M c w f.Y.R.} Q } } X.S 9 9 s ",
"0 ;.Z.>.L :.L ; ; A.S.D , e = f [ <.K w w ; ; [ (.+XF.{ <.n.<.<.w :.8.3XiXP.8.:.S.K.S.Y 9..XXXiX:Xu.i.E.Y.i.! U.^.[.T.| B w w a d > = 0.BXFXoX= 0 S.e.f = # < 9 7.[.N.^ j.D.,./ - 6 n j.j.^ E } [.( b V A | V.F.).fXZX+XN.Q.W.^ A B.eXR.E u.`.B.} c | aXnXtXF.U B.yX`...} } ].GX`.`.b.p.`.`.} q ( !.lX'.Q | 0XcXjX]._ C Q p.T.j.e a 7 ; 7 q M } M. .T.V.C C ,.-.; D L L >.$.e = ;.Y f 0 , * 0 Z.pXZ.7 0 ;.A.P.>.+ , H D , 7 $.S.#.1 I >.}.BXoXK.|.5X$X0.@.8 : t $.$.a N b.eXjXE.q Q R.[.tX_.o.T D >.Z.8 ; H..XZ.7 p ] n.n.-.D e G A.XX9.Y K..X-.:.9 a fXNX2X>.1.D q 1.XXY 9 Y A.BXDXVX.X:.J q - - e -.D.N.K C b.0X1XaXqX7.7.3XgX_.Y [ ).qXqX'.b.^ u.*X*Xz. .x.i.i.} E } *XIXnX0Xb.N.`.*XB.b x E (.wXwXT G 1X2X:.-.[ :.tXaXqXV.'.jX0XT.] M w N J G G n.-.n.D...q v W.f.) (.:X].jX . ...n.1XsX.X>.G -.Y [ A w A ] C.(.b.A C b.'.).:.; L aXG.w N <.*X .M M | *X:XT.C C ..f.'.cXV.q ] | (.+Xn.N N K [ A w ^ } N.i.p.[.~.].(.N , 7 ",
", L S.>.a L 1.G a 1.L , ; H = ; ; [ K [ <.7 ; :.qXOX{ v { +X+XD.e G <.uXsXY a 8.).3XiX1.L :.Y Z.'.Q Z } Y.R.` ` } N.b.K 7 * = d j k < j 0.0.=.@ j 4XSX Xf + = ; Y V.N.g.G.Q.k.4.5 5 v J K J A ] N.b.^ w w <.1XaXF.m.L._.).W...c ] } Y.p.q c | } p.C ..'.(.).+XF...8X].(.| c  .*X:X*Xb.Q b.T.} 5 x } '.!._ Q Y.8XjXyXb.Q | T.=X'.[ G e , ; * 7 ^ ..W.W.W.F.K B G.1.q.>.H H h 9 = , d L ;.L 0 0 $.S.;.= * f 1.P.1.= ; 9 0 ; , L >.1.$.T h :.K.:.8.S.H.>.H +.;.y ; H q.L B K ..*XY.V Q | B.1X).G 9 = g ;.* o @.H.Z.N w w [ _.XX>.D $.K..XY , e G 9 K.[ a <.Y -.:..XG e G.sX>.0 >.XXAXCX3X7.[ { K 5 & 6 C <.f.A C b.] n.vXDXL.T S.iXuXA.:.<.L.vXaX<.^ f.rXjXp.V _ _ Y.M.Q Q [.KXIX(.]  .*XGXeXR x } tXDXfXT w n.L.:.<.n.<.V.F.0XN.Q M.B.~.~...N K <.-.w 7 7 [ W.,.- 7 2.,.C ^ ]  .`.b.C.| N G :.Y 0 , ; e [ K p N A L.L...M A V.+X].n.J :.1X(.K C A B._ c M } T.'.'.c w A b.T.'.n.K ..U <.V.[ w w w [ K q M M } Q _ l.} B.W.A w w ",
"G L 1.L = = H ;.1.:.9 = 7 -., ; ; :.<.F.F.7 ; K @X).<.B -.+XuX(.w w -.2XuXK ; [ F.@XuXK 7 D [ +XN.^ V M f.[.} c A | ..J ; @ , >.3.0.4 + . @ 3 # < 0.oX#Xj + = 0 G -.:.-.>.3.4.@.& X * 8 $.q.A.F.] K w 7 A V._.+X{ K [ b.<...f.N.N.A _ } c c Q E ] M [ (.+XfX3XG 9 ..1XcXn.M ..V.:X'.] c ^ f.^ q q b p.Y.p.} ..l.`.[.N.Q ( a.u.| P 0 , ; * * 7 A ] n.N.(.(.L / iXiX XH 1 g $.H i = d $.=.H 1 , d F g = = 0 $.q.;.8 = = 0 f F H G 1.8.9 # a B 7 :.A.L , , ;.}.2.@ g &.9 7 w M ..A ]  .f.W.+XF.G = = g ;.< X u ;.q.8.T p K OXdXD.L 9 :.P.8.9 # ; 7 G <.[ K ; 7 q [ L , f >.f = a I H 8.K.F.F.V.] q 5 6 c ^ | N w A p U L.P.K a q.4X3Xw.:.:.K.fXqXK 7 U ].].Q w _ b.tX0Xb.M ..tXtXC.w A ].KXmXa.! M.V._.m.U M N A B n.<.N K | '. .w W ~.=Xl.A ] V.(.L.[ a K <.n.{ 7 ; , v N 7 ; A b.'.(.[ 7 , f e * 8 * 8 -.-.K N K L.C.{ N M U [ [ A K { ).tXV.B A ] ..B.V.b.] ] b.A M ] V.(.V.N...7 M [ K 7 5 N [ B A w A M Q c q Q V ] B.V.V.V.",
"/ L -.-.e * = 9 P L J J D -.; ; 7 <.<.F.[ ; w N :.1.m.<.-.F.+X).e e :.).qX).G N A.iXsX[ , w [ ).b...] w A F.^ ; w K :.:.D = = j &X&Xk + # < t = . , H %.0 # e H G L P f 8 r r t * X @ u H.3X2X.Xa N B { <.K N { 7.[ A M M b.*X0XN.A C ] ^ } u.Q q M <.).qXgXI.9 p 7.fXKX].A { <.(.f.N c ^ ^ C C c c V i.M.i.Q V V W  .Q Q u.( C 0 # = 7 a -.G.+XD.K <.G.K w 1.@X4X0.> = 6.5XpX4Xe.}.6.f 1 , = , g >.;.;.$.H $.H 0 @ = H q.H.>.f N Y 9 w A.{ 9 [ 1X:.w e q.uXS.= + 1 a G 9 7 A ] f.F.F.F.1.Y -.G 8 u %.u * : y L L.A.K N n.D.+.H G 1 a T G 9 , 7 9 F.).m.v w q N }.f * = 0 a 9 = a A.fXfX+XC.^ w C C n A | K M B ..7.7.<.8.S.2XCXP.G h T $.>.>.H @ N 9.<.A w A C.0XcXyX..A ..b.{ M ] T.eX*X| R Q { 7.o.U ] N K [ +X..w | b.V.Q M _ x.Y.p.A A { m.iXqXF.F.Y { F.F., * 7 B 7 ; w A (.C.K w D 1.>.y ; X r >.G.n.a N w M ..V...p 9 M A N B _.DX_.M A p C.jXnX[.M 7 A b.V.V.'.:XtXrXf.w N K K K [ <.[ Y [ N M 7 A C Z c q 5 M p.b...",
"[ L K [ -.e * = 7 P >.1.L -.7 7 ; M K <.e e +XF.N J 1.Z.[ Y Z.G.J 7 L 1.Q.+X[ 7 n.vXvXF.N 7 N K F.F.m.w v <.K ; ; e -.q.>., + > *.&Xz # 3 t y = = , , e 7 7 Y K v G / F 5 - 8 y F < ; H }.4XXXA.Y m.XX1X).G 9 U 7...] S Q `.yX*Xb.f.] A ] V.T...M ] <.K a T 9.8.T K.XX1XA.9 9 B Z.] A f.F.K c } } E b Q M.l.Q M ` W Y.Y.a.R.E.N.H ; , G 1.uXAXZXvXm.n.Z.a = D >.>.d + @ &.4XhXNXBXBX}.H H I i = f 3.H.H.$.0 g g g = = O.H.S.>.G ; w ] 1XcXF.] ] qX(.1.[ 1.@X}.0 # l 3XXXY 7 , K m.(.n.[ 7 , 1.q.y # u z < * X 8 q.P.<.w e q 7 F >.> + a :.{ G w F.aX'.| q V ) W.NX|.H f A.|.>.9 A.@XaXqXF.{ A A p.u.C V } ..<.b.; p a Y P.A.G G 6.H T T , = 0 h a 9.<.{ 9...o.X.m.wXfXL.B p S A b.V.T.N.p.} E c b.].C.b.V.<.b.f.N.C 7 | b.b.M w W Z  .~.V.] B U XXiXS.<., N G.@X>.L D G [ K A K ] [ [ B P 1.k.;.8 * 8 H }.S.9 e N N V.bXtX..] (.+X{ K ].nX<X..X.M L.nXKXtXK w ,.:XtX).W.].cXZXV.[ B K m.OXqXA.w -.7.G N w } p.M.N.h.V c j.N.^ ",
"g.K - - G P e e D >.A.-.N 1./ [ N ] <.F.w K ZXG.Y N [ 8.L D Y :.n.w L 1.n.F.L B [ aXqXm.B 7 B w XX+X).K e :.[ D ; 7 y $.$.t 3 j %.$X3.= . # y L G J e w 7 M [ q q J g.1.m r D +.-.0 ; H P.3XXXK.:.)..XP.XXm.K B B ..'.[.B.V.[.].N.+XN.c C W.[.N.] V.G.<.K a $.S.Y P.:.Y 1.9 7 -.G.-.b.aXzX| v f.`.M.} } R.~.p. .=Xz.8X=Xp.B.M...Z.g 0 G >.@XvXqXF.<.w w J = * $.H f , # 0 H >.K.iXhX|.6.}.3X>.= 0 >.q.A.$.0 $.0.>.0 , D >.>.$.G , ; n.KX0Xp.N.b.(.).).<.P 8.Z.f i I pXgXI.T = e { n.[ D * * L $.f . : @.g * . ; Y ).m.p ; & - -.a > 0 7.A.9.<.[ N.0XW.f.C V b j.XX4X6.T XX2X:.a 7.<.{ { [ ] ] ] p.p.C x A b.L.XX[ 9.H H Z.Y ; 0 H 8.2XP.0 # 1 1 K.2XA.9.fXtXb.X.m.1X1X7.9 , p ] 1XyX[...p.`.W.} C.nXfX0X0XW.p.q c c 7 ] b.(.] w M ' x.~.8X0XC.B n.qXA.:.7 K F.1.A.S.a 7 7.m.K ] [ F.+XD./ L ;.3.H.F ; * $.-.7 G aXm.F.fXwX..C.nXZX[ N <.F.).F.U A V.qXvX+XB q g.rXtXN.f.f.).cX).v w ,.qXvXaXn.7 G :.{ <.] V.N.b.R.`.Q q ..j.J ",
":X{ 7 7 a :.;.e e @XG.8 e <.g.<.[ ..b.F.<.n.iXqX[ n.G.L , 9 a Y N { L e K n.-.N N F.(.<.[ N 7 w F.vXXXK [ 1.2.G.-.= X f 3.O.4 4 #.3.>.0 ; = = / g.F.f.^ ^ E C C q c ,.Q.D.J q v K K 9 N 7.XXfX1X_.8.9.F.qX).[ V.(.].tXeXY.B.8XtX].:XW.M w (.cX0XV.0XtXDXqXH Y $.>.S.G G 1., = -.).vXZXnXzXn.] *XjX`.h.p.p.Y.Y.i.p.z.Y.kXR.Y.p...:.0 F ;.Z.).<.K N 7 5 N B 7 * ; G G 9 = , a $.q.Y 9 q.S.S.oXH , f , f >.7 , 0.>.;.0 , Y S.XXq.a 7 w V.0XtXtXN.Q b.].qXG.:.Z.S.>.> &.hXhXgXP.= e -.N e N ; * 8 L >.g < g %.u = , :.7.F.G X - P +.>.G a 9 9.7.[ w ,.M.M.u.Q c E W.@X4XP.T Y K.9.9 w 7 ; M ..] B Q M.M.E c w <.vX1XXXA.8.9.:.G 0 7 Y _.iX|.#.= = #. XDXCXI.fXDXV.N F.bXwXB 7 7 A L.(.0XcX[ V.0Xb.w C.qXfXbXcXf.c Q V c w C V.).n.| B.z.l.B.J.C.U N K Y H H 9.A.n.:.>.H 7 9 <.].F.A [ qXaXg.q 5 r P ;.3.F * ; m +.-.+X(.F.].0X(.V.0Xn.1.<.-./ [ <.F.[ [ +XOX-.J v 1.).].].N.f.W.'.n.K q | aXZXqX(.m.).XXbXvXn.K p.M.p.*XE.c c ) | ",
"W.K 7 w Y Z.1.a }.@Xq.K <.{ A ] [ [ <.F.V.).iXL.-.7.q.G , = = 7 e K [ K B B e 7 w :.:.w 7 e B a 8.P.8., * D 1.1.F = # g e.0.j 3 < H $.7 ; ; - N ^ f.b.M.R.R.M.p.( C ) D.Q.( 5 - ] [ N K [ ..C.7.:.{ n.L.qX+XV.0XnXGXKXmXY.p.Y.].N.^ c w C N.].[.N.0XcXvXXXG , , $.8.a f 8.H G 7.n.G.G.:XcX(.] M.*XN.^ c V M.[.M.W M  .rXeX]...w D , 9 D g.G./ N M q ; q N 7 * = Y 8.-.7 , a H T e a XXP.K.XXG , a 0 7 , @ 9 P.XXG.a 0 8.oX.X:.w N B b.b.p.B.u.} f.N.'.+XOXuXpX3Xs I 3X6XhXP.= , 7 G Y D 7 ; e -.S.H 8 g +.8 * , D a { n.J r m D H H G p B K U M C } h.a.y.~ ~ a.(.XXn.a N A.].m.<.] M w p 7 9 A ( E.p.V ; w XXuXZ.Y Y 7.-.a w J [ m.P.P.8.I >.3XLXgX|.8.1X1X] N m.1Xm.A B p p ..qXnXbX] [ L.).b.].fXLXbXb.p.f.c ^ } C w K n.L.).b.l.(.~.A N [ Y K 9 9.).[ K F.L.G.H , w 7.].'.b.V.tXqX<.r - * - P -.D 5 e -.g.n.-.<.K <.0X_.b.'.n.@XOX/ 7 w N w 7 ; J v 5 7 ; q c u.*X'.M.p.f.| A C ^ +XKXcXW.F.sXgXDXaX| c V V Q `.M.5 6 ^ ,.",
"j.C w B 8.oX.X>.q.q.;.[ [ 7 ; M C U K ..{ n.XXA.8.:.$.L a 1 = , 9 N -.-.w 7 N J 7 w e , * 7 w 7 9 D ;.f ; -.oXH.8 ; * < *.{.*.< = 8 D 7 w v ; ; ^ ] A Q f.R.!.'.N.n 5 v ) C q 5 b.b.| | A w M A ] [ L.qXnXtXV.V.jXmXcX[. .l.~.`.V./ C C A } l.p.V.[.(.] K a = , d g , f S..XXX).K [ ] f.V.Q q C | | A q q ] M.} Q c } R.M.^ A ; 7 0 e w [ <.A } `.B.C c | C ; 7 7.1X).N , p N p 7 B m.{ 7.L.G a A.K.Y , . , Z.XXP.a 9 9.G.9.K s A S | ] _ p.} Z ^ ^ ..D.OXsXNX4Xs l I.6X5X6.# e L P.S.D 7 q K n.7.a = 7 F 8 = 8 7 , N :.-.D r 5 7 9 p w ; N ] A 7 E i.U.R.U.y.! V.).n.9 ; { 0XaXqX[...w , * , A  .Y.] q ; = a H a , a F.).{ C ] 7 [ qXaX7.a 6.iXpX:.9 , p [ A ] m.7.K K b.[ N ] rXbX0X.._.tXaX<.<.aXaXb.| p.^ V ) f.] w 7 w Y L.7.A b._.7.m.F.G = a S.A.K ,.+XqXaX<.7 w A ] M q f.'.).,.e ; * ; r D q ; r J L L q <.v w (.V._ T.zXzXQ.v - 7 w 7 q - 5 - - D D v f.R.>X[.Q q c c M.N.M M W.b.M K qXaXvX+X| C c q C `.N.; - J | ",
"b.| [ [ :.q.0.O.= 0 a H [ p ; ; w K K M w K @XiX3XA.-.8.w.$.g 0 D L F.7.7 e F.XX[ ; * 7 ; ; w a , 9 $.>.L 3.}.k.g g < @ t 0.*.2 , ; e L g.<.7 * 7 q q v | f.^ ^ n.v - - 5 6 q c f.N.b.V.X.q _ ~.b...V.].cXjXf.Q } B.B.Z M b.[.b.W.rXrXf.V } M._ M S _ M { <.= = > = + 9 1.@XiXm.w N K b.T.Q q c C ] f.^ c E f.B.B.c } | C ; w - 5 K K 7 c M V R.GXkXu.Q W.M.c C b.+X).A 7 w w w N N M ; p { A <.gXZX).T w 7 K <.:.a N [ K a Y F.b.p M Q M.`.u.Z b M C J K q.P.w.i s w.I.w.f 7 S.sXFXOXN w c A V.V.K q N -.L D [ w w w 7 7 r 8 * ; 7 w B 7 b.(.p.5 R } z.=X=Xz.W p.'.(.A 7 C W.rXrX].f.A B N N U p.f.C w K a , = G 9 e n.).n.| | C M ..(.<.G Y &.6.T G = ; ..'.].L.<.N A b.,.A A f.W...{ qXwX1XN 9 Y w w ,.| q c q } N.1.N , a A.m.B N 7.).2XK.a . T [ K n.n.n.zXqXn.A C ] } Z c M ..f.^ e ; 5 m q N e 5 5 7 7 w v OX| 7 } _ M `.KX'.) ^ ^ A C C C v v 7 v Z.Q.j.p.} y.} c 5 c C :X:X| q q 5 - q <.Z.G.F.b.f.^ q } `.T.c 5 v J ",
"V.L._.m.a , #   @ + # H P.(.] w M b.[ w 7 U iXZXgXXX>.K.oXq.%.0 Y A.1XA.9 T uXfX1XG = , 7 G A.P.[ T K $.+.D y +.;.3.@.= # d k < 8 = P G.#XA.D D G a 5 ; w w 7 7 2.J v v N N w 7 M ] f.(.b.A `.IX(... .} M.[.E.p.b } p.} M A ] C W.mXJXT.W z.[.z.M 7 w M V.).a 9 Y H 7 9 Y .XiXb.N w M `.mXeXu.C w B <.<.w q f.tX`.V Q | <.J K 7 w ] } c V M V ^.9X=X` ! =X[.Q Q A p.b. .^ V c A p.} M 7 w c A `.aXfXF.F.].<.B N w B n.n.N w F.DX0XM 7 M u.Y.M.B.Q M ^ <.H 9 h 6.I i h I &.Y ;.oXsXCXOX{ A w C `.B.} w 7 w w c K [ ] N , * * * * e K n.+Xb.rXrXR.c Q W ! Y.=XU.` _ ~.eXB.E Z u.Y.'.T.| | (._.n.[ M ^ | m.+XA.:.q.}.A.[ B C } p.f.p.c c ^ ] :.9.:.a U <.9 5 b.].].(.V.] c C } ( ^ c ..[ A [ N m.9.1.9 8 J K C n 6 - C ).vX@X#.>.pX3XF.a , H ;.H L , e e m.dX..M :X:X].N.} } p.u._ V A N w e r 5 7 J [ ] N w 7 q J ,.zXN.q E E V Y.:X( b E.*XM.C V A | ^ c v n.OXj.b b d.E.i.W W ! `.*X*Xh.c c Q | ^ [ [ ] N.(.p.b | N.W.,.N w w ",
"} V.wXXXT 1 > # > + = :.XX_.V.....[.<.w w K m.A.P.8.a 8.|.w.0.h e 8.2XA.D 1.2XuXP.A.T a T 2XCXiX8.{ Y 8.S.;.F +.y 4.%.t # # 2 4 0 ; 2.#XS.;.$.H.pX{.g * + X * 8 F H P J [ :.K 7 7 w K V.b.A V.tXM.x.B.} R z.R.R.R Q E.'.| 5 ; w V.*X:XY.` p.^.Y.z.V q M <.L.>.G q.q.G 0 D F.aX(.,.M M M.=X^.i.Q 7 w 1.F.C 5 ^ *X'...| <.<.K [ 1.V.M.p.p.Y.z.! c.c./.s.s.9X*Xa.i.c V } R.[.z.} p.B.M.B.M.Q q E [.0X(.[ (.nX0X..p ; U +X1X[ N ).LXqXK M M C Q y.!.M.A F.ZX}.> 1 }.|.I i I }.oXq.G D 1.F.F.p.c M R.8X*Xp.c c ^ j.W.V...B G D - o ; v n.zXJX].`.`.B.} ` V b s./.z.t.W Y.8X=Xa.! ( u.>X`.j.n.qXgX).-.M w ..XXgXiXP.2X}.2X).B 7 A B.R.z.` Q } <.F.P.A.s U n.<.N.*XeXjXT.`.h.n c | T.N...V.(.b.{ , 7.5XpX@XZ./ K ^ C q - N Q.vXpX6.0.SX5X2Xa . , , ; $.f , :.vXzX(.N.M.mXmX>Xp.Q y.i.} u.Q q 5 J -.y ; ] b.N...C 7 5 J n.rXN.c ^ i.} p.! V Q Y.[.z.W V Q Y.B.Q M ..'.j.W ! R.kX=Xa.y.` i.E.=XY.V E !.:Xn.<.C C N.*XT.p.} ^ N.W.[ 7 7 ",
"A b.+XXX6.&.0.0.# 2 I 6.m.L.V.....].<.M N B B , G H , >.K.e.#Xq., :.P.A.$.:.A.P.T K.A.Y A.VXDXiX{ a :.uXvXSX$X;.* 8 O.#.2 + 3 =.$.u +.%.g O.@.;. X{.3.O.u +   . < O.$.e e -.1.K 7 w N m.F.[ [ |  .x.[.z.W a.U.U.R b u.W.b.N w w N.N.Y.M.` ~ i.x.z.W M A ] n.F.9 e Y a = ; G F.F.F.] C ` } Q `  .w G F.OXg.C ^ b.*X(.| K w , N +XlXY.Y.=X8X-Xt.s.c.-XE.x.Y./.U.U.! W ` ^.eX^.a.M.p.z.R.^.y.V ` M.W.V.[ b.).V.b.] M A (.0Xn.A b.qX_.7.<.^ c M Q f.N.| +XPX4X1 3 K.|.6.h &.|.pXP.7 * w ..(.N.Z V ` x.^.E.V c ( N.W.)...M K >.m * 8 w f.tXrXW.^  .B.M.i.V c d.z.i.` t.x././.s.! ~ ! >X=Xj.] F.@X.XF.{ 7 K @XVXpX6.$.>.P.(.A q Q U.Y.*XU.W Q '.aXL.B 9 B ....W.`.E.eX!.*X!.( b j.*X*X!.j.)._._.G I 3XpXAXS.e :.j.v C q N [ 8.>.f k 0. XS.d # < 8 < H f e n.aXlXnXkX! *X:X`.a.y.i.U.R.Y.p.c ; K g.+.7 N  .N.b.^ q - x n.W.h.Q Z p.U.i.V ~ i.z.x.t.~ W ` =X[.x.A | ].B.R b d.R.-XU.a.y.` a.a.! R ! R.rX!.j.c c f.N.f.f.C M j.'.-.7 , ",
"p.b.L.m.{ :.e. X3 &.e.:.7.qX_.w S `.b.A _ ] K 9 N :.f q.}.S.pX3Xa -.A.A.:.T K -.H K.F.-.A.qXaXsX{ 9 <.iXuXAXSXf ; 8 $.q.j # 2 e.|.O.u * + t u : O.=.@.j y = # < @ ;.H.D ; a { Y w w M (.tX(.<.A  .y.U.` b a.Y.a.V c c ^ b.'.V.C f.M.R.M.R V i.x.[.l.M 7 ; { iX-.* L G 7 , 9 { <.F.A M p.`.[.`.B.e a [ :.L K ] | ).F.7 7 ; ; ; F.mXM.z.`.^.a.R ! i.x.s.~ V ! z.^.U.y.W a.[.R.p.p.} Q ` i.! ! a.}  .V.f.A w c b.V.b.A ..].V.A A b.1XL.F.C 7 V ^ | ,.:.@XCXS.3 3 O.6.:.a 1 G K.uXF.w w K N.M.} W c W ^.[.Q V | M.b.(.7.7 , $.3.u t v | '.N.N.C p.'.!.M.R b d.s.d.~ c.c.s.i.! R R R h.M.A 7 e 1..XiXn.7 <.sXVX4XG 1 >.8.[ ; - C p.p.[.=Xp.V ..F.7.[ <.+XqXW.`.W.p.`.eXrX*Xh.E } E.E.j.w ..V.L.s 1 F.@X1.D v ^ g.,.c q v w 7 7 > > 0 0.>.+.0 * = y L -.J N m.nXnXT.E y.} ! ! R V W } B.B.A 5 w [ J 7 7 A p.V.M.C q n h.h.N.} q Q R.a.R ~ x.-X-Xx.~ Z W [./.l.V _ =XY.s.R ~ x.-X-Xs.R W z.d.~ U.U.a.=XW.f.x 6 C C x b c c b.'.| 7 7 ",
"V M.] N G a a i 1 q.K.:.L.+Xf.c V c./.i.` i.} C w M G :.P. X|.5XH B { 7.[ ] K q K ^ | N.j.f.W.N.N N 7.@XqXqXP.H &.7._.XX:.p B :.Z.L X * ; y y 7 = * , K K w 7 9 <.Y 7 K ] 7 M | w q M 0XLXqXn...E b c b V Q } } f.Q q q | W.Q.u.E } _ } Z  .p.Y.T.<.w 7 { P.G.>.= < d G 0 , D 1.<.| v ,.rX*XN.| w e ; w S.G.Z.XXH 7 f 2.D & - P N.B.R.^ Q f.C c c W.:Xu.c Q M.R.E.R c V W p.^.Y.M.Z V ` V c W Q } [.Q c } | f...w w ^ (.'.f.] ,.+XG.,.C 7 5 q v = 8 %.$X{.4 # + 0 G { 7._.1XF...; C M E !.R.W x w b.'.] 5 q ..W.qXG.7 0 $. X@.; q u.E.u.n n | N.N.u.! ~ ! s.c.d./.R W R ~ y.c c M ^ K U 7 Y :.7.N q [ +X(.Y s 9 a f e = @ = y $.@XOX.X-.; L @XOXG.G.1.[ K q w n.*XjX`.p.E V p.| c  .b.V.].N 7 7 ; / <.A M ] | ] _ l.| K [ a ; ; , y P y ; * 9 L Y K w [ 0X[.A w 6 R Y.z.` ! ~ i.^.*X} q ^ ..C v ^ ^ f.T.j.n c ) } M.u.R Q } h.=Xd.~ ~ U.=Xz.Q M. .X.B. .V ` z./.c.d.~ t.c.;Xs.b ~ ~ W -Xx.t.~ t.R R b x c b c 5 c c ( M.h.E x ",
"y.R.`.f.K 9 9 >.H.8.L K <.n.] Z ' ' t.Y.=X9X8X*XQ N a D H #.=.&.9 p [ 7.<.(.].b.^ E p.N.p.} ( ^ [ B p N <.1XiX1XI.I.wXgXm.p p { K G ; * 7 y L e ; 7 K <.V.b.Q w ..n.[ ....S _ ] } ....0XDXtX+X(.a.R ! `.*XN.f.f.'.j.C x | !.W.| } } V c 5 V ] b.[ N ; , <.P.1.e $.0 , 9 0 , 7 N n.<.v K ..^ ^ J v 7 * , :.P.}.2XG < f 3.+.; ; m j.f.j.M N ,.e * q 1.W./ q c p.R.=XM.} ` } z.V.B.Y. . .l.} V q q } p.q q | M...c q c ^ '.rX:XN.,.N / | v ; ; e F +.u < u 4 : : . = s { A.aXfX)...C } Z c } a.( C q [ n.[ w 7 B <.OXZ.0 , O.3.t + 6 b ( | C q w n | h.W.E.a.U./.x.=Xz.R b z.R.E } A w 9 M F.iXqX<.^ c C ..<.] B p = , a 0 # + 3 u #X>.H 7 ; Z.AXsXZ.a * e :.D 7 G b.Y.} E c 7 } b.^ ]  .f.V.[ ..c 7 ..W.N.} Z  .`.jXmXyX(.n.| K K 5 - r L e * - J K A 7 9 7.L.<.] M t.-XU.` ` ` p.^.`.] c b.T...] ..f.| Q ] p.^ q w } p.u.y.Q Q U.-Xs.~ R.8XB.} (._.b.V.M.M.R.z.s.c.s.~ ~ c.-Xc.t.b ~ t.c.x.t.s.~ ~ i.i.W V R ~ W R V E y.a.u.( ",
"Q } '.).F.Y a 2XFXpXS.L a ] W.*XY.' ` /.=X*X=XB.f.K K G 0 d j , 1 B 7.7.<.].cX:XV.^ N.*X:X`.) C ^ K w 9 <.qXvXfXXX:.m.wX+XU w B N G 0 X ; 8 1.$.e e K m.].L._ 9 9 n.).1X0X(.b.] b.[.`.0XcXwX+XV.R.! } `.`.b.] A K n.N.v - q / f.`.R.` C 7 A | V.].n.J 9 B 1.).@XXXY , 7 9 7 ; 7 w w q C N v ..g./ 7 X X , H $.g 0 = 0 ;.+.5 * ; K K K 5 e >.D @ ; e J v q c C Q M.z.` Z Q  .l.V.*X[.~.[.eXR.! Q p.N.p.^ w w ^ M q V | W.rXlX].f.q | W.,.w 7 G >.S.>.8 + . $ 4 + + 1 H F.iXaXm.K | ..Q q c ( j.f.e 9 e L e * ; e P.8.y . = < u t - - q ^ ,.J w 7 J W.nXmX[.R.^./.=X*Xa.V Y.R._ `.] w N { DXLXCX7.n.f.A C ..b.<.{ = , G $.t + # : g f D 7 = $.@X4XG.9 @ L }.:.f [ b.b.] } A w f.*X'.b.b.b.b.b.).w q K j.(.B.M A yXyXeX*XN.] ..b.| 2.v / Q.Z.7 7 1.n.n.A 7 N 7.b.| W ` U.z.}  .` p.Y.T.Q 7 q M | [.W.b.A K '.bXrXp.C _ } p.} c V M.9Xc.~ y.U.} b.tXbXV.b.B.*XkXY.~ s.s.d.~ d.c.c.s.R t.i.t.t.s./.` ` c.c.` R d.a.a.! W V ~ a.E.U.",
"V 5 A ] <.G ; }.NXCXgX8.N Z.aX:X .W z.~.M.R.`.| [ B Y $.h #.*.0 9 B 7.7.[ V.tXqXF.c N.eXnXmX) c w <.[ B n.+X1X1X2XT ..aXtX..A <.1.;.7 * * 7 >.Z.>.e v F.].b.A A 7 m.qXaXaX0Xb.A b.'.(.0XfXqX).<.V.} C C A { [ N [ F.m.C q | D.D.T.b.Q } ] b.n.(.tX+XL.<.K [ ).sXqXF.[ N w w 7 7 5 w C | w 5 ^ | +.5 * * = H &.2 1 @ < ;.$.8 * * D H e * , ;.O.= X = e D w 7 q c ! z.} V Z _ l.0X8X8XN.Y.mXyXz.M.:XW.V.f.C C | c w | N.T.`.eX*XN.c | W.n.N 7 K Z.}.$XH.g # 3 g @ @ 1 a $.G.A.K w [ | ..C c ^ N.D.L = * D H * X ; L $.$.# + . g e.J w w K 1.:.a ; w m.nXKX].p.x.M.U.=Xz.Q Y.`.N.[.] ] m.1XKXfX.X7.V.'...w A ..{ { T , f 3.O.= X @ < H 0.$.0 Y oXhX4XG , :.3XS.Y :.[ A K f.] w A V.(.b.<.<.G.G.qX<.C C ^ (.:X| _ eXB.B.B.l.} B.`.b.D.g.G.OX1.7 e F.+X].b.N M U ..l.M.Z ~ i.Y.Y.p.l.*X[.b.M 7 7 | wXcXC.[ _.KXKXaX].V.] A ..} w M M.-Xs.R b Z } '.ZXnXb.]  .[.jXY.W d.U.=XY.s.x.-X=Xz.z.s.W i.x.9Xx.y.U.z.! ~ i.U.z.U.! R d.Y.-XR.",
"} 5 c M [ :.G NXCXBXoXH N @XJX0X} M.kXjXB.b.W.<.w ; 0 g 0 #.0.#.0 , N { [ n.OX).<.7 n.rXmXlXC x w n.n.N N { m.].0Xn.).bX].N B L.oXH.7 $.0 f D -.1.N N m.+XF.C.(.7.L.@X]._.V.] ] V.N.[ V.+XL.A.n...C M K <.L.).<.-.S.n.J J F.aXzX..A w b.F.0X0XcXKXqX].(.b.n.0XvXqXqX(...] [ K w w v C ^ 5 * K ,.3.8 ; ; = H 6.d 1 # < $.$.y ; * f O.0 . # g O.< . ; G Y N 7 q C p.`.R.u.} } `.KXcXjXb.p.jXrXi.u.f.| ).+X<.f.n.] ^ *XmX:XT.!.`.Y.c M ^ | K v { OXOXNX4X;.8 8 g + > 1 i H -.G 7 7 L ,.n.| C ^ h.D.$.# X F ;.y * ; = y ;.t u + u %.H J w e Y q.>.f G <.wXZX[.] _ l.M.p.W Q T.0X'.U K [ :.@XXX8.a Y ).qXF.M w A [ 7..X, = $.O.< * = d H $.h i &.5XFX5Xh # a w.w.I 9 p 7 B b.<.N 7 N m.n.K N 7.L 8.F.1.| ,.].tXV.l.[.B.B.^.R.p.Y.Y.} ^ G.>XQ.K q ^ W.+XF...A p A J.tXkXQ M p.eXeXB.V.(.`.V.b...A A ] F.B G 1XDXfX1XwX_.S 9 { ..w 9 Q E.s.W b ^ (.aXvX1XK M A M.`.y.b V f.R.p.Q } E.8X=XM.y.Q Y.^.xX-Xa.R.-Xa.! y.z.U.=Xs.R y.Y.^.R.",
"w q v q w 9 , 0.pXoX8.e 9 -.).G.] p.rXmXF.^ ,.D.7 @ @ = @ < %.3.Y , w :.<.<.<.[ v 7 N.+X'.g.w q w <.n.C 7 v f.].tXN.V.qX(.B A b.).q.9 @X1.>.; 8 w e N [ F.+X1X_.-.-.m.F.+X].b.V.].b.w N Y w G <.[ 7 p F.2X1XA.:., L Y 7 * J OXaX<.K w [ n.wXaXnXnX0XqXwXm.b.qXKXqX0X`.f.b.V...v ] A q q 5 5 j..XH.y 8 ; X 0 $.d = @ , H F 8 ; * < g #   + t =.j g 8 7 N L ^ K A } M.Y.M. .] `.KXnXmXB.p.rXeXy.( v N G.G.N C j.(.W.mXPXmXR.M.B.E.Q V c C C C | ).uXsX.X$.0 y H = = , 0 H L 0 = = Y :.g.<.J v J g.O.= X u 3.$.r , * , r 0 t # = t H G 7 # , >.8.Y G D 7._.m.A A ]  .l._ A ] 5...= U G , Y 9.6., a m.).n.N w B n.1XiX9 X 0 F +.%.g 0 H I i > , :.XXw.G a s G T T G B 7 K n.L.1.9 ; L Y 7 # e = H }.-.[ <.(.N.] Q  .p.M.^.R.p.` W c q g.+XF.^ K ,.F.+Xn.| A w ] 0XKXxX .M  .[.[.p...C  .(.[.V.A w 7 = 1 a :.A.K.P.1X2Xp = U U , ; w } ( } } f.].qXL.{ 7 q A f.Y.} C q C K c 7 c p.W.T. .Z ` B.~.8XR.a.-XeX=Xi.! a.-X=Xs.R R t.c./.",
"W.0X].{ J , . # 1 d H $.$.a ; ; ; c | n.g.<.g.D.P 7 * @ . + t 3.q.:.S.K.[ D N 7 * ; K ,.J q 5 5 7 K f.] c C M.`.bXj.^ V.[.V...K L f ; oX.XH.8 ; 7 w e N :.).).n.9 9 [ m.qXaXC.b.F.C.K K a = w :.F.N a 7.oXXX:.9 , 9 0 , 7 K 2.-.:.n.B w w ).qXqX<.<.tXZXN.M | (.`.b.} } f.N.p.] rX(.c q w q K 2.4.t 8 8 = y >.8.1 > i H g 7 ; = u k @ + # t 3.;.;.e ; w f.W.M.} Z V } B.} C ..].8X8X .Z M.Y.} | g.7 w 7 ; B ^ ..'.eXkX*Xa.! y.a.u.} Q c q w C ^ (.(.-.D 8 D >.H = > < g H 8 * ; e P [ 1.2.w q 1.3.g = ; H 1.-.v q e 7 e 7 ; ; H .XZ.D * @ 9 f a , = , N B A A M X.0XV.A w 9 s , { 7.G G K.|.I 9 a w N w 7 a 7.).2Xa = ; y {.pX3.f :.9.[ a , , G s U F.8.p 9 :.I.[ 9 N Y S.P.a @ X = # . = = H.pXL w K b.N 7 w q Q z.^.R.z.W R } q v ^ ,.| ^ ^ | (.B.V...M ] ].tX[.l. .Q ] | A M 7  .0XtXV.] U K Y 0.0.H 1 0 Y 8.2Xa 9 9.:., = 9 M } `.'.<.<.G.G.[ ; w ^ j.W.a.| w -.Z.[ w e <.'.F.f.C ] ] p.B._ ! u.R.^.a.! y.R.a.i.W b W c.=X",
"vXKX+XK J G a 1 = < , f Z.S.L J e [ L N [ D.g.J k.+.8 ; # . = *.q.3XDXiXG , 7 7 ; ; q J B e J w q w ^ ^ c E T.`.:X^ c ^ b.b.A 7 ; * X >.G.G.L w :.K v K <.n.7.-.a a T U F.].U M U V.L.(.<.a [ P.VXA.a a 8.3XK.i + a 9.>.e , w J 1.@Xn.w 7 +XvXaX).<.W.0X] 7 N } ] c c Z Q E } N.cX:XC c ^ v q 7 +.y u u ; = 0 G G G >.q.;.D d 0 %.%.< = < 0 ;.L L K ^ | f.B.R.`.} V u.].b.M A ..`.'.X.w Q p.p.T./ ; q - X ; q ] !.M.} Q V b ~ i.`.*X`.} M ^ ] K C K N e 7 a Z.8.< , , f +.0 = ; * 8 D >.Z.v 5 1.@XH.e * e n.F.,.q K ^ g.K J N A.@XZ.f ; ; e L :.7 7 7 w K V.V.] | nXV.p A B U { 7.uXuXw.hXiXS.f e ; 9 G a s { :.L.K 9 * 7 4XLXS.K J N K -.U w 7 7 p C.m.p 7 .._.S.G a a q.@XH # = , a , + = {.S.<.7 B n.A w M 7 M p.R.R.a.R ~ `...q 7 | V.] C ^ ] b.[.T.] | b.] b.'.[._ w A M M ; A [.tX[.V...N oX4X XH # # j e.S.g >.iX.Xa * = w n.JXKX<.w Z.vX(.J C ] j.W.f...7 Z.pX}.D 7 -.+XqX+X[ ] c ] } c x q b y.z.y.! i.~ z.s.V ~ =XxX",
"aX'.<.F.K K T a , + = 9 L G.G.P 9 :.L - ; L / m %X.XF X X = < O.Z.1XsXqX).-.7 ; * 7 ; * ; L F.N 7 5 | W.| C ( E E h.Q 7 C ..M * + # = a :.1./ w [ N.K N N K n.[ -.a , , K F.b.7 S 7.cXb.m.-.[ gXNXXXG # I |.&.i + h 8.8.G , ; N :.2X[ 7 K qXaXKXKX(.<.n...<.w ]  .M.i.Q Q } p.T.tX0Xf.,.+XN.7 ; @.@.4.+.f H 1.Z.f f >.S.XXH >.>.{.0.;.H , a <.<.W.0X`.Q R Y.8X*XR.^ A N.`.B.....tX| B.A E } f.] J P 7 5 K N 5 C f.b.p.p.y.V W U.a.GXjXjX}  .W.^ 7 7 N [ e 7 J 1.y 0 , 0 F ;.; X X * q D.-.J v g.uXOXw 5 c p.eX`.u.} N.'.} Q j.C / 1./ 7 ; J n.W.] v M M w | W.] A C.1XB B U :.:.8.oX.X6.BXAX5XS.a ; e :.8.A.<.9 a Y G , G AXPXG.,.q ; J N.V.] N N ..(.A c ; Q <.F.:.:.H 0 >.S.0 = $.H +   # d >.T a 9 [ 7.{ ] 7 5 p.`.E.M.y.! i.| ,.N A K f.A M M b.0Xb.A b.| A (.nXV.{ ] A V.b.7 M b.].(...| 7.CX X{.%.: # * O.3.F q.$Xq.+.D X w F.fXqXK ; m.KXqX{ w v W.nX:XN.P S.0.H.2.7 G Z.).+X).n.[ A A C V - R p.R.U.R.~ V Y.c.W ~ Y.8X",
"C f.n.G.B p U <.G 9 , , 9 -.1.e ; G K 7 * ; 7 e 2.k.L 8 8 ; = , L { 7.L.L.<.K { F.m.:.-.K [ F.,.w K ).rXW...u.u.( M.p.c M ] A w , , , , K n.f.A C | N N N w N ; Y { p * 9 b.b.A c A [.F.qX).n.gXLXT i i 1 h &.I a &.A.:.D w w w w F.7.K Y Z.m.(.1X<.[ L.(.n.[ W.*X*XM.A A C Q N.:XN.^ ..W.).,.N ; < H ;.$.$.Z.G.L Y G $.-.$.$.f Y $.>.L ; 7 ] p.R.Y.M.i.i.Y.-XR.M.} Q p.`.].'.b.0XV.0X| A ] } A D.[ 7 e n.] q M ^ f.E.M.( b R M.rXKXGXjXB.C V.f.M c ] <.N ; 7 D L f = , H H.0 * * 7 e 2.D q - w | n.| Q E } E.E.z.^.a.p.p.V c c 7 / 1.J q c ( u.h.} ^ Q V | T.f.M B n.U U 7 1 H 9 8.q.T oXpXoX0.0 , 9 G Y :.[ 9 N K -.K G S.@XZ.J C q c j.:X'.} ] N.`.C q 5  .W.aX@X:.e D Y f ; = H >.D 9 < 0 H :.s w { <.7.m.K c ^ f.`.*XB.` u.p.(.] w C ).b.w K 0X].w ] ]...A L.tXV.V.(.V.0X'.; w ] ..| ]  .n.H.=.e.3.8 @ X 8 %.8 y +.F F ;.L w ..+X(.B 7 K ).OX-.w ; | lX`.C 8 y 0 ;.3.e 7 , [ m.G.<.B w A | Z c ! p.E.E.Y.` Q Y.U.~ V W ` ",
"7 | [ ..w w [ F.F.7.Y w 7 L Y 7 ; e Y Y w * ; J ,.1.1.>.>.D , ; J B [ G.G.{ { +XaX(.<.<.[ N { [ N w v | W.Q.( q b Q ^ M w K ] p a G N p ] V.N.Q c M.'.'.^ * 7 G <.Y 7 7 N ]  .(.b.] V.(.vX+X[ A.Y , 9 a 0 = , P.I a Y n.<.[ ^ N w [ n.K N w N N J 7 9 7.G.B K ..0X0Xb.A A w w <.<.^ ,.N.g.n.j.e 8 f 1.S.:.D L <.@X).G Y D $.H e 7 a Y K 7 c ] ` ` ` a.U.y.R ` M.Y.p.p.T.0X]...M A ..].b.b.B.`.W.n.[ 7 7 / K q q V N.[.M.R x V i.mXGXGXlX'.7 ] ..C A <.F...w 7 ; Y H 8 , f A.D 9 ; 7 q K N w 5 7 5 Z M.y.W Q ~ y.U.^.` W } Z c 7 - / D.,.c q b ( R.E.a.Q c c V C U B 7.{ K = # 7 = Y H , 0 &.H h = + = , 0 H T a 9 9 K [ N e J J C ^ v q ^ *X:Xh.| W.eXN.| Q M.(.0XiX[ w Z.1., , 0 G 8.Z.Y f f G U 9 , B G <.qX).B w v f.V.A 7 w ..0XF.K w n...B K <.7.U n.).<...N ] K b...A b.| ; q c c c Z } ..8 < +.;.y * X ; P 7 - ; 5 r L 2.N A N.^ v v 5 w w 7 K ] C w 7 B K , @ e G e e ; ; w K K N w N ] } } C Q } B.u.W c W _ Q Q W Z ",
"v V.,...M M A b.C.V.b.A w G J ; ; 7 L n.L 7 q L / K L -.-.G 9 7 v M K { ^ 7 w m.qXV.B K B w K [ w K K K ..h.u.( E E } } A ] ] w B K K B ^ p.M.i.y.} u.N...w 7 w ..K ; 7 | } } `.` A p.'.nXfX..U = 9 a , 9 > > A.:.= 9 7.b.f.W.V.A w { L [ N Y a w 9 9 L Z.e L a [ V.n.n.V.N ; N w ,.:X:Xg.J w ; 8 0 L :.a ; w ] qXV.w Y G a D Y 9 9 e p K f.p.Q W c ` p.V w Z } T.Q A (.0XV.M 7 B b.0X].`.M.u.b.N.0X).K C | ^ M C W.*Xp.b q c Q `.lXGXcX'.w c M N N ..G.F...N ; G >.-.a 7 L e J a 7 7 K ,.<.{ | c V M.p.i.a.W t./.i.` Q c p.`.v - N ,./ c q c E y.z.U.M.p.} | B.b.<.9.B p G 9 = , L f a = , + = @ # # # ; f H a 9 w N K <.<.[ v | ^ v c v ^ f.V...b.'.:X'.| | N.V.).K w m.7.N [ -.J [ 7.K a Y :.B p B { a K XXG.e ; ; q w ; * 5 [ L.F.F.[ U B [ A = K m.K U m.<.7 9 N b.N ; c w 7 c c q c Z Q ^ 5 * r +.L m r 7 q v 7 q m r 6 v ^ w ^ q M f.q 7 c 5 [ '.V.w - K Z.P 8 ; ; G 1.K ; ; N :.G.V...^ } p.c c V M.] C Z V c c Q p. .",
"c :X:X:X..A M Q A | | N w w w 7 e ; 8 Y L J J J N q c K [ [ { <.^ A c w c c C <.aX0Xn...^ C f.(.-.L.G.[ ^ j.f.u.} ( f.f.M w s p [ K N M c V a.=XR.W b C } C 7 7 M <.M ; C p.i.i.V W i.T.eXtX<.w a = w 9 , T A.L.XXK w A ^ W.mXlX,.w ] F.qX+XOX[ K K 9 , Y H Z.H ; L m.+X+XK * ; ; D.0X+XW.K q K A.G e N 9 7 w N [ M 7 w N = D ;.L G 7 7 ] (.`.B.B.c q Z Q ..f.A | q 5 A V.V.<.{ { V.].cX:X^ q c '.nXnXW.| | ^ M C T.'.p.^ Q V c | cXnXaXN.] M M K w N [ ..{ A 7 e 1.m.[ 7 J w K n.A N | W.(.).+X} c Q i.R.[.` Q `.`.B.} N (.vX{ 7 7 q c c c b V R i.Y.=X[.b.p.(.n.9.7.a 9 8.:., = f L S.$.0 . # y d , + = D -.:.U p 7 ] Q.).,.J ,.[ / J 7 ; J Q.F.] ..:X].] M ..(.N.A w w M [ F.m.A B K w N <.F.7.L.1X2XY 9 G w ; ; * * 7 G L N K { <.1X+XF.G G K 9 J G * 9 n.[ w 7 C f.A 7 c q C Q Q V Z } i.j.c 5 7 ] n.g.f.J - c c E f.( c V C 7 V q ..rXf.^ c ^ ).].b.U B b.n.f.,.q q G.qXm.w 7 w n.+X)...N A b.} A c ] A A M.N.f.q w | } ",
"} *X'.*XT.B. .V c X.] N v v K 1.A.9 7 K [ f.g./ c q M ] ,.F.+X+XW.,.q 5 ] W.'.'.tXnX0XF.[ M f.+XF.XXL.K N | Q 6 c C p. .9 = p 5.L.C.b.b.Q b s.9X=Xs.! E ( | C A A b.p.C Z Q ` z.Y.~.p.Q Z N. .N N w [ { K { n.qXL.F.b.A } jXKXjX:X] ] ).ZXZXaX<.K Y 0 + , $.|.q.D G L :.:.B , ; ; ,.| ] N.,.| :XDXn.w w A [ ] A } f.f.B B * a 9 >.>.a = N n.].0Xb.q 7 N K n.G.[ M C M w ] F.V.[ M N ] tX:X} c V f.N.'.'.b.C c c c ..f...n.N.] w C aXaX].[ ..A { b.K w 9 w N N 7 ; A <.n.<.V.K ] F.{ [ | (.'.qXtXb.M V B.kXjXM._ `.nX1X{ <.F.P.q.Y w 7 C ..p.i. .} i.[.xX*X .Q ] _.F.F.<.a 7.-.a e 0 H Z.;.f ; , O.*.f @ , $.K.3XF.B 7 [ ).n.C K D Z.G.K ; 7 :.).+X{ [ aXwX<.w A V.b.p.Q 7 w ..W.b.] N M v K n.L.1XfXfX1XT , , * ; , ; @ e }..XD a A.XXiX1X).K w G T w G [ a N :.J w q C ] | ^ c | f.h.u.} u.U.`.} V q u.!.`.`.u.V Q Q ! E.M.} y.} V ! E E.jXW.f.x | tXfXV.A B L.f.N.N.v ^ zXJX0XA w w <.G.7.A w A (.0XV.M w c M A (.zX,.C | C ",
"M.W.u.Y.~.yX^.V V  .l...| K <.qXsXK a m.Q.W.n.^ - 5 c Q ] V.+X].W...q 5 A M.V.V.(.:XN.f.| c A n.{ .XqX{ ; c ^ q 6 n | b.] p U _.(._.*X[.p.W s.=X9Xd.R V M.:X..q | X.l.~.z.Z W z.^.R._ V 7  .T.'.n.).).n.m.G 7 n.[ V.T.l.R.mXxXE.eXb.| ].cXZXOX<.Y 8.>.0 = =.0.H.>.0 , 0 f Y Y w 7 w w N ] ] M.tX_.B , 7 A N.`.N.N.'.(.n.[ 7 , @ H >.f = 9 [ n.(.N = w [ G Y 0.Y v b.V.^ A ..<.B M w p 0XW.| ^ V Q C f.W.f.V C } c C N C N.'.N.K w m.G.<.] K K +X+XG.<.K w N K N ; N n.0XqXrX| [ <.b.T.]  .b.8X0XV...| tXKXjX(...V.vXwXP.A.>.w.K.S.H p [ V.(.~.^.z.l.8XIXtXJ.C.C.1X+XiXXXe Y :.8.8.H D F +.H +.F t 3.%.> 1 &..XfXfXA.A ..+XN.C C 9 P.4XY ; G A.XXA.T H 3X1X7.9 p A i.M. .C C } p.} p.] M ^ f.V.F.1XqX7.G G 9 9 8 y H F ; t #X#X0 i 3XVXgX.XP.Y f H >.-.oXiXG e S.n.,.^ C p.W.N.| | h.R.E.i.} a.^.U.} V i.U.Y.=X^.Y.c.s.d.c.c.x.s.R.z.y.( h.!.W.N.T.f.0XZXnX[.A ] p.T.T.C | lXzXcX<.A K F.+Xm.K A A C.tX(.M 7 A A w F.JX(.,.n.w ",
"Q p.f.].~.eX[.M V ..N.V.n.[ g.sXNXL L @XqXF.[ q - ; v C N b.].(.V.f.A c c M V ] b...c Q b.A N ] -.9.n.N 5 ,.D.q 5 q N <.m.G s 9.7.C.V.p.W ~ Y.kXU.a.Y.i.E.eXb.^ C C p.`.R.p.Q V i.z.} z.Z  .B.(.aXn.7.<...L.n.] ..b.l.B.[.`.a.}  ...b.cXZXKX).:.K Z..X;.= 0 , h h # , H 0.oXS.9 9 , B { N w ,.).n.U A B A ..W.(.] | A F.{ w - ; e Y a = a [ K K N . , <.$.Y $.7 C N.W.| M A ..n.M w w ].b. .p.C V ) M.j.C q ^ f.C N 5 7 ,.+X(.1.7 N -.U <.w Y bXgXfXiXL.-.-.7.-.w ..:XKXnXqXA C | [.eXA M Q Y.b. .] ] 0XtXb.| A V.F.aXDXA.:.4X2XL.U 9 K b.B.~.*X=Xl.<XnX0X7...{ F.qXCX@X, Y F.1X.X1.:.G q.S..X-., q.Z.f 0 H 7._.fX].K N F.`.C - e }.uX>.< G S.|.&.i = T H H , w c i.i.Z V V Z } ` Y.b.A  .T.T.V.b.m.9 9 :.Y a , +.q.q.y < S.#Xd h .XuXfX3X3X9.Y 9.oXfXDXXXT 8.Z.D.'.n.c ^ N.j.f.Q p.=X=XM.E ~ a.R.z.V ` ` i.8X8X8X-Xc.c.c.Y.x.` =XR.! R Q u.`.*XN.].mXqX_.(.] M A B.'.| ..(.V.0X<.N C G.qX(.[ N S M b.{ A B J.b.m.+XvXn.K <.7 ",
"c M b.B.b.N.f.b.b.V.<.m.F.:.:.:.>.0 f %.;.3.$.= * * ; ; w A.+X].cXV...| A A ..l.W.`.h.} f.] w w A b...K N <.OXJ 7 7 J D 8.A.a B ..~.[.~. .Q } p.p.R.W.M.h.h.( q q n N.T.Y.Q Q V } ! a.h.u.( C } b...| V.eXcX`.C C } `.0XR.} Q l.<.w 7.].qX).qX(.[ ..m.<.a B T a 0 < 0 S.hXgXoXD # e $.G.G X -.@X<.<.[ B B w w N 7 N N C q ,.J - ; v w 7 w K [ 9 9 7 ; 9 [ [ e ; C W.N.c q q C W.M.] q c b.u.Z } n x | J q 7 5 | N 7 7 w { qX0X[ = <.-.N Y Y D 9.@XgXiXK.n.q.8.7.N ] +XvXZXqXK <.n.rX0X`.} Z Y.Y.V.^ N ] p.} Q E A p.[.*XC.7.C.V.V.A w A f.V.'.0XrX).aXvXP.9.m.7.f.b.F.{ ; 9 n._.<.N w B F.qX<.q ,.n.).(.f.] b.0XtX:X} c  .p.Z C w P 1.$.< , j *.j 2 , = X 7 K 7 ^ p.p.p.M.` V ~  ._ ` E V h.'.N.N ] * w Y <.a e H $.I 0 i e.#X6.G { iXgXK.XXT S.gXgXgXDXL.K N F.dX:XN.^ n C E E | u.U.E.u.R b R u.E.^ c } l. .l.(.B.`  .^.^.i.W x.8X8XW i.`  .8X`.V.L.(.n.<.B 7 w n.F.+X{ 7.m.<.K w 7 N ^ K v w M Z [.l.S B (._.1XCXXXp 9 H $.",
"} w Q b.N.b.b._.L.+X@XsXsX7.9 . > + < *.}.4X|.$.f , ; , e n.@XqX'.u.| ..S M | M.a.M.( E N.F.T s A ] A w ; 7 K 7 e H >.$.:.H = p M } ..] M M A  .] p.p.( ( u.^ x q C ( ( !.( x x x ! `.`.W.N.E C C A ] b.(.T. .Z Q  .`.0XW.] Q ..V.s [ m._.F.'...w [ 7.B p n.m., = 1 f S.oX}.w.0 + $.S.;., < H e e K K 9 , ; ; 7 w 7 * * q h.N.| c V q 7 7 p [ { 7.{ 7 * 5 w w q J N.f.c x C | `.'.} Z } M.M.p. .C q v q 5 q 7 K J N N N [ F.(.<.9 9 9 H .X8.a 9 :.A.:.G G Y :.8.w ] G.F.+XuX<.e (.nXzXW.Q V M.Y.j.^ C ^ f.b.i.} W W i.l.A M M A  .i.u.u.N.:XZXLXQ.Z.n.n.7.8.T , q c A w * w m.).B 7 7 9 ] 7.M ; Q | f.| ) ) p.N.`.`.| E p.B.N.T.J N J G d d f d d *. XZ.D N J 7 ^ p.f.B.=XM.V c c W z.i.b b u.u.] w * 9 <.n.7.7 a G >.K.}.6.h 1 9 B A.1XK.I.s T gXDXfX).B 9 C ).'.W...c q c c q x b h.=Xa.x 6 b N.W...c M S A X.S M M A p.i.Q W z.kXkXi. .M X.V.] A K K K [ K 7 w M { 1X7.p N a = w J w - * q Q V V l.X.M p m.9.P.I.G # 1 Y S.",
":XA M C M w 7 N J G.qXKXKXG.a + . + < >.4XNX4XS.Z.L 9 9 w B n.].`.^ ^ ..] A  .l.} y.V V N.1XA.T 9 w { { w ; ; e -.q..XP.Z.a # w 7 M M M M M M M ..p.^ c c C C c c p.} Q kXR.R b b y.`.E.u.| c q q 7 c } ..Q M M M Q b.V.] w c K ).B w w B K ..c v A ..] B <.:., H Y T Y a e >.>.L H 1.;.e , = ; w <.m.-.N 9 a Y Z.-.K v j.:XjX!.c c c M w 7 N <.L.L.[ 9 N <.m.n.| C ( W.f.q c W.eX} E | } p.`.N.Q v N q 7 q 5 7 -.1.:.Y L K Y :.L = , H pX@Xq.a 0 D 0 , , a Y 8.m.7 7 :.OX.X>.:.:.aXvX'.K q Q ^ n.m.j.| ]  .M.B._ c Z p. .C M A M.*X*Xp.Q ..n.n.; ; ; w 7.F.{ M ] | | A N n.aXnX<.p w p [ b.A v v ) | C q c C ^ | ^ C Q N.eXmXGXf.K A <.8.8.#.i S.hXAXXX<...| ^ } p.u.p.B.p.Q _ W U.xXkX} q E j.,.7 w <.1X@X@X7 a :.XXCXCX:.= 1 Y 9.:.8.P.3X8.A.8.uXuX<.K 7 w [ n.N.| c M ....C E Q T.jX`.c 6 ) lXnXrXb.A S ..J.o.o.M c c c x V Q 8XmXtX~.w M 7 N N N p K F.F.L 7 ; <.fX_.B { B G L.qXn.q q f.:X} _ } V.J.X.m.B , 1 1 h A.P.S.",
"+X] w ; ; w w 7 7 7.XXaX@XL 7 = = 2 d $.}.oXS.q.F.<.N N p , B V.>XQ C l.B.B.B. .i.y.E M ] 9.8.{ 9 p ).+X:.e , 8.Z.XXiXgXuX:.9 B N A B ] ).'.] w Q Q c 6 6 b | h.| *X'.u.kX*Xz.! a.U.=XR.M.j.C C | A C ^ | p.,.b.M A ] [ M 7 7 B _.7.[ U ] <.n.[ A ..).L.[ { 9.{ .X3XK.-.; , P.gXXXD 1.}.Z.0 . , 7 [ L..Xn.G K F.qXqX].] W.:XrXN.| | M.f.^ M p ] L.+Xm.B ^ W.+X+Xf.c | eXT.6 q N.eX| V c w C N.T.(.(.).F.n.n.:.[ ).2X@XK.:.9 9 8.Y , G H iXpXpX$.= 0 a 9 < , a -.<.q 7 B A.sX@XP 7 1.OXG.J 5 w ^ +XaXrXf.w M p.`.} c A `.].b.] A  .[.*XN.} ^ J q - - ; C n.] M 7.0X'.N.,.{ F.aXKX_.U N K n.).b.j.w J -./ v q N | ] c 7 c f.tXGXmX`.p.b.].1XP.9.G iXCXwX7.<.(.B.} Q ) ^ E Z Z p.=X=XxXKXGXE.c C N.OX<.[ A.iXiXsX1.a A.3XiX2XT , Y wXiX:.:.3XuX2X5XT XXfXP.3X<.G w / f.,.J | :XrX`...} N.:X`.Q E M.rXbXJX:XA w X.~.<X<XM.V b b x x b.0XMXcXL.9 V.b.N [ n.m.(.uXqX<.7 ; (.bX1X7.1X<.F.sXvX).| j.:XcXB. .C 8XDXwX2Xs . , T 3XAX4X8.",
"@X:.L a a Y Y L , K L [ K 7 ; * G H H G Y T G K Y -.A ..] 7 A T.*XQ V l.(.<X[.B.M.z.u.C 7 1 h { 7.G F.P.8.G 0 A.S.pXVXAXsX:.H m.L.V.] C.DXKXV.M Q ^ Q b q b y.E.*XGXJXh.p.Y.^.` a.i.`.eXeXR.Q C N.M.| V C ..W.+X^ [ <.7.[ N N K L._.+X1XL.F.N.N.M V.tXF.[ ).wXL.{ P.@XL.a 7 A.uXZ.-.OXXXG.1.; X 7 N A.qXXXT U XXfXKXfXN ] B.>X'.>X*XeXV.5.b.{ <.vXvX(.B K m.+X0XW.M.N.N.f.f.h.f.`.Y.E q c c Q T.bXcX0X0XtXaXqX).1XfXNXgXXXH G |.q.f $.H S.S.oXH + 1 H Y g , , D [ w 7 [ P.uXS.= = < L ;.D 7 G OXVXJXaX[ 5 c f.(.p.M C V.).7.A w A T.tXlX'.N.| ^ N ^ N K b.] ] 0XrX'.b.<.[ K b.qXF.U A A [ n.b.W.e 7 m -.-.v J g.n.K q w Q V.*X`.[.M.V.0XtX1X9.B m.L.7.U V.0XR.V q q c V M _ [.GXmXxXjXeXB.M c ..+XOX[ ).vXVX@XF.7.P.).1X3X:.Y 3XZXCX8.T P.oX2X5X2XpXVXiXDX@X7.J w [ ..K ,.rXbXrX^ C C } f.f.p.f.b.:XnXqXU 9 o.J.kXmX=X} a.-XU.Q V.L.1XZX0XU aXaXB { L._.).].D.J w w (.iXF.U XX:.m.XXqX(.n.W.rXcX'.p.q '.KXZXqXp , L 8.XX4XZ.H ",
".XL $.>.H e 9 G e w * , K K N , :.>.:.T a 9 7 7 w ..K ..b.w ] N.a.V V p.V.<XyX[.M.R.`. .9 s r.I.7.G T 9.P.8.a f Z.pXsXiXF.a L ).vXqX<...tXtX| c } p.B.h.! R y.E.jXKXKXu.V z.kX^.a.! Y.eXrXT.c c | N.j.c 5 v n.>XK [ <.<.{ B w 9 L.+X+X).] M M ] ^ ] <.{ K n._.n.9 <.).).K , B K B K n.1.-.1.L w w w Y XX3X:.T _.wXLXvXA M ..`.*XE.T.eXN.V.0XV.7.aXqXF...b.G.+XrXlX>XW.T.*XeXT.Q } Y.M. .l.} } ].KXmX(.).qXwXqXK.P.XXiXNXiX0.0.4XBX$.0 1 H 0 $.H # < G >.>.0 , f A.B 7 -.S.>.L < = + 0 $.;.$.;.@XaXuXD.e 7 ^ N.N.| M M ^ [ [ J 7 c M.lXcXW.J c C ] V.] w Q N.[.mXT.n.....] 9 w <.{ ] <.K N ^ ..'.L ; - +.2.D e L g.<./ N M ^ j.B.Y.p.B.0XbXnX1X5.B { ....Y.yX*Xi.V 6 - q V b.jXKXGXeXB.V.V.] C ] OXOXG G.gXCX).).L.9.n.2XgXF.7.wXDXaXn.e 8.XXiXBXgX5XhXpXiXA.Y 9 7 [ <.] ,.+XqX).^ ^ C C ] N.b.^ K V.qX0X7.M _ ~.mXmX[.` U.HXHX`.[ :.L.uXXXT L.m.n.{ [ ] N N J B A w <._.{ p 9.<.{ m.+X+X(.W.rXGX>X`.^ +XnXcXn.* w <.}.2X@X-.; ",
"0 = f $.0 = = f 1.Y ; 7 <.m.[ , T G 9.m.-.T K 9 w C.A ] p.M _ } } b V } l.[.8Xl.z.[.eXb.B 9.3XI.T 6.T 8.3XI.G # D S.8.1.L 7 J n.qXwX<.w [ K w A Q } a.M.y.! a.R.[.tX*XW ` z.=XkXY.a.R.*X8XR.Z M ^ j.h./ q w ,.).[ K K K J w , ; n.F.7.7.w 7 7 | N.c q N p M U [ M ..F.)...w N 7 w J [ :.K J <.1.a 9 9 { A.:.T m.F.vX].A c A Q B.} } `. .p.[...] [ ] [ F.0X].W.].eXrX:XeXmXrXu.Z V B.eXtX[.M.B.[.nXmX].0X0X).1X@XK.8.P.5X3Xe.w.}.5XH = # > , O.3.H 0 2 #.q.O.2 0 Y N.B ; 9 H $.= = . < g ;.3.H $.-.2.L q w / f.| ^ C N w v [ [ w X v n.N.^ q q C W.:Xb.w c } p.Y.| f.] B N 7 , p N K <.K N ] ..Q.P * X t m ; ; 8 J 2./ v v c C p. .p.~.0XcXKXnX1XA U | ] ] Y.*XY.( 6 5 c C p.:XcXeX`. .b.(.b.N A @XP.L :.Z.F.@XiXK B <._.].<...).qXZ.n.e :.}.XXoX6.0.|.3XI 0 1 + 7 K { ] <.(.F.[ ] ] K v A ....A w K [ ..{ M M b.eX8XM.W a.=X=XT.K G T 9 a a 1.[ ).K w N w 5 v ] { <.1.F.Y [ L.n.{ <.L.+XV.^ f.0XW.!...N.V.G.K 9 G Z.2XAXAXZ.; ",
"@ = =.H , = = , :.Y ; e F.).F.G , 1 :.3X1X1X+X{ M J.S S .._ ..` a.R V Q l.<X~.M l.8XeX..p 9.I.s r.6XA.8.K.7.G @ = f , 9 K e J J 7.XX-.7 7 7 w V.W.B.i.} b q x V } N._ q z.` ` ^.W ~ M.R.`.B.S w q c J J v 5 q J G.1.P a a e 0 9 ; w p <.A M w f.N.^ C w 7 B 7.{ 5 M ] n.| N N ; w D.OX+X1.K 1.K :.H 9 s 8.A.8.m.F.wXb.] M ] Q [.8XY.`.Q C b.M A ..] ..qXJXqXW.[.} jXjXW.*XeXY.u.} R.JXKX[.u.M.p.l.[.0XcX]...+XgX3X8.S.2X|.e.0.=.> = # = , j >.0.S.d @ 0 3.$., ; 7 J 7 8 a = , < < . # + 0 %.0 , * e D e w C ^ Q C ^ K q 7 / -.7 * w ^ J v c c C V.(.M.A c q c Q N._.b.N B B p N 7 7 M w M | } | * X X * * X - e 7 J q - w q - q Q B.:X:X(.0XaX0XN w A C 5 Z M.} c q E j.^ A ..b.b...A [ V.[ 7 7 B K OXqX(.K F.1., [ ].+Xb.<.L.].[ w D.L 1.8.9 + 1 j K.P.+ + = = * w N A [ b.[ 9 w w 7 ; 7 M K K w p 7 w U M w  .` i.} ` i.y.R x * , f @ 0 >.Z.L -.7 w m.m.B v K m.aX+XF.Y XX1X7.F.7.F.+Xn.q w f.^ | c 5 * K [ OX:.:.1.@XuX-.* ",
"= < 0 g g < , f -.Y [ Y K K [ U a Y 8.iXfXaXwXU | (.].[.8X[.l.} =XR c V  .J.5..._  ...A B 9.% i K.5XXX&.G s s T a a L Y J J L N n.n.K 7 ; 7 K W.R.p.M.i.y.} b c c p.N.} } p.i.` i.Z Q  .Q Z A w q m ,.g.K ; - 7 -.Y D = * D >.G 9 7 ..n.N.f.M A p.b.b.b.F.(.b.A M ^ K K j.F.,.C w F.sXqX[ B , L.}.$.1 $.BXuXT s U m.tXcX`.} E.xXxX*XY. .Q ..].yXMX].5.0XPXcXtX[.mXmXjXeXp.jXmX*X} `.GXjXB. .A C } J.tXMXL.U n.CX.X8.i 0 6. X0.d > = H $.d d H >.H q.0 H }.}.H.0 w X N 1.1.$., = # = d # . f g = 7 7 q w w 7 q w C | | ] [ e 7 L L v J ,.n.W.F.A p.'.u.b.M.} l.q | [ { ; w n.<.qX..] ).qX| f.x - ; u F 8 X * D 2.k.J 5 1.Z.w w q q C '.aX:XN.[ Z.w e N ] ..C 7 q q ..N.n.N.] c C f.<.] { C.U ; * 7 F.qXvXm.K 7 N w +XaXaXqXm.n.F.^ v J K F.G , # i H a I &.a , # * 7 ] <.<.<.{ M 7 w 9 N 7 N <.0Xn.K w p  .p.w 5 V i.i.! a.R.y.Z K a g f 0 Y S.8.e -.<.G.+Xm./ ^ ).vXOX<.n.G ; T { p , M f.f.Q V j.| C q ; w n.aX).G.F.Z./ q ; ",
"< > = 0 H f , , G.-.J e w e K B K.3XXXiXbXgXwX{ L.0X1X[.yX[.p.} M.y.Q V A C.C. .M } N...I.3Xl T K.CXgX8.T 7.F.).L.F.XXqXOXg.L e w ..m.[ w 7 ] '.N.} u.y.M.E.y.} ] ..B.*XxXkX^.U.z.Q W W V A A w ; e 2.D.-.7 * * e e 7 * = H 8.-.w 7 N [ N.F.] ^ | N.].zXbX]...[ f.| c M F.:Xf.q w n.+XF.B N -.iXCXe.0 H XXP.h 1 9 qXKXtXb.Q M.R.GXeXR.i._ B.jXKXnXbX0X[.mX0X*X`.GXmXjX].Q `.jXeXE } B.M.p.p.Q Q  .B.8X0Xb.A 7.wX2XA.G i &.K.e.I @ # ;.oX|.>.y 0 $X4X$.q.$XS.q.G K N <.:.S.@X3.H F 8 F y = 0 F L L w q N C c 5 5 x ^ | / / e e 2.<.w q K ,.F.).b.M b.V.cXjXN.`.b.A U <.N 7.1Xn.L.aXb.W.:X].rXM.v H.$X$X;.8 D 1.}.D.[ e g.).,.K 7 q J ).+XG.2.v J e 8 e g.Q.,.q 5 w | N.Q.F.J 7 C G.f.B w N B w ; 7 f.W.'.n.n.C N F.(.V.1X+X[ { ).<.w w K m.9 * # a 9.A.2XuX9.9 . ; M { ] [ F.(.[ B K U V.<.7.n.qXn.<.| A l.`.i.Q ~ ` z./.8X=Xa.} 7.>.q.-.f $.P.XX-.L.OXG.[ 7 v | D.@Xg.e G G G 8.s , M C.W...p.W.:XN.f.N.g.[ { m.G.g.n.Q.n.v 5 ",
";.0 = 9 >.q.Y e 8.G e 9 7 G (.sXfXDXuXoXuXiXXX[ { L.b...'.b.M A u.R.u.c p 5.(.l._ p.`.n.wXgXr.*.8.fXiX:.:.@XfXfX_.F.qXLXKXuXZ.[ w ..).N.A M ..*X'.M.p.} M.*XR.Y. .] ..tXKXyXR.[.M.} W V C  .b.] 7 e G -.L 9 ; * 9 P $.9 * e -.:.K 7 7 N N.:XN.p.^ N.:XJXJXF.K 7.g.j.C C W.0Xn.w v -.n.L 7 7 Z.XXNX0., 2 *.0.#.a K fXqXb.] Q p.} 8X8X=X^.B.(.yXmX<XMXtX| B.(.`.`.mXkXeXR.V } ^.=Xu.E Z Z p.M.V M } p.`.`.| [ L.1XXX8.T I I K.|.&.H H P.2X}.q.$.;.oX4X$.L >.L >.-.[ ^ | <.@XVX@XS.H.f $.;.e 7 J A.<.v 7 A ..^ c 5 q C } | ^ v J N.W.v 7 B ] n.(.V.M <.b.eX0Xn.(.V...L.qX(.qXvXF.m.ZXb.,.b.'.:XT.C Z.dXuX+.7 P G.@X.Xn.K <.OXOXm.N v J g.g.+.P r D 2.m e g.OX1.7 ; w [ Z.OXQ.v ; / m.{ N w M | | M q } f.N.N.'.,.w <.] N 7.n.N { qXn.N w N <.N w p m.wXfXCXgXm.B , M ] ..[ ] b.n.A ] N N _.1X_.[ [ W.].*Xb.Y.kX=Xz.Y./.Y.R.*X[.i.A :.8.P.9.D K ).aX[ { n.1.J w v J -.n.L ; 9 [ F.1Xn.B n.nXtXf.N.0XrX'.W.D.n.,.K v [ w v j.j.c 5 ",
"1.a , D Z.XXn.w a G <.1.G K XXFXgXFXpXS.XX@XL.:.G ).L.F.tX(.} `.jXnXf.7 w 5.cXcXb.N.'...1XiX|.w.A.XXF.Y n.vXKXbXqXm.G.vXsXZ.D 5 N | T.W.j.| | | `.f.} C ^ B.B.`.] M A N.~.` Q R.M.p._ C Q V.(.n., ; 7 a D e 7 , Y .XpXZ.; 7 >.P.V.A 7 w ..W.j.Q C | b.W.F.N 7 ..C ^ C N n.'.,.5 K 1.Z.:.H e .Xq.3.t @ # , h H f 8.@X..| b.} h.M.z./.=X[.~.B.B.[.C.].yXo.b.[.T.`.8X*X*X~.Z V } p.B.Q M Z M.M.c q u.u.W.B.A ] ).L.7.G T &.&.K.|.&.e >.sXsX}.q.$.L H }.-.; , D S..X^ M M n.vXsXOXuX}.G -.m.K w N n.[ M w  .B.u.V c c Z } | ^ C ^ n.n.N q N ^ n.V.X.w ] ] n.+XaXnX+X<.1XcX).L._.<.n.F.N N c } ( u.E N g.n.D 7 K F.OX(.:.B L Z.).G.<.-.G L L F D P k.oXA.+.+.>.K ; = , a -.G.Z.7 - -.-.K | N.W.`.B.C c E } M.Y.W.| 7 N [ K G 9 = a [ | | ,.,.m.F.7.p { _._._.n.M w c ..^ | V.b.] N 9 M w K qXqXF.w 7 ^ | B.}  .[.U.` ` /.c.z.=XeX~.Z M -.F.7.B J F.aX-.K Z.OX).Q.,.v q e v e w Y L.1XwX{ m.mX0X .} ..'.lX>X,.J ,.<.K N 7 5 C ,.| ( ",
"A p N [ m.).<.= 7 Y +XqX-.7 e Y 0.|.w.g H >.L L 9 G.XX+XaXF...0XKXcXN = 9 U wXnX..f.N.^ G.XX6X|.G.m.,...V.tXbXaX+X[ K g.:.e * X q c M.*X'.B.] 7 A V ^ C M ] ] N.] C w c M q c  .R.^.M.Q ] f.<.{ = # , a G f 7 = D A.@X>.; 5 2.).+X<.w q N A n 5 q C C C M ; ; N ^ ^ v J Q.>X,.; w G Y Y $.H S.H t 3 = # + . # = 9 G e [ f.C Q } ` z.B.x.i. . .~.~.B.V.M l.Y. .u.[.^.[.~. .M Z Q } c c C p.B.} } B.M.!.f.q C b.{ U s T { I w.w.h = Y @XG.>.Z.L , * L e * 7 G Z.).f.^ M N.tX(.F.dXm.K f.F.f.p.} } ] Q } B.R.z.~ W R V Q u.} Q ^ | K N K ] ..'.(.B 9 M B <.@XfX2X:.w <.7.B B G p K M 7 w q V c u.u.x M K ^ N v K <.Y w 7 a Y <.<.8.q.f H $.H y F }.pXpXH.f 0 9 , , , 1 0 Y $.= X J 2.K n.tXjX*XN.W W b } a.p.} Q w q K K e , , L K C | (.rXqX0X<.; = | F.'.b.c c C } Q  .W.W.b.] c w <.+XvXF.K w { w 5 c b V a.s.~ V c.c./.kX8XB.w w ..F.V.[ B { G.{ [ qXsX.XZ.J q ; - e L e 9 Y A.F.s A 7.] M M 7 u.!.W.C q ^ ..K w 7 7 c ) j.h.",
"b.| [ ] K n.n.w w K F.(.:.G a 0 0 f g = # , , e 0 P.qXaXaXn.[ +XQ.b.w N :.U U b.A A ^ K :.Z.S.6.-.^ ,.f.] ] N.(.n.N 7 v J D D e 5 x a.*X[.W.N.A q M N.F.<.K B b.n.[ c w Z E V V Y.=XR.p.....[ -.0 > > , 1 0 9 , e G [ D 7 N 2.:.(.<.w c M w c q x C | | C w 9 7 C ^ K ] Z.n.J 8 ; ; , , e d g = = t z z < + = g 0 , 7 w ^ M.| c V s.i. .x. .l.[.yXB._ w N.B. .} Y.Y.~.x.} c V Q } q c V Q T.[.*XT.E.N.} q C ,.{ 7.{ { T s T T 9 N G P ; 9 A.1.e * * X , L P N [ V.b.C ^ ..^ ,.n.] A N.`.[.kX^.W Z ` B.~./.U.x.z.! V W i.} ^ E c | n.].[.(.yX<XA p 9 9 U 9.:.f , 9 B N p U B 9 9 [ ] M w E ) h.( E c Q N.N.A M K w ; 9 w G [ Y :.$.0 h I g , = +.oXNXoXG , 9 a h G f < 0 H , * 8 L v | :XrX[.B.z.a.~ s.a.} Z p.f.C w 7 G L >.XX.X] C ..tX+X'...M 7 b.:XtX*X} ) ( E } p.p.M.'.N.c A +XvXtX[ K -.'.u.c V W R s.z.a.x.c.` [.eXl._ w C b.(.W.f.M w K N w n.1.J D ; 8 L N -.Z.L 7 a -.[ U [ A w c Z q n n C ^ ^ C v w w M M c C | u.",
"tX`.b.A M V.+X..B B K K [ A.P.Z.H t O.< # , < f = H q.G.Z.a , K [ { <._.iXm.9 K M c c / -.>.Y a q c j.M.c 5 V ] W.,.K J J -.-.D c b i.`.Y.`.*XB.c ] 0XbX].] e 7.F.,.C C p.M.Q c p.[.].W.F.f.<.L.&.h > % @ > e f :.-.-./ -.Z.D.[ n.[ w K ^ c Q ^ E E N.W.] A A w 5 w v v w ; * 7 D 7 = , d H = @ + k %.3.=.2 g oXS.9 w w ..mX'.R c s.z.z./.B.l.[.mX[._ _ eX*X=XY.x.x.Y.` } c Z ` M.c Z Z V W.jXeX!.E.u.E n ^ <.b.C.L.m.T a s l s Y e w ; B ).n.e 7 ; ; B F.<.e L N.f.M w q w ] C V E T.[.8XIX=XV V ` z.v.c.-X-X/.` V ! z.i.} E q W.:XbXcX<XyX1XX.B 1 1 p I #.j h G [ K { m.{ p p L.).N c E h.h.E p.` M.jXlXT. .b.p 9 a 9 G 8.:.T i 1 h a 1 = + < |.pXoXI 0 i h I 0.&.1 > H H ; * 7 q N j.'.`.R.=XR.d.E.a.` ! [.`.N.[ J 1.1.0.oXoXb.M C ~.f.V.N.b.M B.[.*X`.} E V R } u.} p.`.M.7 ] 0XqXG.K n.F.Q.M.V ! ! b ! y.` x.s.c x.~._ b.C._ Y.`.T.p.w - q w ; v 7 D / 8 P D.Z.G.).n.N e K :.L.(.{ M A Q C n x C N.W.| M M ] | ..} | u.u."
};
