/* XPM */
static char *ed9cb7fb1789426590f34bbc9b0d3c619LyvP5izP9Fv9IF5[] = {
/* columns rows colors chars-per-pixel */
"638 480 62 1 ",
"  c #C0C0C0",
". c #C1C1C1",
"X c gray77",
"o c #C5C5C5",
"O c #C6C6C6",
"+ c gray78",
"@ c #C8C8C8",
"# c gray79",
"$ c #CACACA",
"% c #CBCBCB",
"& c gray80",
"* c #CDCDCD",
"= c #CECECE",
"- c gray81",
"; c #D0D0D0",
": c gray82",
"> c #D2D2D2",
", c LightGray",
"< c gray83",
"1 c #D5D5D5",
"2 c gray84",
"3 c #D7D7D7",
"4 c #D8D8D8",
"5 c gray85",
"6 c #DADADA",
"7 c gray86",
"8 c gainsboro",
"9 c #DDDDDD",
"0 c gray87",
"q c #DFDFDF",
"w c gray88",
"e c #E1E1E1",
"r c #E2E2E2",
"t c gray89",
"y c #E4E4E4",
"u c gray90",
"i c #E6E6E6",
"p c #E7E7E7",
"a c gray91",
"s c #E9E9E9",
"d c #EAEAEA",
"f c gray92",
"g c #ECECEC",
"h c gray93",
"j c #EEEEEE",
"k c #EFEFEF",
"l c gray94",
"z c #F1F1F1",
"x c gray95",
"c c #F3F3F3",
"v c #F4F4F4",
"b c gray96",
"n c #F6F6F6",
"m c gray97",
"M c #F8F8F8",
"N c #F9F9F9",
"B c gray98",
"V c #FBFBFB",
"C c gray99",
"Z c #FDFDFD",
"A c #FEFEFE",
"S c white",
/* pixels */
"xxxxxxxxxxxxxxxxxxxxkkkkxxkkkkkkkkkkkkkkxxxxxxxxxxxxxkkkxkffffkkkkkkkkkkfkkxxxkfkkxxxkffkkkkkkkkxkkkxxkyxfyykxxfxkkkxxkffffffffffffxkffxvvkfyyyytkvxkffykfyfkkkfkfyyyfkkxkkffffkfyfxkyyxkffkftykffkkkfffyyfkkxkkyyfkxxxxyyfkxxkfkkkkkkkkxkkkffffkxxkytyfkffxkyfvkffkxkffkkkffffftyfyykkkfffffkkkf7Zfkxffkfxkqfxqk7Mx7tqytfkffxky3-qvxytqkkMttvtttMy3fkyxftqqtfffyfffffff:3tkkyykfyyffyyfyyfkkytttykvxyqtfkfytttqyfyqtfft7fxfqqtyyyyyyyyyffytqttyyfffttyfyyyfftttqfyykkyyyfkfytttyyyyyyyyyyyyyyyyyyyyyyyytyfyyyyyyyyyyytttttttttttttyyttttttyyttttttyytttttttttttttttttqqqqttttyyyyyttttttttttttttttttqqqtqttttqqtqqqqqqtttttqqqq77qqqqqqqq7777qq777qq777qqqqqq",
"xxxxxxxxkxxxxxxxxxxxkkkkxxkkkkkkkkkkkkkkxxxxxxxxxxxxxkkkxkffffkkkkkkkkkkfkkxxkkfxxkkkkkkkkkkkkkkxkkkxxktykkkyykvkkkkkkkffffffffffyfkkffxxkffyffftkxkffffffffffkkkfyyyfkkkkkfyyfkfffkkffkfffkkyykffkkkfffyffkkkkkyyfkkxxxyyfkxxkfkkkkkkkkkkkkkkffxkkfyyykkfkkkfkxkffkxkffkkkffffftffffkkkfkfyfkxkkyMfytfyfyffykkyvtxt-qyxfkkfkxf73qkvffftfqkfff7yfvfqfkykyytttyyyffffffffttyfytykfffffytykfyyyyfxfyfkfttfyfyttyyyyfyyfkftqfxfqqyfyyyyyyyyyyyffyytyyyyyyyyyyyffyyytfytyftyyfffytttyyyyyyyyyyyyyyyyyyyyyyyytyfyyyyyyyyyyytttttttttttttyyttttttyyttttttyytttttttttttttttttqqqqtttttyyyyttttttttttttttttttqqqttttttqqtqqqqqqtttttqqq7qqqqqqqqqq777qqq7777q777qqqqqq",
"xxxxxxxxkkkkxxxxxxxxkkkkxxxxkkkkkkkkkkkkxxxxxxxxxxxxxkkkxkffffkkkkkkkkkkfkkxxkkkvxkfffkxxxkkkkkkxkkkxxfyykkkyykvkkkfffffffffffffyyfffyfkfffyffkkykkfffkkyfkkfyfxkfyyyfkkkkfyttfkfkkffkkffffkkfkxfkkkkkffyfkkkkkkyffkkkxxfffkkxkkkkkkkkkkkkkkkkffxkfyyfkkfkkkfkkkkffkxkffkkfffffftfkffkkfkxktyxxfkkxyt3ktfytyxkfkfyxy7yffkxkfkkt:7fMxqyxft:tkxt3yxkffykkyyyyyyyyyyfffffffxfyyytykkffffytyxfyttyfxffffyttfyyyttyfyyyykkffftfkyttfffyttyffytyyfffyyytqtyffyytyfffyfykyqyytyyfffytttyyyyyyyyyyyyyyyyyyyyyyyytyfyyyyyyyyyyytttttttttttttyyttttttyyttttttyytttttttttttttttttttqqttttttyyyttttttttttttttttttqqqttttttqqttqqqqttttttqqq7qqqqqqqqqq77qqqqqqqqqqqqqqqqqq",
"xxxxxxxxkkkkxxxxxxxxkkkkxxxxkkkkkkkkkkkkxxxxxxxxxxxxkkkkxkffffkkxkkffkkxkkkkkkkkxxkkfkkkxkxkkkkkkkkxxkfyxfyykxxfffkfyyffffffffffyyyffyffffffffkkfkkyyfxxyffffffkkfyyyfffkfyyyyyyfkkyfxktfffkkkkxkkkkkkffffkkkkkkffkkkkkkfffkkkkfkkkkkkkkkkkkkkkkxkftyfxxykxffkxfkffkxkfkkkkffffftfkkfkkfkxktyxxyykfyq-vykftyvktktfxytkkyxxkyfky7ykvkqtkkt3txxt7fMyfxyfxtyfffytyyffffyyyyxfyyyffkkffffytyfyyffttyyyfkkyttfffttyyyyttkkytftffytyfkfyttyfffffyttyfkyyttyfyyytyffyyytfytyytyyyyyyyyyyyyyyyyyyyyyyyyyyyyyyyyytffyyyyyyyyyyytttttttttttttyyttttttyyttttttyytttttttttttttttttttqqttttttyyyttttttttttttttttttqqqttttttqqttqqqqtttttqqqq7qqqqqqqqqqq7qqqqqqqqqqqqqqqqqq",
"xxxxxxxxkkkkkxxxxxxxkkkkxxxxkkkkkkkkkkkkxxxxxxxxxxkkkkkkxkkfffkkxkffffkxkkkffkkkkkxxxkffxxkkkkkkxkkxxfyfxfyykxxffkkfytfkffffffffyyyyyffykkkffffykkkyyfxxfyyffkffkffyfffffytykkytfkfyfxktffffkkxkkkkkkkkkfkkkkkkkfkkkkkkkkkkffffkkkkkkkkkkkkkkkkkkkfyykxkykkyfxxfkffkkkfkkkkffffftfkkkkkfkxftyxktykfyt-vfkktyvfqffvy7qfvxfkkyyfkkktfktqfkyfyfffffMqfvtyxtyfkkytyffffyyyyyyyyfkkkkfyyffyyyyyfkfyttyyffffytfffttyfytqtffttytffytyfffyttyfffkfytttyfffffyyyfytyfytttqffykkyfyyyyyyyyyyyyyyyyyyyyyyyyyyyyyyyytffyyyfyyyyyyytttttttttttttyyttttttyyttttttyyttttttttttttttttqqtttttttyyyyytttttttttttttttttttttqqttttttttqqqqttqtttqq7777qqqqqqqqqqqqqqqqqqqqqqqqqqqq",
"xxxkxxxxkkkkkkxxxxxkkkkkxxxxkkkkkkkkkkkkxxxxxxxxxkkkkkkkxkkfffkkxkfyyfkxkkffffkkfkxvxkfyxxxxxkkkxfkxxfyfykkkyykvfkxkytfxfffffffffffyfkfykkkkkfyykxkyykxkfyyykkffkfffffffyyyfxxftfkkffkkfffffkxxkkkkkkkkkkkkkkkkkkkkkkkffxxkffffkkkkkkkkkkkkkkkfffkkffxxkfkfffkkfkffkkkffkkkkfffftfkkfkkkkfyyfxktyfxyy7xyffyfxkyfyvytffxkfffyyfxvkqtkftyffvfttfvyx7yMytkyyfkkfyyfffffyytttyfffkkkfyyffyyyfyyffyfkkfyqtfkfyfyttfkkyttytqtytyyttyfyyyyyyfffyfffyyttfkkfytyfytyyytqtqffykkyfyytyyyyyyyyyyyyyyyyyyyyyyyyyyyyytffyyffyyyyyyyttyyyyyyyytttyyttttttyyttttttyyttttttttttttttttqqqttttttyyyyytttttttttttttttttttttqqttttttttqqqqttqqqqqqq777qqqqqqqqqqqqqqqqqqqqqqqqqqqq",
"kkkkkkkkkkkkkkkkxxkkkkkkxxxxkkkkkkkkkkkkxxxxxxxxxxkkkkkkxkkfffkkxkfyyfkxkkffffkkkxxxkkkfxxxxxxxkxfkvxyyfykkkyykvfxxkyykvfffffffffkfyfkkyyfkkkkffkxkffkkkyyyfffffffyffkkftyfkkkkffffkkffkkkkffxkfkkkkkkkkxkkkkkkkkkkkkkffxxkfyyfkkkkkkkkkkkkkkffftkvkfxxfxfyfffkkkffkkkffkkkkkfkkyfkffkxkkyykxkfyyqMfffkyffkkyffttvtkMfftyyyfffkxyqykfffyyvtqqtvyf3yvyqfffkkkfyfkfffyyyttyffttykkfyyffytykfyyyyfkkktqqfkkyfyttffkfkftqtyftyyttyyqtykkfyyfyyfffyytfffyyyffyttfyttttffyfkyfytttyyyyyyyyyyyyyyyyyyyyyyyyyyyytfffyffyyyyyyyttyyyyyyyytttyyttttttyyttttttyyttttttttttttttttqqqtqttttyyyyyttttttttttttttttttqttqqttttttttqqqqttqqqqqq7777qqqqqqqqqqqqqqqqqqqqqqqqqqqq",
"kkkkkkkkkkkkkkkkkxkkkkkkkkxxkkkkkkkkkkkkxxxxxxxxxxkkkkkkxkkfffkkxkfyyfkxkkffffkkvxkfffkxxxxxxxxxkfkvxyyfxfyykxxffxvxyykvffffffffkkkffxkytyfkkkkkkxkffkkfyyffyyfkfyyffkkftfxkffkvfyfkkyfxkxkffxkykkkkkkkkxxkkkkkkkkkkkkffxxkfyyfkkkkkkkkkxkkkkfffqkvxkxkfxftffyfxkffkkkffkkkkkkfkyffffkxxkttkvkyyt3Zfxvkfxkvxqyk7kMqyvyfkfyyfkfffqykkfxxttk7qq7xyt3txy7tkfkkffffkfffyytttfkfq3qfxkffffyttfyyfyttyffytykkykkfttyfyxvkt7ykktyytyytqtykkftyykfyyyyfkfyttfffytttffyyyykytyfyyytttyyyyyyyyyyyyyyyyyyyyyyyyyyyyyfffyffyyyyyyyttyyyyyyyytttyyttttttyyttttttyyttttttttttttttttqqqqqttttyyyyyttttttttttttttttttqttqqtttttqttqqqqttqqqqqq7777qqqqqqtqqqqqqqqqqqqqqqqqqqqq",
"xxkkkkkkkkkkkkkkxxxxxxxxkkxxkkkkxxkkxvxkxxxxxxxxkkkkkffffkkkfyfxxkkxxffxkkfykvxyfkxvvxkfkkkkkkkkkkkkkkkkxxxvvxfqfkkkkkfyfkkkfffkfkfttfkfyffyyffykkkkkkkkfkkkkxxkxfyttyfkkkkxkyfkyyyffffffkxxxxkkffkkkkkkxkkkkkkkfvvytfxkkkfffkxkkyyxvkkkkkkkkkkkkfkkkkkkkkkkkkkkkkkkkkkkkfffkkytxv3vkkxffkqtxf7qyxvkfkkytyvykx-tfkfyykvxtykkffy3Myqf7qvqttfkyyfyffffytyyyyyyffkfyfyyyfkfyffffytqqtfffffkykxfyyytxqMfyk-tfxqtfxZxyftqytqyfyttfkyqttyfkftqyffttfkyyyttyyfkytyfftykfyykxfykyyttyffyyyyyyyyyyyyyffffytttyfyyyyyyyyyyyyyyyyyyyytttttttyyyyyytttttttttyyyyyyyytttyttttyyytttttttttttttqtttttttttttttttttqqqqqqyyytqqqttqttqqqqqqqqqqqqqqqqqqttqqqqqqqqtqqqqqqqqqqqqq",
"xxkkkkkkkkkkkkkkxxxxxxxxkkxxkkkkxxkkxvxkxxxxxxxxkkkkkkfffkkkfyfxxkfxxffxkkffkvxyfkxvvxkfkkkkkkkkkkkkkkkkxkffkkyyfkkkkkfyfkkkfyfkffytykkyyffyyffykkkkkkkkvxkttfxxfyyyffffxkkxkffkyyffffffkkxxxxkkfkkkkkkkxkkkkkkkkxxfyfkkxkfffkkkkffkxkkkkkkkkkkkkkkkkkkkkkkkkkkkkkkkkkkkkfkkkffyfvqvkxxyfkttxktykkkffffykfyxk37kytfxxkfkyykkyfy7xfff-:Mvyyffttfyyfffyyffyyyffyfkyfyyykkfyfffyytttyfkkkkffkfyyyffytfffyqykfqfkykftfytfytyyyttfkyqtttfffyttyyyyffyyyyyyyyfyyyffyyfyyykkfffyyttyfyyyyyyyyyyyyyyyyyfyyyyyfyyyyyyyyyyyyyyyyyyyyyttttttyyyyyytttttttttyyyyyyyytttyttttyyyttttttttttttttttttttttttttttttttqtqttttttqqqtttttqqqqqqqqqqqqqqqqtqtttqqqqqqqqqqqqqqqqqqqqq",
"xxkkkkkkkkkkkkkkxxxxxxxxkkkxkkkkxkkkxxxkxxxxxxxxkkkkkkkkfkxkfyfxxffxxffxkkffkxxffkxxxxkfxxkkkkkkkkkkkkkkkfttyffffkkkkkfyfkkkfffkfyyykxktyffyyffykkkkkkkkfkxkkkfttyyfkkkfxkfkkfffyyyfffffkkkxxxkkffkkkkkkxkkkkkkkkkkkffkkxkffkkkkfkkffkkkkkkkkkkkkkkkkkkkkkkkkkkkkkkkkkkkkkkkfffktxfxfxxyffyfxkyxxfyfffffvfqZf yvfqyvMfyxfykkyyyqMfqy7tZxkffyqqyyyyffyffkfyykftyxffyyfkkffffffyyyyfkxxkftkfyttfkktyqfftkfxy7kx7ttqfffkftfyyttykfttttyfkfyttyffyyfyyyyyyytyyfyyfyttyfyyfffyytyyyyyyyyyyyyyyyyyyyyyyyffyyyyyyyyyyyyyyyyyyyyyyyytttttyyyyyytttttttttyyyyyyyytttyttttyttttttttttttttttttttttttttttttttttttttttqqqqttttttttqqqqqqqqqqqqqtttttttqqqqqqqqqqqqqqqqqqqqq",
"xkkkkkkkkkkkkkkkxxxxxxxxkkkxkkkkxkkkxxxkxxxxxxxxkkkkkkkkfkxkfyfxxffxxffkkkkkkxkkfkxxxxkkxxkkkkkkkkkkkkkkkytyfkkkfkkkkkfyfkkkfffkyyffkkfyfffffffykkkkkkkkyfxvvkyqyyyffkkfxkfkkkffyyyffffkkkkxxkkfffkkkkkkkkkkkkkkkffkxkfkxkffkkkkfxxfykxkkkkkkkkkkkkkkkkkkkkkkkkkkkkkkkkkkkkkffkxqxxfykxyfffkkkkxkttfxffkvttZf-fvxyykkyfxyyfkyyftxyqffkMykfffqqfyyyfffffkkkfyttfkffyyykkffffyffffkffkkft7kftqtfkftyyfftyfffqkkqttqfkfkytffyttyffyytqtfkfytqtkkyyfyyyyyyttyffyykfqtfyttfkyyyyyyyyyyyyyyyyyfyyyyyttyfffyttyyyyyyyyyyyyyyyyyyyyyyttttyyyyyytttttttttyyyyyyyyttyyyttttttttttttttttttttttyttttttttttttqttttttytq7qtyttttttttqqqqqqqqqqtttttttttqqqqqqqqqqqqqqqqqqqqq",
"kkkkkkkkkkkkkkkkxxxxxxxxxxxxkkkkxkfkxxxkxxxxxxxxxkkkkkkkfkkkyyfxxffxkffkkkkxkkkxfkkkxxkkxxxxkkkkkkkkkkkkfffkvvxffkkkkkfyfkkffyfktfkxkfyffkkffffykkkkkkkkkkffffkkxfyyyfkkxffkkkffffffffkkxxxkkkfffkkkkkkkxkkkkkkkfyfkxkfkxkkfkkkffxxfykxkkkkkkkkkkkkkkkkxkkkkkkkkkkkkkkkkfkkkffkxtxMtqkxkffkkkffkfqqkxkfkx3kvfffxxxfytfkkqqfxffkftkfxyqxkfykktyfffffffffkkvx73ykffffyfkkffffyffkkkfyttt73ffytyffykqvftf:tykyffyxytkfyyttkffyttffyytttfkkfyqtkkytfyyffyyttyffyykfqtffttfkyfyyyyyffffyyyyyyfyyyyyytyfffyttyyyyyyyyyyyyyyyyyyyyyyytttyyyyyytttttttttyyyyyyyytyyyytttttttttttttttttttttyyttttttttttttqttttttytq77tytttttttttqqqqqqqqqtttttttttqqqqqqqqqqqqqqqqqqqqq",
"kkkkkkkkkkkkkkkkxxxxxxxxxxxxkkkkxkfkxxkfxxxxxxxxkkxkkkkkfkkkyyfxxffkkfykkkxxkfkxfkkkkkkkxxxxxkkkkkkkkkkkkkkvMvkyfkkkkffyffkfyyfkyfkkfyykfkkffkffkkkkkkkkkffkkkkkxkytyfkxxffkkfyffffffkkkxxkkkffffkkkkkkkxxkkkkkkyffkkkkkxkffkkkkfkkffkkkkkkkkkkkkkkkkkxxkkkkkkkkkkkkkkkkkkkkffkkfkZqqfxxkykxffkfytykxxkff3xkkZyfykxffkft77fxkfkkfxtytqkkttkxffxkffkffffkkvk77fxffffyfkkfkfffffkkkytqqqqtfffyyfytx7Zftk#qtxyyffvfykftyttkkfyttffyyyyyffffyyyffyyfyyffyyyyyyfyyfytyyyyyffyfffyyyyffffyyyyyyyyyyyyyyyfyyyyyyyyyyyyyyyyyyyyyyyyyyyyytyyyyyytyyyyyyyyyyyyyyyyyyyyytttttttttttttttttttyyyytttttttttttttttttttttqqqtttttttttttqqqqqqqqqtqtttttttqqqqqqqqqqq77q7qqqqqq",
"kkkkkkffkkkkkkkkxxxxxxxxxxxxkkkkxkfkxxkfxxxxxxxxkxxkkkkkfkkkyyfxxffxkyfkkkxvkffvffkkkkkkxxxxxxxkkkkkkkkkxkkkxkfyfkkkkffyffkfyyfkfffkfyfxffkfffkfkkkkkkkkfykxxfyykfyyfkkkkfkkfyyffffffkkkxxkkkffffkkxkkkkxxkkkffftfkfykxkxkfffkkkkffkxkkkkkkkkkkkkkkkkxxxkkkkkkkkkkkkkkkkkfkfkkffxfZ7tfkvktkMkfkyyfkfkkkfffffvvfktyfxxkfyq7yxffkxkk3qkfkyttkxfkxxffkfffkxfyttfkkxfffyfkkfkkkffkkkfyyttyfxfkkfyffffqkfyy3tykykftkfyftqyyykkkfttyfyyfffyyyyffyttyfyyfffyfffyyyffyyffyyffyyyffffyyyffffffyfyyyffffffyttyyyyyyyyyyyyyyyyyyyyyyyyyyyyytyyyyyytyyyyyyyyyyyyyyyyyyyyttttqqttttttttttttttyyyyyttttttttttttttqqqtqttttqqttttttttttqqqqqqqqqqqqqqttqqqqqqqqqqqq7777qqqqqq",
"kkkkkfffkkkkkkkkxxxxxxxxkkxxkkkkxkfkxxkfxxxxxxxxxxxxkkkkfkkkfyfxxffkkffkkkxvkfkvfffkkkkkxxxxxxxxkkkkkkkkvkfyyyytfkkkkkfyffkfyyfkxfyffffxfkkffkkfkkkkkkkkvkyyytfxyyfkkkkfffkkfyykffffffkkxxkkfffffkkxkkkkvxxkkfffqkxyykxkkkfffkkkkyyxvkkkkkkkkkkkkkkkxxxxkkkkkkkkkkkkkkkkkfffkkfyvfZqyffvktkMkkxtfxxfykkfkMqfMykxyqtxvfyxtqykyykv7kykktfkyykxfkvxyffffkxxf33kvkfvfffyfkkfkkkkkkkkyyyyfkvZfxkfyfkkqyqffqyykftxk7tytyttfkfkkkfttyfyyfkkytyyfkfqqyfyffyyyfkkytyfftykfyykkytyffffyyyfffffyyfyyyffffffttqtyfyyyyyyyyyyyyyyyyyyyyyyyyyytyyyyyytyyyyyyyyyyyyyyyyyyyytttqqqttttttttttttttyyyyytttttttttttttqqqqqqtyytqqqtttttttttqqqqqqqqqqqqqqttqqqqqqqqqqqq7777qqqqqq",
"kkkkkkkkkkkkxxxxkkkxxxxxkkkkkxxxxxxxxxxxkxxvvxxkvxxkkkkxkkkkkkkkkkkkkkkkffkxxkfyxkfkkxkfxxkkffkxfffyfkkyxyykxkfkkfkxkvvfqfxftykfkfyyyyffkxxkkxkfkvvxffkxkfyykkkfyfkfkxxffkxvMxyqtvxykvxkfkkffkkffkkfyfkkkkkkkkkkkxvkfkxxxkffkxxkffkkxxxxkxxxkfffkkkkkkkkkkkkkkkkfkkkffkxfkxkytykkkkkkkkkxxkkxkkffyvx7txfxvxytfkkkkkffffkvykfyxfffffyyyfffqfqyv73ykkqvfyyf7kfkvtkfky7qxvkxyfftqttyfkkfxk3tfvk77ytyyyyyyyyffffffffyyyyffffftykxffkyytqtfftftyfytfyffffyyffyyffffyyffyfyyyyyyyyfyyyyyyyyffffffffyyyyyyyyyyyfyfkyfftyyyyyyyyyyttyyyyyyyyyytttttyytttttyyyyyyttqtyfytttttttttttttttttttyyytttttttttqqyttttqq77777qqqtqtytqtttttttttqqttttqqqqqqqqqqqqqqq77777qqqqqq",
"kkkkkkkkkkkkxxxxkkxxxxxxkkkkkxxxxxxxxxxxkkxvxxxkvxkkkkkxkkkkkkkkkkkkkkkkkkkkkkkfxkfkkxkfxxkkfkkkfkkfkxkfkfffkxkfkfkxkxvffffttfkkyyyffkxxkkkkkxkfkkkfyyfxkfyykkkfyfkfkxkfffkxvxyqyvxykvkkfkkffkkffkkfyfkkkkkkkkkkkxxkfkxxxkffkkkxfkkkkkkkkxxxkfffkkkkkkkkkkkkkkkkfkkkffkxfkxkfyfkkkkkkkkkkkkkkkfffyxkqtxfxxxfyfkkkkkffffkvykfyxffffffffffftftyxq7fxxtvfyyktkffkyxkxkyttt7kfvvyqyyyfxkfxxtyyfy7tfyyyyyyyyfffffffffyyyyfffffyyfkfyytyyyyffyftyfyyfyffffyyffyyfffyyyffyfyyyyyyyyfyfyyyyyyffffyffyyyyyyyyyyyyytffyyftyyyyyyyyyyttyyyyyyyyyytttttyyttttyyttttttyyyyytyttttttttttttttttttyyytttttttttqqytttttqqqqqqqqttqtytqtttttttttqqttqtqqqqqqqqqqqqqqq77777qqqqqq",
"xxkkkkkkkkkkxxxxkxxxxxxxkkkkxxxxxxxxxxxxkxxvxxxkvxxkkkkxkkkkkkkkkkkkkkkkkkkffkkkxkfkxxkfxxkkffkkkxkfkxxkfxkyfvxyffkxfkxfkytyfkffyfkkxxxxkkkfkxkffyytyykxkfyffkkffkkkfkkffffkkkytxxkfxxfffkkffkkffkkfykkkkkkkkkkkkxxkfkxxxkkfkkkkxkkkkkkkkxxxkfffkkkkkkkkkkkkkkkkkkkkffkkfkxkfyfkkkkkkkkkkfffkkfyffkktfxffkkffkkkkkkffffkvykfykfffffffffffyktykttkxvtxyffxykytyyvyfkfyyyfxytt7qfkyfxkykvkfttq7yxfffffffffffffffffffffyyyyfffyyfytqyfffkfyktyfyyfyffffyyffyyffffyyffffffyyyyyffyyyyyyyyyfffyyyyyyyyyyyyyyyyqyytyfyyyyyyyyyytttyyyyyyyyyyttttyyyyytyyytttqqtyfftttyttttttttttttttttttyyyttttttttttqyyttttttttttqtttqtytqtttttttttqqqqqqqqqqqqqqqqqqq7qq7777qqqqqq",
"xxkkkkkkkkkxxxxxkxxxxxxxkkkxxxxxxxxxxxxxkxxvxxxkvxxkkkkxkkkkkkkkkkkkkkkkxkffffkxxkfkxxkfxxkffkkkkkkkkkkkfkkfkvxykfxxyfxffttkvkyyxxvvxkfykkkffxkfkyttykxxfffffffffkkkkkkkfyyyfffyvxfkvktffkkffkkffkkffkkkkkkkkkkkkkkkkkkkxkkkkkkkxxkkffffkxxxkfffkkkkkkkkkkkkkkkkkkkkffkkkkkkkffkkkkkkkkkfffffffyffkffkkfyfkkkkkkkkkffffkvykfykfffffffffffyfyyfyfxxvykykfxkkyqtyvtttyyykvx7-3qfxkyfxkyfxfyqtttfxkfffffkkkffffffffffffyyyyfkftyfftqykkffyyktyfyyfffffyyyffyyffffyyfffffyyyyyyffyyyyyyyyyfffyyyyyyyfyyyyyyyt7tyttfyyyyyyyyyytttyyyyyyyyyyttttyyyyyyyyyttttttyyyyttyttttytttttttttttttyyytttttttttttttttttttytytttttqtytqtttttttttqqqqqqqqqqqqqqqqqqqqqqq777qqqqqq",
"xxxxkkkkkkxxxxxxkxxxxxxxkkxxxxxxxxxxxxxxkkxxxxkkvxkkkkkxkkkkkkkkkkkkkkkkxxkfffkkxkffxxkkxkkffkkxffffffffxfykxkkkkkvxyfkfytyxxfyfxxvvxkfykkfyfkxkxfyfkxvxffffffffkkkkkkkkfytyfffyvxfkvfqfyfkfkkkffkkffkxkkkkkkkkkkkkkkkkkkkxxkkkkxxkkfffkkxxxkfffkkkkkkkkkkkkkkkkkkkkkkffkkkkkkkkkkkkkkkkkfffffyyfkffkxkkyyfkxkkkkffffkkkvtkfyxfffffffffffffffyffxkvyfyxfxxfytqfvftqtytqtt3txvvxyfykkyfktqqfkffkkfffffffkffffffffffffyyyyfkfyykkytfkfyyyyktykyyffyyyyffffyffffffffffffyyyyyyyfyfyyyyyyyyfffffyyfyffyyyyyyt7tfttyfyyyyyyffytttyyyyyyyyyytttyyyyyyytyyyyyyyttqtyyttttyyytttttttttttttytytttttttttttttttttttyyyyytttqtytqttqttttttqqqqqqqqqqqqqqqqqqqqqq7777qqqqqq",
"xxxxkkkkkkkxxxxxkxxxxxxxkkxxxxxxxxxxxxxxkkxxxxkkvxkkfkkxkkkkkkkkkkkkkkkkxkkkffkkxkffxxkkxkkffkkkfffkfyykxyyxvkfxkkvxtykffyyfyyfxyfkkxxxxfffyykxkxkkxxvxkyfkkfyyfxkkkkffkffyyffffxxkkxytfyfkfkkkffkxkfkxxkkkkkkkkkffkxkkkkkxxkkfkkkkkfffkkxxxkfffkkkkkkkkkkkkkkkkkkkkkkffxkkkxxkkkkkkkkkkkfffkkfykvkykxkxfyfkxkffkffffkkkvykfyxfffkffffkkfkykftkfkyvyytvfkktfyqkxffyffy7:tyvZkfkxfyffyyftqqkvkyffffffffffffffffffffffyyyyfffyfkkfyfkyyyyyktyfyyffyyyyfyfffffffffyfffffyyyyyyffffyyyyyyyffffffyyyyfyyytyyft7ykytyffyyyyyffytttyyyyyyyyyyttyyyyyyyyttyyyyyytqqqyytqttyyytttttttttttttytyttttttyytttttttttttttyyttttqttqqqttttttttqqqqqqqqqqqqqqqqqqqqqqq777qqqqqq",
"xxxxxxxkkxkxxxxvkkkkxxxxkxxxxxxvxxxxxxxxkkxxxxkkxxkkfkkkkkkkkkkkkkkkkkkkkkkkkkffxkffkxkkxkkkfkkkfffkkyfxxffkxxkkkxMxttfffffytfkkyyyffkxxffytykxkfkxxxkftyfkkyyyfvkkkkffkkfyyfkfffxxkkytkykkfkkkfkxxkfkxxkkkkkkkkxffxxkfkkxxxkffffffkkkkkkxxxkfffkkkkkkkkkkkkkkkkxkkkkkfyxkfkxxxkkkkkkkkkxkkkkkffkMktkkfvkyykxkyfkffffkkkvtkfyxffkkkkkkkkfktkktkyyqxyytvfykqkktxkyffyyfftxkxxttxMfyfkttffytkvytyyffffffffffffffffyyyyfffffyyfkffffffyfkkyktykyyffffyfyyyyfffffffffyfffyyyyyyyfyyyyyyyyyffffffyyfyyyyttyfft7yxftyfffffyyyfytttyyyyyyyyyyyyyyyyyyyyyyyttttttttttttttyyyyyytttttttttttyyyttttttyytttttttttttttttttqqqttqqttqttttttqqqqqqqqqqqqtttqqtqqqqqq77qqqqqq",
"xxxxxkxxxxxxxxxvkkkkxxxxxxxxxxxvxxxxxxxxkkxxxxkkxxkkfkkkkkkkkkkkkkkkkkkkfkkxxkfyxkffkxkkxxkkfkkkkfkxkffxfxkfkvxykxMxqtfftffyykkykfyyyyffffytykxkyfxxkfq7yfxkytyfvkkkkffkxkyyfkkfyvvkfyykyfkfkkkfkxxkfkxxkkkkkkkkxffxxkfffxxxkfffyyfkkkkkkxxxkfffkkkkkkkkkkkkkkkkkkkkxkfyxkffxvxkkkkkkkkkxxkkxkkfkMktkkfvkfykkfyykffffkkkvtkfyxffkkkkkkkkfkqkxtktt7xyttMftfqkxyxffkf33yxxMffxxvxffykkqtkvkyfktqttyyyyyyyyffffffffyyyyffffftykkytyyyffkxxfkyykyyffffffyyyyfffffffyyyfffyyyyyyyfyyyyyyyyfffffffyyfyyytttyfftqfvktyfffffffffyttyyyyyyyyyyyyyyyyyyyyyyyytttqqtyfytqtttyyyyyytttttttttttyyyttttttyytttttttttttqqtttqqqqttqqttqttttttqqqqqqqqqqqqttttqqqqqqqqq7qqqqqq",
"xxxxxxxxxxxxxxxxxxxxxxxxxxxxxxxxxxxxxxkkkkkkkxxxxkkffkxxxkffxxkfxkffkkkfkkkkkkkkfkkxkkffkkkkkkkkyfkxxkkfkfffkkkfxxkfkxktfMktkktyyxvkfkvvxytfkt77kfyfkkyqykxffvvfxkfffkxxfqtkkkxkfxxfykkkkkxxkffxfffkkkkkkfffkkkfyfkxxxkkkkkkkkkkkkkxxkffyfkkkkkvkkkkkkkkkffffkkxxfykvxkkkkxxxfyfvxkkkkkykfffkfytxvqtfkMfxkffkxkfkffffkkkffkkkfffkkyfvxfkxvkxkqytqMkqxvfktqxMfqtfxq:7kZxyffffkkkkkkffffffkffffkkffffffffftyffyyfkqtfkfyttffffffyyfyykxftqfffttffyfkffyyyyyyyfkkfyyyyyyyyyffffyyyyfkfqqyfyffyyyyffyyyyyyyytyyfffffkffyyffkyyytttttyyyyyyyyyyyyyyyyyytttyyyyyyttyyytyyyyyyyyyyyyyyytqqqtyyttttyytttttttttttttttttyyyyyttqqqttyytqqqqqqqqqqqqqqqqqqqqqqqqqqqqqq777",
"xxxxxxxxxxxxxxxxxxxxxxxxxxxxxxxxxxxxxxkkkkkkxxxxkkkffkxxxfffxxkfxkffkkkfkkkkkkkkfkkxkkffkkkkkkkkkkkkfkkkffkkkffkvxkyfkkyyxftxxyfkfyykvxfxfykxyqqfxvvkffkykxfkvxfkkkfffkkyqtkfkkfkxxffkkkxkkxkfkxfffkkkkkkkfffkkfyfkxxxkkkkkkkkkkkkkxxkfffffkxxxkkkkkkkkkkkfffkkxxffkxkkkkkkxkfffxkkkkkfffffkkkffkktxxykyfkkkkkkkkffffkkkffkkkkfffftfMvfkyftfkyxkkMfqfkfktykkyyxx37tfkkfffkxkfyfkkkffffffkfyffkkfffffffkktyffyyfktyffyyyyffffffyyttfxkytyfffttffyfkffyyyyyyyfkkfyyyyyyyyyffyfyyyyffyttyfyffyyyyffyyyyyyyyyyyffffffffyyyffyyyyyyyyyyyyyyyyyyyyyyyyyytttyyyyyyttyyyyyyyyyyyyyyyyyttttqttttttttyytttttttttttttttttttttqqqqqqttyttqqqqqqqqqqqqqqqqqqqqqqqqqqqqqqq77",
"xxxxxxxxxxxxxxxxxxxxxxxxxxxxxxxxxxxxxxxkkkkkxxxxkkfkkkxxkkffkkkfvkffkkkkkkkkkkkkfkkxxkffkkkkkkkkxkfyyfxxfkkkffkkMvftyfkktkyykxkkffyykxkyxfkvvftqfxvxkffkykkfkxxfkkkkkffft7tkfffykxxkffkkxkkxxkkkfffkkkkkkffffkkfyfxxxkkkkkkkkkkkkkkkkkkkfffkvvkfkkkkkkkkkkkkfkkkkkkxxkfkffkxxffkkkxkkkkkffkkkkkxfyyMvqykyfkkffkxkffffkkkfkkkkffffytfMvfffftfftfyMxfyyffkyfftqkMf-qkxkfyfykvxytyfkkffffffkfyyfkkfffffffffyfffyyyfykkytffykfyfffyyqtfkfyyffffyyffyfffffyyyyyyffffyffyyyyyyyyyyyyffyyyffyyffyyyyyyfyyyyyyyyyyyyyfffffyyyyyyyyyffyyyyyyyyyyyyyyyyyyyyytttyyyyyyttyyyyyyyyyyyyyyttttttyyytttttttyyttttttttttttttttqqq7qqqqqqqqttttqqqqqqqqqqqqqqqqqqqqqqqqqqqqqqq77",
"xxxxxxxxxxxxxxxxxxxxxxxxxxxxxxxxxxxxxxxkkkkkxxxxkkkkkkkxkkfkkkkfvkffkkkkkkkkkkkkfkkxkkffkkkkkkkkkkffffkxfkkkkfkkvxkyfkkfyfffkkkktfxkfyfxffkvxfq7kfyykkftykkkkkkfkkkxkffytqyxkfftkkkkkkkkvkfkxkkkffkkkkkkkkfffkkkfkxxxkkkkkkkkkkkkkkkkkkkffkkxxkkkkkkkkkkxxkkkkkkkkxxkfffffkxxffkfkxkkfkkfkkkffxvffyxf7fvfkkkkkkxfffffkkkfkkkkffffytyvxytkxfkf7qqxyfxkkkfkyytqfkqfffkkkffykxftqykkkkfffffffyffkkfffffffffyfffyyyffxkttfkykfyyffyytyfffyyffffffffyfffffyyfyyyffffyfyyyyyyyyyyyyyffyttkkytffyyyyyyfyyyyyyyyyyyyyyyfyyyyyytttyfffffyyyyyyyyyyyyyyyyyyytttyyyyyyttyyyyyyyyyytyyttttttyyfytqtttttyytttttttttttttttttqqqqqqqqqqqtttttttqqqqqqqqqqqqqqqqqqqqqqqqqqqqqq",
"xxxxxxxxxxxxxxxxxxxxxxxxxxxxxxxxxxxxxxxkxxxxxxxxffkkkxxxkkkkkkkkvxffkxkkkkkkkkkkfkkxxkffkkkkkkkkyfkkkkffkkfkkxkkkxxxkkftkfkkffffykxxkfkxtyfxkyq7kftyfkfyffkxkffkkkkkkffyytfvxkkfkkkkkkffxkfkxkkkffkkkkkkfkkkkkkkfkxxxkkkkkkkkkkkkkkkkkkkkkxkfkkxkkkkkkkkxxxkkkfkkxvxkfffffkxxffkfkxkffkkkkkkffkxfvfftqxxkkfkkkkfffffkkkkfkfkkkkfkftyvkqqtkfxf7ttxffxkkkfxtykytq7Mxkfkxkkffytqtfkkkffffkfffyyffffyfffffffyfffytyfkxkttfkfkfyyffftffyyfffyffffkffyyffffyyffffyyyyfffyyyyffyyyyyyffyttkkytfyyyyyyfffyyyyyyffyyyyyyyyyyyyyttyyfkfffyyyyyyyyyyyyyyyyyyytytyyyyyyttyyyyyyyyyttttttttttyyfytttytttyytttttttttttttttttttttttttqqtttttttqqqqqqqqqtttttttqqqqqqqqqqqqqqq",
"xxxxxxxxxxxxxxxxxxxxxxxxxxxxxxxxxxxxxxxkxxxxxxxxfkkkxxkkfkkkffkxvkffkxxkkkkkkkkkfkkkxkffkkkkkkkkyfkxxkfyxkfkxxkffkvvxkftxfkxyyffxfykvxkfqtffytqqfkxkfykxffkxkyykffkfkfffftkvkkxxxkfkkkffxkfkkkfkfkkkkkkkffkkkffkkkxxkkkkkkkkkkkkkkkkkkkxkxxkffkvkkkkkkkkxxxxkkkkkxxkffkkffkxxffkkkkkffffkkkkfffkfvkfyyktxkffkkkffffffkkkfffkkkkfkkyyxfqttkkvf7yyMvkyffkkkqyxfqttfkvxffkxkytqtfkkkkkfkkfkffyyffffyyffffffyfffyyyfxkfyffffkfyyfkftkfytykfyfyfkkfyyyffffffffffyyyyfffyyffffyyyyyyffyyyffyyfyyyyyyyffyyyyyffffyytyyyyyyyyyyyyyffffyyyyyyyyyyyyyyyyyyyytytyyyyyyttyyyyyyyyyttttttttttyyyytttytttyyttttttttttttttttyyyyyytttttqqqttttqttqqqqqqtttttttqqqqqqqqqqqqqqq",
"xxxxxxxxxxxxxxxxxxxxxxxxxxxxxxxxxxxxxxkkxxxxxxxxffkxxxkkfkxkffkxvxkfkxkkkkkkkkkkfkkxxkffkkkkkkkkfffkkkffkkkkkkkkfxvxkkftktfvyykkkytfvxkftykfyyyffkxkyykvkfkxkttkkfffffkkftfkffxvxffxxkffkkkxkffkkkkkkkkkfkkkfffkkkxxkkkkkkkkkkkkkkkfkkxxxxxkkkkxkkkkkkkkxxxkkkkkkxxffkxkkkkxkfffkkkkkffykfffkkffkxykxfkykkfkkkkkkfffkkkkfkfkkfkfkkyykytfkxfxkqytxZkqfxfxytkkqqyfykvxfyfxkfyyfkkkkkkfkkkkffyyfffffffffffftyffyyfkxyykkfykkftyfkftyfyttfkffyfkxfyyyyfffffffffyttyfffffffffyffyyyyyffyttyfyyyyyyyyyfyyyyffkffyttyyyyyyyyyffffyyyyyyyyyyyyyyyyyyyyyyyytttyyyyyyttyyyyyyyyytttttttttyttttyyyytttyytttttttttttttttttttttttqtqqqqqttyttttttttttttttttttqqttttqqqqqqqq",
"xxxxxxxxxxxxxxxxxxxxxxxxxxxxxxxxxxxxxxkkxxxxxxxxffkxxxkkfkxkffkxvxkfkxxkkkkkkkkkfkkkxkffkkkkkkkkkkfyyfkxkkxkkfkxxxxkfffff7fvyfvxqtfxktfxyfxkyfkxkyttyffykykvkttkkfyyyfkxyqyftyxvxffkxkffkkkxkyfxkkkkkkkfyfkkffffkxxxkkfkkkkkkkkkkkkkkkxxvxkkxxkfkkkkkkkkkkkxkkkkxxxffkxkkkxxxfffxkffkkfyffyfkkfyxy7kvfxxyfkkffkxkfffkkkkfffkkfkffkyyfytkxkqfkfxftZkqxMfxtfxt-7fyMvkfyffkkkkkkkkkkkkfkkkkffyyffffyfyyfffftyffyyfkxttxvyykxfyyfkfttffttykxfyfxxfyyyyfffffffffyttyfffffffffffyyyyyyfkfqqyfyyyyyyyyyfyyyyffkffyttttyyyttyyfkffyyyyyyyyyyyyyyyyyyyyyyyytttyyyyyyttyyyyyyyyytttttttyyyttqtyfyytttyytttttttttttttttttqq77qqqqqqqqqtyyttttttttttttttttttqqttttqqqqqqqq",
"xxxxxxxxxxxxxxxxxxxxxxxxxxxxxxxxxxxxxxxxxxxxxkkkxkfkxvxfkfyyyfxvvfyxMxfkfffkkffykkkkkkkkfkkkkkkfyyfkxxxkvkkkftyxxkttkxkxtqxkkxyxxxftfvxt3qfxxkffffyyfkfytkvxffffyyyyykxxffkftykMyfftykvMyfkkxkkkyffffkkfkkkkkkkkxxkffffkvxxkkkkkkkkkkkkkkkkkkkkkkkkkkkxxxxkfffkkffkkkkkkytkZvttkxxtktxfkvfykxxkkykZfktkfffkkkkkkkfyyfkxxfkkxxytxkkfkkkkxf7qkvftfkkytyxktffkkt7fMytqyvZvyykykkykykkfyykxxyykvxyykffffffffffffffffffffyyffyyyyyyyyffffyyttttyffkfffffffffffyyyyffffyyyffffffffyyffyffffyyyffyyffffyffyyffyyyyyyyyyyyyyyyyyyyyyyyyyyyyyyyyyyyyyyyyyyyyyyyyyyyyttyyyyyyyyyyyyyyyyyyyyttttttytyyyyyytyyytttyytttyyyttftq7qttttqqttyt7tyytqqttttqqqqqtqqqqqtqqqqqqqq",
"xxxxxxxxxxxxxxxxxxxxxxxxxxxxxxxxxxxxxxxxxxxxkkxkxkfkxvxfkkfyykxkvfyxMxfkffkkkkfykkkkkkkkfkkkkkkfyfkxxxkkxkfffyfxxkttkxkxytkkkxykxkffkfff7tfkkkfftttykkkkfxxfyfkxfffyykkkfkkfyykvkkkfyfxvffkkkkkkyfkffkkfkkkkkkkkkkkkkkfkxxxkkkkkkkkkkkkkkkkkkkkkkkkkxkxxkkkkkkkkkkkkkkffyfxMxtykxkfyffkkxkfkxkkkfkMyktkfkkkkkkkkkkffkkkkyfkkktqkkfkxkffkffkxkkffkfytfxkyffkkyqykffkkkkkkykykkykykkkyykkkyfkxfyykffffffffffffffffffffyyffyyyyyfyffffffyyyyyffffffffffffffyyyyyyfffyyyffffffffyfffyffffyyyffyyffffyffyyyfyyyyyyyyyyyyyyyyyyyyyyyyyyyyyyyyyyyyyyyyyyyyyyyyyyyyttyyyyyyyyyyyyyyyyyyyyttttttytyyyyyytyyyttyyytttyyyttytqqqttttqqttyt7ttytqqttttqqqqttqqqqttttqqqqqq",
"xxxxxxxxxxxxxxxxxxxxxxxxxxxxxxxxxxxxxxxxxxxkxkkkxkfkxvxfkvxyykxfvffxvxkkffkkkkffkkkkkkkkffkkkkffyfkxvxffkkfffkkkxxytkxkxftkkkxtfxffxktyxqtfkkkffytykkyfxfkkfyfxxkxkffkkkfkkfyykxxxxkfyfxkkkkkkkkfkkffkkfkkkkkkkkffkkkkkkxxxkkkkkkkkkkkkkkkkkkkkkxkxxkkkkkkkkxkkxkkkkkkkfykvxfyfxkyxtxyxfkkkxxkfkxkxtkyxfkkkkkkkkkkffkkkkykkkf77kkfkxxfyyfvMxkkkfkyyfkkffffffyttyvkfkkyykykykkykykkkfyfkfykxfyyffffffffffffffffffffffyfffyyyyfffffffffffffffyyfffffffffffffyyyyyfffyyffffffffyyffyyffffyyffyyffffyffyyyfyyyyyyyyyyyyyyyyyyyyyyyyyyyyyyyyyyyyyyyyyyyyyyyyyyyyttyyyyyyyyyyyyyyyyyyyyttttttytyyyyyytyyyytyyytyyyytttytqqqttttqqtyytqttttqqttttqqqqttqqttttttqqqqqq",
"xxxxxxxxxxxxxxxxxxxxxxxxxxxxxxxxxxxxxxxxxxxxkkkkxkfkxvxfkMvyyxktxkkxxxkkffkxkkffkkkkkkkkffkkkkffyfxvvxfyfkfyfxxfxxytkxkxktffkxtyxkkxkyykyffkkkkkkfkxkqqfyfkkkkkkxxxfffkffkkfffffxxxxkyfvxxkkffkkfkkffkkfkkkkkkkkffkkxxxkxxxkkkkkkkkkkkkkkkkkkkkkxxxxkkkkffkxxxxxxxkkkkfffvMkyfkxfykyxfkfkkxxxkffvkkqkfxfkkkkkkkkkkkkkkkfyxxkfqqkkfkxkffffkxxkkkfkyykxfyfffffyyyyZy7yxxfyykykkykykkkfyffyfxxytyffffffffffffffffffffffyffffyfyffffkfffffffkffyyyyffffffffffffyyyyfffyfffyyffyyyyffyffffyyyffyyffffyffyyyfyyyyyyyyyyyyyyyyyyyyyyyyyyyyyyyyyyyyyyyyyyyyyyyyyyyyttyyyyyyyyyyyyyyyyyyyyttttttytyyyyyyttyyyyttttyyyttttttqqqttttqqtyytqttttqqqtttqqqqttqqttttttqqqqqq",
"xxxxxxxxxxxxxxxxxxxxxxxxxxxxxkkkxxxxkkkkxkkkkkkkxkfkxvxffMMfyxktkxxkkkxxkkkxkkffkkkkkkkkffkkkkfffkxvxkfyykfyfvxfxxytkxkxktfkkxtykxkffkfykkkkkkffkkxvfqqyyffkxkkfxxxffkkfkfffkffyfkkkkfxMxxkkffkkfkkkkxkkkkkkkkkkffkxxxkkkkkxxxkkkkkkkkkkxkkkkkkkxxkxkkkkffkxxxxxxxkkkkkfkvvfykxkykfvfxfffkxxxkkfMkkqkfvfffkkkkkkkkkkkkkffvvkfttxkffkkkkxfttkxffxfyykkfykyfffyyfkMq:tvvffykykkykyfkkyyffyfxxytyffffffffffffffffffffffffyyfffffffffffffffffffyyyyyffffffyyffyyyyffffffyyyyfyyyffffyfffffyyfffffffftffyyyyyyyyyyyyyyyyyyyyyyyyyffffyyyyyyyyyyyyyyyyyyyyyyyyyyyttyyyyyyyyyyyyyyyyyyyyttttttytyyyyyytttyyytttyyyytqttqqqtqttttqqttytqttttqqqtttqqqqqtttttqtttqqqqqq",
"xxxxxxxxxxxkxxxxxxxxxxxxxxxxkkkkxxxxkkkkxkkkkkkkxkfkxvxffvvkkxktfxvkfkxxkkkxxkffkkkkkkkkffkkkkffkkkxkkfyffkkkxkfxxytkxkxfqfkkktffxxyfxktxkkkkkfftfkkfffkxfyfkkkxkkkffkkffffkkkfyfkkffxvvxxkkkkkkfkkkkxxkkkkkkkkkkkkkxxkkkkkkxxxxkkkkkkkkxxxkkkkkxxkxkkkkffkkxxxxxxkkxkkkxvxffxkfyxfMfvfkfkxkkxkfvkxtkfxkffkkkkkkkkffkkkkxMxffyfvkffkkkxvf77kvffxfyfffffkyffyyfkxt7qfkfkxykykkykyfkfyyffyykxfyyffffffffffffffffffffffffyyffffffffffffyffffyyyyyyyffffffyyffyyfyffffffyfyyyyyyyyffyyffffyyffyffffftffytyyyyyyyyyyyyyyyyyyyyyyyffffyyyyyyyyyyyyyyyyyyyyyyyyyyyttyyyyyyyyyyyyyyyyyyyyttttttytyyyyyytttyyyttqtyyttqtt7qtttttttqqttytqttttqqqtttqqqqqtttttqtttqqtqqq",
"xxxxxxxxkkkkkkkkxxxxxxxxxxxxkkkkxxxxkkkkkkkkkkkkxkfkxvxfykxxxxkffvMkykvxkkxxxkkfkkkkkkkkyffkkfffxkkkffkkffkxkfffxxytxxkxtqkkkktkfkxkffffxxkkkffyqfxffxkfvftykkkkyffyyfkkfffkxxftfkktyvvkkkkxkkkkkkkkkxxkkkkkkkkkxxxkkkkkffkkxxxxkkkkkkkkxxkkkkkkkkkkxxxxkkkkkkkkkkxxxkkkvkfkxvktfkxvxxkxkkkfkvxfkkMfkyxkffkkkkkkkkffkkxkxvktyffvkffkxkkkfyykxkkxyfffyfkkyffyfkky:qkxkyfxykykkykyfffttfffyfkxfyykffffffffffffffffffffffyyffffffffffffyyyytyyyffffffkkffyyfffyffffyyfyffffffyyyyyyffffffyyyyyyfffftyfytyyyyyyyyyyyyyyyyyyyffyyyyfyyyyyyyyyyyyyyyyyyyyyyyyyyyyttyyyyyyyyyyyyyyyyytyyttttttytyyyyyytttyyytqqyyfyqqtt7qtttttttqqttytqttttqqqtttqqqqqtqtqqqqttttttqq",
"xxxxkxkxkkkkkkkkxxxxxxxxxxxkkkkkxxxkkkkkkkkkkkkkxkfkxvxfyfkxvxkkfvMfykvkkkxxxxkkkkkkkkkkyfkkkfffxxkfffkxkfkvxyyfxxytxxkvqqkkfkyxkfkvkttxxxkkkfyttxvfyxkqkyykvxfytyytyfkkfyykxxftkvkqtvvyfkkxxxxxkkxkkxxkkkkkkkkkvxxkkkkkffkxxxxxkkkkkkkkxxkkkkkkkkkkxxxxxkkffffkkkkkxxxkvkykvvfqffMkMfvxkkffkvvffkZkxtkkffkkkkkkxfyyfkxxxxyqtffxffkxxfyfkvvxkxxktkkytfxkffyykxf7:txvxkfyykykkykyffyttyffyykvxyykffffffffffffffffffffffyyffffffffffffyyttttyyffffffkkffyyfffyffffyyyyffffffffyyyyfffffyyyyyyyfffftyfytyyyyyyyyyyyyyyyyyyyffyyyfffyyyyyyyyyyyyyyyyyyyyyyyyyyyttyyyyyyyyyyyyyyytttyyttttttytyyyyyytttyyytqqyfftqqty7qtytttttqqttyt7ttttqqqtttqqqqttqqqqqqttttttqq",
"kkkkkkkkxxxxxxxxxxxxxxxxvkkxxkfxxxxkkkkkkkxxxxkfxxxxxxxxfxxkkvxfyvxvktxvfffffkkkkfvvqyxyfxMvytfvxxkkkkxvkfyyyyfkkkffkxkttqyvxyfMkyykvvktfytykxkfkxvkfkkyyfxxkfkvvkytykxvxkfxxkkvMfttfkkkxkkfffkkxxxxxxxxkkkkkkkkkkkkkkkkvxkxxvvkkkkxxxkkkkkkkkkkkkkkkkkkkkkkkkkkxkfkxkkkkkkkkkkkkkkkkkkkkkkkkkfffyfkxxkxyfkxkkkkfffffffyxytfkffvtkvxfxvyyyfMvfyfxxxfykkffffxxfttkxyfxyqxy77fxfykfyfkxffffffffffffffffffkyyfxxfyffffffffffkkfytyfyfffkfffkfyyyyyyfffffffffyyyfffffyyyffffffffffffffffyyyyyyyyyyyyyyyyffffyyyyyyyyyyffffffffyfffffyyyyyyyyttyffttfyyyyyytt7qyytqttyyyyyyttttttyyyfytqtyyytyyyyyyyyttttttttyttttttytttttttttttttqqqtqttttqqttqqqqttttttqqqqqqqqqq",
"kkkkkkkkxxxxxxxxxxxxxxxxvkkxxkfxxxxxkkkkkkxxxxkkxxxxxxxxfxxkkvxfyvxvktxvkkkkkfffffvxtyxyfxvxfykxxxkkkkxxkffffyfkkkfykxkyfyfxkyyxffkkkkkkyyfkxxkykxxkfffyfkxxkffkkfffkxkkxkkxkkkxvftykkkkxkkkkkkkxxxxxxxkkkkkkkkkkkkkkkkkkxxxkxxxkkkxxxkkkkkkkkkkkkkkkkkkkkkkkkkkxkfkxkkkkkkkkkkkkkkkkkkkkkkkkkfffyfkxkkxykkxkkkkffffkfffxytfkffvtkvxykxtfkxxxkfykxxffkkfyffxkfyykkffkfykftyvvyykfyfkxffffffffffffffffffkfyfxxfffffffffffkxkfyttykfyyyfkxfffyyyyyfffffffffyyyfffffyyyffkffffffffffyyyyyfyyyyyyyyyyyyyffffyyyyyyyyyyffffffffyyyyffyyyyyyyyytyffttfyyyyyytttttttyyyyyyyytttttttttyyyyyyytyyyyyyyyyyttttttttyttttttytttttttttttttqqqqqttttqqttqqqqttttttqqqqqqqqqq",
"kkkkkkxxxxxxxxxxxxxxxxxxvkkxxkfxxxxxxkkkkkxxxxkkxxxxxxxxfxxkkxxfyxkxkyxxkxxxkfytkkvxyfxfxxxkkkkkxxkkkkxxxkfkkfkxxkyyfxxfkkkffyyfxkyyfkkkqyxvvkfyxxxxftykxxvxfyyyfffkxxfykkfkkkkxkfykkffkxxkkffkkxxxkxkkkkkkkkkkkkkkkkkkkfkxxffkxkkkxxxkkkkkkkkkkxxxxkxxxkkkkkkkkxkfxxkkkkkkkkkkkkkkkkkkkkkkkkkkkfffxxkkxfkkkkkkkkkkkkkffvffkkkkvykvxyfktkvvffxxykxkffkkfyfkxkffkkfkkfkxfffxMvyykfyfkxffffffffffffffffffffffkkfffffffffffkkkfytyykfyyyykkfffyyyfffffffffffffyfffffyyyffkffffffffffyyyyyfyyyyyyyyyyyyyyyyyyyyyyyyyyyffffyffyyyyyffyyyyyyyyyyyfyttyyyyyyyttftqqtyyyyyyyttttytttttttyffftttyyyyyyyyyttttttttyttttttytttttttttttttqttqqttttqqtqqqqqttttqqqqqqqqqqqq",
"kkkkxkxxxxxxxxxxxxxxxxxxvkkxxkfxxxxxxxkkkkxxxxkkxxxxxxxxyxxkkxxffxkxkyxxfkxvxkytxxvxkkxkvkffxxkfxxkkkkxxvkkkkkkvxkytfxxkkxkyyffyMfqtvZxtqfvvkffkxxxxfqtxkxxxfyyyfffkxkfykkkkkkkkffkxxfffxxkkkfkkxxxxkkkkkkkkkkkkkkkkkkkkffkkkfkxkkkxxxxkkkkkkkkkxxxxxxxxkkkkkkkkxkfxxkkkkkkkkkkkkkkkkkkkkkkkkkkkffkxxkfkkkkkkkkkxxxxxkkkvkkxxkkvffxxffkfkxxffkkfkkkkfkkfyffkkfkvfyxxyxMyffkvxyykfyfkxffffffffffffffffffffffkkfffffffffffffffyfffyyfkkffyfffffffffffffffffffyfffffyyyfffffffffffffyyyyyfyyyyyyyyyyyyyyyyyyyyyyyyyffffffyyfyyyyyyyyyyyyyyyfyyyyyyyyyyyyyttyttttyyyyyytttttytttttttyyfytttyyyyyyyyytttttttttttttttttttttttttttttqtttqttttqqtqqqqqttttqqqqqqqqqqqq",
"kkkkxxxxxxxxxkkkxxxxxxxxvkkxxkfxxxxxxkkkkkxxxxkfxxxxxxxxykxkkxxffxfxkfxkyfkxxkfyxkkfkfyfvkyfxvkyxxkkkkkxvkkkkkkvxkytyxxkfkkyykkyxytfMZkqfkxkyykvxkxxyqyxkkkkffffxkffkkkffkkfkkkkyfkxxfffxxkkkkkkkxkkkkkkkkkkkkkkkkkkkkkkkfffkxkkkkkkxxxkkkkkkkkkxxxxxxxxkkkkkkkkxkfkxkkkkkkkkkkkkkkkkkkkxkkkkkkkkkxvxfffxkkkkkkkxxxxxkkkxkkxxxxvkfxvffxxkffxxffkkkkkkkkkfyfkkfkvffxxyxMyftqyfffkfyfkxffffffffffffffffffffkffffffffffffffyyyyyfffyyfkkfyyyyfffffffffffffffffyyffffyyyffffffffffffffffffyyyyyyyyyyyyyyffyyffffyyffffffffffyyyyyyyyyyyyyyyyffyyyyyyyyyyyyttqtyytttttttttttttttttyyyytttyyytyyyyyyyyttttttttttttttttttttttttttttttttttttttqqtqqqqqqtttqqqqqqqqqqqq",
"kkkkxxxxxxxxkkkkxxxxxxxxvkkxxkfxxxxxxxkkkkxxxxkfxxxxxxxxykxkkxxffxfxxfvkyffkxkkfffttfyqtvkffxxkfxxkkfkkxxkfkkfkxxkyyfxxfyfkffkfytfxvxkffxxfytykvkkkfytfvfffffkkkvkyyykkkfkkffkkfffkxxfffxxxkkkkkkxkkkkkkkkkkkkkkkkkkkkkkxkfkxxxkkkkkxxxkkkkkkkkkxxxxxxxxkkkkkkkkxkfkxkkkkkkkkkkkkkkkkkkkxxxkkkkkkkxvxyyfxxkkkkkkkkxxxkkkkkxxxkkxkykvkfvMxyyxxyfxkffkxkkkfyfkkkkkffxxfkxyft7tyffkfyfkxfffffffffffffffyfffkkffyfkfffffffffffyyyffyffyyyyffyyyffffffffffffffffyyffffyyyffffffffffffffffffyyyyyyyyyyyyyyffyyffffyyffffffffffyyyyyyyyyyyyyyyyfffyyfftyyyyyyttqtfytqttttttttttttttyyffytqtyfytyyyyyyyytttttttttttttttttttttttttttttqttqtttttqqttqqqqqtttqqqqqqqqqqqq",
"kkkkxxkkxxxxkkkkxxxxxxxxvkkxxkfxxxxxxxxxkkxxxxkfxxxxxxxxykxkkxxfkxfkxfvkfkkkkkffkkttxfqyxxkkkkkfxxkffkkxkffffffkkkfykxkyykxxkytqtkvxytfvvkytyffkfkfyyfxvxkfyyfkkxfyyfkkkykkffkkfkffkkkfkxxkkkkkkkkkkkkkkkkkkkkkkkkkkkkkkxkkxxxxxkkkkxxxkkkkkkkkkxxxxxxxxkkkkkkkkxkfkxkkkkkkkkkkkkkkkkkkkxxxkkkkkkkvvxytyvxkkkkkkkkkkkkkffkxxkkkkxyfvkyxMxkffffkxfyfxxkkxkyyfkkffkkkkxftfkyyyfffkfyfkkffffffffffffffffyffkxkyyfkfffffffffffyyfffffffyyyyftyffkkfkfffffffffyfyyffffyyyffffffffffffffffyyyyyyyyyyyyyyyyfffyffffffffyyffffffyyyyyyyyyyyyyyyyfkftyfftyyyyyyttyyyyyttttttttttttttttyyyytttyyyyyyyyyyyyttttttttttttqqtttttttttttttttqqqqqttttttttqqqqqtttttqqqqttqqtt",
"kkkkkkkkkxxkkkkkxxxkkxxxvkkxxffxxxxxxxxxkkxxxxkkxxxxxxxxykxkkxxfkxykxkvfxxkkffyyvMffZxyxxxxkkkkkxkkffkkxkyyyyyfkkkffkxftfkvMkt77xkfytykvvkyyfkfyykfttkvxvxfyyyfkffffxxkfyfkffkkykfyfkkfkxxkkkkkkkkkkkkkkkkkkkkkkkkkkkkkkkxvvxkxvkkkkxxxkkkkkkkkkxxxxxxxxkkkkkkkkxkfxxkkkkkkkkkkkkkkkkkkkxxxxkkkkkxvvxytyvxkkkkkkffkkkkfffkxxkkkfvyfvftkvvMxttkxkfyfxxkkxkytfxkftkxfkvy7fkxxxfyfkfyfkkffffffffffffffffyffkxkyyfkfffffffffyttyfkkkyyfkkfytyyffkkkkfffffffffyyyyffffyyyffffffffffffffffyfyyyyyyyyyyyyyyffyyffffffffyfffffffyyyyyyyyyyyyyyyyfkftyfftyyyyyyttkyttyyytttttttttytttttttyffftttyyyyyyyyyttttttttttqqqqtttttttttttttttqqqqtttttttttqqqqttttttqqqqttqqtt",
"xxxxxxxxkxxxxxxxxxxxxxxxvtxxkkfxxxxxxkkkkxxxxxxxfkxvvxkfyvytvZkkkkkkffffyfxxftfvxxxxxxkkytqyvZvyMxkkffkvxkyfxvxfkkkkkffffkffkyqtffkytykvvxffkkkfffkkytykvfykxkkMxfyfftykfkkkkkkkffkkkkfyxkkxkyykkkkkkkkkkkkkkkkkkkkkkkkkfkxxkfffkkkkxxxxkkkkkkkkxxkkkkkkxxkkkxkkxxxxxxxxfkkxxxxxvvykyxfkkkkkkkkkkkkkkkkfkkxkkkkkxxfyfkkkkvfyxxykkffffkxxkfyyfkkffkkyyyffyffkkkffyyxxyykkxxkytyffffffffkkxkfyyffyfttyyqtffxftfkkxkfttyyytyyfkkkfffffffyyyqffyffyfffffffyfffffffffffffffffffffffffxytffytytfkytfffffffyyffffffffffyyyyyyyyyyyyyyyyyyyyyyyytttyyyyyyyyyyttttyyytqtyyyttttttttttqttytqtyqtytyytttyyyyyyyyttytttttyyyyttqqqttqqttttqqqtttq77qqqttytttqtffyqqqqqqqqq",
"xxxxxxxxkxxxxxxxxxxxxxxxvtxxkxfxxxxxxxkkkxxxxxxxfkxvxxkftvkyxvkvkkkkffffffkxkyfxkxxxxxkktfkkkxxkvkfkkfkxfkxxkfkvkkkkkfffffyykyqfkkkkyfxMxkffkkkfffffytykvkytfxvxkffffffkfkkkkkkkfkkkkkfyffkxkffkkkkkkkkkkkkkkkkkkkkkkkkkkkkxkkkkkkkkxxxxkkkkkkkkxxkkkkkkxkkkkxkkxxkkxxxkkkkxxxxxkxyxfvkxkkkkkkkkkkkkkkffkkxkkfkkxxfyfkxkkxffkkfkkffffkxxkfyfkkfffkkyyffffffkffffyyxxyykkxxkyyfkffkkkkfffkkfyyffyfyyffyyfykfyfkfkfyttttttyyfkkkfffffffyyytkfyffyfffffffyyffffffffffffffffffffffffkyyfkfyftyytyffyffffyfffffffffffyyyyyyyyyyyyyyyyyyyyfyyyyyyyyyyyyyyttttttyyytttyyyyttttttttttttytqtyqtytyytttyyyyyyttttyttttttyyyttqqqttqqttttqqtttt777qqqttttttttttttqqqqqqqq",
"xxxxxxxxkxxkxxxxxxxxxxxxvtxxkxfxxxxxxkkkkxxkxxxxkkxxxxkktvvkfkkvkkkkkkkkkffkxffxkkxxxkkkykxxkkkkkffkxkyyfkxxkfkvkkkkkffffftyfyyxxxxkkkvMkfyyfkkffyyyttykvxy7tvvfyfkfkkkffkkkkkkkfkkxkffytfkkkkkkkkkkkkkkkkkkkkkxkkkkkkkkkkkkkkxkkkkkkkxxxxkkkkkkkkkkkkkkxkkkkxkkkkkkxxxxkkkxkxkkykfMkvkxkkkkkkkkkkkkkkffkkkkkffkxxfyfkxkffkxfkxkkfffkkxxkfffkkkffkkfyfkkkkkfffffyyxxfykfkxkffkkkffkkkffffkfffkkfyffffkkftffykkffyffyttttyyffkkffyyffffyyyxkfkkyffffffffffffffffffffffffffffffffffyyfkffffq7tfkfyffffyyffffffffffffyyyyyyyyyyyyyyyyffffyyyyyyttyytttttttttyyytttyyyyytttttttttttytqyyqtytyttttyyyyyyttttyttttttyytttqqqqtqtqttttqtttqqqqtttqqqqqqtq77qtqqqqqqqq",
"xxxxxxxxkxxkxxxxxxxxxxxxvtxxkxkxxxxxkkkkkxxkxxxxkkxxxxkkyvvkfkxxkkkkkkkkxfykxkfkkkxkkkkkxkkkxvktfyfxvkyqxkfkxvxkkkkkkfffffttfffvxkkkkkxvkfyyfkkfkt7qyfffxkftyxxftkxkkvxfffkkkkkkfkkxkkffqfkkkxxkkkkkkkkkkkkkkkkxkkkkkkkkxkffkxxxkkkkkxxxxxxkkkkkkkkkxxxxxkkkkkkkxkkkxxxxkkkxkkkkyxkMfxfxkkkkkkkkkkkkkkffkkxkkffkkkfyfkxkftxvffvfkfffkkkkkkffkkfffkkfyfkkxkkfffffyyxxffkfkkkffkxkfkkkkffyffffkxxftfkfkxxfqfffkkyyffkfyttyffffffffyyfffffyyxxfkkyfyyfffffffffffffffffffffffffffffffyffffffkq7ykfyfffyyyyfffffffffffffyyyyyyyyyyyyyyyyfffyyyyyyyyyttqqqqtttyyyyytyyyyyyytttttttttyytqyyqtytttttttyyyytttttyytttttyytttqqqttqqqttttttttqqqtyttq77777q7737qqqqqqqqq",
"xxxxxxxxkkkkxxxxxxxxxxxxvtxvkxfxxkkkkkkkkkkkxxxxxxkkkkkkxxkfkvvykkkkkkkkxfykxkkkkkkkkkkkkkkkxvkyyyfxvkt7xkfkxvxkkkkfffffffytfffvkfyyffkkkfyyfkkfvt3qkxftfyfxkyyftfxkkvxfffkkkkkkkkxxxkfyqfkfkxxkkkkkkkkkkkkkkkxxkkkkkkkkxkffkxxxkkkkkkkkxxkxkkkkkkkkxxxxxxxxkkkkkkkkkkkkkkxxkkkkkvkvykykkkkkkkkkkkkkkkffkkkkkffkkkfyfxxxfyxvffvfkkffkkkkkkkkkkfffkkffkxxxkkfffffyykxffkfkkkffkkkfkkkkfyyffffkxxftkkfkxxfqfffkkyykkxkffffffffffffyyfffffyyxxfkkyyyyffffffffffffffffffffffffffffffyfffyyyykytffttffyyyffffffffffffffyffyyyyyyyyyyyyyyfffyyyyyyyyyyttqqtttyyyyyyyyyyyyyyyttttytttyyytyyqtytttttttyytttttttyyytttttyttqqqqqqqqqqttttttqqqttttqq7777777qq77qqqqqqqq",
"xxxxxxxxkxkkxxxxxxxxxxxxvtxvkxkxxkkkkkkkkkkkxxxxxxkkkkxxMxkkkMvtxxxxkkkkxffxxkfxkkkkkkkfqkvxffkxfyfxvkytfxvxkfxvkkkfffffkkyykffxfyyyfkkfkfyyfkkfvy7txxftyykMxytkyfkkkxxkffkkkkkkkkxxxkfftfkkkkkkkkkkkkkkkkkkkxxxkkkkkkkkkkfkkkxkkkkkkkkkxxxkxkkkkkkkxxxxkxxxkkkkkkkkkkkkkkkxkxkkxvkvykykkkkkkkkkkkkkkkfffkkkkffkxxfyfkxkkfkxfkkfkkffkkkkkkkkkfffkxkffkxxkkkkffkkfykkffxkkxkffkkffffffffyfkfffkkfyffffkkftkfykkffkkkkkkkkffffffffyyffffyytkkfkftytyyffkffffffffffffffffffffffffffyfffyyytffffyqyfyyyyyyfffffffffffffyffyyyyyyyyyyyyyfffyyyyyyyyyyttttttyyyytyyyyyyyyyyyyytyytttyyytyfqtytttttttttttttttyyyyttttttttqqqqqqqqqqttyytqqqtttqqqqqq7qq37ttq77qqqqq77",
"xxxxxxxxkxxxxxxxxxxxxxxxvyxvkxkxkkkkkkkkkxxxxxxxxxkffkxxvxvxfxvyxxxxxkkkkfkxkffvfkkkkkff3yvxyykxkfkxxfyffxvxkkxvkkkfffffkxffxfykkfyfkxkkxkffkkkkxfyfxkfyffkkkffkxffkkffkffkkkkkkkkxxxkffffkxkffkkkkkkkkkkxxxxxxxkkkkkkkkkkkxkkkkkkkkxxxxxxxxxxkkkkkkxxxxkxxxkkkkkkkkkkkkkkkxxxxxxxfxyvfkkkkkkkkkkkkkkkkffkkkkfffxxkyfkxkkxffkkfkkkfkkkkkkkkkkkffkxxffkkkffkkkkkkfyfkyfxkxxkyyfffffffffffkkfyyffyfyyfyyyfykfykkfkkffffkkkkffffffyffffyyyyqkkyffttttyfkffffffffffffffffffffffffffftfkfyyyttfkyttyfffyyyyyyfffffffffffffyfyyyyyyyyyyyyyffyyyyyyyfffyyyttyyfyttyyfyyyyyyyyyytyyyttyyytyfttytttttttttttttttyyyytttttttqqqqqqqttttttyyqqqtttq7qqqqqqqq7qtttqqqqqqq77",
"xxxxxxxxkxxxxxxxxxxxxxxxvyxvkxkvkkkkkkkkkxxxxxxxvxkffkxvxxZMtfvfxxxxxxxxfkxvkyfMffkkkkffqtyffxkfkkkxkffkvkfkvvxkkkkfffffkxkkxftyxkfkxvvkvxkfkxkkkkkxxffkkxftyxvkvffffyyxffkkkkkkkkxxxkffxffxkyykkkkkkkkkxxxxxxxxkkkkkkkkfkxxxkffkkkkxxxxxxxxxxkxkkkkkxxxkxxxkkkkkkkkkkkkfkkxxxxxfktxkMkxkkkkkkkkkkkkkkkffkkkkfffxxkyfkkkkvfyxkykkkkkkkkfkkxxkkffkxxffkkkyyfkxxxxfyffykvxxxkytyffffffffffxxfyyffykytyyqtffxftfkkxkfttffffkkfffyyyfffffyytqffyfyqtttyfkkffffffffffffffffffffffffffqfkfyffyqffttyfyffffyyyyffffffffffffffffyyyyyyyyyyyyyfyyyyyyfffffyyyyyffyttyyfyyyyyyyyyytyyyttyfytyfttytttttttttttttttyyyyyttttttqqqqqqqttttttyyqqqtttq377qtttqqtqqqttq7qqqq77",
"xxxxxxxxkxxxxxxxxxxxkkkkxxxxxxxkxxxxxxxxfkxxxxkkfxxffxxfyZvtkMkkfxxffxxfxfyykxxkxkfkxxkfyxvkyfkxkxvxkfkxyfkkffkxkfffffkxvxky7tkkyfkfyyffffyykvxtvftfkfyyfffffyfktttykxvvkkkffxkfkxkfkxxfkfffffkxxxkkxxvxkkkkxxxxxxxkkkkkffkxxxkkkxxxkkkxfkkxxkkfvxkkxvxxvxxkxxkkkkkkkkkkxkkkxxkfkkkkkkkkkkkkkkffkkxxkkkkxxytkftxvkxyvkvxxvfyvZxyMyyxxxktkyvkyxkffkkfkkfyykxkffkxyZvZx7kfkxxkkxxxfffffffkffkkfffftyxxfkxfyffyykkfyfkfyyyfffffkffftfkkfffyyffyyfyykkkfykkfyytyffyyyyyyyyyyffyttyffffffffffyfffyyyfffyyyfffyyyfffyyffyyffffffyyyyyyyyyyyyyyffyttfftyyyyyyyfttqttyyyyyyyyyyytffyttyttttyyttt7fkyyfyttttyytttttttttttttqtqqttttqqttyyyytqq777qttqqqqtqqqqqqqqqqqqqq",
"xxxxxxxxxxxxxxxxxxxkkkkkxxxxxxxkxxxxxxxxfkxxxxkkfvvffvvffvvfkvxkfxxffxxfxkyyfkxxvxkkxkfyfkxkfkkkkxvxkfkxffffkkkkkfffffkxvkky7tkkyffffffffffyfkkfvkykxkfffffffyfkyyyykxxxkkkfkxxfkxkfkxkfkfffffkxxxkkxxxxkkkkxxxxxxkkkkkkkkkkkkkkkkkxxxkkfkkxxxkfxxkkxxxxvxxxxxkkkkkkkkkkxkkkxxkkkxkkkfkxkkkkkfffkkxxkkkxkkyykffxxkxyvkvkxvfyvvkfvffxkkkfktkkfxkfkkkkkkfyyfkkffkxfxykftkyyffyyfkffffffffkyyyyyyyfyyxkyfkftffyyffyffffkkkkxkfytyyftfkkfffyffyyfkytfkkfyfkfyytyffyyyyyyyyyyffyttyffffffffffyfffyyyfffyyyfffyyyyfffffffyffffffyyyyyyyyyyyyyyffyttfftyyyyyyyfytqttyyyyyyyyyyytyfyttyttttyytttqyfyyyytttttytttttttttttttqtqqttttttttyyyytqq777qttqqqqtqqqqqqqqqqqqqq",
"xxxxxxxxxxxxxxxxxxxkkkkkxxxxxxxkxxxxxxxxfkxxxxkkkvvkkvvkkkxxfxvkfxxffxxfkkkfffxvvxkkxkftkkkfkxkfkxxxkfkkkfyfkxkfkffffkkxxkkyqykftyfffffkfkkyyfkxvkfkxkkkfffkfyfkkfffkkkkkkkfkxkfkkkfkxxfkkfffkkxxxkkxxxxkkkkkkkkkkkkkkkkkkkkkkkkkkkxvvkffkkkxxkkxkkkxxxxvxxxxxkkkkkkkkxxkkxxkkkxkxxkkkkxkkkkkkffkkxxkkkkfyfxffxxxfxyvkxfkkffxkfxxfkkyykxx7ykkxfkkkkkkkfyyfkkfffkkf7tffkyfkkfkxxkfffffffkyyyyyyfkffxktykytyytyyyykfyfkxkfxkytttyftfkkffyykyttkkyqfkkfffkfyyyyyyyyyyyfffyyffyttyfffyffyyyyfyyyfffyfffyffffyyffffffffyyffffffyyyyyyyyyyyyyyffytyffyyyyyyyyfytqttyyyyyyyyyyytyytttytttyyyyttyttyfytttttyytttttttttttttqqqqtttqttttttyttqqqqqttttqqqttqqqqqqqqqqqqq",
"xxxxxxxxxxxxxxxxxkkkkkkkxxxxxxxkxxxxxxxxfkxxxxkkxxxxxxxxvfxvfkvkfxxffxxffkxkyykvxxkkxxkyxkffxvkyxxxxkkkkkfffkxkkkffffkkxxfkftfxfttfkkffkffffyfkkxkkkkkkkfffkfyfkkkkfffffkkkkkkkkkkkkkkkkkkfffkkxxkkkkxxxkkkkkkkkkkkkkkxkxxkkkkkkkkkxxxkffkkkxxkkxkkxxxxxxxxxxxxkfkkkkkxxfkxxkkxxkxxkkkkxkkkkkkffkkxxkkkxfqkvffvxxfxyMkktfkfkxfyvkfxkqqkvx3tkxxfxkkkkkkfyyfkkffffxf7qfkxykxxkkxvxfffffffkkkkfffkxffkkqyfyyyyyyffykffyffyttyyyyyyttfxkfyyykytyffytfkfffffyyyyyyyyyyyffffyyffyttyffffffyyyyfyyyfffyffyyffffffffffffffyyyyffffyyyyyyyyyyyyyyyfyyyyyyyyyyyyyfyttttyyyyyyyyyyytyytttytttyyyyttftqyftttttttytttttttttttttttqqttttqttttttttqqqqqttttqqqttqqqqqqqqqqqqq",
"xxxxxxxxxxxxxxxxkkkkkkkkxxxxxxkkxxxxxxxxfkxxxxkkxxxxxxxxvfxvfkvkfxxffkkffkxkyykvfffkxvxkxfykxxkyxxkkkkffffkkkfkxkffffkkxkfffykxyttfxxffkfyyfkfffkkkffffffffkkffkxxxkffyykkkkkkkkfffkkkkkkkfffkkxxkkkkkxxkkkkxxkkkkkxxxkkxxkkkkfkkxxxkkkxfkkkkkxxkkxxxxxxxkkxxxxkfkkkkxxxfkxxkkxxkxxkkkkxkkkkkfffkkxxkkkxftxMffvkxfxfMfktfkfkxfyvffxkqqkMx3tkxvfxkkkkkkfyyffkfffyxfffkvkffffyyfkfkfffffffkkkkfkxxffkktyfyffffffffffkfyyyytyyyyyyttfxkfyyyfytffytyfkkfyffyfffyyyyyyfffffyyffyttyfyffffyyyyfyyyfffyyyfffyyyffffffffffffyyyffffyyyyyyyyyyyyyyyfffyyyyyyyyyyfyttttyyyyyyyyyyyqyytttytyyyyyyytftqyytqttttyytttttttttttttqqqqtttttttqqqqqqqqqqqtttqqqqttqqqqqqqqqqqqq",
"xxxxxxxxxxxxxxxxkkkkkkkkxxxxxxkkxxxxxxxxfkxxxxkkxkkxxkkxkkxxfxvkfxxffkkfkkkfffxvyyykxvvxkffkxkkkxkkkkkffykxxkfkxkffffkkxkyfkfxxtttfvxfykfyykkffffkkfyyfffffkkffkkxxkkfffkkkxkkkxfffkkffxxkkffkxxxkffkkxxkkkkxxkxxxxxxxkkxkkkkkkkkxxxffkvfkkkkkxxfkxxxxxxkkkxxxxkkkkkkkxxkkxxkkxxkkxkfkkxkkkkkkffkkxxkkkxkfxvxkkkkfxfvfkykkffxkfxfykktqfvx7fkkxkkkkkkkkfyyffkffyykfxkxvfffkkffkkkkfffffffffffyyfkffkktykykffkkffkyfkkfffkxkytttyftfxkfyyyftyffttyfkkfyfftffffytyyyfffffyyfffttyffffffyyyyfyyyfffyyfffyyyyffffffffffyyyyyyfffyyyyyyyyyyyyyyyfkfytyyyyyyyyfyttttyyyyyyyyyyyqtytttytyyyyyyyyftqttqtttttyytttttttttttttqqtttttttttqqqqqqqqqqqqttqqqqttqqqqqqqqqqqqq",
"xxxxxxxxxxxxxxvvkkkkkkffxxxxxkkkxxxxxxxxfkkxxxkkxffxxffxfvvfkvxffkkffkkfxkffkxxxfffkxvvxkfkxkffxxkffkxfyfkkkkkkxkffffkkxkyfkkvxtyyfvvfyfyyyffyfkfxxfyffffffkkffkfkxxkffkxkkxkfkxfffkkfkxkkkffkkxxkfffkkkkkkkxxxxxxxxxkkkfkkkkkkkkkkxkkkkfkkkkkxxfkxxxkkxkkkxxvxxkkkkkkkkxkkkxxkkkkkkffkxkkkkkkffkkxxkkkxxxxxvkyfkkvfvykfxvfyvvkfytkxttfkxtxkfvkkfkkkkkfyyyffffytftxkkvyfkxxkkxvxkffffffffkkkfyyfyykkyfkfkffkkyyffffffkkkxkfytyyfykxkyyytfttffytyfkkfyfytffffyyyyfffffffffffttyffyyyyyyyyyfffyyyfyyffffyyyfyyffffyyyyyyfffffyyyyyfffyyyyyyyfkfttyyyyyyyyfyttttyyyyyyyyyyyqtytqtytyyyyyyyttyyq7qtttttyytttttttttttttqqtttttttttqq77qqqqqqqqttqqqqttqqqqqqqq777qq",
"xxxxxxxxxxxxxxvvkkkkkfffxxxxxkkkxxxxxxxxfkxxxxkkxyyxxyyxyZvtkMkkfkkffkkfxfyykxxkkkfkxxxkkfkxfyfvxkffxxfykkfkxxxkkffffkkxfyfkxvxtyykMvftfyyffyqyvfvvkyfkkfffkkffkyfxxkkkkxkxvxfkxfffkkffxxkkffkkxkkfffkkkkkkkxxxxxxxxxkkkffkxxxkkkkkxvvkfffkkkkxxfkxxxkkxkfkxvvxxkkkkkkkkxkkkxxkfkkkkffkxkkkkkkffkkxxkkkxvMkkMkqfkkMkxyxkxvfyvZxyytfxfyffxfvkyvkffkkkkkfyyyffffyty7kyfvtffkfffkkfkffffffkxxvxkkkktykxfkxfkyyffytfkfyyfffyfffkkfffykxkyyytktqykyttfkkfyfytffkfytyyfffffffffffttyffyyyyyyyyyfffyyyfyyffffffyyyyyyfffyyyyffffffyyyyyffffffffttfkkttyyyyyyyffyttttyyyyyyyyyyyqtytttytyyyyyyyytfyq3qtqtttyytttttttttttttqqtttttttttq7777qqqqqqqttqqqqttqqqqqqq7777qq",
"kkkxxxxxxxxxxxxxkkkkkkkkxxxxxxxxxxxxxxxxkkkkxxkkkkkkkxxxkkkkkkxxxkZMttxkykfMkvyfxkffffkkkkkkfffkyfxkfyfxxxyyxxkkkkfffffkffkxkyyfxxxxkkkffffyykftxkffffkxffkxfttffyfffxvkffkxvvxkfxxfyfkkykxxkkkkkkkkkxxkkkkkkkkkkkkkkkkkxxxxxxxxkqqxZvkkvkfffkxxkxxkkkkxxxkkxvMMMvvxkkkkxxxxxxxxxkkxkfkxfxxkkkfyxkxvkkxkxyfxxxvxxkkkytfvxxkkkkfkkxvfyxvtxyMftxkMfykvkykkykxkfyfxkfyfkkkkffffffffxkkkffffkkfyffkxvkytyfkkftqyytyxqtyfffyyyyfffffffffyyffftyfyfkkffffyttyffq37yxvxyffffyytkxfqffyyfkyttffttyyyyykxytyfkyyfyffkkkffyfffyyyfyyyyyyffytykfytyyyyyyyyy7tyyyqqqttyyffyyyyyyyytttttyttqqtfkkyqtyttyyyttqqqtttyyt7qyfyttytqqqtttqttttqqqqttttqqqqqqttttqqqqqqqq777qttyt",
"kkkxxxxxxxxxxxxkkkkkkkkkxxxxxxxxxxxxxxxxkkkkxxxkkkkkkxxxfkkkkxxxxxMvyykkykfMkvyfxkffffkkkkfkffffkfyykxkffxxffyfvkkffyffkfffkkyfkyyffkkkkfkfyfkfykkkkkkkkffkxfttfkfffykxfyfkvvxkkfxkffkkfykxxkkkkfkkkkxxkkkkkkkkkkkkkkkkkxxxxxxxxfyfxxkkvkkkkxxkkkkxkkkkxkxvvvxxkxxxxkkkkxxkkkkxxxkkxkfkxkkxkkkkfkxxkkfkxxyfxkxvxxkkkytfvxxkkkkxxkfxxfkxfxfvktfxMfykvkykkkkkkffffkfffkkkkffffffffkkkfffffkkkkfffkkfyyfkxxkytfftyxtyfffyyyyyffffkfffffyyyfqyyttfffffyyyyyytttyfkkffffffyyykxyqfkyyffyttffttyyyyyfxytyffyyfffffffffffyyffyyyyyyyyffyyfkfytyyyyyyyyytttyyyttttyyyyyyyyyyyyttttttttttyyyyyyttttyyyttqqtttttttqtyyyttttqqqtttqttttqqqqttttqqqqtqqtttqqqqqqqqqqqqqttt",
"kkkxxxxxxxxkxkkkkkkkkkkkxxxxxxxxxxxxxxxxkkkkxxkkkkkkkxxxkkkkxxxxvMxkkfykfkkvkxffxkffffkkffffffffkyyykxkffxxffyfvkkffffkkkffffffxtyyyffkkkkkfkkkfffkxxkffffkkfyyfkfkkyfktqfxvxkfkkkkfkxkyykxxkkxkfkkffkxkkkkkkkkkkkkkkkkkxxxxxxxxykxkyyxMkkkkxxkkkxxkkkkxkxvvvxfyfkkkkxxkxxxxkkxxkkkkkfkxkxxkkxkkfMxfkyyMxyfxkkvxkkkkfyfvxkffkxvMytkMxfkkkkkxytvvfyxvfykfxkfkxxfyffkkkfffffffffffkkkfffkkfkkkffffyyfkxxxkkffkkyyktfkkfyyyyfffffffffffyyyttyfytyfkfytyffyyqykkfyyyyfffffytkxytfkyyffytyfyttyyyyffkfyyffffkfffyyyyykfyyffytyyyyyyffyyfffytyyyyyyyyyfyttyffyyyttttyyyyyyyyttyytttyyyftqqyfytttyyytttttttttttytttttytttqtttttqqttqqqqttttqqqqqqqqqqqqqqq77qqtqqqqq7",
"kkkxxxxxxxxxkkkkkkkkkkkkxxxxxxxxxxxxxxxxkkkkxxkkkkkkkxxxkkkxxxxxvMkyvktffkkxxxkfxkffffkkkkkkkkkktfkkfykxxxyyxxkkxkffffkkkfffffkvkkkffffykxkkkkkkfkkxkkkfffkkfyyfxkkfyffqqyxvkffkkffkxxktfxvxkkxkfkkffkxkkkkkkkkkkkkkkkkkxxxxxxxxyxvkyfxvvxfffkxvkxxkkkkxxxkkkkkxyffkxxxxxxxxkkxxkkkkkfkxkxxkkxxkyMktfttZkyfxfkxxfkxkfykxxkfffkvMyyxvkfkkfxfxyqMxffxvfykfkffkxxkyyfkkffffkfffffffkkffffkkfkkkfffkfffkkkkfffkxktyfykxkfyyyffffffffffffyyttykxkfffkfyyyfyyttfkkfttyyffffyyykkytkkyfffyyyyyyyyyyyffffyyyyffkffyytyyyffyyffyyyyyyyyyfyyfffytyyyyyyyyyfyttyfffyytttttyyyyyyyttyyttyyyfyqqqyfytttyyyttttttyytttfyqqttttttttttttttttttttttttqqqqqqqqqqqqqqq77qttqqq733",
"kkkxxxxxkxkkkkkkxxxxkkxxxxxxxxxxxxxxxxxxkkkkxxkkkkkkxxxxkkkxxxxxxMkyxktfkkxkxkkfxkkfffkkkkkkkkkkyfxkfyfxxxyyxxkkxkffffkkkfffffkvxxxxkkkkxkkxkkkkkkkffkkkfkkkfffyxkkkyyfqqfvvkffxkfykvvftfxvxkxxxfkkffkkkkkkkkkkkkkkkkkkkxxxxxxxxkkkfkvxfvxfffxxvkxxkkkkxxxkkkkkkyffkxxxxkkkkkkkkkkkxkfkxkxxkkxxkyMkqfttZkykxffxxykxkffkxxkfyfkxxykMxykvfkvfxyqMkffxxyykfyfkkxxkkfkkkffyfkkffffkfkkffffkkffkfffkxkkkfyyyyyfkkfttyfkkkfyyfffffffffyfffyyttfkxxkyyyyyfyttttfffyyyyfffffffyykkyykkyfyyyfyyyyyyyyffffffyyyffkffyyytyyyfffyyyfffyyyyyyyyfffytyyyyyyyyytyffyyyfyyttttyyyyyyyyttyyytyyffqqtyyyytttyyytttttyyytttfyqqqtttttttttttttttttttttqqqqqqqqqqqqqqqqq77qttqq7733",
"kkkxxxxxkxkkkkkkxxxxxkxkxxxxxxxxxxxxxxxxkkkkxxkkkkkkxxxxkkxxxxvvxvxkkfyfkkxkvkxkxkkfffkkkkkkkkkkxkyfkkfyfxxffyfvxkffffkkkfkkkffxkkkxxvvvkkkkkffkxkffyfkxfkxkfkfykfkkyffqtkvvkfkvkyykvxfyfxvxkxxxfkkffkkkkkkkkkkkkkkkkkkkxxxxxxxxxfykMMxykkkkxxxkkxxkkkkxxvvvxkfykkkkkxkkkkkkkkkkkkkxkfkxkxxkkxkkfvktyyfZkykxyykxykxkfkxxxkffffkkfvMktxvykkkxytxkkfxktfxkyfkxkkkxffkfffffkkkkkkkkkkkffffkkkffffkkkkfytttyyyfffyytkkfyyfffkkffffffffffyyytyyfkfyqqyffytqtykfytyyffffffffffkkyyxkyfyyyffyyffyyffffyfkfytffffyyyyyyyyfffytyfyfyyyyyyyyfkfytyyyyyyyyytyffytyyyyttyyyyyyyyyyttyyyyyyyyqtyfytttttyyytttttyyyyytyttqtttttyytttttttttttttttqqqqqqqqqqqqqqqqq77qqtqqq777",
"kkkxxxxxkkkkkkkkkxxxkkxxxxxxxxxxxxxxxxxxkkkkxxxxkkkkxxxxxxxxxvvvxxvxytffxkvfvfxkxkkfffkkkkkkkkkkvkffkkytfxxffyfvxkkfffkkkkkxkffkffkkxxxvkfkkkyfkkkkkkkkkfxxkfkfykfkkfkktfkvxkkxvkyykvxfffxvxkxxxfkkffkkkkkkkkkkkkkkkkkkkxxxxxxxxxfyxMvkkkkkxxxxkkxxkkkkxvvvxxkffxxxxkkkkkkkkkkkkkkkxkfkxfxxkkkkfkkfyyfxZfykxytkxtkvxfkxxkkkffkkkkkxxfkxyxfvktffxkkxftfvkfkxxkkkkffffffffkkkkkkkkkkkfffffxkfkkkfyyfffyyyfyyyfkkfyxfytykkkkkfffyffffffyyyyfttfkfyyyyyyyyffkffyyyffffffffffkfyfxkykyyyffttfffyfffytfkfytyytyyyfffyyffffyyyyffyyyyyyyyfkfytyyyyyyyyyyyfffyytttyyyyyyyyyyyyttyyyyyyyttyffyttyttyyyttttttyyyyyqtttttqttyyttqttttttttttttqqqqqqqqqqqqqqqqqqq7777qqqqq",
"kkkxxxxxkkkkkkkkxxxxxxxxxxxxxxxxxxxxxxxxkkkkxxxkkkkkxxxxxxxxxvvvxkMMtqkfxkvyvfvkxkkfffkkkkkkkkkkxvvxyttyxxyyxxkkxkkfffkkfkkxxfyfkkkffffykffkfyykffkxxkffkxxffkfyffkkfkxykxvxkkvMkyykxkfkfxvxkxxxfkkffkkfkkkkkkkkkkkkkkkkxxxxxxxxxyfvvkkvvxkfkxvvkxxkkkkxMvkffkxvMvvxkkkkkkkkkkkkkkkxkfkxfkxkkkfykfffyfMMfyxxytkxtkvxkxxxkkkkkkxxktfvxfkyxtMktkyxkkkfqfvxxxxkkkkfkfyyfkffkkkkkkkkkkkkffffxkkkxxyqtyfffffkffyfxvxyxfqqykxkkkffyyfyffyyyyffvytfxxxxfyttfkkkyfkkfyyyffffffffkfyfvkykytykfttfffyfffytfkfytyytyyyffffyffyyffyyyfyyyyfyyyfkfytyyyyyyyyykfyyffytttyfffyyyyyyyyttyyyyyyttffyyytttttyyyttttttyyyyy7tyytqqqtyyytqttttttttttttqqqqqqqqqqqqqqqqqqq77777qttt",
"kkkkxxxxkfkvvkfkxxxxxxxkxxxxxxxxxxkkkxxxkxxxxxxxffkxxxxkxxxxxxxxxxkkkkxxkkxvxkfxfkxxfkvkkkfyfxxkkkkkkkkkkyykxxfyqtkvxyykvxkxkffkkvvffkktyfkxxxkfkfkxkffxfxxkkkfyffkkffffqykvMvkffkxvxkkxvkfkxvvvffkxxxkxkkxvxfyffkkxxxxkxvxkkxvvkkkxxkkkkxvxxkxvxkkkkxxxfxxffxvxxkkxxfyfkkkkkkkkxkvfvfxkfkxkkxxfffkkkkkkxxkfffkkkkkkkkkkkkfffkxxxkkkkxxxMxkkfyykvkxvxtyxkZktvxtfkkkkkkffyfkkxxxxkkfffffkffffffkkkkxkqtxxfxkyfftytkfxktkyyyyfkkfffyffftyfkxvxfttyxtqtqfkfffyffyyyyfffyttqyfkkfytykkkfytyfytyftykfyfkytyyykxxxkffkffffffffttfkfttyffkkkffyyyyyyyyytttyyyyyyfffyyyyyyyyyyyyfyytttyyfffytqqqttqqttttqttttqq7tttyyyyytttqqqqqttttttttqqttqqqqqqqqqqqqqqqq7777qqqq77",
"kkkkxxxxkfkvvkfkxxxxxxkkxxxxxxxxxxxxxxxxkxxxxxxxfkkxxxxkxxxxxxxxxxkkkkxxkkxvxffxfkxxykvkkkfffxxkkkkkkkkkkyykxkfyyfxxkttkxkkkkffkfxxffkkfkkfkfkkxkfkxkffxfxvvxkyqfffffffftykvvxkfkkxvxkxxxkkkxvvxfkkkkkxkkkxvxkffkkxxxxxkxxkytfkxkkkxxkxkxkxxxxxxxkkfkxxxfxkfkxvxxkkxxfffkkkkkkkkxkvfvfxkfkxkkxkfffkkkkkkkkkfkkkkkkkkkkkkkkkffkkxxkkkkxxkvkfkftyxxkkxkyfxfvkyxxykkkkkkkkkffkkxxkkkffffffkkkkkkkkxvkfq:qkkfxfyffyyykykftfyyfkkffyffyyyyyykyfffttyfq7ykfffyfffffyyyyfffyyttyffffyyyfkkfytyffyfftykfqyfkfyqqtffffyffkfffyfffyyfkfyyfffffffyyyyyyyyyyttyyyyyyyfyfyyyyyyyyyyyyfyytttyyfyyyttqqttqqtttttttttqqqttttytttttttqttqttttttttttttqqqqqqqqqqqqqqqq7777qqtq77",
"kkkkkkxxkffxvkfkxxxxkkkkxxxxxxxxxxxxxxxxkxxxxxxxffkxxxxkxxxxxxxxxxkkkkxxkkkxxkkxkkvxykvkffkkkxxfkkkkkkkkkffkxkffkxxxyqtkkfkxxkkxykxffxxkxkfyykxvkfkxkffxxvvxkkytfffkffffffkxxkkfkkxxxxxxxkkkxxxkfkkffkxkxkkxxkffkxxvvvxxxxftqtyfkkkxxxxkxkkkvvxkxkkfkxxxkkkfkxvxxkkxxkfkkkkkkkkkxkvfvfxkfkxkkxkffkkkkkkkffkkkkkkkkkkkkkkkkkkkkkxxkkkkkkkxkfkyqyxxkkfffkkykkkkkkkkkfffkkkkkkkkkkkkkfffffkkkkkkkxxxft3:qkkfxfyfffffktfftftfkvxfyyfkyttyyfxffftttyf37fxffkyyfyffyyyffffyyyfyyyyfffyfffyyyyffyfftykfytykkt7qtyffyyffffyyyyffyyyffyfkffffyyyyyyyyyyyyttyyyyyyyyyyyyyyyyyyyyyyyyyttyyyytttyytqtttqttttttttttttyttttqqqqtttttttttttttttttttqqqqqqqqqqqqqqqqq777qqtq77",
"kkkkkxxxkfkvvkfkxxxxkkkkxxxxxxxxxxxxxxxxkxxkxxxxfkkxxxxkxxxxxxxxvxkkkkxxkkkxxkkxfkvxfkvkyfkxxxkffkkkkkkkkffkkfffkxxktqyxfyfxvxxvykxkfxvxkffffkkxkkkxkffxvvkfyfkxyyffkkkkkkkkkkffkkkkkxxxxkfkxxkffxkyykxfxkkxxkffkxvvvvxxkkfytyffkkkxxxxkxkkkxvxxxkkkkxxxkkkfkxxxkkkxxkkkkkkkkkkkxkvfvfxkfkkkkkkkkkkkkkkffffkxxxxkkkkkkkkkkkkkkkkxkkkkkkkxkkkftfMkkfyykxktyxxfkvkkkfffkkxkkkkkkkfkkkffffkkkkkkkxxytttqfxkfxfyfkfkfktffyktfkxkfyfkkyttyfkxxxkytttyqqfkyfxkyyyffyyyffkffffkfyttffffffyyyyyyytyftykfxytfktqykkxxffffffyyyyfffyyffyfkfffyyytyyyyyyyyyyyyyyyyyyyyyyyytyyyyyyyyyyyttyyyytqtyftqttttttttttttttyyyytqqqqqqttyyytttttttttttttttqqqqqqqqqqqqqqqq777qqtq77",
"kkkkkkkkkffvvkfkxxxxkxxkxxxxxxxxxxxxxxxxkkkkxxxxfkkxxxxkkkkxxxxxvxxkkkxxxxkkkkxkkkvxfkvxyfkxxkkkffkkkkkkfffkkyfkfkxftykvffkxvxxvykxkkkxvyffkkkkfkkkxkfkxxkfffkxMyyffkkkkxxkkffffkkkkkxxxkkfkxxkffxkyykxkxkkkxkfkkxvvvvxkykkkkxkkkkkxxxxkkxxxkkxxxkkkkxxxxkffkxxxkxxkkxxkxxkkkkxxxkvfvfxkkkkkkkkkkkkxkkkkffkkxxxxkkkkkkkkkkkfffkkkkkkkkkkxkkxkfkZkkfyykxktyxxfkvkkkffkkkxxkkkffffkkffffkkkffffkkkyyxxyfkfykfykkkxfktfkfxffffyfkkxfyyyfffkkkfytqqqfyffyfxkyyfffyyyffkfffkkfyttyfffffyttyyfytyftykfxytfktqyfkxkffffffyyyyyyffyyyfffffyyyyyyyyyyyyyyyyyyyyyyyyyyyyytyyyyyyyyyytttttytqqtffyqttttttttyttttyyyyytqqqqqqtyyyyyttttttttttttttqqqqqqqqqqqqqqqq777qqtq77",
"kkkkkkkkkffxvkfkxxxxxxxkxxxxxxxxxxxxxxxxkkkkxxxxfkkxxxxkkkkxxxxxvxxkkkxxxxkfkxxkkkvxfkvxffkxkfkxffkkkkkkfffkfyfkyfkfyfxxkfkxvxxxfkxxkkxvyykxxkffkkkxxkkxyyfxvxxvyyffkkkkxxkkffffkkffkxxxxffkxxxkkkkkffkxvkfkkkkkkxxvvxkftkxvvvvxkkkxxxkkkxxxkkkxxkkkkxxxvkfkxxxxkxxkkxxxxxxxkkxxxkvfvfxkkkkkxkkxkkkxxxkkkkkkxxxxkkkkkkkkkkkkffkfkkxxkffkxkkxxkkMxkkfffkkykkkkxkkkkffkkkkkkkkkfffkkffffkkffffffkfxxMxtykytkfykkfkfkykkfxffyyyfkkkfyfkfyyktttqqqqqkykxffftfffffyyyffkkffkkffyyyffffytttyfffyffyykfytykkt7qtyffyyyfffyyyyyyffyyyffyyyyyyyyyyyyyyyyyyyyyfyyyyyyyyyyyyyyyyyyyyttttttttqtyffytyttttttyttttttyyyttttqqqtttyyttttttttttttttttqqqqqqqqqqqqqqqq777qqqq77",
"kkkkxxxxkfkvvkfkxxxxxxxkxxxxxxxxxxxxxxxxkkxxxxxxfkkxxxxkkkkkxxxxvvxkkxxxxxkffxxkkkvvfkvkkffkkfkvffffkkkkfffkftfxykxkfkkyxkkxxkkxkxvxfykxfffkkkffkkkxxkkxffkvvxkxyfffkkkkxkkkffkkxkffkxxxxkffkxxxxkkxxfkMvkfkkkkkfkxvvxfyykvxxxxkkkkxxkkkkkxxkkkxxkkkkxxxvkfkxxkxxvxkkxvxxxxxkkxxxkvfvfxkxkfkxkkxkkkkxxxxkkkkkkkxkkkkkkkkkkkkfffffkxxkfffxfykxkkxxkkxkyfxfvkyxxykkkkkkkfkfffkkkkkkkfffkkkkkkffkkkkkkkyfkytffykkffykfxkykyfffffyyyffkxftyktqqqqtyyfyxxytytfffffyyyffkkkfffffffyyyyfyqqtyfffyffyykfqyfkfyq7tyffyyyfffyyyyyyffftyfftyyyffffyyyyyyyyyyyyffyyyyyyyyyytyyyyyyyyyytttqqqqttyyyttyttttttytttttttttttyyttttttttttttttttttttqttqqqqqqqqqqqqqqqq7777qqqq77",
"kkkkxxxxkfkvvkfkxxxxxxxkxxxxxxxxxxxxxxxxkxxxxxxxfkkxxxxkkkkkkxxxvvxkkxxxxxkffxvkkkvvfkvxkffkfykMffffkkkkyfkkytyxfkxxxkfqvxxxxkkkxvvvkyfxkfyyyfkxkkkxxkkxvkkxxkkxfffffkffkkkkkkkkxkyykxxxxkffkxvxvfkMvfkZvkffxkkkfkxxxkfyfxxkkkkfkkkxxkkkxkfkxxxkxkkkkxxxvkfkxxkxxvxkkvvxxxxxxxxxxkvfvfxkxkfkkfkxkkkkxxxxxxkkkkkkkkkkkkkkkkkkfffffkxxkfffxytfxkffvkxvxtyxkZktvxtfkkkkkkffyyfkkkkkkkfffkkkkkkkkkxxq7tffxxyqffykkyyyxkxktftykxxftqqfkxxyqtkfytqtyfkyyxkq7yffffffyyyffkkkffffkkfyttyftqqtyffytyftykfyfkytyyyfkxkfyyfffyyyyyyffftyfyqtyffffffyyyyyyyyyyfffyyyyyyyyyytyyyyyyyyytttqq77qtyyytttyttttttytttytttqqtyyyyyyyyttttttttttttttqqttqqqqqqqqqqqqqqqq7777qqqq77",
"kkkkxxxxkkkkkkkkkkkkkkxxxxkkxvxkxxxxxxxxxxxxxxxxfkxxxxkkvvxxxxxvkkkxxxxxfkxvvxxkxxkkfkkkvkffkkkykkkkkffffkxxffkkkxkyfvvkxktyMMkxfffffkxMtyyykxvxfffkfyfkykxxxvxyxtxMyyxkxfykxkkxfkkkfkkfkfkxkyfxfkkxxkfftfxvxxxvxxxxxxxxxkkfkxxxxxxxxxxxxxvvvxkkkkkkxvvkMvykffMkfkxxxkkkkkkfffffxxxvvxftZkvfxfMfffkkkxxxkytkvxkkkxxxkffyMffkffkkxtxZyfvfxxxyxxyZkkffkkkkkkkkkkkffytqqtyfkkkkkkxxkffffkkkkfffkkkkfyykkfyfyyffkkkkfffffyyyfkkfytykkxxkyttyyfkkkyq7fffkkffyfkxkkfyfxftyyyykfyyttyffxtqykfyfqfkytykkffyytyyyffffffyyyyyyffffyttfyqtxkyyyqtfyqykfyfffyyyyyyyykkyqqyyttttttyyytyytqtttttttttttyttttttyqyfqqtytq77qtttqtyfytqqtqqqqttttqqqqqqqqqqttttqqqqqqqqqqqqq7qq",
"kkkkxxxxkkkkkkkkkkkkkkxxxxkkxvxkxxxxxxxxxxxxxxxxfkxxxxkkvvxkkxxvkkkxxxxxfkxxvxxkxxkffkkkvkffkkkykkkkkkfffkkkkkkkfxxkxvxyxktyvvfkfkkkkxxvyyyyfkxxffkkkffkkxxkkxxkxyxvyfxfkyykkfkxkxkkfkkfffkxxkfffkkxxkfftfxvxkxxxxxxxxxxxkkfkxxxxxxxxxxxxxvvvxkkkxkkxvvkZMkxfyvyfkxxxkkkkkkkkkkkxxxxvxfyZkxyxkMfkkkkkkkkkyykxxffkxkkkkkkxkxxkkkkvfxMffxfvkkfxxyvkkffkkkkkkkkkkkfkffyyfkkkkkkkkkxkffffkkkkfffkkkkfyykkffffffffkkkfkffffyyyfkkyyyffkffyyyfkfyttyfkffkffyffffkkffffxfyffyfkytqtyfffkytyffyytffytfkfffyytyyyffffffyyyyyyyyyyfkfyttyfftyytyfyqykfyfffyyyyyyyyffyqqyyttttttyyytyytqtytttttttttyttttttyqtytqttqtqqqttqqtyyytqttffytttqqqqqqqqqqqqttttqqqqqqqqqqqqq7qq",
"kkkkxxxxkkkkkkkkkkkkkxxxxxkkxvxkxxxxxxxxxxxxxxxxfkxxxxkkvvxkkxxvkkkxxxxxkkxxxxxkxxkkffkkxkkkkkkfkkkkkkffkffkkxkfykxxvvxyvktyxkyfkkxxvvxxkfffffkkkfkxkfkxxxkffkxxxfkkfkxykytfkffxkxxkkkkffkkkkxkfkkkxkkffyfxvxkxxxxxxxxxxxkkfkxxxxxxxxxxxxxxvxxkkxxkkxvxkxxfxkfMkfkkxxkkkkkkkkkkkvkfkxxkfZfkyxkMkkkkkkkkkffkxxkfkxkkkkxxvfxvvxkkfMxxxxkffMyxkkxfkkkffkkkkkkkkkkfffffffkkxkkkkkkkkkffffkkkkfffkkkkyyyfkkkkkkffffffkkkkffffyfkkffffffyyyfffyyyfffffkkkfyyfkyyyffffffyyfkffftq7tfxkfyffyyffyyyytykfyffyyyyyffffffffyyyyyyyyyfxktqfftftyfyyfyqyffyfffyyyyyyyyyytqqttttttttyyytyytqtytttttttttyttttttytttyytqqttttqqqqttyytttttqqqqtqqqqqqqqqqqqttqqqqqqqqqqqqqqq7qq",
"kkkkkxxxffkkkkkkkkkkkkkxxkkkxvxkxxxxxxxxxxxxxxxxfkxxxxkkvxxkkkxxkkkxxxxxkkxxxxxxxxkkfkkkkkkkxkkfkkkkkkffkffkxxkfykxxxxkyvxyykftykkkvvvxkxkffffffkkkxxkkxxxkffkxxxkkffxktkytfkffkkxxkfkkfxxftyxvkkkxxxkkffkxxxkkxxxxxxxxxxkkfkxxxxxxxxxxxxxxxxxkkxxkkxxxffkfvkkZkfkkxxkkkkkkkkxxxvkffkxxxZyfyxkMkxkkkkkkkfkxxxkfkxkkkkxxxyxxkxxftMvkkvxfkvtvvfkkkkkffkkkkkkkkkfffyyyffkkkkkffkkkkkfffkkxxkfffkkkkfyyfkkkkxkffyyffkkkkffffyffkffffkfyyyfyyyffkkfyykkkyttykfyttfkfffyyfkfyytttykkkftkkytffyfyyyfffyyfyyyyyyyffyyffyyyyffffkyfyttfftytfkyfkyqyffyyfffyyyyyyytttqqttttttttyyytyytqtttttttttttyttttttyyqqyfq77tyyyqqqttttttttt77qqqtttqtqqqqqqqqqtqqqqqqqqqqqqqqq7qq",
"kkkkkxxxkkfkkkkkkkkkkkkkxxkkxvxkxxxxxxxxxxxxxxxxkkxxxxkkvxkkkkxxkkkxxxxxxxxxxxxxxkkffkkxyfkxxkkfkkkkkkffffkkkkkkfkkffkkkvxyyfytfxkkxvvxkxkfkkfyfkkkxkfkxkkkxxkkkxxfykxfykytfkffxkxxkkxkkxxftyxvkkkkxxkkfkxxxxkkkxxxxxxxxxkkfkxxxxxxxxxxxxxxxxxkkxxkkkxkyxxkvkfxyffkxxkkkkkkkkxxxxkffkxvvMyffvkMkxxkkkkkkfxvxkkkkkkkxxkkkfkttxxtqvvkkvxfxkqvvykxvkkffkkkkkkkkkkkfyyfffkkkkfkkkkkkkfffkkxxkfffkkkfffyyfkxkxkffyyffffffffffffyyffkkkfyyyffyxkyttykxkkfyttfkfyttyffyyyffffyqtfkkfffftkkytyfyyfffyyyfyyyyyyyftffytffyyyyfffkkyttffytyytfkyfkyqyffyyfyffyyyyyyqqtttttttttttyyytyytttyyttttttttytttttttyqqyft7qtyyyqqqtttttttttfyyyttqqqttttqqqqqqqqqqqqqqqqqqqqqq777",
"kkkkkxxxffffkkkkkkkkkkkkxkkkxvxkxxxxxxxxxxxxxxxxkkxxxxkkxxkkkkkxkkkxxxxxxkkkkxxvxkkkfkkxtfxxxkkkkkkkkfffykxkkfkxkkffyfkxxxfyfyyxkfyfxxkfkyfkxfyfkfkkkffkkfkxxkfkxkyyxkyfkyyfkfkxkxxkkkxkfkkkkxkfkkxxxxkfxxxxxkkkxkxxxxxxxkkfkxxxxxxxxxxxxkkxxxxxvvxkkxkyxxxMkyvyfkkxxkkkkkkkkxkkkkkkkkxvvtkkvfvkkkkkkkkkkxvkfkxxkkxxxkffkk7qvxqtvkkxxkkkktvxykkMkfffkkkkkkkkkkkkkkkxxxxkffffkkkkkkffkkxxkffffkkfkkfyfkxkkkffffffffffffffkfyyfkkfyyyyfffffyytyfkkffyyyyffffyyyyyyyfffffyqykxxftyfykkytyyyfffkftyftyyyyfffqffytyfyfffyyyyykyykktqfftyfyyfyqyfyyyfyfyyytyyfqttyyttytttttyyytyytttyyttttttttytttttttyttyytqqtttttttttqqtttttttttttqqttttttqqqqqqqqqqqqqqqqqqqqq777",
"kkkkkxxxfffffkkkkfkkkkkkxxkkxvxkxxxxxxxxxxxxxxxxkkxxxxkkxxkkfkkkkkkxxxxxxxkkkxxvxxkffkkxqfxvxkkkkkkkkffffkkkkkkkffkkfffkkxffkffvky7qfkkfftyxvkfffffkfyfkxkfkkfkxkktfvfqxxfykxkkvkxxkkkxkffkxxkffkkxxxxkfvxxkkkkfkkkkkkkkxkkfkkxxxxxxxxxxxkkkkkxxvvxkkkfykxkvkfvfffkxxkkkkkkkkkkkfkvxkfxvxtxxvyxkkkkkkkkkxvxffxvxxxxxxkkkxk7tZx7yvfxMffxfxfkykxyvkkffkkkkfffkkkkkxxxxkkkkfffffkkkkkffkkxxfffffkkkkkfyykxkfffffkkkkfffffkkkfyykkfytyfkffffqtfkkfyyfyyyfkfyffkffyyytffffkfyfkkkyttykfffytyfkyyfkytyttyyffffqfkytyfyfffyyyyyffffttyfftyytyfyqyfyyyyyyyyttyffttyfyttytttttyyytyyttyyyttttttttyttttttttyyttyyttqqttyytqqqttytt77qqqtttttttttqqqqqqqqqqqqqqqqqqqqq777",
"kkkkxxxxffffffkkkkkkkkkkxxkkxxxkxxxxxxxxxxxxxxxxfkxxxxkkxxkfffkkkkkxxxxxxxkkkxxvxxkffkkxqfxvxkkkkkkkkkffkffkxxkftykxxfyfkxffkkkZkt33tkkfyqyvMkfkfyfffyyfvkyffykvkftfMyqvxffxxkxvkxxkkxxkkfkxkyfxkkxxxxkfvxxkkkffkkkkkkkkxkkfkxxxxxxxxxxxkkkkkkxxvvxkkkftvMvMftktffkxxkkkxkkkkkkkyxvvkfkvxtvvvtkkkkkkkkkkxvxffxvvvxxxkxxxxxqkZk3kvyvZyyxyMxftxxqkkkffkkkkfffkkkkkkkffffyyfffffkkkxkffkkxxfffffkkfxxkyykxkyyffkkkkkkfffkkkkfyfkkftyfkxkfyykfytttyfyttykkftfkxkfytttyffkxxfkffyyyttkyyffttfxytfkfttttyyffffqfkyqyfyfyfffkkktffq7tkkkyyyqtfyqyfyyyyyyytttyffytykfttytttttyyytyyttyyyttttttttytttttttqfftqyfyqq7qtyytqqqqyyytyyytttqqttttttqq7qqqqqqqqqqqqqqqqqq777",
"kkkkkkkkfkkxxkkffxkfxxfxkkkxxxxxxxxxxxxxxxxxxxxxxxxkkkkkxffxxffxkkkkxxxxvvxkkkxxffkxkkkfffkkfqyxffkfyffxffkkkkkkffkxxkfkkkfkkkkkMfyfxvkffyfxxffxfytyfkkkytyfxvxxxytkkfkMkffxMvkfkfffkkxxxkytyxxkxkffkkxxvkffkxxxxxxxxxxkffkxxxxxxxxxxkkkxxxxxxxxkxxxxxkkxkkkxkfyfvZvxxftykvvxxxkxxxxxxxkkkkkkkkxkkkxxvMZvxkfffkkxxkkxxkfxfkxkxxfxvfxvfkxfkkkkkxvyykvxfkMkfxvkfxxkkkkkkkkkkkkkkkkkkkkkfffykykfykfkyyxxyykkkkfffffffffffffq3qkxttfyyyfffyqtfkxkfkkkyykfyykkq37fvxf7yffyyyyffyyfkkyftykktqtfkffyytqfytfftqqft73qkkfkfytyyfffxf7qkxfq7qyffyftfftqtyytfkkytttkfyttyyyyqtt7qytqqqtttttyttttttyttttttttttttttttttttttttyqqtytttqqqqttttqqqqq7q7t7337qqqqqqqqqqqqqqqqq",
"kkkkkkkkfkkxxkkffxkfxkfxkkkxxxxxxxxxxxxxxxxxxxxxxxxkkkkkxkkxxkkxxxxxxxxxvvxkkkxxffkxkkkfkxxxkyfxfkxkffkxffkkkkkkffkxxkfkkkkkkkkkvkffkkkxfyfxxffxyyyfxxkfyyyfxvxkkyykkfkxxffkkfyykfffkkxxxkytyxxkxkffkkxxxkffkxxxxxxxxxxkffkxxxxxxxxxxkkkxxxxxxxxkxxxxxkkxxkkxkfffxMvvxfyfkvvxkxxxxxxxxxkkkkkkkkxkfyfkxxxvxkffkkkxxkkxxkfxfkxkkxfkvfxvfkxkkkkkkkxffkxxkkxfykvfykkkkkkkkkkkkkkkkkkkkkkkkkfykykkyxfkyyxxyykkkkkffffffffffffyyyfkffffyyyfytqyfkxkffkkyyyyyfkftqtfkkfqyfyyyytyffyfkffyyffyqqtfkfyttq7yfkkfqtff77kxytfkfyyyfkffft7qffqyttyffyytfkyqtyt7qyytqqttyyttqtyytyyqqytttttttttyttttttyttttttttttttttttttttttttyqqtytttqqqqtttqqqqqqqqqtq737qqqqqqqqqqqqqqqqq",
"kkkkkkkkfkkxxkkffxkfxxfxkkkxxxxxxxxxxxxxxxxxxxxxxxxxxkkkxvxxkxxkxxxvvvvvvvxxkkxxffkxxkkkkxvkffkkkxxxkkxvfffkkkkkffkxxkfkkkkkkkkkxkffffkvfyfvvffkttfkvxfyyyyfxxkkfffkkkffvkfyyttykffffkkkxkytfxxkxkffkkxxxkkkkxxxxxxxxxxkfkkxxxxxxxxxxxkkxxxxxxxxkxxxxxkkxxkkkkkfkkxMvkkkkkxxkkkxxxkxxxxkkkkkkkkkkfyykkkfxxkkffkkxxkkxxkkxfkxkkxkkvfxvfkxkkkkkfkkxffkxxkkytfxfyffkkkkkkkkkkkkkkkkkkkkkkkkfxfxkyxfkffkkyfkkkkkkffffffffffffkkffkkfytttfffyyfkkfyfffftqtfffyyyyyyffyfyyyyyqyfffyfffykkyqqtyfffytyytyyfffyyfyqtxxtqffyyyfkkkyt7qyfyqkfttyffttfkyttyy7qyytqtt3qyyqqqyytyyqqytyyttyyytyttttttyttttttttttttttttttttttttytqtytttqqqqttqqqqqqqqqqtq77qtqqqqqqqqqqqqqqqq",
"kkkkkkkkfkkxxkkffxkfxxfxkkkkxxxxxxxxxxxxxxxxxxxxxxxxkkkkxvvkkvvkxxxxxxxxvxxxkkkkffkxxxkkykkyyffyfkxxkkkxffkkkkkkffkxxkfkkkkkkkkkxkfkkfkxfyfvvkffyyfkxxkfffffxxkfyfkkkxftxkffytyfkffffkkkxkfyfkxkxkfffkxxxkkkkxxxkxxxxxxkkkkkxkxxxxxxxxkkxxxxxxxxkxxxxxxxvxkkkkkkkfkvvkkvxkkkkkkxxxkxxxxkkkkkkkkkkkfkxxxkxkkkkkkkxxkkkkkkkfxxfkvxkvfkvfkkkkkkkfkkkkkkkkkxftkxfykkkkkkkkkkkkkkkkkkkkkkkkkkkvfxkyxffffkkffkkkkkkfffffffffffyffffkkffytyfkkkfkkfyyyyfft7qkkyyyffyyyykfytyytqyffffffyykfq7tytfffyyfkkktqtfkytykkttffffyyyfffftqqykfyyyyqqtffqtyffyyffyffyytttqtyytqtyftyyqtyyyyyyyyyytttttttttttttttttttttttttttttttttttttttttqttttqqqqqqqtttytqqttqqqqqqqqqqqqqqqq",
"xxxxxxkkfkkxxkkffxkfxxfxkkkkxxxxxxxxxxxxxxxxxxxxxxxxxxxxkvvkkvvkkkkkkkxxxxxxxkkkfkkxxkkkfkkyykftyfkxkffkfffkkkkkffkvxkkkkkkkkkkkkffkxkffkffxvkffkfyfkxxkkffkxxfyyfkkkkftkkkxkkkxkffffkkkkxkffkkkxkfffkkxkkxxxkkkkxxxxxxxkkkkkkxxxxxxxxxkxxxxxxxxxxxxxxxxxxxkkkkxkfkvvkkMxffkxkkxxxxxxxkkkkkkxkkkykxxkkkxkkkkkkkxxxkkkkxxkfxvfkvxfMfkvkxkkkfkkkkkfkxkfkxvkyxvkfkkkkkkkkkkkkkkkkkkkkkkkkkkkvfxkyxffkkffkkfkkkkkffffffffffftqtkxytfxkyyfffyffffyyyyyyt7tkkyfyyfffttkytyfytqfffyfkftfky7qyftfffyyfkkkfytyytqyxktqfkkyyyyffyyttykkttfttttyfyqtyyffyyyffyyytttkfyyyyyyftyyqtfyyyyyyyyyttttttttttttttttttttttttttttttttttttttttttttqqqqqqqqttttytttttq7qqqqqqqqqqqqqq",
"xxxxxkkkfkkxxkkffxkfxxfxkkkkkxxxxxxxxxxxxxxxxxxxxxxxxxxxkxxkkxxkkkkkkkkkxxxxxkkkfkxxxxkkxxkkkxkytfkxkffffffkkkkkfkkxxkkxkkkkkkxxkffxvxfyxfyxxkkkkfyykxxxkkfkkkfyffffkkffkfkxvxkxkffffkkkkxxffkkfxkfffkkxkxxxxkkkkkxxxxxxxxkkkkkxxxxxxxxkxxxxxxxxxxxkxxxxxxxxkkkxkkkxxkxMxfykvxkkxxxxxxxkkkkkxkkftfxxfffkkkkkkkxxkxxkkkxvffvvffvvyMkkvkxkffffkkkffkxkyfxMkfxvkfkkkkkkkkkkkkkkkkkkfkkkkkkkfxfkkykffkkyykkfkkkkkffffffffffft3qxxttkytttyfffffffffyyyyttyffyfyyyffyqkytyfyttkkfyyffyfyq7tfytkkfytyfyyxvfq7qyfyykfyyxyyyyfyytyyfky7qfttykkyqqffyfytqtytqqqtttxkfyyyyyytyyqqytyyyyyyytttttqtttttttttttttttttttttttttttqtytttttttttqqqqqqqqqqtqytqqttqqqqqqqqqqqqqqqq",
"kxxxxxxxfkkxxkkffxkfxxfxfkkkkxkkxxxxxxxxxxxxxxxxxxxxxxxxxkkkkffkkkkkkkxxkxxxxxkffkxxxxkkvkfkvxffyfxxkfffffkkkkkkkkxvxkkxkkkkkxxxffkxxkffvfyfxkxvkffkxvxkkkfkkkfykytfkffkxffkxkffffyffkkkkxxkkkkfxkfffkxxkxvvxkfkkkkkxxxxxxxkkkkkxxxxxxxkxxxxxxxxxxkkkxxxkxxxxkkxkxxkkxvvxyyxZvkkxxxxxxxkkkxxkkkfykxxkfffffkkkkkxkkxkkkxvffvvffvMyMfkvkxkkkfkkkfykxxfykxxfykvffkkkkkkkkkkkkkkkkkkkkkkkkkfykyfftkffkkyykkykkkkffffffffffffytykkffkqqqtykkfyyffkkfyttyfkfyyfyyyffytyttfkyttfxxfqtykytqtyyyykkfttyytqyfyqtfkytykkffkyyyfffytyyfytqtfq7txxtqykfyyyqqtyt77tyytfffytttyyqtt7qttttttttttttttqqttttttttttttttttttttttttttqyytqtttqqttttttqqqqqqqqtq77qtqqqqqqqqqq777qqq",
"xxxxxxxxfkkxxkkffxkfxxfxffkkkkkkxxxxxxxxxxxxxxxxxxxxxxxxxffkkyykxxxxxxxxkxxxxxkffkxxxxkkxytkxfyyykxvxkkkffkkkkkkkkxvxkkxkkkkxxxxffkxkyfxMftfkkxMyfkxMvxfkkfkkkfyktqfkyfvvfyffftqffyyfkkkkxxkkkkfxkfffkxxfxvvxkffkkkkxxxxvxxkkkkkxxxxxxxkxxxxxxxxxxkkkxxvkxvvxkkxkvvffxvxxyyvZMxkxxxxxxxkkkkxxkkfxvvMMvkfffkkxxxxkkxkfkxvffMMffvMyMkkvxxkxkkkkkftxxkyfxxkftkxyyffkkkkkkkkkkkkkkkkkkkkkffftftfytkfyxkttkxykkkkfffffffffffffkxfkxxfkfyyyyyqyyfkkkffqqyxxytfyyyyyyyytqtfkytyyxMf77yxtqqyfttffkfyyffy33:3yvvfqkkqtxvfttyfkkfytyyttykx7:qxkqqkkytyyttyxftqyfyttyfytqqttqtt77tqqqqtttttttttqqttttttttttttttttttttttttttqyytqtttqqttttttqqqqqqq7tq737qtqqqqqqqqq7777qq",
"kkkkkkkkkkxkffkkkkkkkkkkkkkkkkkkkkkkkkkkxxxxxxxxxxxxxxxxxtvxft#7xxxxxxxxxxkkkkkkkxxkffkxvq7fvktykxkfyykxvkkvxtyMxkfyfxxkkkfkxvvxxkfyyfxvkfffkxxxkkkkxxvMktkxykvfyxxyqfxxfkxkkkxvvkfffkxxxffkxkyqyvvkxvftkxxxxxxxkxxxxxxxvvvxffffkffxxxkxxkkxxxkkxxxxxxxxxxxxxxxvvxkfkvMxkffxxkffxxxxkkkkkfxxffxkxkkkkkkkvxyyxxfkkfyfxvvvkfvvykvyvfZfyvyqtfkxxkkxfyMMyyvxffvvffxxkkxvxyyfkkkxxxxxkkkkkkkkfffffffkkkkfffffffffffkkkkkfffyyxkkfyyyf7yfttffqfffkfttfxfyfkyyfyffkkkfytyfytyfxxkfqqfkffxq-qytkkkkkfft7ykMktfxyffffffffyttyfkfftyytttyt3ykt7tfftyfyqqyf7yftqtfyxfyyyttytfytytqtfyqqtyyyytttyyttqyfytttqttttyyt777tyqqtqtttttttttttttqqqqttttttyttyyyyttttqq7qqq777777",
"kkkkkkkkfkxkffkkkkkkkkkkkkkkkkkkkkkkkkkkxxxxxxxxxxxxxxxxvyvvky3yxxxxxxxxxkkkkkkkkxxkffkxxytkxfykvfyfkkfkkfkxkyfxxkfyfxxfkytykxkfffkkkkkkkkkkkkxxfffffkxxkyfkfkxfyxxytykkfkxxkkxvxkfffkxxxffkxkyqfvvkxxfykxxxxxxxxxxxxxxxxxxxkfkkkffxxxkxxkkxxxkkxxxxxxxxxxxxxxxvvxkfkvvxkfkxxkfkxxxxkkkkffxvkkvxxxkkkkkkxxyyxxffxkkkxxxkfyxxyxMkvfMftvftyfkkkkkkfkvvfyxxffvvffxxkfkxkyyfkkkkkkkkkkkkkkkkffffffffkkkfffffffffffkkkkkkkkkkyyffffyttffyykkykfffyttffyyfkffkkkyyyyyyyyfytyfxxkfqtffffkq7kxfftfkfffy7ykxktfxyffffffffyyyffffytyfytyyy7ykytyfftyyyqqykyytqtyytfytyyttytfytytqtfytqtyyyytttyyttqyfytttqttttyytq77yyqqtqttttttttttttttqqtttttttttttttqqqqq7777qq777777",
"kkkkkkkkkkxkffkkkkkkkkkkkkkkkkkkxxkkkkkkxxxxxxxxxxxxxxxxMkvvxkyxxxxxxxxxxxkkkkkkkxxkfffxkkkkfyfxZyqfvxfftfkkkffkxkfyfxkfxytykxkyffxxxkfyykxxkfkxyyyyffkxkkyyxxkkfxvftykffkxxkkxvxkfffkkxkkfkxkftfMvkkkfkkxxxxxxxxkxxxxkkkkxxxkkkkffxxxkxxkkxxxkkxxxxxxxxxxxxkxxxxxffkxxkkfkxxkfkkkkkxkkkffxvkkvxxxkkkkkkxxfyxxffkkxxxkkkffxxfxvkxkvftxkfffffkkkkfxxkkffxffxxyfxxkfffkfyfffffffkkkkkkkkkkkkffffffkkkkkfffffffffkkfffkkkkktyfffytqfkkyyxxkkffytqtytffffkkkkkfytyyyffyyyyfkkkfttffyffttvvyqqykkfytqkykkyfkyffffffffyyfkfyytqyfyyfffyyfffffkyyytqtyfxyqtyytqtttyyttytfytytqyyytttyyyytttyyttqyyytttqttttyytq77yfqqytttttttttttttttqqtttqqqqqttqq77777733777q777777",
"kkkkkkkkkkxkffkkkkkkkkkkkkkkkkkkxxxkkkkkxxxxxxxxxxxxxxxxvxxkkxxvxxxxxxxxxxkkkkkkkxxkfffkkxvkffxvMyqkvkyf7ykfkkkykkffkxkfvkffxvxkkkkkkkkftkvvfyfvyyyffkxxkxttvvfxkvvfyyfffkxxkkxvxkkfkkkkkkkfkkftfMvkkkfxkxxkxxxxxxxxxxkkfkxxxxxxkffxxxkxxkkxvxkxxxxxxxxxxxxxxxxxkkfffxxfkkxxxkkkkkkkxxxxkfxvffxxxxkkkkkkxxffxxfffkxxxkkkkxxxkkkkxkxftkxkkfyfkkkkyvxfxfyxkfxxyfxxkfyyffffffffffffkkkkkkkkkkkkkkkkkkkkkfffffffffkkfffffffyyyyyytttkkkffkkkfffyyyyytkxfyffyyfkkkffyffyyyyffkkyyyffyffttffq3ykxkyqtqktyxfyfyffffffyytfkkfyttqyfffkkfkffkkffkkyttyffykt7yfyqqytyffytyyfytyyqyyytttyyyytttyyttqyyttttttttttttt77yfqqytttttttttttttttqqttqqqqqqqqq7777q777777qq777777",
"kkkkkkkkkkxkffkkkkkkkkkkxxkkxxxxxxkkkkkkxxxxxxxxxxxxxxxxkxfffkvxxxxxxxxxxxxxkkkkkxxkffkkxxxkfkxvxyyvxttx7ykffxkykkkfkxkyxxxkkkxvkkkkkkkftkvvfyfxkkkkkxvvkxttvvfxkxxkyfyykkxxkkxvxkkkkkkkkxkffkkykMvkkfkvkkkkxxxxkkxxxxkxyfxvvxxkkffxxxkxxkkxvxkxxxxxxxxxxxkkkkxxkkkffkkfkxxxkkkkkkkkxxxxvkxxyykkxxxkkkkxxvkfxxfkfkxxxkffkxxxxkfkkkxktyvxxkfykkkkyvxfxftxkfkxyfxkkfyyfkkfyyffffffkkkkkkkkkkkkkkkkkkkkkfffffffffkkfffffyffkfyttyfkfffkkfyyyyffkkfftkxfyffyyfkkkfyyffyyyfffffyffffyfytt7qqqfxxyq7qtkqtkfyffffffffyyyfkkytttqyfffkkfkffkxkffxyqtfkftyqqfkyqtfyfkfyyyyfttyytytyyyyyyyytttyttqqtyttttttttqqttt77yfqtytttttttttttttttttttqqqqqqqqqqqqqtttqqq7qq777777",
"kkkkkkkkkkxkffkkkkkkkkkkxkkkxxxxxxxkxkkkxxxxxxxxxxxxxxxxfxyyffvfxxxxxxxxxxxxxkkkkxxkfffkxkkxkfkvkfkxktyvtfkfkxkykxkkxxkyfkkfyykvfkxxxkfyyfxxffkxkkkkxxvMkkyykxkkkxxkffffkxxxkkkxxxkkkkkfkxkyykxfkvxkkkfvkkkkxxxxkkxxxxxkyfxxxxkkkffxxxkxxkkxvxkxxxxxxxxxxkkkkxxxkxxkkxkfkxvxfkkkkkkkxxxxvkxktykkxxxkkkxxxvkfxxkxxxxxkfyykxkkvkfvfxkxytvxxkkfkkkkyxxkkfyxkfkxffkfkkfffkkkffffffffkkkkkkkkkkkkkkkkkkkkkfffffffffkkyfffkkkkkfyttfxMfyfkktqttyfkxxkytyfffffykkkytqtyffyyyyfkfyyfkfffyqyy73ykykft77tffqykfyffffffffyyyyyyyyyytyfffkkfffffffyykyqtfkyq7qtffyttkffkfytyyfttyytftyyfyyyyytttyytqqtytqttttttqqqtt77yfttytttttttttttyttttttttqtqqqqqqqtttttttqqqqqqq77q7",
"kkkkkkkkfkxkfffkkkkkkkkkxxkkkxxxxxxxxxxkxxxxxxxxxxxxxxxxfMfffkMyxxxxxxxxxxxxxkkkkxxkffkxxfkvxyfvxkffkffkkkkkkkkfkxkkxxkyffffyykvfkkkkkkkfffffkkxffffkxxvkyfffkxfkkkxkkffkxxxkkkxxxkkxkkfxvkyykxfxvkkxkfvkkxxxxxxxxxxxxkxfkxxxxkxkffxxxkxxkkxvxxxxxxxxxxxkkkkkxxxkxxxxxxkkvvkffkkkkxxkkkkkfxxffxxxxxxkkxxxvfykkkvvxkkkkytkvkkMkyvfxkvyqvxxxxkkfkkyfvvyykkkfxxffkyfxxffkxkffffkkkkkkkkkkkkkkkkkkkkkkkkffffffffffkkfffffkkkkffffkkxftykkttftyffkxkyfyyfkyyykkkytqtyyyfyyyfxytykxfyftqfkqqkxfkkytyfkytfkyyfffffffyytfytttyffyfkfyffftfkyyfyqtttyyytq7qttyfyyfyyyyttyyftqyytftyffyytyytttyyttqttqqtyttttq7qtyq7yfttytttttttttttttyttttttttttttttttttqqqq777qqqqqqqq",
"kkkkkkkkfkxkfffkkkkkkkkkxxxxxxxxxxxxxxxxxxxxxxxxxxxxxxxxkZkkxkMtxxxxxxxxxxxxxkkkkxxkffkxkykMxqyMMkttkvkyvxkkkkkkkxxkxxkykkkfkxvvxkfyyfxvkfyfkxxkyyyyfkkxftfxyfxyffkxxkkkkxxxffkxxxkxxkkfxvxyykxkxvkkxxkvkxxxxxxxxxxxxxxxkkxxxkkkkffxxxkxvkkxvxxxxxxxxxxxkkkkkkxxkxvvxxxkkvvkffkkxxkxkkkkttxvxxMvxxxkkxxxxvfykkxMvkffkxfyxMxkMktvfxkMy7vxkxxxkfkkyyvMttxkkfxvffftfxvkfkxkkkkkkkkkkkkkkkkkkkkkkkkkkkkkffffffffffkkffffyyyfkkxxkfyykttkkyyxyfyyfxkyxyykkyqtykxxfyyytyfytyfxttykxffft7kvtqkkkxxkffkxttffttffyffffyytkyq7tykkfkfyyfffqfktqyy73qfyt7qtqttqtfkyyttttqqtyftqyytfqyffyttyytttyyttqttqqtyttttq77ty77yfttyttttttttttytyytttttttttttytyttqq77733377qqqqqqq",
"xxxxxxxxkkkkkkkkkkkkkkkkxxxxxxxxxxxxxxxxkkkkkxxxxxxxxxxkkvfxxkvkkkkkkkkkvvxfykxkvvvxxxxxvxxkykvkkkfkvkfvxkxxkkxkfffxvvkfkkkkkkkkxMvfykxkyfkfkkkfyyyfkxxxkkkfkvxfffkxxffkkkkfxvxyxkfkkfkxxxxxxxxxxxkkfkkkxxxxxxxxkkkkkkkkkxvvxxxxxxxxxxxxkkkxxxkkkkkxxxxxxxxxkkxvkkkkkkkkxxkkkkkkkxxxkxvMqfxxkxxkxkkkkxvvxfkvvxkkkkkkxxkkkxkfkxkyqZkfktkvxxytxMxkfkkkkffkxMvfqtxMkykvfyfkkkkkkkkkkkkkkkkkkkkkkkkkkkffkkkkyyyyfkkffytyfkxktyfkfyttyfkxxkffftfkfkvxxq7qtykykkfyyfyqffkkffffkffffffy7ffq7fxfkkxkkftqyfffytttyyytqqfvkkkfffffffyffkkffyyq77tyyyyyyffkyyyttqqqfffyttttyyyyyyttt7tytykfffyqq77777qqqtttqyyqqyytqtyytttttttttttttttttqqttqqqqtttttttqqqqq77qqtqqqq77qy",
"xxxxkkxkkkkkkkkkkkkkkkkkxxxxxxxxxxxxxxxxkkkkxxxxxxxxxxxkkvfxxkvkkkkkkkkkvvxffkxxvvvxxxxxvkxkykvkkkfkvkfvkfkxfkxfkkkxvvxkkkkkkkkkxxxffxxkyfkfkkkfyyffkxxxkkkfkvxfffkxxffkkkkfkxkyxkfkkfkxkkxxxxxxxxkkffkkxxxxxxxxkkkkkkkkkxxvxxxxxxxxxxxxkkkxxkkkkkxxxxxxxxxxxxxkkkkkkkkkxxkkkkxkxxxxxxkkfxxffvvfxkkkkxvvxfkxvxkkkkkkxxxxkkkkkxkyqZkfktxvxxytxMxkfkkkkkkkfvvkfkvvfykvkfkkkkkkkkkkkkkkkkkkkkkkkkkkkkffkkkkfyyyfkkfkfyyffkfyyfffyfffffkkkfyftfxffkfkqqyyfkffkfyyyyyffkkffffyffkkftqyfy7qfkfffffyyyffyyfkfytyqqtyfkkfkffffffffyffffyyyytttyffyytqqqqffyfyfffyfyyttttyyyyyytttqtytyfttttqqq7qttyyyyyyqyyqqyytqtyyttttttttttttttttqqqtqqqqqtttttttqqqq777qqtqqqq37qt",
"xxxxkkkkkkkkkkkkkkkkkkkkxxxxxxxxxxxxxxxxkkkkkxxxxxxxxxxkkvfxxkvkxxxxxxxxvvxkkxvxvxxxxxxkxkxkfkvkfkffxkfxkykkffkfxxkxvMvvkkkkkkkkxffkxxxxyfkfkkkfyfffkkxxkkkkkvxfffkxxkfkfkffyfkfxkkkkkkxkkkkkkkkxxkkkkkkxxxxxxxxkkkkkkkkkxvvxxxxxxxxxxxxkkkxxxkkkxxxxxxxxkkxvvxfkkkkkkkkxxkkkkxxxxkkxxfyxvxyfMvfkkkkxxxxkkkxvkkkkkkkxxxxkkkkkxkfyMkfkykxxxytxvxkfkkkkkkkyxvxxMMxfykvkfxxkkkkkkkkkkkkkkkkkkkkkkkkkkffkkkkffyfffffkkkffyyfffyyyfkxkfyyffyyfyfxfyftftfxffkfykkftyyyffkkffyftyfxxft7xfqqtkkfyyyytyfxfyyfxxkytq7tkxkyffffffffffyfffyttyyyyyffffyyttttffyyyyytytttyyytyytttyyyytyftttq7qqqqqqqqqqttttqqyyqqyytqtyyttttttttttttttttqqqqtqqqqtttttttqqqq777qqtqqq777qt",
"xxxxkkkkkkkkkkkkkkkkkkkkxxxxxxxxxxxxxxxxkkkkkxxxxxxxxxxkkvkxxkvkxxxxxxxxxxxxxvvvxxxxxkkkkfxxfxvkfkffxkfxkfkxfkxfxkffxvvvkkkkkkkkxyykvvxvyfkfkkkffffkkkkkkkkkxxxfffkxxkfkfkkfffkkxkkkkkkxffkkkkkkkkkkkkkkxxxxxxxxkkkkkkkkkxxvxxxxxxxxxxxxkkkxxxkkkxxxxxxxxkkxxxxkkkkkkkkkxxkkkkxxxxkxxxkfvxkfkxxxkkkkxxxxkkkxxxkkkkkkxxxxkkkkkkkffkkkkfkxkxfyxvkkkkkkkkkxyxvkkvvkyyxvkkvxkkkkkkkkkkkkkkkkkkkkkkkkkkffkkkkffffffffkkxkfyyfyyffffkxfytyyffykyfxfyftfykxfyfyfkkytyffffkffyyyfffkkftqxt7tfkfkfyttyffkfyyfkkfy7qtykxkyffffffffyyyffytqtyyyyyttyyyyffkkyyyytttttqqtyytyyytttyyfytyfttt77qttttttyyyfffyyqyyqqyytqtyytttttttttttttttqqqqqtqqqqtttttttqqqqq77qqtqqqq37qt",
"xxkkkkkkkkkkkkkkkkkkkkkkxxxxxxxxxxxxkxxxkkkkxxxxxxxxxxkkkvkxxkvkxxxxxxxxkkxvvvvvxxxkkkkkffxxkxvfykfykkfkxfxxkkvkkytyfkkkkkkkkkkkxyykvvxvyfkfkkkfkkkkkkkkkkfkxxkkyfkxxkkxkxxkffkvxkfkkfkxffkkkkkkkkkkkkkkxxxxkkkkkkkkkkkkkxxxxkkkxxxxxxxxkkkkxxxkkxxxxxxxkxxxkkxvkkkkkkkkxxkkkkxxxxxxkkxvxyfvvyfMkkfkxxxkkxxkkkkkkkkkxxxxxkkkkkkkkfkkkxkkkxfyxvkkkkkkkkxxyvvyqfkkffxxfkvxkkkkkkkkkkkkfffkkkkkkkkkkkkffffffffffffffkkkfyffqtfkkffyyyyfkkffxyfkyyffkykxytyykkftyffyffffyyyyxkffffyyyqqkxkfxxfyyffytyyyyyyyy3yxkyyyffffyffyyyyyyfytqttyffytttttyyyyfqttyfkkkqqqtyttyyytttyyfyqyfttyqttyyyyttyyyfffyyqyyqqyytqttttttttttttttttttqqqqqtqqqqtttttqqqqqqq77qttqqt777qy",
"xxkkkkkkkkkkkkkkkkkkkkkkxxxkxxxxxxxxkxxxkkkkxxxxxxxxxxkkkvkxxkvkxxxxxxxxffkvvvxvkkkkkkkfyykxkxvfykfykkfkxkxvkxvxyttyfkffkkkkkkkkxffkxxxxyfkffkkfkkkkkkkkxffkxkkkyykxxkkxxkxxkfkvxkfkkkkxkkkkkkkkfkkkxkkkxxxxkkkkkkkkkkkkkkxxxkkkxxxxxxxxkkkxxxxkkxxxxxxxxxxxffxvkkkkkkkkxxkkkkkkxxvxkkvMkyfMvyyMkkkkxxxkkxxkfkxxkkkkkxxxxkkxkfkxvtkkkvkfkxfyxvkkkkkkkkxvyvxq3ykkkfxxykvkkkkkkkkkkkkkffffkkkkkkkkkkkkffffffkfffffffkkffkk7tfxkftqtyfkkkkfxffkyykkkyfktqyykfytykkyffffyyyyxkfyyfff77yxvkfkxkyykftqyyfyttty7kMkq7yfffyyyfyyfyyyyytqttyfffyyyyyyttqqyyyyffffqqtyyqqyyytttyyytqtyttyqtyyfyyttqqqtttttqyyqqyytqtttttttttttttttttqqqqqqtqqqqtttttqqqqqqq77qttqqq777qy",
"kkkkkkkkkkkkkkkkkkkkkkkkkkkkkkkkkkkkkkkkkkkkxxxxxxxxxkkkkvkxxkvkxxxxxxxxyyfvvxkxkkkkfffftykxkxvftkfyfkfkxfxxkkvkyyyfkkfykkkkkkkkxxxffxxkyfkfkkkfxkkkkkkfxfykxkkkyffxxkkxkfkxxffxxkfkkkkxkkxxxxxxffkkxxxxxxxxkkkkkkkkkkkkkkxxxkkkxxxxxxxxkkkkxxxkkkkkxxxxxxxxkkxxkkkkkkkkxxkkkkkkxxxxxxxxxkxvxkkxkkkkxxkkkxxffkxxkkkkkkxxxkkxkfkvM7kxkMkfkxkfxxkkkkkkkkxvtxkqqkvfkkxktfxkkkkkkkkkkkkfffffkkkkkkkkkkkkffyyffkfffffkffffkkktyfkfytttfkxkfffxyfkyyffftykyyfykkftyfkffffyttyyffyyffff37yxvxffffffyyttyyyyffffyxvy7qyffyyyyyyyfyyyyytttttyffytyfffyyttffyyttqqqqyky7qfyyyyyyttt7ttqqyqtttytttqyyyfffffqyyqqyytqqtttttttttttttttqqqqqqqqqqqqqttttqqqqqq777qttqqqq77qt",
"kkkkkkkkkkkkkkkkkkkkkkkkkkkkkkkkkkkkkkkkkkkkxxxxxxxxxkkkkvkxxkvkxxxxxxxxttfxvxkxkkkffffftykvxvvftkftfkffkfkxfkxffffkxxkfkkkkkkkkxMvfykxkyfkfkkkfxxxkkkffxfykxkkkyyfxxkkxkyfkkfyfxkfkkfkxxxxxxxxxffkkxxxxxxxkkkkkkkkkkkkkkkxxxkkkxxxxxxxxkkkkxxxkkkkkxxxxxkkxvvxfkkkkkkkkxxkkkkxxxkkxxxkfxMvfkMvykkkkxxkkkvxffkxxkkkkkkxkxkkxkfkvM7kxkMkykxkfxxkkkkkkkkxvqfftfMZkxxxfqyxfkkkkkkkkkkkfffffkkkkkkkkkkkkffyyyffffyfkkfyyfkkkffffyttyykxkftyfxyfkytytyqykffkffkkytykkfffytttytyyfkkyt3qykxxfttyfftqyffytykxkfkxkq7yfyyyyyyyyyfyyyyyytytttytq7qttyyfffqtttyyffttfky77fyyyyyyttt7qq7qt7qqqqqqqq7qqtttttqyyqqyytqqtttttttttttttttqqqqqqqqqqqqqttttqqqqqq777qttqqtq77qt",
"xfxffkyfkkkkkkkkkkkkxxxxkkkkkkkkfkvxffkxkfkxfkvkxxxxxxxxkkkxxxxxkxxxxxxxkxxvxxkkykxkfykxtttkvMvk-tkffMZvfxytkvfykkxkffkxfffkkxxvxvvkyyfxxfyyfxvvftxxxktfyfffyykxfkxvkykMkfytfxxykffxvxfyxkffkxkfffkvxyfvkxvvxkkkvxxkxxxxfxxfyfkkxxxkkkkkkxxxxxxxxxxxkkxxxxxxxxxkkkkxxxxxxxxxxxkkfkkkkkxvxfvMfkvfkkxxkyfkxxxxxxxxfMkxvfkkkkkkkkkkkkkkkkkkkkkkkkffxkxxkfkvftvMyfkqfkfyyxvvkkkkkkkkffkkkkfkfffkfffyxvxyykvxkvktyyfvkffkfyttyffkkfyykfffffkkkkfytyfkffxvxyttfktqkkqtkffkkftq3fvfqqyyytfkyfkyqfkytyytttyffyq77777qyffffytykfy7tyyfxf77ttqqykkvytkkttfttqtyyyy37tffffyytq7qttqqfkyqtytfyqqqttttttttttyyttttttyttttttttqqqtttttyt77qttttttqqqttqqqqttq7qqq777qqqqqq77",
"xfxffkyfkkkkkkkkkkkkxxxxkkkkkkkkfkxxkfkxkfkxfkvkxxxxxxxxkkkxxxxxkxxxxxxxxxxxxxkkfkkkffkkyyyfvvxkyxvxkkkfkxfqykkxfkxkffkxffffkxxvkxxkyykvxfyykxxx73ykkkqykxkfytyffkxxkfkMykxfyfkxkyykvvfyxkffkxkfffkvxffvxxxxxkkxvxxkxxxxkxxkyfkkxxxkkkkkkxxxxxxxxxxxkkxxxxxxxxxkkkkxxxxxxxxxxxkkkkxkkkxxxkxvkxxkkkxxkyfkxxxxxxxxfMkxvfkkkkkkkkkkkkkkkkkkkkkkkkffxkxxkfkvfyxvffktyfkkkxxkkkkkkkkkffkkkkfkffffffffkxkffkxkykytfxxvfffkkyyyfffkffffffffffffyfffyykxkkkfytqtfktqkkykxyyxktqykxkytfyqytfkyfkyqfkytyfffyyyyytqffyttyytyytttfytqtfxxyq3tffytyfytqykktqtqq7qtyyyyq77qtytttttyyyytttttyytfyqqqttttttttttyyttttttyttttttttqqqtttttqqtqqqtttttqqqttqqqqttq7qqq777qqqqq77q",
"xfxffkyfkkkkkkkkkkkkkkkkkkkkkkkkkkxkkfkxkfkxfkvkxxxxxxxxkkxxxxxxkxxxxxxxxxxkkkkxkfffkkkfkfffxxxkvMMvkfyyfxftyffxfkkkffkxffffkkxvfkkfffxMkkfkxxkkyqkxvvttkxkfytyffkxxkfkvykxfyykxxfykMvkyxkffkxkfffkvxffxxxkkkxxxvxkkxxxxkxxkffkxxxxxxkkkkxxxxxxxxxxxkkxxxxxxxxxkkkkxxxxxxxxxxxxkkxxkkkxxxvkkvxkkkkkxkffxxxxxxxxxfMkxvfkkkkkkkkkkkkkkkkkkkkkkkkkkxkxxkfkvffxvffkyyfkkkxxkkkkkkkkkfffkkkffkfkkkkkkkffkkffkyfttxvfyyyfkkfyyfffffkkkfffffyyytyffffkkxkftqqqtkktqfkkvxttxkqqkxxfttfyqfyfkyfkytffttfkkkfyyyyttfkfyyfkfffytyffykytyq:7ffxxkyyyt3qtyytqqyttttttqky73qttqttyfffffy77tffttyytqttttttttttttyttttttyttttttttttqttttt7qttq7qttttqqqttqqqqqqq7qq7777qqqq7777",
"xfxffkyfkkkkkkkkkkkkkkkkkkkkkkkkkkkkkkkkkfkxfkvkxxxxxxxxkkxxxxxxkxxxxxxxvxkffkkxxfyfkxkfxkkkkkkkxkxvkffxtkkfkfyffkkkffkxkffffkxxkkkffkxxkkkxvxkyxkMvvvq7yfffffkxffkxxkkvxkfyfxxfkffxvxkfxkffkxkfffkxxkkxvxffkxvvvxkkkxxxkxxkffkkxxxxkkkkkxxxxxxxxxxxxkxxxxxxxxxkkkkxxxxxxxxxxxxkkxxkkkkxxMfyvvfxkkkkkffxxxxxxxxxfMkxvfkkkkkkkkkkkkkkkkkkkkkkkkkkkkxxkfkxkfkxkfffkkfffkxxkkkkkkkkfffkkkffkkkfkkkxfyfxxfyktfyyxvytyyfkxkfffffffkkkxkffyytyyyfffyyykkyq7qtykfttfkxxkytffyyftfkt7qyffyfkyfkytffytfkfkfyyyyytyfffyfkkffytykfyfytq::qvfkkkfytt7tyq7qttyyyyyyttfyyyfytqtyffytyyy73tfyttytttttttttttttttyttttttytttttqttttttttttqqtqqqqtttttqqqqqqqqqqqqqq7777qqqqq777",
"xfxffkyfkkkkkkkkkkkkxxkkkkkkkkkkkkkkkkkkkfkxfkvkxxxxkxxxkxxxxxxxkkxxxxxxxxkffkkxxfyfxxkfxxxkffkxyyfkkfkvyfffxkyyfkkkfykkkkfffkkxvxkfffffkkkxvxkykfvkkk73yfkfffkxkffxxkkxxxfyfxxkkkxvxffkxkffkkkfkkkxxkkkvxffkxvvvxkkkxxxkxxkfkkxxxxxxkxxkkxxxxxxxxkkxxxxxxxxkkkkkkkxxxxxxxxxxxxkxxxkkkkxxvfyvvfxxkkxkfkxxxxxxxxxfMfkvfxxkkkkkkkkkkkkkkkkxkkkkkkkkxxxkffxkkkxxkfkxkfffkkxkkkkkkkkfffkkkkfkkkfkkkxfyfxxfyf3tyfxxffyyfkxkffffffkkkkxkfyyyfkffffytq7fkftqyyykfyyfkkfffyqyxkttyfytyfkkyfkyyfytyfyyyyyyyyyffytfkkftyytyytqtfft-qftqtyfttyyyyyyqyftqqttqqtyyyffqtfkfyyyffftq7qtyqqyfytyttttttttttttttttyttttttyttttqqqqttqtttttyt77qqttqqqqqqqqqqtqqqqqqq7777qq77777q",
"xfxffkyfkkkkkkkkkkkkxxkxkkkkkkkkxkfkxxkfkfkxfkvkxxxxkkxxkxxxxxxxkkxxxxxxkkkffkkkkkfkkxkkxxxkffkxyfffyfkxkkyykfykfkkffyfkxkffffkxvxkffffykkkxvvkyyyxkkvyfxxxkyyyfkffkxkkkkvvktyxMfkxvkffxxkffkkkfkkkkxkkkxxkkkxxxvxkkkxxkkxxkfkxxxxxxxxkxkkxxxxxxxxkkxxxxxxxxxxkkkkkxxxxxxxxxxxxkkxxkkkxxxxfykxkxxkkkkkkxxxxxxxxxfMfkvfxxkkkkkkkkkkkkkkkkxxxkkkkkkxxvxffxxxfkvkyxffkxxkffffkkkkkkfffkkkkkkfkkkkkkfffkkfyf7fkfkfykyyyfkfffffkkkkkkkfyyyfkxkkffytq7ykkyyfkfkyfkyfktyxfqtvvtvftykvxfkfffyyfytyyfyytttyyfffyttffyttyyffytyffy-qyqqfky77qyyyyftyffftqqttyytqqq7qytqqyffyyq77qqttyyyttyqttyttttttttttttyttttttyttttqqqqttqtttttft77qtttqqqqtqqqqttqq7qqqq777qqq7777qq",
"xfxffkyfxxxkkkkkkkkkxxxxkkkkkkkkxkfkxxkfkfkxfkxkkkkkkkkkkxxxxxxxkkkxxxxxffkkkkfffkxkkfkxkxxxkfkxykxyyfxkffyfkytkffkkfyfkxkffyfkxxkffkkkykkkkvvkfffMkfMxMxxxkyyffkffkxxkkkvMktyxMkkxvkffxxkffkkkfkkkkxxkfxxxxkkkxvxkkkkkkkxxkffxxxxxxxxxxkkkxxxxxxxxxxxxxxxxxxxkkkkkxxxxxxxxxxxxkkkxkkkxxxffffkvvvkkkkkkxxxxxxxxxfMfkvfxxkkkkkkkkkkkkkkkkxxkkkkkkxxxvxffkxxyfMkyvkfkvvkyfffffkkfffffkkkkkffffkfffkxkffffyfvxyyytffyyffyyfkkkxxkkkffyfffkkkffyfytqykkyykkyxykxyykttkxytkxfMfqtkxkfxffftyfyyyyyfyyyyyyffytqqyfytyffkfytykkyyytqtyff77tffyyfytykktqqffkft773ttttqqtfttttttttqtyttyyy7qyyttttttttttttytttttttttttqqqqqqqtttttttqqqqttqqtttq77tttq77qqqq777qqqqq777q",
"xfxffkyfxxxxkkkkkkkkxxxxkkkkkkkkxkffxvkfkfkxfkvkkkkkkkkkkxxxxxxxkkkxxxxxffkkkkfyfkxxffkvfxvxkfkvyxxyyxMvqfkxxyqfffkffyfkxkfyyfkkkfyykxxkxkfkxxxkffvyqffxffkfffkvkffkxxkfvvkffkxxxkkxxkkkxkffkkkfkkkkxxkfkxvvxkkkvxkkkkkkkxxkfkkxxxxxxxxxkkkkxxxxxxxxxxxxxxxxxkkkkkkxxxxxxxxxxxxkkkkkkkxvxyfktkZvvkfkkkkxxxxxxxxxfMkxvfxxkkkkkkkkkkkkkkkkxxkxkkkkxxxvxffkxxyfMkyMvkfkkffkfffffkkffffkkkfffffkkffykvxyykkyfxftyffkfyyyytyffkxxxkkfffkkffytfyyyfffyfxxytfkyxykxyfxytkvkyyfxkyqqqtfxxffftyfyfytyyffkffyyytq7fkxfttttfytttfftkttkxy7777ykxfyyfqqyfqqfqyffyyyyfffffyytqqqtyffy7ttqtfft7tyyttttttttttttyttttttttqqqqqqqqqqtttttqqttqqqtqqtttq77tttq77qtqq777qqqq7777q",
"kxxffxxfyfxxxxfyffkxxxkkxxxxkkkkxfkvxyfvkxxxffkkkkkkkkkkxxxkkkkkkvxffxxfkkkkkkffkxxxxxkfffkfyykxkkxkykvxfffxMkfvykxkkxxxyxvvkfkvyyfvxffkykxkffkxxkkkkxxxxfykxxfffyyykxvvkxxkfkkfvxkfkkkkxfxxfkxxffffffkxxxkkxxxxkxxffkxxxffxvxkkxxxxxxxxfkxxvvvxxxxxxxkkfkxvxkkkxxxxxxxxkkkkkkkkkkxxxxxxkkkkxxkfxxxxkkkkxxxxxkkfxkkkkkkkkkkkkkkkxxffxxffkxxfyfkkxvxffkxkxkxxkxvfkkkkkkkkxkkfffkkvxkfffkxkkkkffffyxfyvxtyyyyyfkkkxfttyfkkykfyxxfyfyfkkyfvkkkkfyttvy7qyfyykfyyfkftkxfqqfkyyyfffytqyfkkkffkfkfq3qtqkkktqtffxftttqykfyyttyfkvyqqttttkqqkk77ffqyf7qyqqfk7:yxqytttttttyttttttttq7777qttqqtq7qfyyt77tyqttttttttytqqttttttttttttttq777qtqqqqqq773tffyqqq7q77773377qqqq",
"kxxffxxffkkkkkkfffkxxxkkxxxxkkkkxfkvxyfvkxxxkfkkkkkkkkkkxxxkkkkkkxxkfkkfkkkkkkffkxxxxkkffkkfffkxkfxkykvkykftfkkxkffkkkkkxxxkkkkkkfkxkyfxfkkffkxxxkkkkxxxkffkkfffkfyyfkxxkxxkfkkfxxkkkkkkxfxxfkxxkffffkkkkxxxxxxxkxxffkxxxffxvxkkxxkkkkxxxxxxxxxxxxxxxxkkfxxxxkkkxxxxxxxxkkkkkkkkkkkxxxxxkkkkxxkfkkxxxkkkxxkffkxvxxkkkkkkkkkkkkkkxxffxxffkxxfffkkxvxkfkxkxfxxkxxfkkkkkkkkkkkkkkkkffkkkkkkkkkkkkkkyf73fxffffffffffyyfkkkfffxfykxfyfffkfykxytykfttyftqtykffkfyyfkfttfkyyfftyyyyyyyyfffyyttyfytyfky7fkftqtyykytfkfffyyyttyfkq33qfkxvttyyttyyfyffttytt7tkyqtttttyyyyyqqqqttttttqqqqtttqqtq7qyyyt77ttqttttttttytqqttttttttttttttq77qqtqqqqqq77qttqqqqqqq777777777qqq",
"kxxffxxfkkkffkkkfkkxxxkkxxxkkkkkkfkxkffxkxxxffkkkkkkkkkkxxxxxkkkxkkxkffkkkkkkkffkkxxxkkfkkxkfkxvkfkkfxvkfvf3qfkkxfykkfyfvvxfyyfkkkkkfyfxkkfyfxxkxkkkkkxxkkxxkyyfxkkfffkxxxxkkkkfxxkkkkkkxkxxfkvxkfffkxkffxvvxkkkkxxffkxxxkkxxxkkxxxxkkxxMvxxkkkxxxxxxkkkkxxxxkkkkxxxxxkkkkkkkkkkkkkxxxxxxkkkxxkffkxxxxkxxxkfkkxvxxkkkkkkkkkkkkkkxxffxxfkkxxffkkkxxxkkkkkxfkxkxxfkkkkkkkffkkxxxxkyffkkkfffkkkkkxxff73yxkkffffffyytykxxxkffxkfxxyykkkyyfkxyqyxkttftyytykkyfyyyfkfyqyfyyffyffyyyfffkkfytttyyttfkfytffyttyytfyykvxfyyyyyttyfkfyyytqqqkkqqyftykfyfytyf3qkfqtyttyyyyyyqqqqttttttttttttttttqqqytttqqttqttttttttytqqttttttttqttttqqqqqqtqqqqq773yq3:3777qq7777qqq77777",
"fxxffxxfxxfyyfxxfkkxxxxkxxxkkkkkkkkxkfkxkkxxkfkkkkkkkkkkxxxxkkkkxfkxxffxkkkkkkffkkxxxkkfxxxxkkxMxffffxvfkvfqtffkkyyxfqtkkxvktqfxkxxxfyykxfytfxvkxkkfkkxkxxxxkfyyxxxkfykxxxxkkkkfkxxkkkkkxkxxfkvxfffkxxkffxMMxkkkkxxffkxxxkkxxxkkxxxxkkxxvvxxxkxxxxxxkxkkkkxxxkkkkxxxxxkkkkkkkkkkkkxxxxxxxxkxxxkffkxvvxxxxxxxxkkfxxkkkkkkkkkkkkkkxxffxxfkkxxffkkkxxkkkkkfxfkxkkxfkkkkkkkffkkkkkkkxkfyyyfkfkkkffkxfkfykxkyfffkffytfkkfffkxfxkfxkyykxkytkxkftfvxtqytkkytkktfytyffffyytqtfkffffyffffffffyffkttfft3qxyytqtffyyyfkxxfytyyyyyyytttfffytykkqqff7qkyqyt3yftqqqyftyyytttttytttyytttyyffyyttttttqtttttqttttttttttttytqqtttttttttqtttqqqqqqtqqqqqqqqtq733777qq777qqqqq7333",
"fxxffkkfxxfyyfxxfkxxxxxkkkkkkkfffkxkffkkkkxkkfkkkkkkkkkkxxxxxxxxvkkxxffxkkkkkkkkkkkxxkffxxxkkkxvxffffxvfxkffxfyxfyfxf7qxyfffyfkkykvvkfyykfytfvxkxkffkkxxvkkxxkytxvxkffkkxkkkkfffkxxxkkffvkxxfkvxfffkxxkffxMMxkkkkxxffkxxkxxkkkxkkkkkkkkkkkxxvvxxxxxxxxxxxkkkkxxxkkxxxxkkkkkkkkkkkkxxxxxxxxxxxxkffkxvvxxxxxvvxxkfxxxkkkkxkkkkkkkkxxkfxxfkkxxffkxkxkkkxkffxffxkkxkfkkkkkkkkkffffffxkfyyyfkfkkffffkfkxkffftyyfkkfyyxkfyyykxfxkfkfyffxkyykkyfyfvxtqyyxxytfkyfttyfyfkftqqyxkfyyfffyytyyfkkkkkttfft3txfytqykxkyfkfyyyytyyyyyyy7qtyfkkfkfttyfyqqkyqyt3yftttqyftyyyyttttytttyytttyffffttttttttqqqqtttttttttttttqyttqtttttttttqqqqqqqqqqqtqqqqtyfqqttq77qqq7777qqq77333",
"fxxffkkykkkffkkkfkxxxxxkkkkkkfffyxxfykkkkkxkkfkxkkkkkkkkxxxxxxxxxkkxkffkkkkkkkkkkkkxkkffkkkkffxvkfkfykvkkfyxvfyxffkxfqyxkt7qkvkyykxvxkytkffyfkxkxkffkkxkxffxvxfyxxxxkkkkxkkkkffkfkvxkfffvkxxyfvxffkxxxkkfxvvxkkkkxkfykxxkxxkkkxkkkkkkkkkfkxxvvvvkxxxxxxxxkkkkxxxkkxxxxxxkkkkkkkkkkxxxxxxxxxxxxkfkkxvxxxxvxkkkxvvxxxkkkxxkkkkkkkkxxkfxxffkxxffkxxxkfxxkfyvyfxkfkkfffkkkkkkkfyyyffyffkkkkffkkffyyfyykfqtkfyyffkkffffkfffffyxkyffyffkkfffytttfkkytyykkyykkffttyftykyttyxxftyffffyttyyfkffyyyttfkkfyyfytyfkktfkyqqtytyyfyyfffkkfyyq7fqqykfyyykfyyttyf3qkfqtyyyyyyyffqqqqtyyttyyyyyytttttttq777tyyttttttttttqyttttttttttttqqqqqqqqqqqtqqqqtyf3qtytqqqqq77777q777777",
"fkxffkkyfkkkkkfffkxxvxxxkkkkkkffyxxfykxfkxxkkfkxkkkkkkkkxxxxxxxkkxxkfkkfkkkkkkkkkkkxxkffffkfyyfxffkkykvkyfyykkfxfffffffkxy7qfxktfkkfkxkyykkfyfkkkkfffkkkfyfxvxkkkkkxvvxkvkkxkffkfkvvxfffvkxkyfvxyfxxkkkxkxxxxxxxkxkfykxxkvvkfkxkkkkkkkkkxxxxxxxxkkxxxxxxxkffkxxxxxxxxxxxkkkkkkkkkkxxxxxxxxkxxxxkxxvxxxxxvxkkkxvvxxxxkkkxkkkkkkkkxxkfxxfkkxxkfkxxxffxvkfyvyfxkfkkkkkkfffkfffyffffffkkxkkkfffffffkftff7txfffffkkkkyyffkkffykftyyykyyfkxftqtfkyyfytfkkkkffyfttfftyktyfkxkfyyfffffyyffffyytyfyttfxftyffyyyyttyyqqtyytyyfyffktfftyffytqtkkyyffyffttytt7tkytttyyyyyffftqqttyyttttttttttytqttt777tfytqytttttttqyttttytttttttqqqqqqqqqqqqqqqtqqq777qtttq7q777777777qqq",
"fkxffkkyyfxxxxfykkxxvxxxkkkkkkffyxvyykxfkxxkkfkxkkkkkkkkxxxxxxxxkvxffxkfkkkkkkffkkkkxkffyffyttfkffkkyfxktky7tkkxffyykvxfkkftqqykkkytfxxkykxkyykkkkfffkkktykvvxxvffkxMMxkvkkxxffkfkvvxfffvkxkyfvxykxxkfkvxkkkxxxxkxkfyfxxkvvkfkxkkkkkkkkkMvxxkkkkkkxxxxxxxkffkxxxxxxxxxxxkkkkkkkkkkxxxxxxxkkxxxxkvvvxxkkxxxvvvxkkxxxxkxkxkkkkkkkkxxkfxxfkxvxkfkxxxffxvkfyvyyxkfkxkkkkffffyyffkkkfvxkffkkxffffffkxkykxtfvykkkffkkkfyyyfxxxykyqtyykytyxvy77yxxfyfyqxkkxxftqfttfyttkffkkyyfxfffffffkkkffyyyfkxfq3tfytkxkytq7qttqqyyttyyfffkxfkkytyyt7ykkyyyffqyf7qy7qfkq:yxqyyyyytttyytyyyytttq77qtttytqtyt337tfftqytttttttqyytttyttqttttqq77qqqtqqq7qtttq73q3:3qttqqqq7773377qqtq",
"kkkkkkkk7x7txtfkkkxxxkkfkkkkxxxxyyffkxxxfffkkkffkyfxkkxkfkxyxvtvfyxxfxMtkkkkkkkkfyyfxvxxkMkfMkqtkffkxxkfvvxkffkkffxMf77yxxkffkftvy7tkxkkxxxxxkfykxxkkxxxkkkkkkkkffkkkxxxxkfkxxkkkxxxxxxxvyyxMkfxxkkffkkxkkkxxxxxxffxvxkxxxxxkxkxxxxxxxxxvxxxxvvvkkkkkkkkkkkkxxxxxxxxxxxxxxxxxkkkxvvkkxxkfkxxxkxxvxxxxkkfkxvvxkkkkkvxkxvkkkkxxxvvkkffffkkyfMZkxvtkkvvfqqfvvkfkkfxkkkkxkfytfkkkxxfkkkkkkxxxytyxxkyffkkfkkq37tyyyfkffffffffxkq7xvyfyfxky7qyfyyfkkffkkytqtfxfyyfkfyfxfttyffffxxkytyfyyffffffqyfyyfffkfyfkfffyyyyfffyttttttyyfyt7tkxfffyyffkkftq7qtyyxfyqqqty77qttqtytyyyyttttttttyyfttttyytttttqttttttqqtffyqttq777qqqttttqqqqqqttttt7qyy77tqq7777777777qqqq3qttq7",
"kkkkkkkkqxtqkyyfkkxxxkkfkkkkkxxxyyffkxxxffkkfkffkyfxkkxkfkxyxvyvxxxkkvMkkkkkkkkkyfffkkxxxxytfytyfyyfxvxxfkxvxkftyfvMf77ffkkffkkyyyfkfykvkkfkkffykxxfkxxxkkkkkkkkffkkkxxxkkkkkkkkkxxxxxxxxyyxMkfxxxkffkkxkkxxxxxxxffxvxkxxxxxkxkkxxxxxxxxvxxxxvvxkkkkkkkkkkkkxxxxxxxxxxxxxxxxxkkkxvvkkxxkkkxxxkkkvvxxkkkxkxxxxkkxffxxkxvkkkkxxxxvxkyfkkkffkvvkxxfffkkfqqyvvkfkkfxxkkkxkfytfkkkxxfkkkkkxxxvkfkkfttqqyfykkttyyfkkkkyyffffkkfy7qkxkfkfyfyttyyffkffffkkytqtfxytyfkffkfytyfkftffyyyyyyyyfffffftyfyyfffkfyfkfyffyyffyytffyyytyyyytqtffyyyyyyyfkfyqqqtyyyyyyyytttttfyttyttyyytttqqqqqqtyttttyyttttttttttttqttffyqttqq7qqqqtttqqqqqqqtttt3tyq7tt77qq7777777777qqq7qqtq7",
"kkkkkkkktkkqtktykkxxxxkfkkkkkxkkyyffkkxxffffkkkfxykxkkxkfkxfxvyxxvktfxxxkkkkkkkkyfkkffxvvfyytyfyyyyfxvvxffffffkkffkxftqyfffffxkftykkfyfvffffffffkxkfkkxkkkkkkkkkkkkkkkxxkkkkkkkxxxxxxxxkxyyxvkfxxxkkkkkxxxxxxxxxxffkxxkkxxxxkxxxxxxxxxxxvxxxxvvxkkkkkkkkkkkxxxxxxxxxxxxxxxxxxxkkxxxxxxxkkxxxxkkkxvxxffxvxxkkxxxxffxxfxvkkkkkkxxxxfykxkffxxffxkkxkffkfyyfvvkykkfxxkkkkkffyfkkkxkfkkkkkkxxvxkkftttttfkfxxfkfffxxkfffffffffyqqyfxxfxytykfytyfkxkfffkffttyfkytyfkffkfyyfkkytytqtyfytyyyfffffyfkfffffkfyfffyffyyyfyytffyyyyyyyyttyfyqyttttyyffyqqqtyyqtyfffyyfyfkfttyttyyttttqqqqqqtyttttyyttttqqttttqqqtyyyyttttqqqqqqtttqqqqqqqqqtt3tyq7tt777qqqqqq77777qqq7qqqq7",
"kkkkkkkkffMqqvttkkxxxkkfkkkkkkkkffffkkkkkkkkkkkkkyfxkkxkkfxfkxfxfvy3ykfxkkkkkkkkykxkytkMvfkvfkxtffffxxxkffytyfxvxfyfkfttfkffkkkfyyykxxkfyfffffkxkkkffkxkkkkkkkkkkkkkkkkkkkxxkkkxkxxxxxxkxfyxxkfxxxkkkkkxxxxxxxxxkkkkkkkxxxxxkxxxxxxxxxxxxxkxxvxxkkkkkkkkkkkkxxxxxxxxxxxxxxxxxxkkxxxxxxxkkxvxxkkkkxxkyykvxkkkxvxxffxxfkvfkkkkkxxkkyyxvkfkvvyyxkyMvxkkxxxkvvkykkfxkkkkkkkkyfkkkxkfkkkkkkxxkffkfyyfkfxkyfktffffkkfykkkfffyyktfkykvykyykkfttykxxkyyffffyyffkyyyffffkfyyykkfyytqtfkftyyyyfffffkxkfffffyyffyyyyyyyfffytttttyyfyyttyfytyyytyyyffttqttttytttyyfkfyfkfttytttttttqttyytyyfttttyytttttqtttyqqqtyttyttttqqqqtqtttttqqqqqqtttq77yt73tq777qqqq777777qq77qqq7",
"kkkkkkkkffMtqvytkkkxxkffkkkkkkkkffffkkkkkkkkkkkkkyfxkkxkkyxkfxfkfvy3ykfxkkkkkkkkykxkytfvvfkxfxvyxkkkkkfyqtfkxkffffkkytyfxkkkkffytyyfkkkyffkffkxvkxkffkxkkkkkkkkkxxxxkkkkkkxxkkxxxxxxxxkkkfykxkfkxxkkkkxxxxxxxxkkkkkkkkkkxxxxkxxxxxxxxxxxxxkkxxxxkkkkkkkkkkkkkkxxxxxxxxxxxxxxxxxkxkkxxxxkkxvvxkkkfkkfttfxxkkkxvxxffxxfkxffkkfkxxfyyfvxkkvvvttxkyMvxfkxMvkxvfykkfxkkkkkkkkfkkkkxkfkkkkkkxxfyyfkkkkyyfyqqyqyfkkffffkkkkffyyxykxyfxytfxvkttyykxxfyyfyyfffffffffkfyyfxkytfkkfttyffkkfyyyyyffffkxkfffyfyyffyyyyyyyfffytttttyffyttyyffffyyyyfffyyttttytyytttyffttyfyttytttttttqttyytyyfttttyytttttttttyq7qyytqttttttttqtttttttqqqqqqqttq37yt73t7q7777qq7777777qq7777q",
"kkkkkkkkffvftxktkkkxkkffkkkkkkkkkkkfkkffkkkkkkkkkyfxffxkxtxkyxkkxMkyfvvvkkkkkkkkfkxkyyfxvfyttfxkvxkkkkftfffkkkffqkMxq3yvxxxkkyyfqfkkyykxkkxkfkxvkkkffkxkkkkkkkkkxxxxxkkkkkxxxkxxxxxxxxkkkffkkfkxxxkkkkxxxxxxxkkkkkkffkxxxxxxkxxxxxxxxxxxxxkkxxxxkkkkkkkkkkkkkkxxxxxxxxxxxxxxxxxkxkkxvxkkkxxxxxxxkkkfyyfkxxkkxxxxffxxfkxfykkfkvxytfxxkkxxxxffxkfxkfyykvxyxvfykkfxkxxkkkkxfkkkkkkfffkkkkxxfyyfkffkyykftyxkfkxxkfkxffffffkkkyffyfkyqfvMkttffkkkfyyfyyyfkkfyffkkftyfvkytfkkftyfkkfkkfyyyyyyfykkffffyfyyyyyyyfyyyfyytffyyyyffyttyfyfkffffffffytttyyyytyyyyyttqqtyyqqttttttttqqqqqqqtytqqttyttttttttty77qyyq7ttttttyttqttttttqqqqqqqtt3ty77tt3q7qq77qq77777777q7777q",
"kkkkkkkkfffxyfMyfkkxxkffkkkkkkkkkkkfffffkkkkkkkkkyfxffxkxtxkyxkfxxvxkvMkkkkkkkkkkkkkffffxktqykkvxxkkkkfyvxfyyfkxtfxftqfxkkkxkyfktfkytfkxkxxkyyfxkkkffkxkkkkkkkkkxxxxxkkkxkkxxxxxxxxxxxkkkfffffkxxxkkkkxxxxxxxkkkfxxfykxxxxxkkxxxxxxxxxxxxxkkxxxxkkkkkkkkkkkkkkkxxxxxxxxxxxxxxxxkxffxvxkkkxxxxxxxxxkkkfkkkxxxxkkxffxxfkxfykkfxvkqyxvkfxxkffxxkkxyyfyykxkyxvfykkfxkxxkkkxxkxxkkkkffffkkkxxyyfkytykffxxykvxkkkkffkkffffkkkkxxyyffyyyykxkffkfffyyyyftyykxkfyyfkkftyfkfyfkkyttyfkkfffffyytyyyyfffyffyfytyfytyfyyyfyytffyyyyffttyffyyfyyyyyyyyttttyfyyttyyyttqqqtytqqttttttttqqqqqqqtyqqqttyttttttttty73qyy77tytttyyttttttttttqqqqtttt:tt77tq3q7qq777qq7777777q7337q",
"kkkkkkkkfytxfyZffkkkxkffkkfkkkkkkkkkffffkkkkkkkkkyfxffxkxqxxyxxfkfxvfvMykkkkkkkkkkffkkftkvfyvvkvkkfkkxkfkxxxxkfyxyqqfxktfffxkfkvkfqqyxxyfkxkytyfkkkffkkkkkkkkkkkvxxxxkkkxkkkxvxkxxxxxkkkkfffffkxvxkkkkxvxxxxxkkkfxxfykxkxxxkkxxxxxxxxxxxxxkkxxxxkkkkkkkkkkkkkkxxxxxxxxxxxxxxxxxkxffxvxkkkxxvxxxxvvxxxxkkkxvvxkkkffxxfkxffxxkxvf3kMvffxxttyMMfxvqfkkfxvxyxvfykkfxkxxkfkkvkxxkkkkffffkkkxxtfkkyqyxffky7qytfytyyfytkfffkkkkMZftxfqtfttfxxkkkfyyyyffttykxkftyyfkfyykyyykxkt3yyyfffyykffyytyytffytyyyfytyyytyyyyyfffyttttyffftqykktqtttyytttttttyyfyyfyt77qtytttyyqqttttttqqqttyytyyfqqqttyttttttttty73qfy73qytqtyyttttttttttqqqqttttq37yt33qq7qq7777q7777777q7337q",
"ffkkkkkkyyfxxkfykkkkxxkkxkffffkkfffffkkkkkkkkkkkkffkkffxkfkxfkxfxfkxfkxkkyfkkffkxykxttvvvvxxxkkkxqtyqkvyfffkkkkkkkkkkkkkyfffffkxq7yxtqfvvvxxkkffqkvxffkxkkxvvkkkkyfxvkxMykxffxxfxxxxkkkkkkkffxxxkxxvvxxkfxffvxkxfkvxkkxvvvxkkkxvxfkkfxvxxxxvvxxxfkxxxxxvxxkkkkxxxxxxxxkkxxvvxxkkkkxkkkxxfMxyfxxxkkkxxkfkkxfvkvkxxkfkkxkfxtMfkkktvZxtfxkkfffkkkkkxkkkkkxxkkxvxyyktkkfkkyfkkkkkkfffkkkkxxkxxftqyffyffffkkyxMf33kvfkkkkkfyytyfyttfkyyykkfyyyyqqyxxffyyfffyfkxMxt7qtyfffytyfkkkttyfyyyyyyyffqfxytyytqtyyffyytfkfyyffyyyyyyttkftttttt7qqtyyffytfkyfkffq7tfkytqqqqqtqq7ttqtkkffq7tfytyyytttyyfqqqtttqqqttttttttttttttt7ttttqqqttttttttttqqqqqq3tt737q77q777777777777",
"ffkkkkkkyykkxkffkkkkxxxxxkkfffkkfffffkkkkkkkkkkkkffkkffxkfkxfkxfxkkxkkxkkffkkffkfykxfyxvxxxxxxxkk:3fkxvkfffkkkkkkkkkkkkkyffffkkxt7yxftfxvvxxkkfftfxkfkkkvxkxkfkvkxkkkxvvykxffxxfxxxxkkkkkkkffxxkkxxvvxxkkxffvxfkfkxxxkxxvxkkxxxxxfkkfxvxxxxvvxxxkkxxxxxxxxkkkkxxxxxxxxkkxxvvxxkkkkxkkkxxkxkkxkfvkkkxxkfkkxfvkvkxxkffkxkfxtMfkkktxZxtfxkkffkkkkkkxxkkkkxxffkvxffxfxkykkxvvxfyyyffkkkkkxkfkkfyyfffkkkkkxxkvMkqtxvkkkkkkffffkffyyfkfyyffyyffftqyxxfyffffkkkxftqyffyffyyyyyykkfytyfyyyyffffftfffyyytyyfkkkfftffyyffyyyyyyyttfyttyyyyfyyyyyyfytfktyfyyyyyyyyyyyyyyyyytqqtyfffytqtyyttyytttyyfqqqttttqqtttttttttttttty7ttyqqqqtttttttttqqqqqqq7qt77qq7q7777777777777",
"ffkkkkkkyfkkkkffkkkkxxxxxkkfffkkffffkkkkxxkkkkffkfykkffxkfkxfkxfkkkkkkkkkffkkkkkyfkkxfkMkkkkxxxxy:qvxyfxfffkfkkkkkkkkkkkffyffkkkyqyxkfkfxxxxkkkfffkfkxxkvxkkkfkvkvvffvMxykxfkxxkxkxxkkkkfkkffkxkkxxvvxxkxxffvvffkkxxxxxxvxkkvvxkkfkxkxvxxxxxxxxxkkkxxxxxxxkkkkxxxxxxxxxkxxvvxxkkkkxkkkkxxkkvMfyvkkkxxffkkxfvkvkxxkffkkkfxtvykxktxMxykxkkkkkkkkkkxkkkkkkxffkxxyfxfvkfkxxMvxkfyyffkxkkkkkyffkffkkfkkkkkxxkxxkyfxxxkkkkffffyyfffkxvkfyyyyfkkfytfxxfykxffxxxftqqykkfkfyyfffyfffyyffffffkfffyfyyffyyyyyffkfffyyyyfkfyyyyyyyttfyyyyfffffytttyyytfftttqqkxyqqyyqqqqqq77fq7ykttftyyttyytyyttttyyqqtttttqqttttttttttttttt7qytqqqqttttttttqqqqqqqq7qqq7qq777777777qqqq77",
"ffkkkkkkyfkkfffkkkkkxxxxxkkfffkkfffkkkkkxkkkkkffkfykkffkkfkxfkxfkxkkxkfkkffkkkkkyxxkvftvffkkxxvvytxMf3tvfffkfkkkkkkkffffffyfkkkfktyxxxkyxxxxkkkkffffkxxkkkxvxkfkkxxkkxvxfkkkkxxkkkxxkkkkfkkkkkxkkxxvvxxkxxyfvvfyxkkkxxxkvxkkxvxkkfxxkkvkxxxxxxxxxkkxxvxkkxkkkkxxxxxxxxxkxxvvxxkkkkxkkkxxkxkxvkfvxkkxxffkkxfvkvkxxkffkxkkvtvykxxyxMkykxkkkkkkkkkkkkkkkkkkkfkvxyykfvvkxxfffkkxxxkfkxkkkkfyfkfffkkffffyfkkyfyyfkffkkkkfffkkyyyfkxvvkfyffyfxxkfyfkkktxvkfxxkqyffffffffyyfffyfffyffffffkkkkfykttfkytyttyyyyyttyyyyffyyyyyyyyyyyyyyyyyttqqqttytqfftttq7kvy7qyyyyyyttttyttffttyqyftqyytyyttttyy7qttttttqqtttttqqtqqqttt7qttqqqttttqtqqqqqqqqqqqqqqq7q7777777qqqqqqq77",
"ffkkkkkkyfkkyykxkkkkkxxxxkkfffkkffkkkkkxxxkkkkffkyykkffxkfkxffkffxkfxkyxkkkkkkkkfMvxvyqkfffkkxvvfkxftqyxfffffkkkkkkkkkkkkfffkkkfxyyxxxktkkkkkkkkffffffkxkkxvxffkkfkvvxkxfkkkkxxkkkkkkkkkykxkkkkkkxxvvxkkxxyfvvfyxkkxxxxkvxxkkxxvkfxvkkxkxxxxxxxxxkkxxvxkxkkkkkxxxxxxxxxxxxvvxxkkkkxkkkxxkMxfkxxvkkkxxkfkkxfvkvkxxkffkxkkvtvtkxxyxvkfxxkkkkkkkkkkkkkkkkkkkkxvxyykyxxkkkyffkkxxxkkfkkkkxkyfkfyyffffffyfkfyytykxffkkkffffkkkkffffffyyfkkfkxxkffkkkftkxkfkfytykkkfffyfffyyffyyyfffffffkkkkfykttfkfyfyyyyyyttqyfyyyyfyyyyyyyytyyyyyttqqttyyyyqqyfttyt7fkt7tytfyyyttttqfkyqtytqfftqtyttttttttt7qtyyyttqqttttqqqqqqqqqt7qttqqttttqqqqqqqqqqqqqqq7qqqq77777777qqqqqqqq",
"ffkkkkkkykkkytkvkkkkxkxkxkffffkkkkkkkkkxxxkkkkfkkfykkffxkfkxffkfyvfyxkyxfkkfkkkkxMvxktqfkkkkkkxxkkq7kvkffffffkkkffffffffkkffffffkyfxkxktkkkkkkxxkfffffkxxkkkfyfxkykMMxkxkkkkkxxxkkkkkkkkykxkkkkfkxxvvxkkxxffvvffkkxxxxxxvvxkkkxMffxvkkxkxxxxxxxxkkkxxxxxxkkkkkxxxxxxxxxxxxvvxxkkkkxkkkxxkZvyfvvxkkkxxffkkxfvkvkxxkffkxxkvtxtkvvfkvkfxxfkkkkkkxxkkkkkkkkkffkvxffxfxftfffxxkkfffkkfkkkkxkyfkfttfffkkxkxxkfffkvxkkxkfffffffffffffffyykxxffkkffkkfyyyffkkfytkytykxkfyfffyyfkyyykkffffffkfffyfyyffffffffffyyyqykfttyfyyyyyyyftyyfytttyyffffyyqqyftyfyqyyqqyyttttqqq773fkt7tyqtyfttttttttttttt7qtyyyttqqttttqqqqqqqqqq7qttqqtyttqqqqq7qqqqtqqqt77qq777777777qqqqqqqq",
"kkkkkkkkykxfttkMkkkkxxxkxkkfffkkkkkkkkxxxxkkkkkkkfykkffxkfkxfkkfyvftvktxfkxkfxxkvxxxytfkkkkkkkkkffqyMvtyffffkkkkffffffffkkkkfyyykfkkffkykkkkxxxxxytyfkkxxkfffyfxkkxvvxkkkkkxxkxxxxxxkkkkykxxffffkxxvvxxkkxffvxfkkxxxxkxxvxxkxxxxffvMkkxkxxxxxxxxkkxxxxxxxxkkkkkkxxvvxxxxxxvvxxkkkkxkkkxxkvxkxxkvkkkxxkfkkxfvkvkxxkffkxxxMtxtkvvfkxkkvxfkkkkkkxkkkkkkfkkkffkvxffxfxkyfkkxkkfffkkkfkkkkkftyffyyfkffkxxxxkyykxxkkkkffffffyytyfffffkyfxxkyyfyyfxxftykttfkytykfyyfkkfyyyyyfffyyykkyyfyyyyyfffyffyyfffffffyyyytyfyyyyyyyyyyyffqtfffyyyyffffyytqqyyttfyytttyyyyffffyyyy7qtttttqyttyyttytttttttt7qtyyyttqtttqqqqqqq7qqqq7qttqqtyttqqq777qqqtqqqqt77qqq7777777qqqqqqqqq",
"kkkkkkkkykxfttkMkkkkxxxkxkkfffkkkkkkkxxxxxkkkkkkkffkkffxkfkxffkfyvftvkqxfkkfkxxkvfxxttxxxxxkkkffykfMZt:yfffffkkkffffffffkxxkfyyyffxkyyfyfkkkxxxxvyqtkxkkffkxkfffkvvkkvxfkkkxxkxxxxxxkkkktkxxffffkxxvvxxkfxffvxkxfxvvkkxvvxkkvvxkffvMkkxkkxxxxxxkfkxxxxxvxkkkkkkkxxvvvxxxxxvvxxkkkkxkkkkxxxkvMkfvkkkxxkfkkxfvkvkxxkffkxxxMtxtkvMkkxkkvxfkkkkkxxkxkkkffkkkkkxvxyykfvvkxkyfyfkvvvxkkxxkkkyqtyffkxxkyfkkkkyqtfkfyfkffffffyytyfkfytyffkxxftqtytfxxfttxq7ykytkqfvxftyffytyfffyyyykkyyfyyyyyyfftkkytfkfyyyttttttyytyfftfyyyyyffqtfkffyftttttttttqtyqtytfyyffyyyttttttqqt33tfyqqfttyyqqytttttttq7qtyyyttttttqqqqqq7q7qqq7qttqqtyttqq77777qqttqqqt73qtq7777777qqqqqqqqq",
"kkfffffffkfMtkkkkkkkkkkkkkkkkkkkxffkfkxffkkxkkfffkkkfyfkkkkffkkxffxxyykkkkkfkfffkxxxffkxkfyyfkkkvxfyt7qykyyyyyfky-tvyyvkkfyfyqyvxvvkkxfqfkxvvxkfyfkxkfkvZktkvxkkkkkkkkkkkkkkxkkkxkxxfkxytfyyxxxMxfkvMxkkxxxkkxxkyykvvkkvkffxvvxvkkkkkkkkxxxxkkkkkkxxvvxxkkkkkxxkxvvxkkkxxxvvvxxxkxxxxkkxxxxxxxxxkxxkkkkxkkxxxxxxxxkkkxvvkfvxtkvtffyyfxkfkxffxxfkkvyy7kfkkkkkkkkxvxkfkkffkfkkkkfffkkkfyyffffkxxxxxyfvf7qtxxyxyxyyfffkkkxkvkttfxxfffffffkkfffyyyttxyykkxkqfkkyyfffkfyyfffyyyyffyttfkxkkkfytttyyttttyyfffffyttyyfffyttyffyttyffyyyyytttqtttyffyttttyytyytq3:fvkyffyytyyyyyftyy77tyyqqqqqq73:tftqyt77qt7tfftq737tyytqqqttqqq7qtqtyq373:3333333qq7qt737qt73::qqqq73",
"kkkffffffyxkfyxkkkkkkkkkkkkkkkkkxffkkkxffkkkxkfffkkkfyfkxkkffkkkfyxxyykkfxffkkfkkxxkffkxkkffffkxkffkfyfkvkkkkkkvk:7xfkvffytyt7tkvvkffkkfkkxxxxkfffxxkffxZfykvxkkkkkkkkkkkkkkxkkkxkkxkkxftfffxxxvxkkxxxkxxxxkxxxkfyfvMxxxkffxvvxxkkkkkkkkxxxxxkxxkxxxxxxxkkkkxxxxkxMMxkffxxxvvxxxkxxxxkkxxxxxxxxxkxxkkkkxkkxxxxxxxxkkxxxvkfxxyxvtfkffkxkfkxffxxfkxvyfqxkkkkfffkkkMxffkkfyfkvxkffffkxkfyffkkkkxxkkftkxfykxvxyftfyfkkkkkkkxxkytykxfffffffffyffffyyyktykkxkqfkkyyyffffyyffffytyffyyyfkkyyffyyyyyyytttyyyffyyttttyffyyytyfkkfffttqqyffyyyyyyyfyt7qyyyfytyytq7qfkfyffyttyyyyyytyyq7qyyqqqtttq73yftqyyq7qqqtfyt7737qttqyyttqq73ytq:3qyt7qtqqqqttqtq7qt737qq7333qqq733",
"kkkkkkffktvfktvfkkkkkkkkkkkkkkkkxffkfkxffkkkxkfffkkkffkxkkffffkkfykxyfkkfvfyxkykkxxkfffkkxxkffkvkkxvxfyfvxkxxkkvf7tkyfvkfyyft7tkxkfkffkvxxxxxkkkkkxxkyfkMfykxxkkkkkkkkkkkkkkxxkkxfkxkkxftkkkvxkvvxkffxvxxxxkxxxkfffvMvxkkfkxvxxxxxxxxxxxxxxxxxxxvxxxxxxxkkkxxxxxkxvvxkffvxkxvvxxkxxxxkkxxxxxxxxxkxxkkkkxkxxxxxxxxxxxxxxxkfxkfxvyxxkfkxxfkxffxxfkxvfxyMxxkfffffkkMxffkxftfxvvkfffkkkkfffkkkkkkkfyyykkyfvMkfkyfyffkkkffkkkkffyykxkffffyyyyyyfkkffykyyffkktfkkyyyffffffyyffytykkfyfkftqtffyfffffyyyyyyyyyyyttttyfyyyytyffkkfyytqtykfffffyyyfyq7tffyfyttyyttfyytyyyttttyyyyyqtyqqqttqqqtyyytqyftqtytq7qtyyyytqqqtyytqtqqtqqqqqqqqtq7qyfyqqtfyttq37t737qq737qqq773:",
"kkkkkkkkfyxffyxkkkkkkkkkkkkkkkkkxffkfkxffkkkkkfffkkkfffxkkffffkkkfkxffkffvfyxktxkkkffffkxxxkkkxvyfxMvfyyffffffffytxxq7kMkkkkftyxyyfvvkkvvxxkkkkkxkkxkfyfvfyfxxkkkkkkkkkkkkkkxxkkkfkxkkxktkvvvkfxvvktyxvxxxxkxxxkkkkxvvxkkkkxvxkkxxxxxxxxkkxxxxxxvvxxkkkkkkkxxxxxxxkkkxvvvxkkvvvxkxxxxkkxxxxxxxxxkxxkkkkxxxxxxxxxxxxxxxxxkkkfkxxfvvkfkxxfkxffxxfkxxfvkZxxfkkkffkkxkffkkfyfkxxkffkkkkkkkkkxkkfkfytkyfytkMxtyvfvyxkxkkfffkkfkfyyfkkfffffyyfyyfkffffkyyfyfftfkkyyyffyfffyyfkytyfkfyyfyqqtfkffffffffyyyyyyyyyyyyyfffffyyyyyyyttyffyyfyfffyytttttyfkftfyyttyyyfytytqtyttyyyyytttttqqqqqqtyyyyytyyq7qtyt77tyttfyyttyyytqqqqtttt7qttytq7qtyt77qt7377:7t337qq77qtq773::",
"kkkkkkkkfffvtffkkkkkkkkkxxxxkkxxxffkkkxffkkxxkfffkkkfykxkkffffkkkffkfkxffxfyxkykkkffffffvxkkkxxx7qfvvkfffffffffyyfxkqqkMkkxxfyykttfvvkkvvxkkkkkkxkkxxfyyxkffkkxxkkkkkkkkkkkkxxxkkykvkfkkyxvvvkfxvvktyxvxxxxkxxxkxxxxkkxxkkxvvkfkxxxxxxxxkkkxxxxxvvxkkkkkxxxxxxxxxkkkkxvvvxkkxvvxkxxxxkkxxxxxxxxxkxxkkkkxxxxkkkxxxxxxxxxxkkffkxkfvvxfkxkfkxffxxfkkxfMxMkkkkkkkkkkyfkkffkxkffffkkkkkkfkkkkxkkkffytvfyyyxvfffvfxtkxxkkkfffkfkkfyfkkffffffkkkfffyffffyffyyftfkkyyfffyfffyyfkyyyffyttytttfxkfkkffffffyyyyyffffyyffkffyyffyyttttyyyyyytttttqq7tfffffftyyyttyffyyyyt7qytttyyttttqtttqqqttttttttttqq33qyy77tyttfttttttqqtttqq773yt737qty7777377733qq3qt737q777qt773333",
"kkkkkkkkyfyvqkfkkkkkkkkkxxxxkkxxxffkfkxffkkxxkfffkkkfykxkkfyyfkkxffkfkxfkkkkffkfxkfffkfyvxffkxxkttfxxfyfxvvxxxkfxkyyfkkfyfkkyttyfyyffkxMxxkkkkxxxkfxxkfykkffkkxxkkkkkkkkkkkkxxxxkykvkfkxfvvxvxfxxxkffxxxxxxkxxxkxvvkfkxvkkxvxkffxxxxxxxxkxkkxxxxxxxxkkkkxxxxxxxxxxxxxxkfxxkkxvxkkxxxxkkxxxxxxxxxkkxkkkkxxxxkkkkxxkxxxxkkxxfyxxfkvvkffkkfkxffxxfkfkfMkxfkkkkkkkkkqykkffkvxfttfxxkkkffkkkkkkffkfyyvfykkvvkxxkttqfxkkkkkkfffkkyyfkkffffffkkkkfyyyfkfyffttytfkkyyffffffyyyffyyyfftttyyyyfxkffffffffffyyyyffffyyyfffftyfkffyyfytq77qttttttqqqfkfttyffyyyttyyfqtfytqtttttytttqtqqtttqttytqq7qqyqqq737ftqqqtttyttttqqqqttqqq777tq7qqqqt73337qqqqqttqty7377777qt733377",
"kkkkkkkkfyfxtykkkkkkkkkkxxkkkkxxxffkkkxyfkkxxkfffkkkfykxkffyffkkxffkkxxyxtkvyfvyxfyyfkfyxkkffkxxkkkxkyyfkvvxxvxfvxttxvfyykxkyttyfffyfxxxkkkkkxxvkffxvxfffkkffkxvkkkkkkkkkkkkxxxxkykMkykvkvxkvxkxxkfkxkkkxxxkxxxkvMvkkxxkkkxvxfyfxxxxxxxxxxxxxxxxkkxxkkkkxxxxxxxxxxxxxxkfxxxxxxkkkxxxxkkxxxxxxxxxkxxkkkkxvxxkkkkkkxxxxkkkxvyyvxykvxkyfkkykxffxxfkyffMyftfkkkkkkkfqykkffkvkfyykxxxxkyyfkkkffffkkkfvyfvxkxkxxffqyfxfkkxkkffkkkyffffffffffffkkffffkkfyffqtytfkkyyyffffyyffffyyyffytyfkfffffyfyyyyffkfffyyyyyytttyyytyffffyyyfytq7qtyyyytttttkfyqqyfftyyyttyfqyyttyyttttyttqqyq7tyttyyytq737qfqqtq3qkttq77ttqttttqqqq77qqqqqq77qyft77qqqqqqtttqtt7qt73777737q73337q",
"kkkkkkkkftxykqxfkkkkkkkkxxxxxxxxxffkfkxffkkxxkfffkkkfykkkfffffkkxyfkkxxyvqxMqfMtxfyyfkfyfkkfyfkvkkkxkkkvykxkfkftxvfykkfffxvxkfffyfkfkvxyfkkkkxvvkyykvvkfffkffkxvkkkkkkkkkkkkxxxxkykMkykvxvkkvxkvkffvvkfkxxxkxxxkvvxkxvxfkkvvxfyfxxxxxxxxxxxxxxkkfkkxxxkkxxxxxxxxvxffkxvvkxvvxkkkkxxxxkkxxxxxxxxxkxxkkkkxvxxkkkkkkkxxxkkfxvytvxykxxfyykfykxffxxfktffvyyqffkkkkkfftyfkkkkkkkkkkkxxxkyyffkffyffkxkkxykMktyftkyvfvfkffkxxkffkkkffkfyfffffyyyfffkkxxxfyffqqytfkkyyfffkfyyfffyytykkfyfkxxfyyytyyyyyyfkkkfytttttqqqqtqqfffytqttqtyyyyfffffyyfffyttqyfyqtyyyttyftyt7tkkqqttyttqqyq7tyttyyyt7337tftqyt7txtyt33tt7qqqq7777tttqq773yq37q7qytyfyq7qt7373:7q33777737733:3qt",
"ffffffffykkttkxfxxxxkkkkkkkkkkkkxxxkkkkkvxxkkkfykffxxffkvkfkxxkffvfkfqvxkfxkqfMkyfxxkytqfffkkxxxkkxkykvxxMxfxkyt7vZxykfqfvkfxfyvxyqkMMxkfffxkfkvMxfkxxkyxkfkkxxxkkytkZMyfxxxkxkyxxxkfkxxfxkfkffxfffyfxvxxxxkxvvkvffvMxkxkkxMvkkvxkfkxkkxvxkkxxvxxkkkkkkkfvZZvkkkkkkkkxxvkkkkkkkkkkxxkxxvkqyMvkkxkkffkxvvkkftqqykxxkkkxxxfyfxxkkvvxkkxxkfxvqxfkfyfMfvkqfqxvytMvfkkykxyxMffkkxkft7Mkyfkkfftykvkqtxykvvfyfxfffkxxkffkkkffyyyfkkxkkkyyfkkffffffkkkfyykxkyyyyffyyfkfyxfyfyttfyffffyffffytttyfytttyytqtqtyfffyt3:qfxkktyt77tfyyyyyyyfffytyfffytqyfttytyytqfyqtyfyttytqttyffyytqtqqyfyqqtyt:3yyyyyytq77ttttttttfyqqqtttttqqqttyt77yy73q3337733377qttttqq733333337tt73",
"kkkkkkkkkfyyffkxxxxkkkkkkkkkkkkkxxkkkkkkfxvkyqtfkffxxffkxkffkxfyxvtfxfvfffkfykxkkffkvvy7ffffkkxxkkkftykftkkkxf77kfyykkkfxfqtxxytkffxxkyykfkxxfkvvkfkkfffxkfkkxxxxkyykvxfkxxkkxkfxxxffkxxfxkfkkfxkkkfkxvxxxxkxvxkxkkxvxxxkkxvvkkvxkfkxxxxvxkkxxvxkkkkkkkxkxMMvkkkxkkkxxxxkkkkkkkkkxxxkxxvkykvxfkkkxxxkkxvxxkfyfkxxxxxxxkxfffkxkxxxkkkxkkfxvqxfkffkvkxktftkkffvMxxkkvvxvvfkkfkkfyykfkxkfyffyfkkyyxffkkffkxfffkkxkffkkkffyyffkkkkkkyyfkkffffffkkfffyfkfyyfyffyyykkfyttyytyfffffytttyffkkfffttttyyyfyyyyfytqytqyfffftytqtyytyyyyyyfffytyfffytqyfttftyytqfyqtyfyttytqtq777qttttqqtyt7ttyq-3yfttqqqqqqttttttttyttqttttttqqqqtt7tt77yt3qq7777777qqtttqqq773333337tt73",
"xxxxxxxxxytkkyyxxxxkkkkkkkkkkkkkxxxkkkkkykvxyqykkffxxffkxkffkkfyxxtfxkvfykffkxffxffkvvfqyyfffkkkkkkfqtyttyfkxt3tvt7fxfkvfyfkytffkxxxyqqykkkxxkxvvfykkyykkkfkkxxxvkffkkfkxxfyfxxkxxxffkxxfxkkxkkvxxxkkxxkxvxkxvxkxvvxkxxxkkxvvxkxxkfxxxxxxxkkxxxxkkkkkkxxxxxxxxkkxkkkxxxkxxxxxxkxxxxxkkxvkfxvffkfkxMvxkkxvxkkxxvvxxxxxkkkkkkkkxxkffffkkkkxvqxffkfxkvkffyfkfkxkxvkkvxfkkfkkkffkkkktfxvkyykxytfkkkxkfyyykxxffffkxkffkkkkfffffkkxkkkyyfkxfffffffffffyffyyfffffyyykkytqqtytyfffffytttyyfffyytyffyttyffffffyq7fyfkkfyfyttyfyyyytqtyffffyyyyfyytqyfttftyytqfyqtyfyttytqyttqttyfttqqtyq3ttt7-3fkytqqqtqqqqqtttttqttttttttqqqqqqq3qq37yy7tttqqqqqqqqqqq777777777377qq73",
"kkkkkkkkkyyffyfxxkkkkkkkkkkkkkkkxkkkkkkkxxkkxxkfkffxxffkfffffffyfxxxfykxtkyyvxyffkxvxkffyyyffkkkkkkfqtfykkfkkqqxyqtxxykZfyvMtqxxvvvfq7txxxxxxxxvvytxvfykkkfkkxxxMkfxkyykMxfyfkxxxxxkfkxxfxxkvxkvMvxkxxkkvvxxkxxkkvvkfxxxkkxxxxxxkffxvxxxxxkkxxxxkkkkkkxxvxkkxxxkkkxxxkkkkkxxxxxxxxxxkkxxkkvxyfxfkxvxxkkkxxxxMMvvxxxxxkkfkxxffxxfffffkkkkxvtvffkkvfMfyxtxkyxvyfkyxMy3tttxkfffkkkkykxxftyxxftfkkfkkkfyfkxxffffkkkffkxkkfffffkkkkkkyyfkxffffffffkkkyyytyfkfkkfyyfftyyyyyyyyyffffyffkfytqqttkkfyttyffffffyytyyfxxkffftqfkyyftqqtyffyyyyyyyyytqyftyftyytqfyqtyfyttytqttyfffyytttqtyt7qqtq:qkxkyqqtytqqqqqtttt7qtytqttqqqqqqq7q::qt77ttqqqqqqtqq77777777qqq7737qqq77",
"fffffffffkkyykxkkkkkkkkkxxkkkkxxkkkkkkkkxkkkxxkkkffxxffkffkffyyfyfxxfffxtfyyvxtfykxxkkkkyyffkkkkkkxkyfvxkkfkkqqvttyfkkxvvtykfkvfxxxfyykxxxxxxxxxvyyxMxffkkfkkxxxMffxxyyxvkyyfkxvxxxkfkxxfxxxvxkxMvxxxxkkvvxxxxxkkvvkfkxkkxxxxxxxfffxvxxxxxkkkxxxkkkkkxxxvxkkkxxkfkvxkfkxxxxxxxxxxxxxxxxvfkvxykxkxkffkxkkkkkxMMvxkxxxxkkfkvxffxxfyffkkkkkkvtvffkxvfvyyxyvfyxvyykyxMy3qttxkfffkkffxxxkytfxfyyfkfyykxxffkxkfyyfkxkfkkxkkkkkkkkkkkfffyfkxffffffffkkkyyytyfkfkkfyyffttyyyyyyyyffffyffkkfyyyfkytttyfkkyfffffyyytykxkyykttyfyyktqqtfffyyyyyyyyytqyftyfyyytqfyqtyfyttytq7qttttqqqtqqtyyqtqyt7tkfyq77qtttttqqqqqt3qtttqqqqqqqq777q::qq33q77777qttqq7777777qqqqq737qqq77",
"ffffffffykktyxvkkkkkkkkkxxxxkkxxkkkkkkkktfxxyyfxkffxxffkfkkkfyffktfykvyyyyyfkfyfkytfxvkyfffkkxxxkkvxfkMvyffkkt7fkfq7fMvykttytyfkfkxxxxxfxxxkkxxkxffxMvkfkkfkkxxxvfyxxffxxkffkkxvxxxkfkxxfxxxvxfxvxkkxkkxxvxkxvxkkxxkkkxkkxkkkxxkfyfxvvxxxkkkkxxxkkkkkxxxvxkkxxxxfkvxkfkxxxxxxxxxxxxxxxxvffxvkkxxxkyfkxkkffkxvvxkxxkkkkkkkxxkkxkffkkkkkkkkvyvffkxxkxyykfvyfxvffxkkvxfkkfkkkfkkkfyvxkfyyfvtykkkfttkvxkfxxkfyyfkkkfkkkkkkkxkkkkkkfffffxxffffffffkkkyffyyfffffyyykkyqtyyfffyffffytttyyfkkkkkftttyfkffffyytyykytffytqfyyyyyfkyttyffytyyfyyyyytqyftyfyyytqfyqtyfyttytqyttqttyyqtqqyfyqyykfqqt733:37qtttqq7qqqq7qqqqqqqqqqqqqqq3qq33tq:33777qqqq77777qqqqqqq733qq7777",
"kkkkffffkkfffkxxkkkkkkffxxxxkkxxkkkkkkfftfxxyykvxffxxffxfxxxfyfkfqfyfvttftyfyyfkftqykvkykkkkxxxxxkxkyfxkfkkfkftyvfttkMxqtfyttqyMfkkfkxkykxkfkxxffkkfkxxkkkfkkxxxkyyfxkxvffkxkfkvxxxkfkxxfvvxvxfkxffkxkxvxxxkxvxkxkkxxxkxkxkfkvxkyyfvMvxxxkkkkxxxxkkkxxxxvxxkxxvvkkkkkxxxxxxxxxxxxxxxxxvvkykMxkxxxkkkxxkffkxvxxkkkkkkkkkkkfkxxkfkkxvxxkkxfvyMyykvkxyffyxxfxxkkkfxkkvvxvvfkkkkkkkfffkkkyfxyfkkkftqxxkyfvvkfyyfkkfykkkkkkkxxkkkkffffffxxffffffkkkffyfkfyyyyffyyykkfqyfffkkyffffyttttyyffffykkffyyttffytqqtykfyytq7qtffyyyffyyyyyyytyfffytyytqyftyfyyytqfyqtyfyttytqffyyyffkttqqtyt7yyffqqt3777qqqttttq777qqtqq77qqqqqq7qqqq7tt77yt377qqqqq7777qqqttqqqq7333qq777q",
"xxxxxxxxxyykkffvkkkkkfffxxxxxxxxkkkkkfkfkkkkxvvxxffxxffxkxvxfyfxtqxftf7fkqykqtkkttyfyffkkkxxxvvvxkxfqtfyvMxykxkkffkxvkyqvx77kxfvxxfqtfkfkkkffxkytxxyqfxxkkffkxxxfyyfkxvvyfxvxffvxxxffkxxfvvxvkyfkyyfkkxvxxxkxvvkxffxvxkxkxkfkvvkyyfvMvxxxkkkkxxxxxxkxxxxvxxxxxvvvkyfxvvkxxxxxxxxxxxxxxvMvyfMvkkkkxvvxkfffxvvxkkkkkkkkkkxfyfvvkfkxvvvxkkxfvyMyykvfxtfftvkfvkykftkkykxyxMfkkkfkkkkqyxvxffkkkkkkky7vxt7yMMkyyyfkkfykkkkkkkxxkkkkffffffxxffffffkkkfyykxkyyyyffyyfkfyykxkkxkyyffffyyfxkfyttyyyfkkfyyfyytq77tykffyq77y7fxftyfyyfffyyttyfffytyytqyfyyfyyytqfyqtyfyttytqqqtyyytqttqqtyq3qqyt7qt7yfffytttttq777qqyt737qqqtq777qttt77yfqqtqtttqq7777qqttyyqqq773::tq777q",
"xkkfffkxvxfyyfkkkkkkkkkkkkkkkkkkvkfkxxkykkkkkkkkfyfxfkkykyxvtyxkfffkkxxxxfyfyttffftkxfxkxfykkyfxfyqtfkkfxkffkvxffyykxkffkffxftfMvftfxxxxkkkkxxkyykvkyffyfkvvkfffkfkvvkytvvvfqkZvvxxxxvvxqfvMvxxkyttyxvvxkfvkfvkxxyfvvffvkxvMMMxfxxxxxxxxkkkxxxxxxxxxxxxxkkkkkkkkxxxxxxxxvvvMMvxkxvMqvvkxkfkvvxxxfxxkkvvfxxxxxxxvvxkkkxxxkxxkkfkkxxxxkkkvfxvxffkMyfkxkfkMvfZfkfxykvvfykvkkffxxfyfffxxtxvqyvMxxyqtvxfffkffffkkkkkkffffffkkkfffkkkffffffffffffffyyyyyffkkkkyyffkkkfyftyfyyxfytttyyyttyfkkfyfyttyyyttqyxxyqtyxkq7ykfktqtyyttyfkfytyftfkyttyttyyyyyytttttttttyyyttyyyqyfftqtffyqqqtq7ttyyyyttqqqqqqqqq733qyt7q:xf7ftqqq77tyt3:3:3fkyyytttttqq3qyyq777qq773377t7:::3",
"xkkffkkxvxfyyfkkkkkkkkkkkkkkkkkkvkfkxxfykkkkkkkkfyfxfkkyffxxyykkfffkkxxxxyyfftykkfqfxkxftffttffqkyqtfkfykxkkkxxffyykxkffxkyyfxxfZxkkkfffkkkkxxxfyxvkfffffkxxxfffkkxvvfyyxxxftkvfyykxvvxkqfvvvxxkfyyfxvvxkfvkfvkxkfkxxfkvxxvvMMvkxxxxxxxxkkkxxxxxxxxxxxxxkkkkkkkkxxxxxxxxxxxxvxxkxkZtxxxxkkkvvxkxkxxkkxxkxxxxxxxvvxkkkxxxkxxkkfkkxxxxkkkvkxxxkfkxfffxxkkxxfvktxkfkkkkkfkxkffxxfffffvxyxZktyttfyykvxfffkffffkkkkkkffffffkkkfffkkfffffffffffkkkffffffffffyyxkfyttttyfytffykfyyyyyyyfyyfkkfyyytttyyytyffyyyttfy7qfkyfyyyfyyytttyyyyytfkyttyttyyyyyytttttttttyyyttyyyttyyyyyytttttqqqttyyytttqqqqtttttq77tyt7q:kfqftqtq77qyt33733yyqq37qtq77q7qytq777qq7777qq73::7q",
"xkffffkxxkfyyffkkkkkkkkkkkkkkkkkxxkkkkfykkkkkkkkfykxfkkyyxkfkffxffkkkkkxkytffyfxxkqfxfxfyxxffxktfytyfkfffkxkfkkkfyfkxkffkxftyvvyvxxxfyykxxkfkvxffxvxkkkfkkxxkkfffkvvkyykxkxkfxxq3qfvMvkftkvvxxxxxkkkxvxkkfvkkvkxfkxkffxvxxxxvvvvxxxxxxxxkkxxxxxxxxxxxxxxkxxxxxxxxxxxxxxxxkkkxxkkxfZyfxvxxkkvvxkkxkkxxkkxxxxxxxxvvxkkkxxxkxxkkfkkxxkxkkkvxxxkkkkkxffkxxkkkffvqMfkkyfvxffxkffxxffffkvxykMv:37fvktfvxfffkfffkkkkkkkkkkkfkkkffffkkkkffffffffkkkkkkkfffffffyyxkfyyyytykytfkyyyyfffyyykffyffffyyyytyyfykfqqyfqyft7qkkytyfkfyyktq7qfkyttffyttyttyyyyyytttttttttyyttttyyytqtfkyq7qyytqttttttttttqqqtttttytqqtyt773kfqytqtq77qyt7qt77tt7q:7ttq77q7qttq777777qqq77---3qt",
"xkffffkxxkkffffkkkkkkkkkkkkkkkkkxxkkkkffkkkkkkkkfykxkkkyyxkyxkyxkkkkkkkkkytfffkvxkqfkykfxfkMMfyfyffffffffkxkfkkffffkxkffyxxftfkxfkxxfykMxxkfkvxkkxvxxkkkkxxxkkfffkvxfyfxvkkkkxxq7qfxvvkfykxxxxxxvvxxxxkkkfvkkvkxfxvkyfxvxkkkxxxvxxxxxxxxkkxxxxxxxxxxxxxxxxxkkxxxxxxxxxxxxxkkxxxxxyZkykZxxkkvvxkkvkkxxffxxxxxxxxvvxkkkxxxkxxkkkkkxkkxkkkvkxxkkfkxxkfxxxkfkykxtvffkfkxxffxkkkkkfffkkxkyyff:7tvZkqtvxfffkkfffkkfkkkkkkkkkkkffffffffffffffffkkkkkkfffffffkkkyfkxxkytyxfqfxfttfkkfyyykfyyyyfftyfyytyffkftqtyqfkfttkkyqykxytyktq7qyfyqyffyyttttyyyyyytttttttttyyttttyyyq7tfkt77qttttyyyttqqqttqqtttttqytqqqyt77qfytttqttq7qtt7qytqytqtqtyyt77q7qqqq77777qqq773-:3qtq",
"xkffffkxxkkffffkkkkkkkkkkkkkkkkkkxxkkfffkkkkkkkkfykxkkxyfxfyxkykkkkkkkffkyyfkfkvkxykfqkkftyxxtqtyfkkfyfkkkffkxkyfffxxkffkfkkftfvyfxxfyfvxxffkvvkkkxxxkkkxxkkkkkffxvkfyfxvkkkkvvyfffkxxkkfkxkkxxxvMvvxkkkkfvkkvkxfxvkyfxvxfyfkkkvxxxxxxxxkxxxxxxxxxxxxxxxxxxxxxxxxxxxxxxxvxxxxvvxxyZfykZxxkkvvxkkvkkxxffxxxxxxxxvvxkkkxxxkkkkkkkkxkkxkfkvykvxffkvkkkxxkfkvtvfkkfykvvkfkkfkkkkkkkkxkffkyqqtffkkttkvxfffkkffffkffkkfkkkkkkkfffffffffffffkfffffffffyyfffkkkkfffkkfq7yxfqfxfttfkkffyfyyyyyyyfyyffyyyffytfyqqtykkytyfyqykkyqtfytttyyytyyyfyttytyyyyyyttttttttttttttttyqqqtytq3qq7qtyyyttttqqqtqttttq77qqq7qtt73tyyyttqttqqqttqtytqyt7tytqqqqq7qqq7777q7777733::7tt73",
"xkffffkxkkkkffffkkkkkkkkkkkkkkkkkxxkfffkkkkkkkkffykxkkxfkkffxxffkkkkkfffxfykkfkvkxfky7fxyxxffkktyfkxkfffkkffkxkykffxxkffvytfxffkkkvvktyfxxkfkvvxkkkxxkkkvxkkkkkkkxxkffkkvkkkfxMvvxkfkkxxkxxkkxxkxvvvkffkkfvkkvkxfkxkffxvxfykxkkxxxxxxxxxkxxxxxxxxxxxxxxxxxxxxxxxxxxxxxxxvvxxvvvxxfZyfxvxxkkvvxkkxkkxxkkxxxxxxxxvvxkkkxxxkkkkfkkkxkkkkfkvykvxfykMkfkxxkfkMtMfvkkfkMMkfxxfkxkffkkkkkyfvfqtqkxkkytfvkfffkkfffffffffffkkkkkkffffffffffffkkfkffffffyyfffffyyyytqqttttykftfxfyyffffffftyyyyyyfyffffyyyfttkftqyqyfytyffttyfyqtyyyfyytttfyyfyttytyyyyyytttttttttttttttttqtytq777yq77tyttttttttttttttqq73qqq7qtq7:fttyqqqyytqqttqty77qq37t7337qq3tqq7777q777773::7tyt3-",
"kkffffkxkkkkkfffkkkkkkkkkkkkkkkkfxxkfyfkffffffkkfykxkkxfxyfkkxxyxkkkffyyvkfkkffxkvfky7fkkvvkfxvfkffkxxftkkffkxkffffxxkffxftykkkkxkxxkyyyvxffkxvvkffxxffkvxkfkkkkxxkfkxkyvkxxyfvMvxffkkxvkxxkkxkfkxvxkffkkfvkkvkxkfkxxfkvvfkvvkkxxxxxxxxxkxxxxxxxxxxxxxxxxxxxxxxxxxxxxxxxxxxxxxkkxkZtxxxxkkkvvxkxkkxkkxxkxxxxxxxxvxkkkxxxkkkkkkkxxkkkkfkxfkxkffkxkffxvxkfMyxxxvkkkxvxkkffxxxffkxkkktfvf7f7xvkxxytvxfffkkffffffkffffffkfkkffffffffffffkkkkfffffffffffffyyyttqqtyfffkyykffkffyyyffffffyttyfffffffytttyyfyyfqtyyyffyytqyyyyyyyyyytttfyyffttytyyyyyyttttttttttttttttttyyt73qyytttttqqqqttytttqttttq77tytqqtq7:kqtf7qqyytqqttqqq3:qq37q7337q73tq73377q77777737ttq733",
"kkffffkkkkkkkfffkkkkkkkkkkkkkkkkfxxkyyykffffffkkfykxkkxfvtfkfxvtxxkkkfyyMxkxkyfxxvyfyqffxytkktyxxftfvMfqfkkffkkkkffxxkkkyxvftfxxfyfxxkffvxfykvvvfyykkfyfvxffkkkkvxkfkvktxkvvyyvMkfffkxxvkxxxxxkffxxxfffxkfvkkvkxxyfvvffvMxxZZvxvxxxxxxxxkxxxxxxxxxxxxxxxxxxxxxxxxxxxxxxxkkkxxkfyxvMqvvkxkfkvvxxxfxxkkvxfxxxxxxxxvxkkkxxxkkkkkkkkkkkkkfkxkkkkfffkxfykMvkyMffMkZkvkfkvvfykxxkyfkxkkktyxt3kkZxqyxxfvxfffkkfffffffffffffkfffffffffffffffkkkkkkkkkkfffffkkkffkkkkkkfyffyykfyvkfttyfffxkftqtykkfffffytqyfttkkyffyyfkytyq7tffffyytyyyttfytffttytyyyyyytttttttttttttttttkkyq:3tftyfytq7qqqtyyyttqttyttq7ffftttq7-kqtf7qqyyyqqttt77::ttqqttttq777tq733777777777qqtq3:37",
"kkkfffffkkkkkkffxxxkkkffkkkkkkkkxxkfffkkfkxkyykvkkkkkkkkMqyvxkxfyfkkkkfyfffffkkkxfyfxvxfMfkfyftkxqqxvffxkvxkvvkxffkxvvkfkxxxxkkftfkkytyfvvxffkkkfkkxxxxxfffkfffkkxxxkkkxfkkkxxxxkxfyyfkfkkkkkkkkkkfkxxxkkkxkxkkkkkxxxkkkvvvxxxxkkkxxxxkkkxxxxxxxkkxxxxxkkkkkkkkkxxxxxxxkxxxxxxxxxxxxxxkkfkkkxxxxxxxxxxxxkxxvxxkkfkxvxxkkkkkkfkkkffxxkxxykkffkxvMvvkfyyyfZfyfyxvtfkkkkfffkkkkkkkkvktxyfyxkfffkxxkkkkkffkxtkMxyxMfxkkkkkfytykvxfttfkxkfyyfkxkfytttfkfyftqffyttyfffyxkyyytyffffffffytqqqtffykftyytyftqytqqtfffyyffyttykkfyyfffyytyyyyyyyyyyyyyyttqqyyfkyqtfyyyyyyyyyttqqqtt-tfq7qtqyttfyq7qqqqqqqqqqqtttq77qqttqqqtqqtttq77t37yfq7qq77337ttt77qq77t73337q73333333",
"kkkfffffkkkkkkffkkkkkkkfkkkkkkkkxxkfffkkfkxfffkvkkkkkkkkkfkkkxxfyffkkkfffffffkkkkfffxxkfMfxfyftkytfxkyfvxvkyffyfffkxvvkfkkxxxkkffkxxffkxvvxffkkkfkxxxkkxfffkfffkkxxkkkkkkkfffkxvkkkyyfkfkkkkkkkkvxkkxxkfkxxxxkkkfkxxxkkkxvMvxkxxkkxxxxkkkxxxxxxxkkxxxxxxkkkkkkkkxxxxxxxkxxxxxxxxxxxxxxkkfkkxxxxxxxxxxxxxkxxxxxkkfkxvxxkkkkkkfkkkkkvxfkxffkxxxkffxxkfffffxfkxtyvxfkkkkfffkkkkkkkkkkyxykyxkffffkkkkkkkffkxykvxykvkxkkkkkfyyykxxfyyfkkkfffkffyfffytyyyykftfffffffffykfyfytyfffffyyyyyytqtykykftyytyfttytqqtyffyyfftttykkfyyfffyytyyyyyyyyyyyyyyyyyyyyfft7qfyyyyyyyytttttttt3ty73qttytyytqqtqqqqttttqtttqqq7qttttqttqttttqq7qqqqttq7qq7777qtqqqqqqqt73337q77777777",
"kkkkkkffkkkkkkfffkkkkkkkkkkkkkkkxxkffffkkkkfffkxkkkkkkkktvxyfxkfffkkkkfffffffkkkkfffkxkfvfxffftkyyfkkffxxvfqyffxkkkkxvkkkkxxxkkffkxxkfkkvvkfkxxkkxxxxkkkfffkkffkxxkkkkxxvxfyykxMkkkfykkfxkkxxxxxvvxkkkffkkxxxxkkkkxxxkkkkxMvxkkxkkxxxkkkkxkkxxxxkxxxxxxxxxxxkxxxxxxxxxxkxxxxxxxxkxxxxxkkkkkkxxxxxxxxxxxxkxxxxxkkkxxvxkkkkkkkkkkxkkvxyfvxfxvvkyyykkkkkkffkfxxyfxxfkkkkfffkkkkkkkkyxfxyvfffkkkfffkkkkkkfkxkfxxffxkkkffkfffyfkxkfffffffkkkkfytykkfttytyvkyffkxkfyfkykytffyfffffyyttyffytqykykftfyttfytytttyyfyyyfytttykkfyyfffytttyyyyyyyyyyyyyyffktyyyq7qyyyyytttttttyttqq7qttqqtttyytqqttttttttttttttqqqqtyyytttttttqqqqq7tt33tyqqqqqqq777qqqqttq7777qqq7777777",
"kkkkkkkkkkkkkkfffffkkxxxkkkkkkkkxkkffffkkkffffkxkkkkkkkkyvkyxxfkfffkkkkkfffffkkkkfffkkkfxfxffkyfktqyxvkyykfyxvMZkkfkxxxkkkxxxkkfffffffffxxkfkxxfkxvxxkkkkfkxkffxxxkkkxxxxkkffkxxfkkffkkkxkkkxxxxxxkkkkkfxxxxxxkkkxxxxxkxkxvvxkkxkxxxxxkkkxxkxxxxxxxxxxxxxxxxxxxxxxxxxxxkxxxxxxxxxxxxxxxxkkkkxxxxxxxxxxxxkxxxxxxkkxvvxkkkkkkkkkkxffxxfkvxkxxkffkxfkkkxkkkvkffkxktfkkkkfffkkkkkkkktkfxyvkffkxxffffkkkkffkxxfkxyykkkkkffffffffkkffkfyyfkkkfffffxkytffyfxftyffkffffkyfytfkffffffyyyyyyfyttyfykftffttyyyyttyfffyttyytttykkfyyfffytttyyyyyyyyyyyttyffkqtytqqqyyyyttttttttttq7777qffyttqyy77tytttttttttqtqqqqttyyfyytttttttqtttqtt73qttqqtttq733qtqqyt7777qqqqqqqqqqq",
"kkkkkkkkkkkkkkkffffkkkxxkkkkkkkkxkkffffkkkfyfkkkkkkkkkkkkktyMxtkffffkkkkfffkkkkkffkfffffkfxffxyfkyqyxvkyqfkkvMxvxkffkxxkkkxxxkkfffffffffkxxkkxxfkxvxkkffkkkxxkkxxkkkkxxkfkkxxxkffkkkkxxkxxxxxxxxffkkkkxxxxxxxxkkkxxxxxxxxfkxvxffxxxxxxxxkxkkxxxxxxxxxxxxxxxxxxxxxxxxxxkkxxkkkxxxxxxxxxxxkkkkkkkkxxxxxxxxxxxxxxxxxxvvxkkkkkkkkkxxfykxfkxyxkkkkxxxffkxxxkkxkffxxftkkxkkkkkkkkkkkkktxfxyvkyyfxxkfffkkkkkkkxxffkyykkffffffkkkfyfkffkfyyyfkfyfkkxkkfykxkfkytkkfyyyfkkyfytkxffyyfffffyytttyfyyykytfftttyfyyyyfkftqqyfyytyffyyyfffytttyyyyyyyyyyyytttyy7tyytttyyyyttttttttttttqtqqyyttttyt73tytttttttttqqqqqqttyyyyytttttqqqttttqqq737yqqqttq733qtqqtt77qqqq7qqqqqqqq",
"kkkkkkkkkkkkkkkffffkkkkkkkkkkkkkkkffffffxfyyfkkkkkkkkkkkxyqfvkykkkfffkkxfffkkkkkffkffyffkfvffxyftyfkfyfxtkkkxkttxkfykxxxfkkxxkkfxkkkxxkkkkxkxvxfkxxxkkkkxkxxxkkvvkffkxxxyfxvvxfyfkkkxxxkxxxxxxxxyffkkkxvxxxxxxxkkxvxxxxxxfyxvxffxxxxxxxxkxkkxxxxxxxxxxxxxxxxxxxxxxxxxxkkxxxkxxxxxxkkxxxxxxkkkkkkxxxxxxxxxxxxxxxxxvvxxkkkkkkkkkxxkfkxfkfqkkxxvxkykkkxxxxxqkxkkfyxkkxkkkkkffffkkkfyxfxyvffffkkkffkkkkkkkkxkyffyfxkfkffffkxkyyfffffkffffffyyfxxkffkfxkfkyyxkyttyffytkfykkffyyffffffytqtfkfttfytkkttqyffyyyykftqqyffytyffytyyfyytttyyyyyyyyyyyyttttqqyyytyytyytttttttttyyyffkyq737qtfyq37tttttqqttqqqqqqqqqqttyyttttqqqqttqqt77tq37yqqqqqq777qqqqqq7qqqq7777777777",
"kkkkkkkkkkkkkkffkkkkkfffkkkkkkkkkkfyfffkxfyyfkkfkkkkkkkkkyykkkkykkfffkkxfffkfkkkyfkkyyyfffvffvffttyxktyvyxkfkfttxkyyfkxxffkkxkkfvkffxxxkfkxxxvxffkxxxkkkxkxvxkxvvkffkxxxfkxxxxkfykxkxvxkxxxxxxxxfkkkkkkxxxxxxxxxkxvvxxxxkyyxvkffxxxxxxxxkxxxxxxxxxxvvxxxxxxxxxxxxxxxxkkkkkkkkkkkxkkkkxxxxxxkkkkkxxxxxxxxkkkxkxxxvvvxkkkkkkkkkkxxkfxxffkykxxxxkffkkxxxxxx7xxkxftxkkxkkfkkffffkkffkkyxykyxffffkkkkkkkkkkkxyyfytkvfffkfffkxkyyfffyffkkkffffffkfkffyfkffxfyxfyffyyyttkkfkkyfyyyffyyyyttyffyttfytkktt7ykfyyytffyttfkfytyffytyyfyyttttyyyyyyyyyyyyttqqyfyqqtttyytttttqttyyyyyyyfy77tttkt37qttqqqqqqqqqqqqqqq77qttttqttqqtttqq7q77qtq77777777qqq77qq777qqqq7337777777",
"kkkkkkkkkkkkkkffxkkkfffykkkkkkkkxkfyyffkxftyfkkfkkkkkkkkfyxktkvtkkfffkxxfffkkkkkyfkkytyfyfvffvffkqqkxfykfvkfkxkxvkyyfkxxffkkxkkfxfyykkkyfkxxxvxffkxxxkxxxxxvxkxvvxffkxxkxkkkkkkkyfkxxvxkxxxxxxxxkxxkfffkxxxxxxxkkxvvxxxxfyfvvfykxxxxxxxxkxxxxxxxxxxvvxxxxxxxxxxxxxxxxkkkkkkkkkkkxxkkkxxvvxxkkkkkxxxxxxxxkkkkkxxxvvvxkkfkkkkkkxxxyfxxyfvxkxxfyykvxxxxxxxxyxffMxqtkkxkkkkkkfffkkkkvktxyfyxkfyykxxkkkkkkkkxtyfytxMfffkfffkvkyyffyyyfkxkkfkxvkfyfftqfkfkvkyfyfxxftqqqkxkkfyyyyyyyyttyyffffyytfytkktq7ykfyytqyyyyfkkfytyffytyyyyyttttyyyyyyyytyyyytq7kky73qtqyyttttqqqtyyytq33yfyykftxq:7ytqq77777qqqqqqqqq73qqttqqqtqqtttq773qq7qyq:773:37qtt77qq33qqttq7333333333",
"kkkkkkkkkkkkkkffxxkkfyyyfMxfxkyxxffxxffxqyfffykxxkyykxkkvfyykkkfyxfyxkyxktkvfkxyyxfyxftffkxfyvZkfqqkxffvfkftyxxftfkkkxvxfxxyykkyxffkkffffffkvvxkkxvkkxvvkkkkkffxxkkkfkkxfvvfykvxkxxxkkkkvxxkkkkkxkkxxxkxkkxxxkkfkkkkkkkkkkkkkkkkxxxxxxxxxxxxxxxxxxxxxxxxxxxxxxxxxxxxxxxxxxxxxxxxfxxkkxxkkkkkxxxxxkkkkxxxkkkkkkffkxvxfyfkvZxfxfyvxkkxxkkxfxxkkxxkfxvkyyfkfkxkkxxkfkyxyxfkkkfyxkyfyfxxfyyffffffkkkkkkkffffffffkkkkyfkfkkkfkffffyyykxkytkkftkkfkkyykxkyyfkfkffyyfkkkkfyyyyyfttfkyyffyttyfffytqtyyyf7qykkytffffyyffyyyyyytttfkfttyfyfftqfyqtyyttttttfyqqqtyttqqqtytqqtttttttft77qyttqtttqqqqtqqtyfytfqty7qy777qqqqqqqqqqqq77qttqtyq--3qttttt73::qtqq7777777733qt73",
"kkkkkkkkkkkkkkffxkkkffyyfvxfxfyxkkkkkffktyfkffkxxkyykxkkfxxkyykxfkffkkfkytykffftfkffkfyyxkxktyxkt77kvkkMfkfyyxxfyfkkkxxkkffkkfffxffkkkfkfffkvvxkkxxkkxvvkkkxkfkxxkkkkkkkfvvfykxxkxxxkkkkvxkkkkkxxkkxxxkxvxkyyfxvkkkkkkkkkkkkkkkkxxxxxxxxkxxxxxxxxxxxxxxxxxxxxxxxxxxxxxxxxxxxxxxxfkxkkxxkkkkkxxxxxkkkkxxxkkkkkkffxxxxfyfxvMvxkffvxkkxxkkkfkxkkxxkkxxkfffffkxxkkkkfkfxyxfkkxfyxxyfyfxxfffffffkfkkkkkkkffffffffkkkkyfkfkkkfkkffffffkkfyffkfykkfkkyykkfytfkfkffyyffkkffyyyyyfttfkyyfyyttyfffytqtfyyfttykfttyyyytyffyyyyyyyttyfytqyfyyftqyyqyytttttttyttqqtttttttttttttttttqqfytqqtttttqqqqtttqqqtyytf7tt7qy7qqqqqqqqtqqqqq73tyt77ttq37qqq73377777q7q7777777733qt73",
"kkkkkkkkkkkkkfffkkkkfffyfvxkkfyxfkkffkkfyfkffffkvkyykxkkyxvftfkkkykkffkfyyyfxftfkfkkfffyxfxxq7yxyqqkxkkvfkfyyxxfkxxkkkkykyyxxyyxxkkxxkkkkffkvvxkkxxkkxvvxkxxxkkxxkkkxxkkfxvkfkvxxxxxkkkkxxkkkkkxxkkxvxkkkkkkkkkkxxxxkkxkkkkkkkkkxxxxxxxxkxxxxxxxxxxxxxxxxxxxxxxxxxxxxxxxxxxxxxxxkxxkkxxkkkkkkkxxxkkfkxxxkkkkkkkkkxxkffkxxkvMkykxkkkxxkkxfkkkkkkfxxxffkkffkxxkkkkfkfxyxfkkxfyxxffyfxkfffffffkkkkkkkkkfffffffkkkkkyfkfkkkfkkkffffffyfkkfffyxkykfyyffyttffffffyyfffkfffyyyyyttffyyfyytyyyyyftqtffffytyfytqttttqtffyyyyyyyyytyyttyyytfytyttftttttttytttttqqttyyytqttttttqqqqyfytqqtttttqqqttytqqtttqy7qq7qyqtttttttqtqqqq7733qt3:7qqttqqqqq77qqq7777777qqqqq33qt73",
"kkkkkkkkkkkkkfffkkkffffffxxkkffkfxxffkxffffffffkvkyykxkfkxftfvxyxykxyfxyfkyfMktxkykxyfktffxk73yxxffkxytffkfyfxxfxvxkffftkyfkkffxvxkxxxkxkkfkxvxkkkkxxxxxxxxvxkkvkkkxvvkfkxxkfkxxxxxxkkkkxxkkkkkxxkkxxxkkfkxxxxffxxxxxxxxkkkkkkkkxxxxxxxxkkxxxxxxxxxxxxxxxxxxxxxxxxxxxxxxxxxxxxxxkxxkkxxkkkkkkxxxxkkfkxxxkkkkkkkkkxxfffkxkfMZfyvxkfkxxkkkkkkkkkffvvkffkkfkfkxxffkfkfxyxfkkxfyxxfffkkkkfffkkfkkkkfffkkkffffffkkkkkyfkfkkkfkkkkfkkkftyxxfyfyxkykkyyyyytyyfffffyyffffffffyyyytyffyyfyytyyyttftqyffffyyytttqttyttyffyyyyyyyyytttttyyyqyytytqyttttttyyqtyytqqqyyfytqqtqtttttqqyyytqqqtttqqqtyyyt77qtqqtq777qttyttttttqtqqqqq77+3q7::::q777qttt77qqq77377qqqqqq33qt73",
"kkkkkkkkkkkkkkffffffffffkkkkyyffykkyfkkfkkffffffvkyfkxkfxxftfxxyxykxtyktfkyfMktxkykvyfxtqfvy:qxxxkfkkyyyfkkyfxxkxvvkkfytykkffxxkvxkxxkkxkkfkxvxkkkkxxxxxxkxxxkkvkkkxxxkfkxxkkxxxkkxxkkkkkkkkkxxxxkkxxkkkvxkfyfxvxxxxxxxxxxxxkkkkxxxxxxxxkkkkxxxxxxxxxxxxxxxxxxxxxxxxxxxxxxxxxxxxkxxkkxxkkkkkkkkkxkkfkxxxkkkkkkkkxxxffkxkkyvZffvxkkkxxkkkxkkkkfffvvkffkkkkfkvxyykkxfxyxfkxxffxxffkkkkffffkkkkxxkfffkkkkkkfffkkkkkfkkfkkkffkfkkkkkftyxxyyfyxkykkyytttyyyfffffyyyyfffffffyytyyffyyfyytyyyttkyqyffyyyyttttttfffyyffyyyyyyyyyttyyyyyy7yyyftqytttttyyyqtyytqqqyyfytqqtqqtttttttqqqtttqttqqqttyytq7qtqqtt73qqqtyytttttqtqqqttqq-qyq::::73::3qqq7337qq7377qqqtqq33qt33",
"kkkkkkkkkkkkkfffffffkkkkkfxxyykffkkffkkfxkffkkfyvkyfkxkkfkxkyyfxkffkyyftfttfxytfkfkxffkyqfxt3yvkfyykxkkkfkkyfxxkxvvkkfytykkyfvvkxkkxxkkkxkfkxxxkkkkxvxkxkkkxkfkxkkxxxxkkkkkkkxxxkkxxkkkkkkkkkxxxxkkxxkkkxxkkkkkkxxxxkkxkxxxxxxkkxxxxxxxxkkkxxxxxxxxxxxxxxxxxxxxxxxxxxxxxxxxxxxxxkxxkkxxkkkkkkkkkxkffkxxxkkkkkkxxkvxffkxkkfxMxkxxkkfkxfkkxkkkkffkxvxffkxxxyfvxttkkxfxyxfkxvkfxxffxkkkkfffkkkkxxkyyffkkkkkfffkkkkkfkkfkkkffffffffffyfkffyfykfyfkffytyffffffffffyyyyffffffftyffyyyfyytyyyytkytyyttyyytqtyytfkfyyffyyyfyyyyyttyffyty7yttyyqyyytttyyytttttqtttyyyttttqqttyyyyqq7qtttqtqqqqqttytqqtttqtyq7tq7tytqqqtttqqqqttqqtffq7qtttqqqttyt73:3qtq377qqqqqq33qt73",
"kkkkkkkkkkkkkkfffffkkkkkkykxtykykffkkffkxkffkkftvkyfkxkkkfkxftfvfkfyfytykqtxkyyffxkkxkyfffkfqykffyyfxkkkfkkyfxxkkxxkkkfyyfffkxxxxkfkkkfkxkkkxxxkxffxvxkxkfkkkffkkxvvxkkxkkkxxxkkkkkxkkkkfkkkxxxxxkkkxkkkfkxvxkfykkkkkkkkkxxxxxxxxxxxxxxxkkkkkxxxxxxxxxxxxxxxxxxxxxxxxxxxxxxxxxxxkkxkkxxkkkkkxxxxxkkkkxxxkkkkkkxxkvxffxxfkxkxvxkxkffkkffkvkkxkfkxxxxffkxvxyfvvttxkxfxyxykxvkfxkyfxxkkkfffkkkkvxkyyffkkkkkffffkkkkfkkffkkffkfffffffffyyffftkfyfkfkfyykkffkfffffyyyyyffkfffqyffyyffyyttyyffkffytqqtyfyttfytyfytyffyyffyyyyytqtfftqtyyq7tttyyyytttyyyyttttyyttttttttqqtttttt7qtttqqqqqqqqqqqtqqqtytttft7yt3qyt737qtttqqqqq73yfyqqyyqttfffyyyq777qtqqqqq7qqqq33qt73",
"kkkkkkkkkkkkkkfffffkkxxxkykxtykykyykkyykvkffkkftvkyfkxkfMytkxfyxfxftky7yvqyMxfkffxkfvktkvffkytyfxkfkkkfffkkyfxxkkxxkkkfykyyxxkkvxffkkfffxkkkxxkkxffxvxkxfffkfyfkfxvvkfkvkkkxxxkkkkkkkkkkffkkxxxxxkfkxkkkvxkfffkxkkkkkfffxxxxxxxxxxxxxxxxkkkkkxxxxxxxxxxxxxxxxxxxxxxxxxxxxxxxxxxxkxxkkxxkkkkkxxxxxkkkkxxxxkkkkxxxkvxffxxyxvffMxfvkfkkxkfkvkkxkkkxkxxfyfxMvyyMvttxfkyxyxyfxvkfxxyfxxkkkfffkkkkvxkyyyfkkxkkfffffkkkfkkffkkfffffffyyfkfttfkyykftfkfkfyfxxffkfffffyyyyyffkkffqyffyyfffyttyyffkkkft77qffyttfyqtttttffyfyffyyyytqtfftqqff73qttfyyyytttykytqtyyytqqqyytqttttqqqq7tfyt7qtqqqqqq77qqqtyyytykt7yt3qyq3:7qttttq7773:3qq7qyq:-3qqq733qqqq7qttqqq777qq33qt73",
"yxtkktxyytkyxfxxkkkkkkkkkyyxytvyyxkfkffxffffkkkkkkkkkkkfxyqyvktytvyftfqvxyfxktyxfvkyxkyxyqfkykMkkkfttyffMyqfvxxZfxxkkxxfkykktyMxkyfxxffkkkkkkxxvxkfkvvkfkkkkkkxxkkxxxxkfkkkkkkffxxxkxMMvkxxffxxkffffkxvMkkxxxxvMxxxxxkkktkxxkxxkkkkkkkkkxxxxxxxxkxxxxxxxxkxkxxxxxxkkkxxxxxxxxxxxxxxxxkkkkkkkkkkkkfkkyfvvvkyykvvvxkffkxxxxxxxxxxxfMkyvvfkxxxxkkkkkxxkfkkkxxkkkkkkxkfkkxkfkffvxfkvxvykkfxfkMffxfxxkkkkkkxxxkfyyyyfkffffkkkkfyyfkkkfffkkfffffffffffkkkfyfkfkftqyxxffyyyytyfffyyyyyyfytyfkkftqqtfkkfqtfxkt77qqqyfkkffytyyyyfyq33qyfykq7ykfyyyyyyyytt7t7qfftyttttyyytt33yxfyytyt77tyyqttqtyytyyyyyttqt77qtqqyqtttq7qtqfq:tt33qqttq7333q73qq7yt3:qytqqqq737777337777",
"fxykkyxfytkyxfxkkkkkkkkkfkykfyxyyxkfkffxffffkkkkkkkkkkfkkytfvktytxfyyytxkyfxktyxkxkfkkfkyyfffkxkfkkfyffyMftfxxxvfxvkkxkyxffyqyvMkffkkkkkkkkkkkxvxkfkvvkffkkkkkxxkkkxvxkfkkkkkkffkxkkxvvvkxkffxxkfkkkkkkkyfkxfyfxxxxxxxkkykxkkxxkkkkkkkkkxxxxxxxxkxxxxxxxxxxxxxxxxxxxxxxxxxxxxxxxxxxxxkkkkkkkkkkkkfkxffvvxkffkxxxxkkkxxxxxxxxxxxxfvkyvvfkxxxkkkkkkxxkfkkkkkkkkkkkkkkkkkffkxxkfkxvkxykkfxkyvfxvfkfkkkkkkkkkfffyfffkkffffkkfffffkkkfffkkfffffffffffkkkfykkfkftqyxxffyyfffyyffffyyyyyytyfkfyyyttyffyyyfkfttyyffffyyyfytyyyttqqtyfyttkq7ykfyyyyyyytttqtqqyfyfyttttyyttttyt77q3tyttyftqttqqttq77qqqqqqt77qtqqyqttqq7qtqyq3tt77qqqqqqqqtyqqtt7tq77qqq77777377773:7tq:",
"fxfxxfxkfykyxfxkkkkkkkkkyxyfkykfyxkfkffxfffkkkkkxxkkkkkkyfykvfqfykkykyykkyfxkyykkfkkfkkffxkykkffyfkkkkftvkffkxxkyxvxxxktkxkyffkvxkyyfxxfkxxkffxMxkkkvvxfkkkkkxxxkkkxxxkfkkkkkkffkkkfkxvxkkkffkxkkkxxxkfffvZMxkxvxxxxxxkkkkkfkxxxkkkkkkkkxxxxxxxxkxkkxxxxxxxxxxxxxxxxxxxxxxxxxxxxxxxxxxkkxxxxxxkxkfxxffxxkkxxxxkkkxxxxkkkxxxxxxxxkvkfxxkkxxkkkkkkkxxkfkkkkkkkkkkkkxkkkfffkvvfyxvxfxykkyxkyvkxvfkfkkkkkkffffffffkkkkkkffffffkkfffffffkkfyfffffffffkkkffkkffyttfkkyxyqtyfffffffffyfyyyfkkftfffyyyyykfyyytfkkxxktttyfytyytq77ykkftttkt7yffyyyyyyttqqtfttyyykfytqttyyqfft3:7q3tyttyyttyyt7qqq33777qqqt77ttqqyqttqqqqq7tq7ttqqttq777qtyfqqyt77qtt7377777777777377777",
"kxkkkkxkfyxyxfxkkkkkkkkkyvyyxyfkyxkfkffxfffkkkkkkkkkkfkftffkxyqfffxyvyffkffkkyykxykxyfxyfMkykftyfkkffkfyxvkyfxxfyxvvvxfqtxxkvktkxxftfvvfkxxkffxMxkkxvvxkkkkkxxxxkkkkxxxkkkkkkkffffkfkxxkkkkkkkkkxxxxkkkkfkxkfkkxxxxxxxxxxkfyfxxxkkkkkkkkxxxxxxxxkxxkxxxxxxxxxxxxxxxxxxxxxxxxxxxxxxxxxxkkxxxxxxxxkfxvffxkkxvvxkffkxvvxkkkxxxxxxxxkxkkxxkkkkkkkkkkkxxkfkkkkkkkkkkkfkxkfffkkxxffxvxykykfyxkfMfkxyxxfffkkkfyfffkkkkkkkkkkffyffkkkffffffkkfffffffffffkkkfyfkffyyyfkfykytyffffffffffffyyyfkkytffkfyyyyffyyyyfkkkfytttyfytyytqqyfkytqyfftqyfyttyyyytqqqtffyyytkyytqtttyqffq3qyytyt33qtqtfft7777tqq7qqtttq7ttqqyqqttqqqqqtqqqqqqyq777777qq77tt337yy7:3qq7777q7777yq#-y",
"kkxkkkkkkfxyxyxfkkkkkkkkyvyyxffkyxkfkfyxfffkfkkkkkkkkkffyffkxyqkkyxfvyktkffkkyyfxykxyfxykMxykfqykkfyyfkkkxxfykkyyxvvxxfqqxxxMktkxxytfvvfkxvxffxvxxkxxvxkkkkkxxxxxkfkxvxkkkkkkkfffkkfkxkfxkkkkkkkvxkffkxvkkfyfxvxxxxxxxxxvxfffkxxkkkkkkkkxxxxxxxxkxxkxxxxxxxxxxxxxxxxxxxxxxxxxxxxxxxxxxxkxxxxxxxxkfvvffkkkxvvxkffkxvvxkkkxxxxxxxxxkxxkkxkkkkkkkkkkxkffkkkfkkkkkkkffkkkfkxfyfxxkkxykyfkyxkfMfkkykxffffkkfyyffkkkkkkkkkkffyfkkkfffkfyfkkfyffffffffffkkyyfkffyyfffytqtfxxfttfffffffffyyyfffyyffffyyyyyffyyyfytqttyyykytyyttyffytqtyfytqyfyttyyyytqqqtffyftqtttttttttttq7qfkttyt73qtqtyft7777tqqqqqtttq7ttqqyqqqtqqq7tqtt7777qqqqqtqqqq77tt337yy737ttttqqqq77tq3:7t",
"kfxffxykxfxyxykfkkkkkkkffxyfxykfyxkfkfyxfffkfkkkkkkkkfffkfyykytkkyxxxkkqkffkkfffkfkkffkfkvxfffyyxxfyyfkkykxffkkffxvkkxkyfxkkkfkvxkfykxxkfxvxkfkxxxxxxxxxkkkkxxxxxkffxvxkkkkkkkfffkkkkxkfxkkxxffkvxfffkvMMvfykZZvxxxxxxxxMxkkkfkkkkkkkkkkxxxxxxxxkxkkxxxxxxxxxxxxxxxxxxxxxxxxxxxxxxxxxxxkxxxxxxxxkfxvffkkkxvvxkkkxxxxxxxxxxxxxxxxxfxvkkxxkkkkkkkkkxxkfkkkkkkkkkkkffkkkkkxktyxvkfkyftfkfxftvkvvyfkkfyfkkkfffffffkkkkkkfffffkkkkkkkfyfkkfyffffffffffkkyyfkffyykkfttyyyfyyykfffffffffytyffffyyyfffyytyffyyyttq7qyffykytyyyyfytttyyytyytyyytqyyfytqqqtffyft7qttyytqqqyq37tfyq7tyttyyqqyyt7qq737777qqqyqqttqqyqqqqqqq7tqyy737q777tyyyqtyqqyt377qq77qttqqqqqq77y--yf3",
"ktxyyxtkxkvfxykfkkkkkkffkkfxfyvfyxkfkfyxfffffkkkkkkkkfffvfqqkfykkyfMkvkqkfffkffffkffkfykkkxkyfktkxkffkkftykkfkkxkvxffxxkkfkkyfvvxffkxkkkfkxxxkkkxxxxxxxxkkkkxxxxvkffxvxkkkkkkkffkxxkxvxkxkkxxfffkkkkxxvvkkyqyxxfxxxxkkkkvxxxkyykkkkkkkkkxxxxxxxxkxxxxxxxxxxxxxxxxxxxxxxxxxxxxxxxxxxxxxxkxxxxxxxxkfxvffxkkxxxkkkxxxxxxxxxxxxxxxxxxyxMffxxkkkkkkffkxxkfkkkkkfkffffkkkkkkkfkffkxkffffqfkfxytvxvvyfkkfyyfxxkkkffyfffkkffffkfkfffkkkkfyyfkfyyfffffffffkfyyfffyyykkytqxftttykvffffyyyyyytyfkfyyyyyffytyffttyyyyyyyfffykyyyfyyytttyffyttttyyytqtyfytqqttyttfyqttyttqqqttqqtytqq7tyttyftqqtqqtqq77qqqqqqyqqtt7qyqqqqttq7t7yf73tt777tyyq7qyq7tq7qq73qqq7773333777q37yt:",
"ftxyyxtfxkvfxykfkkfkkfffkffvfyMyyxkfkfyxfffffkkkkkkkffffZf77ffykkyfZfMk7kfffkkfffxfyxktkxykxtfxtfkxxkkkyqyfkkfkxxvkyykvxftxMfkvkkffxvkfxfkxvvxkfxxxxxxxxkkkkxxxxvkyfxvvxkkkkkkffkxxxxvxkxkkxxffffkxvvvxkxvxffvvkxxxxkkkkvxxvkyyfkkkkkkkkxxxxxxxxkxxxxxxxxxxxxxxxxxxxxxxxxxkkkxxxxxxxxxxkxxxxxxxxkfxxffxxxkkkkxxxvxkkxvxxxxxxxxxxvyxMffvxkkkkkkfkkxxkfkkkkkkfffffvxkkkkfyxvxffxkyffqyxkxtfMkkktkvkfttfxxxxkfyyyffkffffkkkkfyfkxxkfyyfkfyyfffffffffkfyyfffyyfxkyqqttyxvxyqfffyyyyyttyfkkfyyttyffyqfkfqqtfffkxkfyyyfyyffyttttttyyfftyyyyytqtyfftqtytyqqfftytytq77qtqqyfy37ytyt73tyt7qq7qttqtyyyyttqyqqtt7qyqq7qtqq3t3yk73yytq77q73-:73:777tt::7t733:::::377-yf3-q",
"kfffffffxxkkkkkxyffkkkffxxfkxyqfkfyfkkfffkkfyykvfffffffffyyfkkfyyfkxkfyfvytyfxxtyxxkfxvxkytyfkkffxkfkxkqyfkkytkZxvvkyyffxxkfffkxfvvfyxxkkxkfkvxfxMvkfkxkkkkkkkkkkxxkkkkxkkkkkkkkxkxxfkxfkxkyyfxvkxxkkxvxvffxvxkkvvvyqyxfxxxxxxkfyxvxkkkkkkkxxxxkxvvvvvvxkxxxxxxxxxxxxxxxkkkkxxkkkxxkkxxxxxxxxxxxxxxxxxkkxxxxxxxxvfkxkkkfxkfkxxkfffkkxvxkkxxkkxkfxxffxxkxyyfxxkfyyMkkkykkxxxffkkkkkykkykkkkkkkkkkkkkkkkffxxfxyxfkykvvkfkxqqfMvytkyyfkfyfxfytfkffffffyyyfkkfyyttyyxfttkxftykytfkffyfffffyyffyyyyffxtqfktqttyyfffyyttyyyyyffffyytqqxfyyfyttfyttyttqyyytyfyqtttqtffytkkytyytqttttqqqqqqtffyttqqqqq7333377333yytttykkqqqttttqq777ttq7y73tyq777-qf3-qyytq77qqq777777",
"kfffffffkkkkkkkkyfkkkkffxxfkxyqfkfyfkkkffkkfyykvffffffyyfyyfkkkffkxftfkkxfqtkxkytkkffkvxkfyyfkkkffkxkfyykyfvxtyMxvxfyyffkkkfyyfkfvvfykxkkxkkkxxfvMvkfkxxkkkkkkkkkxxkkkkxkkkkkkkkxkxxfkxfkkkffkxkkxxkkxvvxffxvxkkvvvyqfxfxxkxxxkfykvxkkkkkkkkxxxkxxxxxxxxkkxxxxxxxxxxxxxxkkkxxxkkkxxkkxxxxxxxxxxxxxxxxxkkkkkkkkxxMfffykvvxkfkxxkfkkkkxvxkkxxkkxkfxxffxxkxyyfkxkfyyMkkkykkxxxffkkkkkyxxykkkkkkkkkkkkkkkkkfkxfvyvkxkxxfytfkyykMvfykyyfkfyfkfytfkfffffffyyfkfffyyyyyffffffyyykytfkffyyffffyyyyyyyfffkytyfttttyyfffyyyyyyyyyyytttttttfttyfyttkyqtyyyyyfyqtytqyyt7qtq77qtqqttqttttqqtyttqqtyyttqqqtytqqttttqq7tqqqtttt37tfytqqqqqtttq7t77qtqqq3qky:7y7tq7777q7777777",
"kkkfffffyfkkxkfyffkkkkfyxkffkyqfkfyfkkffffkfyykxyfkkkfyyfyyfkkkffxktqfxxkxtqxxyfqfkyyfxkffffffkxfyfvxttkvyyMvtqxkxkftyffkkfyttfffxxffkxkxxxkkxxkvvxffkxxkkkkkkkkkxxkkkxxkkkkkkkkxkxxfkxffkxkkxkykxxkkxxxxkkxxkkxvxxftfxfkkkkxxkkfxxkkkkkkkkkxxxkkkkkkkkkkkkxxxxxxxxxxxxxkkkxxxxkkxxkkxvxxxxxxxxxxxxxxxkkkkkfkkkkMfffykvvxkkkxxxkkkkkxxxkkxxkxxkfxxffxxkkffkkxkfyyMkkkykkxxkffkkkkxykkyxkkkkkkkkkkkkkkkfffxfvfxfkkkkyttyffkvxkfkxyyfkfffkfyyfkfffffffyyyfyfffffffyfxkfttyykytfkffyyyyfffyffyyyfyfffyyyytttyyfffyyffffytttqq77qtyytqqyffytkyqqtyfffftqqttqyyt77qq7q77qqqqqtttqqttyytqqqttttqqtyyyttttttttt777qttq73qyyq777ttytqqqqqqq77qq73qft:7t3q7337777777777",
"kkkfkffftykxxkytffkkkkfykkfkxytkkfyfkkkfffffyfkkyfkkkfyyfyyfkkkfkkfyytfxfvtqvxtktfkytyfyykkkyykvfyfkkyykvkkvxttkkxxfyykkkkffyyfkkkkkkkkkxxxkkxxkvvkffkxvkkkkkkkkxxxxxxxxkkkkkkkkxkxxfkxffxvxkkkfkxxkkxxxkxxxkkkxxxxkyfxffffkkxkkfxxkfkxkkkkkxkkkkkkkxxkkkkkxxxxxxxxxxxxxxxkxxxkkkxvkkxvxxxxxxxxxxxxxxxkkkkkkkkkkvfkxkkxfxkkkxxxxkkkkxkxkkxxkxxkfxxffxxfkfkkkkkfyyMkkkykkxxkfykkkkxyxkyxkkkkkkkkkkkkkkkfffxfxyktyyfkkkfyyfxvfyfkkfyfkkffkfyyffyyfyfffyyyyyyffffffyfkkfyttyfytfkyfyyyffffyffyyyyyfyffytyyyyyyyyyyyfffyyyytqq77qqtyyqqyfyttkyqtyyyfyyttqtqqtytqtyytftqyytqtttttqqtyyttttttttqqqttqq777qqttt37qtttqqtyt7--3qtttttqqq7tt337737:7t7::q77337777777777",
"kkkfkffftykxxkytffkkkkfykkyfxftkffyfkkkfkffyffkkffkkkffyffyfkxkfftyvxttxfvyqvktkfxxyqttqykxkfykvfffyfxxfkvMkyyfkkxxkfkxxxxkfffkxkffkkkkkxxxxxxxxvxkkkkkxkkkkkkkkxxxxxxxkkkkkkkkkxkxxfkxffxMxffkxfxxkkkxxkxvxkkkxxkkkykxffffkkxxkkxkffkxxkkkkxkxkxxxxxxxxkkkxxxxxxxxxxxxxxxxxxxxkkxvxkxxxxxxxxxxxxxxxxxkkkkkxxxxxvkkvkkxkkkkkkxxxxxxkkkkkkxxkxxxfxxffxxfkfkkfkxkyyMkkkykkxxkfykkkkkyxxykkkkkkkkkkkkkkkkfffxfxyktyffkkkfyyfxxtqyfffyfkkffffyfkkyyfyfffyyyyyfffkkkfkyttfkytyfytffyyfffffyffyfyyyyffyffytyyyyyyyyyyfffyyyyyyttttqqqqkytyyyttfyqtytttqtyyytqqtttqtffykytfkyqtttytqqqqttyyyyyytqqqttqq7777qqqq3qyyq77qtyt7--3ttqqqtyq77tt73qq3t77tq::q77337777777777",
"kkkkkfkkyfkkxkfyyfkkkkfyffyfxfyxffyfkkkfkfyyfkkkffffffffffyfkxkfftyvxtqkfxftkkyxfxxytttqfkkkffkxykftyvvfyMZfqfxkkxxkfkvvxxxkffkxkyykxkfkxxxvxkkvxkkxxkffkkkkkkkkxxxxxxxkkkkkkkkkxkxxfkxffxvkyfkvkxxkfkxkkxvkfkkkxffkfkxkkkkkxxkkkkkffxxxkkkkxkxkxxxvvxxxkkkkxxxxxxxxxxxxxxxxxxxkkvvxkxvvxxxxxxxxxxxxxkkkxxxxxxxxMkfkfkvvkkkkkxxvxxxxkfkkkxxkxxxfkxffxxffkxkffxkyyMkkkykkxxkyykkkkxyxxyxkfkkfkkffkkkkkkfffkyxyxfkkkkyttyffxkt7tfffyykkfffyyfkkyyfyffyyyyfffffffffxyqtfxftyfytffyyffffyyyfyyyyyyyyffyyyyyfffyyyyyfyyyyyyffyyyyttqqxftyytttftttytqqqqyfytqtyytqtyyttqqyyttttyytq777qtyfyyyyqqqtyyyttttqqqqqqtyt737q7tyy73qttq7qtyt77qqqqtt7txy37t77q7737777777777",
"kkkkkfkkkkkkkkkkyffkkkfyffyfxfyxffyfkkkfxftyfkkfkkfyyyfkffffkxkfyfffyyffkkfffffkyxxfyfkfxkffkxxxyfyyfkxxyxvkykxxfkxffkvvxxkfffkxkyykxffxxxxvxkkvxkkvvkyykkkkkkkkxxxxvvxkkkkkkkkkxkxxfkxfkxxffkxxkxxkfkxkkvxkfkxkxyfkfkvxxxxxxxkkkkkffxvxkkkkxxxkkxxxxxxkkkkxxxxxxxxxxxxxxxxxxxxkxvvxkxvvxxxxxxxxxxxxxkkkkkkxxxxxMkfkfkMvkkkkkxxvxxxxffkxkxxkxvxfkxffxxyfkxxffxxyyMkkkykkkxkyyfkfkxfxxfxkffffkkkfkkkkkkkkfkyxyxfkkxxfytfkfkkfttfkfyfkkfyyyykkkyyyyyyyyyyfkkffyyfffyyyffytyfytffyffffyyyffyyyyyyyyxytyfyyfkfyytyyfyyyyyyyfyyyyttttftqtyyttfyqtyttyqqtfyqqtyytqqttq7tttqttqyyttq7qqtyyyytyytqqqtytqtqqqqqqtytq777qt7tytq77qtqqtttt7q77tyq73qkq-7t7qtq777777777773",
"kkkkkkkkxxkffkxxyffkkkfyffyfxfyxffyfkkkfxftyfkkfxkyttykxkfffkxkfyxxq7fxfkfkkyfxktkkfykvxxkyfxvxkftykfykZffkxxkxxykkfykxvxkkfyyfkkttxvkfxxxxvxkkvkkkMMkytkkkkkkkkxxxxvvxkkkkkkkkkxkxxfkxfxxffkvvkkxxkfkkkxvxffxxkxyyffxvxvvvvvxxkkkfyfxvxkkkxxxxkkkkkkkkkkkkxxxxxxxxxxxxxxxxxvvxkxvvxxxvvxxxxxxxxxxxxxkkkkkkkkkkkMkkvkkxkkkkkkkvvxvxkffkxkxxxxvxfkxffxxyfkvxyfxxyyMkkkykkkxkfyfkfkxfxxfxkffffkkkkkkkkkkkkkxyktkyfykvvkfkxkkxkfyfkfyykxkyyyykxkytyyyyytyfkxkfyyyyytfkkytttyfyqffyffffyfyffyyyyyyyyvtqfkyyfkfyttyyfffffyyyyyyttttyftqqtfyttkyqtyyyftqtyt77tyytqtyytqfftqttqyyttqqtyyyytqqtytq7qqq7333337qttfq33qyffyyt7:-37ttyytqqqt73tt3-#33+#73:fytq77qq7773333",
"fxfxqfyvfxxffkkfyxxyyxxfyyffkkxxfxykkyxfkxZq7vfykkxkyxvfykfvfyM7tMfqtqtfkxkfxkfxyfkffffkyxyyvxykfkt7kxfvffkkxxxxxkkkykxktykxxkkkkfffkkkfvkffkxxxfkxxxxxkkxxxxvxkffkkxxvvvxxkkkxkffkvMvkykkxxxkffvyykkkxkkMMffvvytfxkffkxkffkkfkxkkMxqtxfkxxxxkkfkkxxxxxxfxMvxxxfxxxxxxxxxxxxxxxxkkkkkkkkkkkkkkkkkkkkxxxxkfkxxkkxxxxxxxkkkkkkkxxxkkkkkkkkfkvxffkvxkyyfkxxktkxtyxyyxMvkyqqxfvkMykkkkkkkkkkyfkkffkxffkkkkkkyyfkkkkkkkkkffkktyfkkffkffkxkyttykxxfyyffffyyyfkyyyfffyyffffffytyfffytyykkfyyffykfffyyyyyyyyyyyyffffyyyyyyyyyyyyyyyyttttyyytttyyyyyttyyyyttttttyfytqtyyytttqqtyfqtffytttttqqqttyyq33qtqqft33qtttt733qttqqqtttq77tttq7qttftq7qq73:-:3qtttt77qq3:3q-qy3:",
"fxyxtkfxfxxffkkfykxyyxxffffkkkkkfxykkyxfkxMqqvfykfxkyxvffkfxyyMqyvttxfyqfxkfxkykyfkkfffktkyyxkykvkyyxxfkfkkxxxxxkkkkykvkfffkxxkykkffkkkfvkffkxxxkkxxxxkkkxxkkxxkkkkkxxxxvxxkkkkkffkxvvkykkxxkkffxkkfykvffvvkkxvxtfxkffkxkfkkkfkxkkMvtyxfkxxxxkkfkkkxxxxxkxvxkxxkxxxxxxxxxxxxxxxxkkkkkkkkkkkkkkkkkkkkxxxxkffxxkkxxxxxxxkkkkkkxxxxkkkkkkkkfxxxkfkvxkfffkxxkffkyfkffkvvkytqkkxxvfkkkkkkkkkkffkkffkxkkkkffyfkkkkkfkkkkkfffkktyfkfffkfffkkyyyykkkfyfffkkfffkxfyyfffyfffffffytyfffytyyfffyyfkfyyyyyyyfyyyyyyyyffffyyyyyyyyyyyyttyyyyyyttqtttyyyyyttyyyyttttttyytqqqtqqyyttttttttyyttqq7qtyyttqq77qqqqqfyqqttytq737qttqqqtttq77yytq77qq77777333q77qq777t77qq733q:7y7:",
"xktfykfkfxkffkkyykkyfkkfkkkkfffffxykkyxfkxvtqxfyffxkykvykxfktyvtyxtfvkfqtkffxftyyfkkffkkqkfyfyyxvttkxkkkkkxxxxxxkfkkykvkkffkxxftfkkkffkkxxfffkxvkkxxxkkkkkkfkxkfxxxkkkkkxxxxkkkkxkkxvxkfkkxxkkkkxvvyqkvykkxxxxxvyfxkffkxkfkkkfkxxxvxyfxkkxxxxkkfkkkkxxxxxxxkkxxxxxxxxxxxxxxxxxxxxxxxkxxxkkkkkkkkkkkkkkkkffkxxkkxxxxxxxkkxxxxxxxxkkxxkkkfkxxxkkkkxkfffkkkkkfykkfkkkkxkfytkkkvkkfkkkkkkkkkffkkffkxkkkkffyyxkkffkkkkkkffffkyyfkffkkkffkkfyfffkfffffkkkkfkkxfyyfffyffyyfffytyfffyyyyyffyyfkfyyyyyyyfyyyyyyyyyyffyyyyyyyyyyyytyyyyyyyttttttyyyyttttyyyttttttyqqqqqqqtyttttttqttqqqttq7qtyyttq37qtqqqtyyttttttq7qqqqttqqtttqq7yytq7qqq:7qq7333q7qqq7qtt7777333t:3q77",
"xktyfxkffkkffkkyffffffkfkkfffffffkykkykffxxttkkfffxfykxykxkytfxytxkxktkfqfffxfttyfkkffkkqfkftqyxy#3kkfxkkkxxvvvvffkkfkvkfffkxxfyfkkkfffkxxkffkxvkxxxxkkfkkfyfkkfxxxkkkffxxxxxkkkxxkkxxkfkkxxkkkxvvvfqfvfxkfxxkkxffkxkffxffkxkfkxxxxxffxkxxkkxkkkkkkkkxxxvxkfkxvxxxxxxxxxxxxxxxxxxxxxxxxxkkkkkkkkkkkkkkkkkfkxxkkxxxxxxxkkxxxxxxxvxxxxkkffxxxxkkkkxxkkffffkvftxxykkkffkkfffxfMfxfkkkkkkkkkffkkkkkkfffkffffffffkkxxkkkfffffffffffkkkffkffffkffffkkfkkkfffkxfyyfffyfyyffffyyyfffyyyyfkfyyyfykffyyyyyyyyyyyyyyyyyyyyyyyyyyyyyyyyyytttyyyyytyyyyttttyyytttttty7qttttyfq77qtytqyt77qqqqttqqqtty77qqqtttqttttttt7qttqqqtqqtttqqqtqqqqqttqtttq777qqttq7qyqq777737t3:7qq",
"xfytkkkfykkfykkyfyffffffyyfffkkkykyffykyfkfyyfxkffxkykxykxkttkffykfkytxxqfffxfqtfkkkffkktykfqqfxy#3xkfxkkkkxxvvvyykxfxvftykkxxkkfkkkfffkxxkkfkxvkxxxxxkfkkfyfkkfxxxkkfffkxvvxkkkxkkkkxkfkkxxkkxxMkxkyyxvMfykxkyfkfkxkffxffkxkyfxxxxkxkfxxxkkkkkkkkkkkxxxvxffkxvvxxxxxxxxxxxxxxxxxxxxxxxxkkkkkkkkkkkkxxkkkfkxxkkxxxxxxxkkxxxxxxxxxxxxkkffxxxxxkkfxxxkkfffkvfyxxyxkkfffkkkfxfvyxfkkkkkkkkkkkfkkkkkffffkkkkyyffkkkkkkkfffyfkffffkkkkffkffffkfffffkffffyyffkfytfffyfyyyyyyfffyyyfffffkfytyyykffyyyyyyyyyyyyyyyffyyyyyyyyyyyyyyyyytttffyyyyttyttttttyytttttty7qttqttfq77qtytqyq77qqqqttqqqqtytq77qttq37qtqqqt7qttq7qtqqtqttttqq77qqqqttq777qqyyttq337qqq77777q3-3tt",
"xfftkykfykkyykkyfyyfkyykttyffkkxykyffykyfkyffyxkffkfykxyfkkqyxtfxy7fffMktfffxftyfkkkffkxyykktykkktfMxffkfkkkxxxxyykxkxvfqykxxkkxffkkfffkkkkkkxxxkkxxxxkkkkkfkxkfkkkkkkkkkxvvxkkkxkffkxkkkxxxxkkxMfkxfyxvvfykxkffkfkxxffxfkxxfyfxxxffxkyxxxkkkkxxxxkkkkkkvkkxxxxxxxxxxxxxxxxxxxxxxxxxxxxxkkkkkkkkkkkkxxkxkkkxvkkxxxxxxkkkkkkkkxxxxxxxkkkfkxvxxkkkkxxxkfyffxkfxkfkkkfffkkxfxkxfkkkkkkkkkkkkkkkkkkkkkkkffffyffkkffykkkfffyykffyfkkkkffkkfyfffkfffffffyyyyfkyttfffyfyyfyyyfkfyyyffffyfyttfffyyyyyyyyyyyyyyyyyyffyyyyyyyyyyyyyyyffffftttyyyyyttttttttyttttttytttqqqqtttqqtttqttqqqqtqqqttttqqyq77qttq:3qqqqqqqtttq7qqqttqttttyq7qqqq773::37qttqqqq77q7qq737qq3:#3yt",
"kfxtftkkykkyykkyfttkkyykyyyffkfkyktfftkyfktfktvxffkfykxyykxqfxqffq7kfyvyykffkfyffkxkffkxktkxyfvfkxvvvfyxffkkkkkktykxkxvfyffkxkkfkkffkkffkkkxxxkkkkkxxxkkkxxkkxxkffkkkkkkfxMMxkkkkfffkxxkkxvvxkkkvkkkfkvkffkkxxxvxffxxffxfkxxkyfvkxyyxktkxkkkfkxxxxxkkkffxkxvxkkxxxxxxxxxxxxxxxxxxxxxxxxxkkkkkkkkkkkkxxxxkkkxvxxxxxxxxxkkffkkkkkkkkkkkkkkfxvvkfkkkkxxkfffffxvffkffkkfffkvkkvfkfxfkkkkkkkkkkkkkkkkxxkkffffffkkkkfffffffyytxkyyfkkkfffkkyyyfkkkffffffffffkkfyyfffyfyyyyyyfkfyyyfkffyfyttfffyyyyyyyfyyyyyyyyyyyfyyyyyyyyyyyyyyyfffffttyyyyytttttttttyttttttyfftqttttytttttttqtyyttqtqqtyttqqtqqqqttt7qqqqqq7yttq77qqttqqqttttq77qtq7333333qt7337qqqy7qq73qtq-:-3fq",
"ffvtf7kxykkyykkyfttkkttkkfffffffyktfftkyykqfktvxffkfykxytkvqkv7yq7yMyqxffxfykfykfkxkkfkxxtkvfxvyqxxkxfyvyffkkkkktykxkvvfkffkxxftkfffkkkfkkkxvvkffkkxxxxkkxxkxvxfyffkkxxxfxMMxkkkfyyfxvxkkxvvxkkfxvvfyvMyqfxxkxMZxffxxffxffxxkyfvkkttvftkxkkkfkxxxxxkkfffkkxMvkfxxxxxxxxxxxxxxxxxxxxxxxxxkkkkkkkkkkkkxxxxkkkxvxxxxxxxxxkkffffffffkkkkkkkkfxvvkfkxkkxxkffffyvMyyxffkkkffkvkkvyxyxfkkkkkkkkxkfkxxkfkkfffkkkffffkkxvfffffyytxkyyfkkkfffxkyttykxxfyyfkkkkffkxfytfffyfyyyyyykkfyyyfkfffffttyytkffyyyyyyyyyyyyyyyffyyyyyyyyyyyyyyyyyyttfffffyttttttttttyttttttyxftttyyyqqqqqqtyqtffytttttqqqtty7qtttttttttttq77fytq77qqttqqqtttq737ttqq7qyt73qyq3:3777q7qt33qtt#:-3fq",
"fkkffkkffkkfttykkykqfqfykkffffffxfytyfkktyyyfkkkkkkkkkffyfxftfy3xyffyZqytxy7fxfkktkvfkvyyxytvxtk7ykkfkkfyfkkfffkkkkxxkxMxkffkkyqkvxfyfxxxvxxxkkkxxxxkkkfxxkffxxkxxxxxxxxxkffkxxxkkkxvvxkxxkkkkkkykxxkkxvxxxkffkxxytkxfttffkkxxxkykkxqvxfvxxkfxMxkxkkffxvvxkkxvvxxxxxxxxxkxxxxxxxxxkkkxxvxxkfkkxxxxxxkkxkxkkkxxxxxvktkvktyyykxvxxxxyyxxkkfkxxkffyxxkyyfkkkkkkkfkkkkkfkkkxkyyxvkfkfkxvkfytkkffffkkkkkkffyyfyyfxvkfffffffffffffkkxxxttxkyyfyfffyyfkkkytfkxkkkfytykxxftyffyykfffytykyyyffkfyyyyyyyyyyyyyyyyyffyyyyfffffyyyyyttqqttyyyyyyttttqqqttttttytttyyyyytq7777tyfyq7qtqqqqqqqqtyyyttttttttttttttqqqttqtqq77777qtyytq777qttqqqq7qq7337tttqq77qtyq:-3qqqqqqqqq",
"fkkffkkffkkfttykkfftytyykkkkffffkfyyfkkfyyyffffkkkfkkfffkyfkytyqkyfktvtffkytfxkkftkxffxyfkyyxxyfyqtxxyyxxfyfkxkykkkxxkxMkfffkkyqykktqykfxxxkxxxkxxxxkkkfkkfyfkkfkxxxxxxxxkkfkxxxkkkxvvxkkkkkkkkkkkkkxxxxvxkkkkkkxfykxfyykxvvxkytykkxqxxfvxxkfxMxxxxkfkxvvxxxxvvxxxxxxxxxkxxxxxxxxxkkkxxvxxkkkkxxxxxxkxxkxkkkxxkkkxfkvxffffffxxxkxxfyxxkkxkkxxkfykkkkfffkkkkkkkfkkffffkkkkkffkkkfkkkkkkkkyyfkkkkkkfkkkfyytfxxkfkxffffffffkkkkkkkkkyffyfftyyffkkffkkyyykkffffyyfkkfytyyyyfkfffytykyyyyfkfyyyyyyyyyyyyyyyyyffyyyyffffyyyyyyyttttyyttyyyttttttttttttyyttttqtqtyyyytqqqttqqtyyyyttqqqtyyytttttttttttt3337qttttqq77777qtyyytqqttq7337q7qqq77qy777qqqqq73-:7ttq777777",
"fkkffkkfkkkfyyfkkkyftytykkkkkkfffyyfkkfyffffffyykfkkffffvtykyqtffffkqktxxyykkkxkytfkffkyfkfyxxyfkqqfxffxxkffkxkfkkkxxkxvfyfkxxftfvvyyvMxkkkkxxxxkxxxkkkkfffyykkfkkkxxxxxxkkfkxxxkkkxxvxkffkkkkkkxkfkxxkfMvkfkkkfxkfkkyfxvvvvxfytfkkxqxxkvxxkfxMxxxxkkkxxvxxxxxxxxxxxxxxxkxxxxxxxxxkkkxxxxxkkkkkxxxxxxxkkxkkkxxkfkffvZxyxkkffkkkkxxfyxxkxvxfkxxkykfkxkffkkkkkkkkkkffffkkkkvxtyxvfvkfyfkxvyyfkxxkkfkkkfffyyfxxffkxffffffffkkkkkfkfffkytkxqfyyfkkfykffyfkfyyyyffkkfqqyfytykkfffytyfyyyyfffyyyyyyyyyyyyyyyyyffyyyyyyyyyyyyyfyyyyyyyttyyytttyyyyyyyyyyyttttttqtyyfyytqqqttyyyfyytttqqtyyyttttttttttttqqqqqttqtqq77777qtttttqqttt7337q37qq7qty3::7tq733::7tyt7777777",
"fkkyfkkfkkffyyfffkyktktykkkkkkffyyfkxxftkkkffyyyffkfffffxyyfytffykkxqfyxMtyvkkxfytyffffykfffxxfffytqfvxyfxvxyykMkkkxxkxxyyfkxxfttkkttvvyfffkxxvvkxxxkkkkfkfffkkfkkkkxkxxxkkfkxxxkkkkvvxkyfkkxxxxxkkkxxkkvxkkkkkfxkfkkffkvxxkffkkkkfxqxxkvxxkfxMxxxxkkkxxxxxxxxxxxxxxxxxxkxxkxxxxxxxkkxxxxxxkkkkxxxxxxxxkxkkxxxfyfkkvZxfxxkkffkkkvxfyxxkxvkffxxkfkfkvvffkkkkkkkkkkkkkkkkkkxkyfxxxvxfyfkkkffkkkkffkkkfffffkfyfxxkyfffffffffkkkkkfkyfkytkvyffyyfffyfffyffftytyfkkfyqtfkfyfkfffffyyfyyyfffyyyyyyyyyyyyyyyyyyyyyyyyyyyyyyyyfffyyfffyttyyyttyyffyyyyyyyytttyyyyytqqqqt7q777777qqqqqqqqyyyytttttttttttttttttqq7qqqqqqqqtttqq7777qttqqqq77qq77qy7::7q3--q77qttq3777777",
"ykkyykkykkfyyffffkyxtktykkkfkkkkyyfkxkftkkkfffyyffffffffkffyqfxyyxfxqyyxMtfMkfkytyyfkfyykffkkkkffytqfvxyfkxkyykMkkkkkxxkyyfkxxfytkktyxxyfffkkxxvkxxxxkkkkkkkkxxkkkkkkkkkxkkfkxxxkffkxvxkyfkxxxxxfkkkkfkxkkxxkkkxkffkxxkffkkkxxkkkkfvtxkkvxxkfxvxxxxxxxxxxxxxxkkxxxxxxxxxkkkkxxxxxxxxxxxxkxxxkkkxxxxxxxxkkkkxxkfykMvkxvkkxxkfffkkvvfyxxkxfkkkkkkxffkMvkfkkkkkkkkkkkkkkkkkkffxxkkxkfffkkfykkfffkkkkkffffkkxfyfxxfyffffffffyffkkkkkytykfkvxkffyttyffffyfkftytyfkkfyfyfkxffffffffffyyyfffyyyyyyyyyffyyyyyyyyyyyyyyyyyyyyyyfffyyfffyttyyyytyyfffyyyyyyytttyyyyytq777qtffyqqtyqqqqqqqqyyyttqtttttttttt3377qtqqqqqqqqqqtttq73377qttqqqq77q737qtt77qq:-3tqqqq773777777",
"ykkyykkyxkyyfffffkfkfkyykkkfkkkkfyyfkkfyffffffffffffffffyfkytkvyfvtxtyfkxffxkffttfffxfyfxyfxkkxykq7fxfyxxfttfkkkkkkkkxxfyyfkxxfyfxvkkxxkfffkkkkxxxxxkkkkfkkkxvvxkkkkkkkkxkkfkxxxkffkxxxkffkkxxxxfkxkffkxykxxxkxvfffkvvkfyfxvvxfyxkfvtkkkvkxkfxvxvxxxxxxkxxvxxkkkxxxxxxxxkkkkxxxxxxxxxxxxkxvxkfkxxxxxxkxkkkkkkkkfkMxykvxkxxkfffkkvvfyxxkxfkkkkkkxfkxxxkkkkkxkkkkkkkkkkkkkkyfvvffxyyfkkkfyfffffkxxkkffkfkkfkxkfyfkffffffffyyfkkkkktqykffxxfffyttyffffyfkfyyyyyffffkffkkfyyyffffkftyfffyyyyffyyyyyyyyyyyyyyyyyyyyyyyyyyyyffyyyyyyytyyyyytyyyyyyyyyyyyttttttqtyyytq7tfkfttykfyyyttttyyyttqtttttttttt777qqqq777qqqtqqttqq77qtttt7337q7qq7337qy77tt33qtq733777777777",
"ykkyykkyxkyyfkfyffxfxffykkffffkfkfyyfffffffffkkkffffffffyyfkfkxffvqxffkyfxffkktqtkffvkykxykxfkvyyqtxxyyxxfqqykkfkxkkkxxfffkkkkfyyfkkyttykkkkkkffxxxxkkkkffkkxvvkkkkkkkkkxkkfkkxxkffkxxkfkkkkkxxkkkkkkffffkxxxxxkfkkxxxxxkkvvvkftxxfvtkkxvxxkfkvxvxxxxxxkxxvvkkkkxxxxxxxxkkxxxxxxxxxxxkkkkxvxkfkxxxxxxkxkkkkkkkkfxvfyxvxxkkkkffkkvvffxvkxkkkkxxkkkvvkfxxfxxxkkkkkkkkkkkfffkxxkfffyfkkkfffyyfkkkkxkkffkkkkfxxkfyfkffffffffyffkkkff7qffykxfyyffffffkfytfkkfffyyyyfkffkkfttytyffkkftyfkfyyyyyfyyyyffyyyyyyyyffyyyyfyffyyyyyfyttttyytyyfyyttytyyyyyyyyyttttttqtyyytqq3777337qfyytttttyyyytqtttttttttttttttq7377qqttttttq777qtttq7337q77q777qty3:qt73qtq73377qq7777q",
"ykkyykkyxfyyfkfyffxfvyftkkffffffxfytyfkkyyyfkkxxfffffffffqyvxffkfv7xfkktyvktkkq7yxffvxykxykxfkvy3ykfffkffyytqtfxkxkkkvxykkkkkkfykkxvkyykkkkkffffxxxxkkkktfffkxxkkkkkkkkkxkkfkxxxkffkxxkfkkkkkkkxvxkkkkfykkkxvvkffxvxkxvMvvxkffffvxfvtkkxvxxkfkvxvxxxxxxkkxvvkkkkxxxxxxxxkxxxxxxxxxxxxkkkkxvxkfkkxxxxkxxkkkffkkkkxftkMvkvfkkkffkxvvffvvkxvxkxvvkykMMffxvfxxxxkkkkkkkkkffyfvvkyfftxxxkyyfkffkkkkffkkffkkkxvkffkkfyffffffffffkkkfyy:yxyqkxqttyfxxkfkkytfkxkfffyttfktykft7qytffffxftyfkfyyyyffffffffyyyyyyyyfyyyyyfffffyyyyyttqqttyyyffyyttytttttyyyyytttyyyyytqqqttyytttyyytqqqqqqtyyyytqtttttttttt3377qq7777qqtttqttq733777qttqqqq77q77qtyy-#7t7::ytq777qqqqqqqq",
"txvftfkfxkkkffyyfxvtxfkfkfyyyfkkffffffffffffffffyyfvMy3tffffkkkkvttxvyyvffffkkkkktxZkfvxyfkxxkffqt3qxfyZkftqqyxMkkxxfkkykkkkkxxxftkvyyvkfkkyttfxxkffkkkkfxvxkkkkkkkkxxkkxxxxxxxxxkffkkxkvvkykkfkkvMvxkffxvvkffkkvZMttvvtfxMMkyfvkkfffkxxxxxxxxxxkxxxxxxxkkkkffkkxxxxxxxxxkkkxxxxxxxxxxxxkkkkkkkkxxxxxxxxkkkkkxvvvqxMZvtvkxkkkkkkxxxxxxkkkxvvkfffkkkkkkffkxvxkfffkxxffkxkfxvxkffykkyqtkxxfyfvxffxkxxkfffkkkkkkkkkykxkttfvtxvytfkykyyfyfkfqyfkkt7tfkfyyffyfyyffffytxx7:7fkyyfyytqqqtyfkkftfkkfytyyyyyyyyyytyyyyyyttttqtyt7qtykkft7yffyyfyqffytqttyttttttttqqttttyyyyyytytttttqqqq7qqqqqqqqqqqqqqqq77qqqqqqqqttttttqq7377qtqtttqq77qttttq73-:ff::q3qq:773tqqqqqqq",
"yxxfykkykkkffffffxxtxfkffffyfffkfffffffffffffffffffxvy7yffffkkkkxftfxxftffffkkkkfqfvfykfffkkkkfftyqyvktfxkfyyfxvkfxxfkxyfkkkxxkkkykxykvkfkkyttfxxkfffkkkfxvxkkxkkkkkxxxxxxxxxxxxxkkfkkkkxvkykkfkxxvxxkkkkvvkfkxxMvkyyffyqyxMvkxvkkkfkkkxxxxxxxxxkxxxxxxxkkkkffkxxxxxxxxxxxxxxxxxxxxxxxxxkkkkkkkkxxxxxxxxxxxxxxxxxfvkkvfxkxxkffkkkxxxxkkkkxvxkffkkkkkkkkkkxxkkfffkxxffkxkfxxxfkfykkftykxkffkxkffkkkkkffkkffkkkkkkxyqqfkkfkkfyyyfkftyfyfkffxkfxfyffkfyyffyfyyffffyfkf73qfffyyyyyyyyyyyyfyyffffyyyyyyyyyyyytyyyyyytttqqtfytytyyyyttyfyttyytyttttyytttttttttttqqqqqqttqqqqqqqqttttttttttttttqqqqqqqq77qtqqqqqqtttttttq73337777777733337qqq73:3yy::t7qq:773tqqqqqqq",
"fkkyfxkyffffffkkykxqxfkfyfffkfffffffffffffffffffkkyfkytkfffkkkkkkkytkZk-fffkkkkkkqtxkkkykkffffkkyfyfMxq3vxxkkkxxfyxxkxxyyfkxxkffkfkftxMkkkkyyykxxkfffkkkfxvxkkxkkkkkxxxxxxxxxxxxxkkkkkkkxvkfxkfkvxxkkkkkfxxkfkxvMfyffttfttfvvxxvxkkkkkxxxxxxxxxxkxxxxxxxkkkkffkxvxxxxxxxxxxxxxxxxxxxxxxxkkkkkkkkxxxxxxxxxxxxxkkkxvMyyMvkkxxkkkkkkkkkkkkkkxxxkffkkkkkkkkkxkkkkkkkkkkffkxkfkxkkkkfkkfyykkfkxxkfkffkkfkkkkfyffffkkkxt7qkvxyxfyffyyfftyfyfkykvktfxkkfkfyyffyfyyffffyxftqqtyyffyyyffkffytttyfyyyyyyyyyyyyyyyytyyyyyyyytqqtffyfytttyyyyfyttyyyqqqtyyytttttttttttttqqqqttqqqqqqqqttttttttttttttqqqqqqqq7qqtqqqqqqtttttqqqq7337777qq7733337qq77377tq:3t7qq:7q:qqqqqq77",
"xkyykxkyyyfffkkkykxqxfkfyyfkkkffffffffffffffffffkkytfyyxfffkkkkkfxkyfvy#fffkkkkkxytxvvkfkkffyfkxffyfvMy:xxxkkkffyykxkxxytyfxxkfyxxftyvMxkkffyfkxxkfffkkkfxvxkkxkkkkkxxxxxxxxxxxxxxkkkkkkxvkfxkfkvxkfkxxkkxxkfkxxvfykkyyxxfffkkkxxkkkkkxxxxxxxxxxkxxxxxxxkxxkkkkxvxxxxxxxxxxxxxxxxxxxxxxxkkkkkkkkxxxxxxxxxxxxxxkkxMvyyvvkkxxkfkkxffkkkkkkkxxxkffkkkkkkkxxxkffkkkkkkkfkkxxfkxkkkkfkkkkfkffkvvfykkfkffkxxkfyyfffffffffffkkkfffkkfyyftyfyfkfyxy7tkfyfkfyyffyfyyffffykyqtttyffyyyyffkffftqtykytttyfyyyyyyyyyyyyyyyyyyttttyffyfyttyyttttyttyyy7qtyyyttttttttttttttttyyyyyyttttqttqqqq7qqqqqqqqqqqqqqqqqqqqqqqqqqqttqqqqqqqqqttqqtttqqqqqtqqq77tq733qq7qq:qq:qqq7qq77",
"xfyfkkfyyyffkkkxykxqxfkfyfkkkkfffffffffffffffffffxyqyfkvfffkkkkkykxxfyq7fffkkkkkkytkMvffkkffyfkxxyqtkMk7kkkfffytyyxvkxxytyfxkkfyxxftfvvvxkfffkkkxkfffkkkfxvxkkxkkkkkxxxxxxxxxxxxvxkkkxxkkxkfxxfkvxffkkxkkxxkkkkkkkkkkxxxxkfkkkxxxxkkkkxvxxxxxxxxkxxxxxxxxxxxkkkxvxxxxxxxxxxxxxxxxxxxxxxxkkkkkkkkxxxxxxxxkxxxxxxkxvxkkkxxkxxkffkxfkkkkkkkxxxxkkkkkkkkkxxvxkffkxxkkkkkkkkxfkkkkkkffkkkkfffkvxfykkfkffkxxkffffffyyyyfxxfyfkykkttfkykyfkfkxftky7ykftfkfyyffyfyyffffyfyyytqtfyyfffyyyyfffyyfkytttyfyyyyyyyyyyyyyyyyyytttyyyyttyyyfytqqtyfyyty7tffyttyttttttttttttyyyyyyytttttqqtqqqqqqqqqqqqqttqqqqtttqqqqqqqqqqqqqqqqqqqttttqqtttqqqqqqqq777tt3:7tq7qt3qq:q7777777",
"xfykkffffffffkkkykxqxfkfffkkkkkfkkffffffffffffffyxfqykkxfffkkkkkyfxvfqqffffkkkkkytqyvktfkffffkkkxtqtfxvffffffyyyffxxkxxyyyfkkkffxxfyxxxMxkffkxkkxkfffkkkfxvxkkkkkkkkxxxxxxxxxxxxvxkkkxkkkxffxxfkxxkkkkkkxvvkkkkffvvkkvMxtykvMvxvxxkkkkxvxxxxxxxxkxxxxxxxxxxxkkxxvxxxxxxxxxxxxxxxxxxxxxxxkkkkkkkkxxxkxxxxkkxxxxxxxxfvvfxxkxkkkfkkkkkkkkxxxxxxkkkkxxkxxxxxxkffkkxxkfkkkkkxkkkffkkfffkxxfffkxxkfkkfkkkkkkkffffffyyyffffkfytkvf33fvkkyfkfkxfyxfykxfyfkfyyffyfyyffffytyffttykyffffyttyyfffffkyyyyyyyyyyyyyyyyyyyyyyffttyffytttyyffyq7qqyffttytyfftqtyttttttttyyttttqqqqqqqqqqqqttttttyyyyyyyyttqqqqttttqqqtqqqqqqqqqqqqqtqq7777qqq77733333377qt3:qy77qt3qq:q7777777",
"kffxktyxkkffffffykxqkfkykkffffkkkkkkkffffffffffftkftfxxkfffffkkkffkxkyykffffkkkktytyxfqkfffkkkkfxqtfykvxfffffkkkkfxxfkxyfffkkkkkkxfkMkfZxkffkxxkkkffkkkkfxvxkkxkkkkkxxkkkkkkkkkkvxkkkxkkfxffxxfkkxxxkkffxvxkkkkffxvkfxxfqyxMMxxMxxkkkxxvxxxxxxxxkkxxxxxxxxxxxkxxvxxxxxxxxxxxxxxxxxxxxxxxkkkkkkkkkkkkkkkkxxxxxxxxkxfMMfxkkkxkkfkkxxxxxxxvxxkkxxxxxxxxxxxxkkxkkkkxkffxxkkxkkkffxkfffkxxffkffkxxffkkkkkfffkkkkfffffkkfffyytvkq:7kxxkyfkfkxfykkfkfyffkfyyffyfyyffffy7ykytyffyyyyyyytyyyfkkffffffyyyyyyyyyyyyyyyyyyffttyffyyfyyyyyytqqtyfyqtyyyttttttttttttttyyytttqqqqqqqqq7qqqtttttyyyyyyyyttttttttttqqqtqqqqtqqqqq7qtttq7777qqqqq7773333777t3:yy7qqt3qq:q7777773",
"fykvkqtvkkkkffyyykxqkffykkfyyfkxkkkkkkffffffffff7kktkvxkfffffkkkkfyfkxxffffffkkktkfkvftvyfkxxkffxqyvfyxxkkkfkxvvkkxxfkkyffffkkxxkxfxZfyZxkffkxxfkkffkkkkfxvxkkxkkkkkxxkkkkkkkkkkvxxkkxkkfkffvxfxkxvvkfffxxxkkxkffkxkyyyykxMMxykMxxkkkxxvxxxxxxxxkkxxxxxxxxxxxxxxvxxxxxxxxxxxxxxxxxxxxxxxkkkkkkkkkkkkkkkkxxxkkkxxfvfvvfMkkkxkkfkkvvxxxxvvxxkkkxxxxxxvvxxkkxxxkkkxkffxxkkxkkfffxxfffkvxffkfyfvxffxkxxkfyfkffkkkkkkfkxkttfxMt:7fxkfkyyfyfxfyfffktqffkfyyffyfyyffffy7ykttkkyffyyyyyffyyyfffyfkkfytyyyyyyyyyyyyyyyyffyttffyfxkfttttttttyfyqqfft77tyytttttttttyyyyyyyyttttttttqqqqqqq7qqqqqqqqttttttttytqqqttqqqttqqqq77qyyyttqtttttttttq7777q3t3:yf7qqt3qq:q7777733",
"ykxkyyfktxfyxktfyyyyffffxkffyfffqtfkkfyykxkttkxkvxkffffkyy7fyvkxtyfkkkkkyfkkffkxftyxvkyt yxkttxkxvxtqfkfkfffxxfyqyyykkyfkfyykvxfkxxvxxkkkxkfkvktkxxyyxxkkkxxxxkfkkxvvxkkfkkxxxxxfyykxkxxxxxxxxxxfkkkkkxxxkkxxkkkkkkkxxkkkxvvxkkkxxxxxxxxxxxxxxxkxxxxxxxxxxxxxxxkxxxxxxxxkkkxxxxxxxxxxxxxxxxkffkkxxxxxxxxxxkkxxxxxxxxxxxkkkkkkkkkfkkkkkkkxxxxxxkkfvfkvfkkkkkkkkkxkffkkffkyykMvkfxxxxxkkkkkvxytfxxf:7vvyykkkkkffkkkfyyffkkfyttfkkfyyffffffytqtfkkkffyyfffffffyyyfkkfyyyffffxyqkf7tqtttyfyqyqyfyyftykfqqyfyyyyyyyyyyyyyyyyyyyyyyyyyttyyytqqfft7qfftytqqqtyyfyyq77tyyttqqqtyqq7777qqqqtttqq7tttyyyt77tffytqqqqttttqqqtqqt73q7yt7q737::7q73:73qq7t77t3tq3qq7737q77t",
"ykkkyyfkyxytkftkyyyyffffxkffyfffffxxtqytkxkttfxkkkfyyyyyyy7fyvkkyyfkkkkffkkkffkxftykxkyy7fqqtfMfkxkyyffytkvvftfxtfyfxkfkkfyykvxfkxxvxxkkxxkfkvktkxxfyxxkkkxxxxkfkkxxxxkkkkkxxxxxkffkxkkkkkkkxxxkfkkkkkxxxkkxxkkkkkkkxxxxkxxxxkkkxxxxxxxxxxxxxxxkxxxxxxxxxxxxxxkkxxxxxxxxkkkxxxxxxxxxxxxxxxxkkfkkxxxxxxxxxxkkkxxxxxxxxxxkkkkkkkkkffkkkkkkxxxxxxkkkvfkvfkkkkkkkkkxkffkkffkffxvxkfkxxkkkkffkkkffkkkf7yMxyyffkkkfkkxkfffffkffytyfkkfyfffffffftqtykxkffyyfffffffyyyfkkfyyyffyfkyyfytyyyyyyfytyqyfyyfyyfyttyfyyyyyyyyyyyyyyyyyyyyyyyyyttyyytqqfft7qffttttqttqqtyyytqqtttttttttyyttqtttqqttttqq777qqq777qyyytqqqqqtttqqqtqqyq7t7t73qq77:3qt73373qq7q77t3tq3qq7737777t",
"ffkkfyyfkxyqffyxyyyyffffkkffffffkfvx77fyfkkyykkfkffyyyyyfy7fyvkkyffkkkkfkxxkfyfkkytfkffkfkqqykvffkkkkkfttkMvytfvykffxkfkkkyyfxxfkxxvxxkkxvkfkxktkxxyyxxkkkxxxxkfkkxxxxkkkkkxxxxxxkkxxkffxkkkxxxxffkkkkxxxkkxxkfkkkkkxxxxvxkkxxxxxxxxxxxxxxxxkkxkxxxxxxxxxxxxxxxxxxxxxxxxkkxxxxxxxxxxxxxxxxxxkkkkxxxxxxxxxxkkkkxxxxxxxxxkkkkkxkkkkkkkkkkkxxxxxxxkkvfkxfkfkkkkkkkxkfkxkfffkxxkfkkfkkkkfffffyykvxffftkMkyfffffffkxxffffkkkfkfyyffkffffffffffytqyfkxffyyffffffyyyyfkkfyyyyyyytfkyyfyfkfyyffyyqyfyyfytttffyyyyyyyyyyyyyyyyyyyyyyyyyyyttyyyttqfft7qffttttttqq7qtyfytqqqqtyyytqyyttttttttttttttttttttty7qttyttqqqqtttqqqtqqyt7y773:qtq737qtq77q3tqqq73q3qq3qq373777qt",
"ffffffffxkyqtyfxyyffffffkkkfffffftxk37xvfkkyykkfkkkkkkkkffqfyvfkffkkkkffxxxkfyyfxytykfkxtxkkytxxffkxvkyqkkkkkkfffxkkvxfkkkfyfxxkkkxxxxkkvxkfkxftkxxyyxxkxxxxkkkkkkxxxxkkkkkxxxxxxkkxxkfkxkkkxxxxfkkkkkxxxkkxxkkkkkkkxxxxvxkfkxxxxxxxxxxxxxxxkkxkxxxxxxxxxxxxxxxxxxxxxxxxkkxxxxxxxxxxxxxxxxxxkkkkxxxxxxxxxkkkkkxxxxxxxxxkkkkkxxkkkkkkkkkkxxkxxxxkkvfkvfkfkkkkkkkxkffkkffkxvxyykkfkkkkffkkftyxvkyfkfkxffkfffkfffkxkffffkkfffyyfkkffffffffffyttyfkkfffyffffffyyyyfkkfyyyyyyyqkxtyxyfkkfyyfyyqyftyfytqtkkytfyyyyyyyyyyyyyyyyyyyyyyyyttyyytttyytqtyftttttttqqqtyyyttqqqtyytq777qqttttttttttyyyyytttyk77qqtttqqqttttqqqtqqyq7t7q3:qt7q7qttt77q7tq7q73q3qq3qq773377qt",
"kffffffyxfytqykxyyyfffkfffkkfffffykk7qxvykkffkkyffkkkkkfkfqfyvfffkkkkkffxxxkfyffxytfkkkvyxxxy7kxffkvvftqkkfkxxkykvxxvxfkkkfyfkxkkxxvxxkkvxkkkxkykxxyyxxkxxxkkkkkkkkxxkkkkkkkkkkkkffkxxkxkkkkkkkkffkkkkxxxkkxxkffkkkkxxxxvxkfkxxxxxxxxxxxxxxxkxxkxxxxxxxxxxxxxxxxkxxxxxxkkxxxxxxxxxxxxxxxxxxxxxxxxxxxxxxxkkkkkkkxxxxxxxkkkkkxxxkkkkkkkkkkxxxxxxxkkvyfvfkkkkkkkkkxkfkxxkfkxvxyykkfffkkkkkxkffxkyykxfffykxfkkkfffkkkfyyfkkkffyfffffffffffffyyffffffffffyyyffffyyyfkkfyyyffyyqfxtykyykxfyyyyytyftyfytqtkkytfyyyyyyyyyyyyyyyyyyyyyyyytyyyytttyytttyyyyyttqtyyyttqqttytttttqq77qqtttttttqqqtyyqqq777qyqqqttttqqqqtttqqqtqqt73q7tq7qq7qqqttq77t7tq7q73q3tq7qq377337qq",
"kfyffkfyxyyyqykfyyffffkkffkkkfyykxkyyttfykkffkkyttyfffyykktkyxffkkkkkkfykxxkfffkkytkxkkxxxtfftkxfykMvyqyfkvxkffkkvxxvxfkfkfyykxxkxxvxxkkxkfkxvxfkxxyyxxkxxkkkkkxkkkxxkkkxxkkkkkkfffkxxxxkkkkkkkkffkkkkxxxkfkxkffkkkkxxxxvxkkxxxxxxxxxxxxxxxxkkxkxxxxxxxxxxxxxxxxkkxxxkkkkxxxxxxxxxxxxxxxxxxxxvxxxxxkxxxxkkkkkkkxxxxxxxkkkkkxxxxkkkkkkkkxxxxxxxxkkvffvfkkkkkkkkkxkfkxxkfkxxkffkkfffkkkkxxkkkkftfkxyyffkxfkkkffffkxkyyyfkkffffffffffffffffyffkkfyyffffyyyffffyyyfkffyyyffffyfftyfytkxftttyftyfttfttttffyyyyyyyyyyyyyyyyyyyyyyyyyyyyyyyyyyyttyyyyyyyyttqtyfytq7qtyyyytqqqqqyyyyyttttttqttttqqqqqqtt7qttyttqqqqttqqqqtqqt73q7yt7qq7q77qtq77t7tq7q73q3qq7qq377337tq",
"kfyykkfyktfktykyyyyfffkkffkkkfyyfvftvk7ttfxkkxktqtyffffyxktkyxyfkkxxkkfykkxkffkxftyxvkfkxf7fktffkfkMxqqkyxvvkyfxkvxxvkyffkkyyfxxkxxvxxkkkffkvvxkkxxyyxxkxxkkkkkxfkxxxxkfxxkkkkkkkffxxxkxkkkkkkkkfkkkkkxxkkfkxkffkkkkxxkxxxxxxkkkxxxxxxxxxxxxxxxkxxxxxxxxvvxxxxxxkkxxkkkkkxxxxxxxxxxxxxxxxkkxvvxxkkkkkkkkkkkkkkkkxxxxxkkkkxxxxxxkkkkkkxxxxxxxxxkkkvffvfkkkkkkkkkxkfkxxkkkkyykxkkkkkkkkkffkkkfyfkkkyfxkfkfffffyffkkfyyfkkkffkkffffffffffffffkkffyyfkkfyyyffffyyyfkfyttyfffkkytytqtykky7qyfkyyfttytyyyttyfyyyyyyyyyyyyyyyyyyyyyyyyyyyytyyyyttyyyyyyyytttttytqqqtyyttttttttyyyyyttttqqttttqqtttyyytq7tyyytqqqqttttqqqtqqtq3q7tq7qt7q337q777t7tq7q73q3qq7qq77733qtt",
"kfyykkfyfqfxyyktyyyfffkkffkkkfyytxtqZMqftfxkkxkttyfkxkkfxxtkyxyykkxxkkfyfkkkkkxvytyvMxfftytvxqyfkfkvk7qxkkxxxkkkkvxkxkyffkkyyfxvkxxvxxkkkyykvMvxkxxyyxxkvxkkkkkxfkkxxkkfxxkkkffkvxkxxkfkkkkkkkkkfkkkkkxxxkfkxkffkkkkkxkkkxvvxkkkxxxxxxxxxxxxxxxkxxxxxxxxvvxxxxxxkkkxkkkkkxxxxxxxxxxxxxxxxkkxvvxxkkkkkkkkkkkkkkkkxxxxxkkkxxxxxxxxkkkkkkxxxxxxxxkkkvfkvfkkkkkkkkkxkfkxxkkkfttkvkkxkkkfffyyfkfyfvxfkyxZxyffyfffffkxffffkkkfffkkffffffffffffkkkffyyyfkkfyyyffffyyyfkfyttyfffkxt7yt3tykkt37yxkyffqtytyffqqyfyyyyyyyyyyyyyyyyyyyyyyyyyyyytyyyyttyyyyyyyyyyttqqqqqyfftqttyyfffftqqq7qqtqqtttqqq777qqq7:7tffytqqqqttttqqqtqqyq7t7q73ty77:37q737tqyq7773q3qq7qq37q3:7tq",
"qyxkykvkMyxyqkfvxkfyyyfktfxkytyxfffffyffkkkkkkffffffkkkkkffyyffkxkffkxkffkkkffyyfffkkfkxyttfvvkqvvxfyyfxvytfxkfkxffxxffxfxxkfkkkfxxyqkMxyffkvMxfkkxxxkffxMvfykvkkxxkffkxxxxxxxxxxxxxkkkkkkxxxxkffxxfkvxyfkkkxxkkxxkkkkfkkkkkkkkkxxxxkkkkxvvkkxxxkkkxxkkkvxxxxfkxxxxxxxxxkkkkxxxxfkvvxxxxvkfkxxxfxkxxkffxkfffkxxkkkkkkkxxxxxxxxxxkkkkkkkffkxxxkkkxxkxxxkkffkkkkkkkkxxkkkkyyvMfkvttykxxxkfxffxxyyfkfffffkkxxkfyyffyfffyytqtffttfffyffqtfxkyyyffytyyffytyyyykfykfyfftyftyft77yvxfykfyyytttyyffyyffykyyyfyyyyyyyyyyyyyyyyyyytyyttyyyyyyyytttyyyyyyyytttttyyy7qyffyq7ttttttttttqqqqttqqttqq77qqttqqqtq77qttqtttttqqty7qtqqtq7:3qt733qtq77777q-q7:7q7777777777tq737q",
"qfxkffkkvyxytkfxkkffyffftfxkytykfkffffyfkkkkkfffffffkkkkkffyyffkkkkkfffkfkkkffyyfffkkffkyfffkfyyvxxfyykxxfyfkkkkkkkkkkkkfxxkfkkkkffkfkvkyffkvMxfkkkkxkkfxvxyykxfkkxkffkxxxkxkkkkxxxxkkkkkkxxxxkffxxfkvxyfkkkkkkkxkkkkkkkkkkkkkkkxxxxkkkkvxxxxxxxkkxxxkkkvxxxxkkxxxxxxxxxkkkkkxxxxxxkkkxvxkkkxxkfxxxxxffxkkffkkkkkkkkkxxxxxxxxxxxkkkkkkfffkxxxkkkxxkxxxxkffkkkkkkxxkkkkkxfyvvfkxytyfkxxkkxffxxfyfkkffffkkkkffffffyfffyfyqfkkfyyfykkfyyfffyyyffytyfffytyyyykfykfyfftffyyft7qfxkfyffyfyttyyyffyyffyyyyyyyyyyyyyyyyyyyyyyyyytyyttyyyyyyyyyttyyyyyyyytttttyyyttttttttttttttqqqtyffyttqqttttttqttq7777tqqtttqqtttttttt7qqqqttq37qt7:3qtq7777qq:tq:7q77777777777qqq77",
"txkkxyqxxyxkykffffffffyyyfxkytfkffffffffkkkkkkfffffkkkkkfffffffffkxxfffkfkkkkfyyfffkkffkfkxktqtfxxxfyyfxkkfyfxxkfxxffxxffxxkfkkkvyyxkkkkyfkkxvxfxkkkkkkkkxkytfkfkkkkffkxxxxxxxkkxxxkkkkkkkxxxxkfkxxkkxxyfkkkkkkkfkkkkkkkkkkkkkkkxkxxkkkkvxkvvkkvkkxxxkkkvxxxxkkxxxxxxxxxkkkkkkkkxxxkkkxvxkkkxxxkxxxvxffffkkkkkkkkkkkkkxxxxxxxxxxkkkkkkkffkxxxkkkxkkxxxxkffkkkkkkkkkkkkkxkfxxfkxyyyfkkkxxxfykxkfkffkkkffffffffffftyffffytkxxkffffkffkkfffyyyffytyfkfytyffykfykfyffyfftyftqyffyffffffyyyyfyyytyffyqyftqtyyyyyyyyyyyyyyyyyytyyttyyyyyyyyyyyyyyyyyyytttttyyyttttttttqttttttttyffffytqqtttttttttq7777tqqtytqqttttqqttqqtqqttq37qq7:3qtq777qqq3yt37q77qq7777qq3qttq3",
"yvkfvt3xfykxfkfyyfkkkfytyfkkfyfkkkffffffkkkkkffffffkkkkkffffffffkkkkffkkfkkkkffyfffkkfkktfxktqykkkxkfffkfkkyyxxkfkxkkxkffxxkfkkkvffkffkfyfkkxvxkxkkffkxxkxkfffkykkkkkkkkxxxxxxxkxxxkkkkfkkkxxkkfkxxkkxxfkkkkkkkkffkxxxxkkkkkkkkkkkxxkkkkMkkvvfkvkkxxxkkkvxxxxfkxxxxxxxxxxxxxkkkkkkxvvxkkxkkfkxxxxxxxkffffkxxkffkkkkkkkxkxxxxxxxxkkkkxkkffkxxxkkkkkkkxxxkffkkkkkkxkkkkkxxxkxkffkfffffkkxxkfyfxkkkfkkkkkffffffkkkktyfffffyfkkkkkkkfyfxxffxyyyffytyfkkytyffykfykfyfkyfftyfytfkytfkffyfyyyfkyyttykft7yfq7tftyyyyyyyyyyyyyyyytyyttyyyyyyyyyyyyyyyyyyytttttttt7qyfftq7qqttyyyyfyytqqttqtttqq77qttttqttq77qttqtqtttqqttqttqqttt77qq733qtq777qqq7yt7qq77qq77777q7qqqq7",
"tvkfvt3xfyfxffktyffkkfytffkkfffkkkkkffffkkkkkffffffkfkkkfffkkfffxkkkkkkffkkkkffyfffkkfkxtyffyyfkfkxkfffkykkyykxkkfkxxkfkfxxkfkkkkxxfqfxfyfkkxxxxxkkffkxxxxkkkxkfkkkkkkkkkkkkkkkkkkkkkkkkkkxxxkkfxxxkkxxkxxkkkkkkffkkxxkkkkkkkkkkkkkkkkkkMkkvvfkvkxxxxkkkvxxvxkfkxxxxxxxxxxxxkkkkkkxvvxkkxkkfkxxxxxxkkkfffkxxkffkkkkkxxxxxxxxxxxxxkkkxxkffkxxxkkkkkkkxxkkffkkkkkkkkkkkkkkxxkfkffkkfffkkkxfyyfkkkkfkkkkffffffffkkkyfffykkfkkkxkfkkftyxxffkyyykfytyfkkyyyffykfykfyfkyfftyfytkkytyfyfffyyyfkyyttykft7yfq7tftyyyyyyyyyyyyyyyytyyttyfyfyyyyyyyyyyyyyyytttttttt7qtyyyq7qqttttttttqqqqqqqqqtqqq7ttttqqttq77tttqqqqqqqqttqttqqttq777q733qqq77qqtt7yt7qqq7qq7777qqtq337q",
"tkkfxyqkffykytxyfffffyytffkkffffkkkkfffffkkkfffffffkfkkkffkkkkffxkffkxkffkkkkffykffkkfkxtttyfffffkxxkffkfkkfyfkxkyfvvfykfxxkfkkkkvvy7fxytfxkkxxxkkkkkkkkvxkkxxkfkkkkxxkkkkkkkkkkkkkkkkkfkkkxkkffxxkkxxxkxxkkkkkkfkkkkkkkkkkkkkkkkkkkkkkkvxkvvkkvkxxxxkkkvxxvxffkxxxxxxxxxxxxkkkkvxkkkxxxkkkfkkxxkxkfkkkffkkkkkkkkkkkkkxxxxxkxxxxxkkkxxkkfkxxxkkkkkkkxxkkffkkkkkkkkkkkkkkxxffxkyxkkkkkkkkyffkkkkkkkkkkfffffffffffyffffkkfkkkxkytyfyfffyyfyyfkfytyfkkyyyffyffykfyfkyfftykfyfkftyyffffyyyyfyyytyfftqyftqtyyyyyyyyyyyyyyyyyytyyttyfyfffyyyyyyyyyyyyyyyytttttttqttttttttqqq7777ttyttqqqqtttttttttq777ytttyqqqqqqqqqttqttqqqq377qqq77qtq77qqtt3yt37q7qqq7777qqt73:7q",
"qfkkffffkktftqxyfffyyyyykkkkkkkkkkkkffffffkffffffffffkkkffkkkkffkkkkkkffffkkkffyfffkkkkxfyttyffyyfxxkkkkffkkfykvyfkxxkfyfkxkfkkkvxxftykytkxxkkxvkkxxxkkfxkfkxkfykkkkxxkfkkkkkkkkkkkkkkfffkkkkkffvxkkxxxxvxkkffkfxxkkkkkkkkkkkkkkxxxxkkkkvxxxxxxxkxkxxkkkvxxvxfkkxxxxxxxxxxxkkkkkvxkkkxxxxkkkkkxvkxkyfxxfkkffkkkkkkkkkkxxkkkkkkkkxkkkxxkkfkxxxkkkkkkkxkkkfffkkkkkkkxxkffykkyyvkfvkkkkkkkktfkxkkkkkkffffkkkkfffffffkkffkkffffkftqtffyttyyyyyyffytyfkkyyfffykfykfyffyyftfkfyyfkftyffffyttyyyffyyffyyyyyyyyyyyyyyyyyyyyyyyyytyyttyyyffyyyyyyyyyyyyyyyyytttttqqqqtttqqqqqqqqqqqtyyytqqqqtttttttttq77qyttttq7q77qqqqqt7tttqq7:77qttqqqtq77qqqq:tq37q77777777qqq77777",
"7tkktfxfxxqyq7vfkfyytyyfkkfkkkkfkkkkfffffkfffffffffffkkkffkxxkfyfkxkfffkffkkkfyyfffkkfkxxktttyyytfxxxkkkffkxftfMtkxkkxktfkxkfkkkMffxfyyttkxxkkxvkkxxxkffkfyfkkytkkkkxxkfkkkkkkkkkkkkkkfffkkkkkffvxkkxxxxvxkkffffxxkkkkfkkkkkkkkkxxxxkkkkxvvkkxxxkxkxxkkkvxxvxffxxxxxxxxxxxxkkkkkxxxxvvkfkkkkkkxvkxfyfxxkkfyfkxxkkkkkkkxxkkkkkkkkxkkkxxkkfkxxxkkkkkkkkkkkfffkkkkkkkxxkfyyfktyMxfvxxxkkkffqfxxkffkkfffffkxxxkfyyfffkkfffkfytyfftqttyt7qykfyyykfytyfkkyyfffykfykfyfftyftfxkttfxkttfffyytttyyffyyffykyyyfyyyyyyyyyyyyyyyyyyytyyttyyyfyyyyyyyyyyyytytyyyttttt3qtyytq7qqqtyyyyfyytqqqqqtqtqqq7tttttttttq7ttqqq77qqqqqt7qttqq3-77qyytqtttq7qqqq:qq:7q77777777q737qq73",
":kxtyvxkkyy7yMf7kkyqyxkyfffffkkkkkkkkkkkkkkkkkkktyyffkkkfkxfkxxkkkkkkkkkykf7tvvtffkkkkkkkyffykxyfkkkffkxxffvvytfykvvxffkffkvxyfvfqxMyyxqtft7fvxkffkxxfkxZxfykkfyxffxxfkxxxkkkkffyfxxkkffxxxxkkkkkxxkkkxxxvxkxvxfkkxxxkkkxxkkkkkkxxxxxxxxxkvvffxkkMMkykvvMvxkffffkxxffkxkfffkkxvvxxxxxxxxxxxxxxxxxxkkkkxxxxxxxxkkkxxxxxxvxxkkxMMxkkkkkkkfkxxxkkkkkkkkxxkkxkfkxkftxxvvkfyffvfkxykkxktkxyftfvvfyfkffvxfkfyfffffyyffkfffffkkfkftqtfxfxtqkftkyyffkkffyttyfffyxftfkfykffkvxytyffky7tkyyfffyttt7tyqtkfqyyyyytyfyyyyyyyyyyyyyyyyyytttyyfytttyyytttyytttttttttttttttttttttttttttttttttttqt77tytttytttttttq77qtttqytq7qqqq77qytq7qqt33q73q737qqqqttyq::7q773:33773qqtq3:",
":xxtyxxkfk7ytvyqyffyfxfqffffffkkkkkkkkkkkkkkkkkkyyfffkkkfxxffxxkkkkkkkfffyyyfkkyffkkkkkkffkkyfkyfkkkffkxyxvffxktykvvxffkffkvkyfvfqxMyfxqykt7fvxkffkxkffxvkyfkxkykyfkkffkkxkkkkkkyfxxkkkkxxxkkkkkkxxkkkxxxxxkxvxffkxxxkkkxxkkkkkkxxxxxxxxkkvvffxkxvvkyfxvxxkkkkxxkxxkfkxxfkxxxkxxxxkkkkxxxxkxxxxkxxkkkkxxxxxxxxkkkkxxxxxxkkffxvvkkkkkkkkfkxxxkkkkkkkkxxkkkkkkkkkkffkxkffxfvfkxfkkykfvktkxkkkffkkktkkfkxkxfffffyfffffffffffxxtqykffxfyxfqtkfyyyffkyyyyffffkfyfffyfyykxkytykyyyqyftyfffytttqtttyfftffffyqqtyyyyyyyyyyyyyyyyyytttyyyytttyytttyyytqqtttqqttttttttttttttttttttttttttqqt77tytttytttttttq77qqttqttq7qqttq7qtq337qq73q73q7737777q777qqqqq73337777qq7733",
"3kxyfxkkfv#vtkytyffyfxfqffffffkkkkkkkkkkkkkkkkkkyyfffkkkkkkkkxxkkkkkkkkkkttxvfykffkkkkkkyfxktykffkxkffkxfxvffxktykvvxfkkffkxftfMftxMffxtykyqkvxkyfkkkyykxkffkxkffyffffffxxkkkkkkfkkxkkkkxxkkkkkkkxxkfkxxkxxkxxxfkkxxxkkkxxkkkkkkxxxxxxxxkfxvffxxvxkkkffxxkkkkxxxkxxkfkxxfxvvxkkxxxxxkkxxxkkkxxxxxxkkkkxxxxxxxxkkxkkxxvxkyyyfkxxfkkkkkkkkkxxxkkkkkkxkxxkkkkkkffxvfffkffkvfvfkxykkyxfxkyxvkyyfkxkkyxxfkkyfffffffffyfkkfyyffvxytkkyfkffxfttkfyyyffyyfffyyffyfffyffyyyfkfytyvtqyyfftyfffyytyyqqtffyyttyffytyyyyyyyyyyyyyyyyyyyyttyyyyttyyyttyyyytqqqqqqqqqqqttttttttttttttttttttttqqtqqtttttttttttttq77qqttqqqqqqtyftqqq7337qt73q73qq77q777qq33tt73t73337qqq773377",
"7kxyfkfkfx#vkqftfkfttfkffffffkkkkkkkkkkkkkkkkkkkffffkkkkkkkkkkxkkkkkkkkkftyvvfykfffkkkkkyfvxttkkkkxkkkxvvffxxyykfkxxkkkkfkxxytfMfyxvffkyfkytkvxxyyfkfyykkfffkxxkfffkkfkkxxkkkkkfkkkkkkkkkkkkkkkkkxxkfkxxkkkxxxxkkkxxxkkkxxkkkkkkxxxxxxxxkfxxfkxxxffxxkfkxxxkkfffkxxkfkxxkxvvxkkxxxxxkkxxxkkkxxxxxxkkkkkkxxxxxxkkxkkxvvkfyyffxxkfkkkkkkkkkxxxkkkkkkxxxxkkkkkkkkkkffkkfyfxfvfkxykkxxtfxkvkkyykvkfkfvxfkfyyffffffffyfkkfyfkfkkfffffffytyffkyyfkkfyqyfkfyyyfqfkytyftyyyyyytyxqqffyytyfffyyyyfq7ykfyf7qykkfyfyyyyyyyyyyyyyyyyyyyyyyyyyyyyyyttyyyyttqtttqqqtttttttttttttttttttttttqtqqqqqtttttttttttttq77qtttq7qtttttyqqqtq337qt73qq3q777qqqqty7333:3q7777qqqq73:37q",
"qkxfffyfxf3kZ:xyfkfttfkfffffkkkkkkkkkkkkkkkkkkkkkkkkkfffkkkkkkkxxkkkkkkkyfkxxkkfffffkkkkyfvxttkkkxxxkkxvvkfxxyykfkxxkkkkfkxkytfvffxxkfkffkytkxkxyffkfyykffffkkxxkkkkkxxkxxkkkkkfkkkkkkkkkkkkkkkkkxxkfkxkkkkxkkkkkkxxxkkkxkkkkkkkxxxxxxxxffxxffxxfyyxMxfkkkkfffyykxxkfkxxvxkkkxxkkkkkkkkkkkkkkkkkxkkkkkkkxxxxxxkkxkkxvvkfffkxxxxkkkkkkkkkkxxxkkkkkkxxxxkkkkfkxxfykkxvkfykyvfkxfkkxxtfkkxffykvxfyktkkfkkfkffffffffffkfyfkxkffxkttkfyyyyykkyyfkxkyqyfkfyyffqfkytyytyyytyyyyfqykytyyyffyyyyyf77fkyyktyfkftqtyyyyyyyyyyyyyyyyyyyyyyytyyyyyttttyyyttttyyyyyyytttttttttttttttttqqqqqqqtqtttttttttttqqttqqqqqttq3qtytqqq7qtyt77qqt73qq7qq77qqqqtqtq::373777qqqqq73:37q",
"tkxkkytfxttyZ-kfqfxfyffyffffkkkkkkkkkkkkkkkkkkkkxkkkkfffkffxxkkxxxxkkkkkykxkkvxfffffkkkkyfxkyykfkxxxkkxvkvxfykxykkxkkkkxfkkfyyfkfkxxxkffkxfykxkxffkxkyfkkkkfffkxkxxkkxxxxkkkkkkfxkkkkkkkkkkkkkkkkxxkfkxxkkkxkkkxkkxxxkkkxkkkkkkkxxxxxxxxffxxffxkyyfxvxkkyyffkkkkkxxkkkxxMxffkxxkkkkkkkkkkkkkkkkkxkkkkkkkxxxxxxkkkkkxxvxkxkxvvxkxkkkkxkkkkxxxkkkkkkxxkxkkkffkxxftxxvvxfyfyvfkxfkkyvkkytkfffxvkyyfyxkfkkfkffffffffkkfffffkkfkxkqqffykxyyftkffyffffyfffyyffyffyyyyyyyyttfffytfkytyyyffyyyyfy7qfkytfttyffttyyyyyyyyyyyyyyyyyyyyyyyttyyfyytttttyyyttyyyyyyyyyqqqqttqqtttttttqqqqqqqqqqtttqtyttttqqqqtqqqqqttq7qtttqq77qtyyq7qqt73qq7qq77qq777:qt77tq-7qqqqqqq777377",
"ykkkkytfxtfyv7yfqfxfyffyffkkkkkkkkkkkkkkkkkkkkkkxxxkkfffkffkxkkxxxkkkkkkkkkfkvvkffffffkkkfkkykxfkxvxkkxvxvxyyxxfkkkkkkkxfkkffffffxxkxkfkkxfyxkkvkkxvxffkxxxfyykxfxxfkxxkkkkkkkffxkkfkxxkkkkkkkkkkxxkkkxxkfkxxfkxkkxxkkkkxkkkkkkkxxxxxxxxkfxxffxkfkkfkxxkyfkkxxxxkxxkkxxxMvxkxxkkkkkkkkkkkkkkkkkkkkkkkkxxxxxxxxkkkkkxxxxxMvxvxkkxkkxxxxkkkxxxkkkkkkxxkxkkkkfkkkfykkkxkffkyvfkxfkktvkkytxfkkkffkkffvxfkftyfffffffkkkfffftqqkxkttfkftkxyyktkkfyfkkkyyyyfffffyyyyyyyffytykxkttkktyfyyffyyyyfqqtffttytttyyyfkyyyyyyyyyyyyyyyyyyyyyyttyyffyttytyyyytttttttttttqqqqtttttyytttqq77qqqqqq7tyqqtytttqqqqqtqqqqqttqtqqqqtttqqtytq7qqt73qq7qqqqqq73737qq773:7qttq77qqq7733",
"ykkkktqkxtfkkyqkykxyqykkffkkkkkkkkkkkkkkkkkkkkkkxxxkkfffxffxxkkxxxkkkkkkvkyfxvxxffffffkkkfkkfxxykxvxkkxvMkfxkyfvxkkkfkkkfkkffkfyfxxkxkykxxffxkkvkkxvxffxvvxfttfxfkkffkkfkxkkkkffvkffkxxxkkkkkfkkkxxkkkxxkfkxxfkvkkxxxkkkxkkkkkkkxxxxxxxxkfxxffkfkxkyyxvxxvvvvxxkkxxkkxxxMMMvxkkfkkkkkkkkkkkkkkkkxkkkkkxxxxxxxxkkkkxxxxxvMvxvxffkkkxxxxkkkxxxkkkkkkxxkkkkkkkkfkkxfffkffkvyvfkxfkkfxyfkxvtxxftyxxktxkfkkfkfffffffkkffkkf7--kMyqkvxftfkqyvkfffkxxkfyttyfffyxytffyyfkkytykxkqykftfktyfyyyyyf3qyffttykyyytqtyyyyyyyyyyyyyyyyyyyyyyyttyfffyttyyffytttttttttttttqqqttttyyytttqq77qqqqqq7tyqqtytttqqqqqqqqqqqttqft777tyytqqqq77qtt77qq7qq77ttqqtt7373--37qttq777qqq73:",
"qfkyqyffkkffffffftv7tqyxkkffkxkfkkkkkkkkkkkkkkkkkkkkkkkkkkkkkkkkfkxxxkkffkxxfyfxkxxkkxxkkffkkkkkkkkkxxxxkkkkkkkkfkkkkkkktfkffkkxxxxkffffxkkxkffkxkfkxxftMykxtyxkxkkkxxkfkkkxxxxxkxxkfyyfffkkkkkkxxkkkfffvffxkkxkkkkkxxxxfxvvxkffkkkkkkkkfkxxkkxvkkkkkkkkxxxxxxxxxMvkfxvvxkffkxxxxxxxxxxxkkkkkkkkxxkkkkkkvyxxfvkkkkkkxxkkkxxxxkfyxvy7kxfxxkffkxxkxfxyxyxkkkffkkkfykxkfkkykfxyxykfkxxvvxkkfkxxkfffvkffkkftyyyfffkkkfyyyyffxkqkktffyfftykkyfkkkfytyyyfyyyyytffyyfftyyfffkkfffyyyyyyfyyyfftqqykkffyyyyyyyyyyttttttyyyyyyyyyyyyyyyytttttyyytqyyyyyyyyttttttttfyyyyyyytttqqqttkq37yyyyttqqqqttytq7777q#3ttq37qtttq77qqqqq7777q3:37tyt77qq77377qqqqq777qqqqq777777733",
"qfkytyffkkffffffxtk7yyffkkffkxkfkkkkkkkkkkkkkkkkkkkkkkkkkkkkkkkkfkkxxkkffkxxfyfxkxxkkxxkffkkkkkkkkkkkxxxkkkkkkkkkkkkkkkktfkffkxxxxkkffffxkkxkffkxkkkkkfyxkkftykkxkfkxxkfkkkkxxxkkkxkfyffkkkkkkkkkkkkkkffxfkvffxxkkkkxxxxkxxvxkfkxxxkkkkkkkxxkkxxkkkkkkkkxxxxxxxxxvvkkxvvxkffkxxxxxxxxxxxkkkkkkkkxxxkkkkkvyxxfvkkkkkkxxxkxxxxxkffvvfyvvkvkkffkxxkkfkfkfkkkkffkkkkykxkfkkyxfxyxykfkkxxxkkkfkxxfffkvkffkkfyyffkkkxxkfyyyfkkkktfftfyyffyyfkyffkkfyytyyfyyyyytffyyfftyyffkkffffyyyyyyfyyyfftqqykkfyyyyyyyyyyyyyyytyyyyyyyyyyyyyyyyyttyttyyytttttyyyyyttttqqq7qqqqtttytttq77qqktqtytttttttttttttqqqqqt3qttq77qqttq77qq7q7qqqttqqq773337qq77777qqqqq777qqqqq7777qq733",
"qfkytyffffffffffvty3fkfykkffkxkkkkkkkkkkkkkkkkkkxkkffkkxkkkkkkkkfkkxxkkfkkxkffkkkxxkkxxkkkkkkkkkkkkkkxkkkkkkkkkkffkkkkkktfkffkxxxxkkkfffxkkxkffkxxkkffffkvktyfkkxkkkxxkffkkkxxxxkkxkffffkkkkffffkkkkkkkkkfxvfyxxkkkkkkkkkkxxxkkkxxxxkkkkxkkkxxxkxxxxxxxxxxxxxxxxxvvkkxxxxxkkkxxxxxxxxxxxkkkkkkkkxxxkkkkkvyxxfvkkkkkkxxkkxxxxxxkkxkfkMxkvkkkkkxkkkkfkfkkkxkkkkkkfykxkfkffkfxyxykfkkxkfffkfkxkfffkvxkfkkffffkkkxxxffyyffkkykyfytkttkxfyffyffkkfyyyyyyffyyyyffyyffyyyffffffffffffyyfyyyyyytqykfyyfyyyyyyyyyffyyyyyyyyyyyyyyyyyyyyttytttyyyttqqtyfyyttttqqqqqqqqtttytttq777qyyyytqqtqqttttttttqqqqtyttttqqqqqttqq7qqqqqqqqqq3qyt7:37qqqq777qqqqq7777qqqq7777777733",
"tfkytyffffffffffxtk7ffffkkffkxkkkkkkkkkkkkkkkkkkvxfyyfxvkkkkkxkkffkkkkkfkkkkffkkkkkkkxxkkkkkkkkkkkkkkkkkkkkkkkkkffkkkkkktfkffkxxkkkkkkkkxkkxkffkxxkkyyfkfZxqykfkxkkkxxkfffkkxxxxkkxxkfffkkkkkfffkkkkkkkkkfxvffxxkkkkkkkkkkkkxkkkxxxxkkkkxkkkxxkkxxxxxxxxxxxxxxxxxxxxkxxxxxkkxxxxxxxxxxxxkkkkkkkkxkkkkkkkvfvxkvkkkkkkxxkkxxxxxxxxfyykvkfxkkkkkkkkkxyxyxfxxkkkkkkffkxkkfffkfxyxykffkkkyyfkfkxkfffkxkkkffffkkkkkkkxffyyyfkkqkffyykttkxfyfffffffffyyyyffffyyyyfyyffyyyfffffffffffffyyyyyyyyytyffyyfyyyyyyyfffffyyyyyyyyyyyyyyyyyyyttyyttyyyyqqqtyfyyttttttttyyyttyyytttq77qqttyytqqqqqttyyttttqqqqttftq7qtqqqttqq7qqqq777377-7yft77qqqqq777qqqqqq77777qq777777q733",
"tkkytykfffffffffftvtfyfxkfffkxkkkkkkkkkkkkkkkkkkvxkffkxvkkkkxxxxfkkkkkkfkkkkkkffkkkxxkkkkkkkkkkxkkkkkkkkkkkkkkkkffkkkkkkyfxkfkxxkkkffkkkxkkxkffkkxxfyyfkfZxqykfkxkkkxxkfffkkkxkkfkxxkkfkkkkkkkfffkkkkxxxxkxxkxvfkkkkxxkkxkkkkxxxxxxxkkkkxkkkxxkkxxxxxxxxxxxxxxxxxxxxxxkkxxxxxxxxkkxxxxxkkkkkkkkkkkkkkkkkvyxxfvkkkkkkxxkkxxxxxxvvftyxxkkkkkkkkkkkkxyxyxfxxkkkkkfffkkkkfffkfxyxyxkkkkfyyfkkkxkffkkkkkffffkfffffffkkfyyyfff7kfkkfxytkxfyfkffffffffyyyffffyyyyyffffffffffffffffffyyyyyfyyyyftyfyyyfyyyyyyyyyfffyyyyyyyyyyyyyyyyyyyttyttyyyytqqqqyyyyttttyyyyyyytttyytttqqqty7qqtttq7qqtyyytttqqqqqqqyq337ttqqttqq7qqqqq77777qtyyt733qqqq777qqqqq777777q777777qq733",
"tkxfyfkkkkffffffytMyftyxkfffkxkkkkkkkkkkkkkkkkkkxxkffkxxkkkxxxxxffkkkkffxkffkkkfxkkxxkkxkkkkkxkxkkkkkkkkkkkkkkkkffkkkkkkykxkkkxvffffkkxxxkkxkffkkkkfyyfkkvktyfkkxkkkxxkfffkkkkkkffxxxkkkkkkkkkfffffkxxxvxkxxkvvfkkkkxxkxxkkkkxxxxxxxkkkkxkkkkxxkxxxxxxxxxxxxxxxxxkkxxkkkkxvvxxkkkkkxxxkkkkkkkkkkkkkkkkkkvyxxfvkkkkkkxxkkxxxxxxxvkfxvkxvkkkxxkkkkkkfkfkkkkkkkkkfykfkkkffkkfxyxyxkkkfffffkkkxkffkxyfkfyffkkffyyfffkfyyyyffqkfkkfxytkkytfkffyyyfffyyyfffffyfyyffyfkfffyyyyyfffffyyyyyffyyffyyyttyfyyyyyyyyyffyyyyyyyyyyyyyyyyyyyytttttyyytqqtttttyyyyttttqqqqqqqqttqttqqtyy3qqqtyq7qtttttqqtqqqqqqqq3:3qttqtttqq7qqqqqqqqttytq77777qqqq777qqqqqq777777777777qq733",
"tkxfyfkkkkffffffktvykffkkfffkxkkkkkkkkkkkkkkkkkkxxkkkkkxkxxxxxxxffkkkkffxkffkxkfxkkxxkkxkkkkkxxxkkkkkkkkkkkkkkkkffkkkkkkykxkkxvvffffkkxxxkkxkffkkkkffyffxkkftykkxxkxxxxkffkkkkkkyfxxxkkkxkkkkkkffffkxxvvkkvvkxvfkkkkxxxxxkffkxxxxkxkkkkkkkxxkkxxxxxxxxxxxxxxxxxxxfkxvkffkxvvxxkkkkxxxxkkxkkkkkkkkkkkkkffvyxxfvkkkkkkxxxxxxxxkxxxxkvxyxZkkkxxkkkkkkkfkfkkkkkkxkfykfkxkyfkkfxyxyxkxkffkxkkkkkkffkxyfkkffkxxkfffffkkfytyfffkktfktfyyffttfkkfyyyfkffyffffffffyyffyfkkffyyyyyffffyyyyyyyyyyfkyyyttyfyyyyyyyyyyyyttyyyyyyyyyyyyyyyyytttttyytq7tyyytqtyyyttttqqqqqqqqtttttqqqty3qytqttqtttttqq7qqqtttttq337tttqqttq77qqqqqqttty77777qqqqqqq777qqqqq777777777777qqqq73",
"tkxfyfkkkkffffffxtktxxfykkffkxkkkkkkkkkkkkkkkkkkkkxxkkkkkkxxxxxxffkkkkffxkffkxkfxkkxxkkxkkkkxxxxkkfkkkkkkkkkkkkkffkkkkkkykxkkxvvffffkkxxxkkxkffkkkffffffMykxtyxkxxkxxxxkffkkkkkkyfxxxxkkxxkkkkkkyffkxvvvfkMvfkvkkkkkxxxxvkffkxxxkkkkkxxxfkxxkkxvxxxxxxxxxxxxxxxxxffxvkffkxvvxxkkkkxxxxkkxkkkkkkkkkkkkkkfvyxxfvkkkkkkxxxxxxxxxkxkkfxf7kMykkxxkfkkxfxyxyxkkkkxxkfykfkxkyfkkfxyxfxkxfyfxvxffkkkffkxykxkffkvxxkkffkkffyyykkkMxqyyqyyyfyqtfxkfytyfkfffffffffffyyffyfxkffyyyyyffffyyyyyyfyyyfkyyyttyfyffyyyyyyyyttttyyyyyyyyyyyyyyyyttttyyyt73tyfyqqtyttyyyyyyyytttttttttqqqqt3ykyqqtyttttqq77qqqtytyyq77qttt7tttq77qqtqqqqqqq:7tyyt77qqqq77qqqqqqq77777777777qqqq73",
"yfffxkyfxkffyfkkyfkxxxkfkkkkkkkkkkkkkkkkxxxxxxxxkxxxkkxvxxxxkkkkfkkxkkfyxxkfyfkxkkkkkfkkkkkkkkkkvvxfkvktvvxxxkkfxxxxkkkkxkffkxxkkfyyfkkfxffxxffxkkkkkkffZxffkkkxkkkkkkkkffkkkkkkkfkkxxkkkffyffkxkxvxffkxkkkkkkkkkkkkfffykxxxxxkkkkkkxxxxxxxxxxxxkxxxxxxxkxxxkkfkkxxxxxxxxxxxxxxkxxxxxxxxxxxkffkxxxxxkkxvxkxvvxkxxkfkkxxxxxxxxxxxfxxkvvkkxvvxkfffkkkkkkffkxxkffffkkxxkfffkkyxfvkkxkkkkkfykxkffkxkffffffyykxxxfffffffkkkkkyyfkfyttyyffytykvykxqtkfxvxttyyqtfkyykkyyyfffffftyyyyffffffyyyyyfytyffyttyyyyyyyyyyyyyyftyyytqttktqykfttftykkyykkft37yytttttttttqtttttqqtq7qq777tttyffffyq337tyy7qqtttttyyyyq7qq37qqq7qqtttq77qy3377337qtttq737qt73::377t73333qf773333",
"yfffxkyfkkffffkkyfkxxkkfkkkkkkkkkkkkkkkkxxxxxxxxkxxxkkxvxxxkkkkkkkkxkkfyxkkfyfkxkkkkkkkkkkkkkkkkfxvxffkkvxxxkkffxxxxkkkkkkkkkkkkkfyyfkkfxkkxxkkxkkkkkkffxkfkkffkkkkkkkkkffkkkkkkkffkxxkkkffffkkxfkxkfkxvkkkkkkkkffkkkfffkxxxxxkkkkkkxxxxkkkkkkkkkkxxxxxxkxxxkkfkkxxxxxxxxxxxxxkkxxkkkkxxxxkkfkkxxxxkkkxvxkxvvxkxxkfkkxxxxxxxxxxxfxxkxvkxxxxkkfffkkkkkkffkxxkfffffkxkffkxkkyxfvkkxkkkkkfykxkffkxkkkkkffffyfkxkkffkkkfkfffkkkkffffkfyyytykxyfktykfkkfffytyyfkttffyyyffffyytyyffffyfffffyyyfyyfffyttyyyyyyyyyyyyyyyyyytttttyttyyyyyffyyqqqyfyt7tffyyyyyttttqqttttttt737ttttyytttqqq7qqtyyytqqtttttqttytq77q37qqqqqqtttq77qy337777qqqtq7777qtq7377q77777::3ttq773:",
"yfffxkyfkkffffkkffkkxkkfkkkkkkkkkkkkkkkkxxxxxxxxkxxxkkxvxkxkkkkkkkxxkkffkkxkffkxkkkkkkkkkkkkkkkkfkxvkfkvxkkkkfffxkxxkkkkfkxxffkxkfyyfkkkkxkkkkxkkkkkkkffkfffyyfkkkkkkkkkffkkkkkkkkkkxxkkkffffkkkykkkfxvMkkkkkkkkyfkkkkkkkkxxxxkkkkkkkkxxkkkkkkkkxkxxxxxxkxxxkkkkkxxxxxxxxxxxkkkkxxxxkkxxkkkkkkkxxkkfkxxvkkkxxkkxxkkkkxxxxxxxxxxxfxkfxxkxxxkkkkkkkkkkkkffkxxkfkkkyfkkffkxfkyxfvfkxkffkkfykxkffkkkkkkkkkkxfffffkffkkkfffffxkfffkkxxfyyyyykktykyykkfyfxktqffkftqyfyyffffyyttyffffyyffyffyyffytyffyttyyyyyyyyyyyyyyyfyttyfyttffyqtyfyfftqqqttttqykkffffyttttqqttttttt3:3tyyyyytqq777qqtyyttqyytttqqqqqtqq77q7qttqqqqtttq77qy37777qqtqq7777qqttqqtqq7:qtq::7qqq7733",
"ykffxfyfkfkffkfkffffkfkfkkkkkkkkkkkkkkkkxxxxxxxxkkxxkkxxxkkkkkkkkkkkkkffkkkkffkkkkkkkkkkkkkkkkkkkytkvxkkkkffffffkkxxkkkkfkxkkkkxxkffkxkkfxxffxxfkkkkkkffxfyttykxfkkkkkkkffkkkkkkkkkkxxkkkkfkfkkkykxffxvvkkkkkkkkyffxxxxkkkkxxxxxkkkkkkxxkkkkkkkkkkxxxxxkkxxxkkfkkxxxxxxxxxxxkkkkxxxxkkxxkkkkkkxxxkffkxvvkkkxxkkkxkkkkxxxxxxxxxxxfxkfxxkvxkffkkkkkkkkkkffkxxffkkkfffffkkxfkyxyxfkxkffkkfykxkffkkkffffkxxvvkytyfkkffffkkkkffyyfkxxxfyyfffkkyyfffffyykxfttkykfttyfyyffffytqyyfkffytyyyyyyyyfytyffyttyyyyyyyyyfyfyytyyyyfffytfkq7qtt7ykytyytttttyffyfyyytttqqttttttqt73qyytyttttttqqyyyq737qfyttqqqq77q777777qqttqqqtttq77ty37qqqqttq7337qqqqqqqqq77:qt73qqq333377",
"yfffkkyffffkkkkffffffffkkkkkkkkkkkkkkkkkxxxxxxxxfkxxkkkxkkkkkkkkxxkkkkkkkkxkfffkkkkkkkkkkkkkkkkkkttxMxkkffffffffkkkkkkkkkkfkxxxkxkffkxxkfxxffxxfkkkkkkffkfyyfxxkfkkkkkkkfffkkkkkxkkxxxkkkkkkkkkkkxxffxxkkkkkkkkkyfkkxxxxkkkkkxxxkkkkkkkxxxxxxxxxkxxxxxxkkxxxkkkkkkxxxxxxxxxxkxxkkkkkkkkkkkkkkkxvvkffkxvvkkkxxkkkkkxxkkkkxxxxxxxxfxkfxxkxxkffkxxkkkkkkkkfkkkfykxxxfyykxkffxfvfxfkxkffkkfykkkffkkkfffffkkxkfyyfkxkfffffkkkffffffffkyykxkffxfyfkkyyykxftyfftfkyyfkfyffffyttyyfffyttttttttttfytyffytyyyyyyyyyyyyyyttqtfkffffqyyq7tyq7yfttfkffttqtttttttqqqqqttttqqq7tttyyqqtqtyyyytqyyyq7337fytqqqqq77777777qqqtttqqtttq77ty37qqqtttq7337qqq777333337tq77tt73337qq",
"yfffxfyfffkkkkffkffyyffkkkkkkkkkkkkkkkkkxxxxxxxxfkxxkfkxkkkkkkkkxxkkkkkkfkxxfffkkkxkkkkkkkkkkkkktfxvkffkffffkkkkkkkkkkkkkkffxxxkxkffkxxkkxkkkxxkkkkkkkffyyffvMxyfffkkkkfffkkkkkkxkkxxxkkkkkxkkffkvxyyxxfkkkkkkkkffkkxxvvkkkkkkxxkkkkkkxkxxxxxxxxxxxxxxkkkxxxxkkkkkxxxxxxxxxxxxxkkkkkkkkkkxxkkkxvxkffkkxxkkkxxkkkkkxxkkkkxxxxxxxxfvxfxxkkkkkkkxkkkkkkkkkfkxkfyfkxxkyykxfyfxfvfxfkxkffkkfykkkffkkkkkkffffytyfkxxkfkkkfffffkkkkffytfyfkxfffkkyyvkttyxxytffytfkfykkfyyyfffyyyyyyttttttttttttfytyffytyyyyyyyyyyyyyyyy7tfkfyyfqqqqtfftyyt77tfxfyttqqqtqqqqqqqqttttqqq7tyfft77qqtyyytqq7tyyytqqttqqqqqt7777qqqqqqqtttq7qttq77ty77qttqqqq7777qqq3333:::3qq777q7:qqqq77",
"ykffkfyfffkkkkffffyytyfkkkkkkkkkkkkkkkkkxxxxxxxxfkxkkfkxkkkkkkffvxkkkkkxfkxxkffkxxxkkkkkkkkkkkkktkvxkfyyfffkkxxxxxxxkkkkkkkkkxkkxkffkxxkxkkxxkkkfkkkkkffqyyfkxkyfffkkkkkffkkkkkkxxxxxxkkkkxxxkfffxxyyxvfkkkkkkkkxxxxkxxvkkkkkkxxkkkkkkxxxkxxxxxxxxxxxxxxkxxxkkfkkkkxxxxxxxxxxxxkkkkkkkkkxxxkkkxxkkkkffkxkkkxxkkkkxxxkkkkxxxxxxxxfvxkxxfkfkxxxkkkkkkkkkkfkxkfyfxxkfffkkfffxkvyxykxkffkkfykxkffkkkkkkkfffytykkkkffkkkkffffkkkffyytfyfkfytykktyMxtyyfkffffytfkytffyyyyyyffkfytqqtyyfffyyyyyfytyffytyyyyyyyyyyyyyyyyyyyyyyyyyttyfyyyft77qtyktqqyyqqttttttqqqqqttttttyyttt7qtttttttqq7qttyytq777qqqttq77qqtqqtqqqttq7qqtq77ty77qttqqqqqq7777q37q77333q7qtt7::7qqqqq",
"ykffkfyfffkxxkffkfyttyfkkkkkkkkkkkkkkkkkxxxxxxxxfkxkkfkxkkkkkfffvxkkfkkxfkxxkffkxxxxkkkkkkkkkkkkfkkkxvf3fffkxxxvxxxxkkkkfkxkkkkxxkfkxxxxxffxxffxfkkkkkfftyyqqfxxfffkkkfkffkkkkkkxxkxxxkkfkxxxkffykktyvMkkkkkkkkkvxxkkxxvkkkkkkxxkkkkkkxxkkkkkkkkxxxxxxxxkxxxxkfkkkkkxxxxxxxxxxxkkkkkkkkkxxxxkkxxkxxkffkxkkkxxkkkkxvxkkkkxxxxxxxxfvxkxxffykxxxkkkkkkkkkffkxkfyfkxyfkkfffkfxkvfxykxkffkkfykxkffkkkyffkkkkkxxkftttyfffkfkkkyyyyyyffkffftqqyfkqyMvtyftyxxftyykftqyfyyyyyyfkxfyq77qyfkkkkfffffyyyffyyyyyyyyyyyyytyyyfxfyttyttkyfkkttyy77ykyyy77qffytyfyyyttqqqqttyyyyft7qqqtyyyttttyytq77qttt3377qtttqq7qtttqtqqtttq7qttq77ty7qqtqq77tttq737q3qttq77333tff737:37qtt",
"ffffffffkkkkkkfkffffffkkkkkfffffkkkkkkkkkkkkkkkkkvvffxkykkkkkkffvyfkykvffkkxxkffkkkxxxxxkkkkkkffkkffffffkytyxvkykkkkkkffxffxxkkvkkkkkkkkkkkkfkxvvxxkfyytqyfykvktfkkfyfkkfkkfyykxfffkxxkkkkkkkkkffkkxxkfffkkfkxkfkvvfykxkxxxkfkkxxkkxxkkkkkkkkkkkxxxxxxkffvMkfkvvkxxxxxxxkkffkxxxxxxxxxxxxxkxxxxkkkkkkkkkxxxxxxxxxxxxxxxxxxkkkkkxkkffkxxxkffxkfkMkxvxkfkvkfyffkkkfxyxtkykfvxfkkffffkfffxvxkfyffffykxkfffkffffffffkffffkffyffyykkfffyyyyffffyyfffffffyyyyyyfkkfyyyyyyyytttyyfkkkkkfyyyfffyyyyyyyyytyfyttqqtyyfffyyyyyyyyyyfttffytttyyyyyffyttqqttyyyttttqqttttttttkyqqqtttttqqqqqtyqqttqqy77yfqqtqqqqqqqqqtyyt3:7qtq33tt37t737qq7777qqqq7737ttq733qttt77qtq77333",
"ffffffffkkkkkffffffffkkkkkkkffffkkkkkkkkkkkkkkkkxkkxkkkkkkkkkkffxykktfvkfkkxkkffkkkkxxkxkkkkkkffkkkfffffkytyxvkykkkkkfffxkkxxkkxkkkkkkkkfkkkkkkxxxxkffyyffkxkfttffffkxkffkkfffkxfffkxxkkkkkkkkkffkkxxkfffkffkxxfkvxfykxkxxxkkkkxxkkxxkkkkkkkkkkkxxxxxxkkfxvxkkxxkxxxxxxxkkfkkxxxxxxxxxxxxxkxxxxkkkkkkkkkxxxxxxxxxxxxxxxxxxkkkkxxkkffkxxxkkkxkfkvfxxxkfkxkfyffkkkkkfkyffkykkfxxkxffkfffxxxkfyffffkfkkkkfffffffffffffffkffyyyyfkkfffyyyyffffyffffffffffffffyyyyyyyyyyytyyyyyfffkkkfyyyfffyyyyyyyyyyyyyttttyyyyyyyyyyyyyyyyfttyfytttyyyyyyyyttqqttyyytttttqttttttqqfyytqqttttqqqqtttq7qtqtt77tyqqtqtqqqqqqqyytq77qtqq37tq3qt737qq777qqqqq7737ttq733qqtq77qqq77733",
"ffffffffkkkkffffffffffkkkkkfffffkkkkkkkkkkkkkkkkxyfxxffvkkkkkkffffxxtyxxkkkkkkffkkkkkkxxkkkkkkkfkkkkkkffkfyfxxkykkkkkkffkxkkkxxkkkkkkkkkffkkxxkkxxkkffyykfkvxttkyfyfxvxyfkkffkkkfffkxxkkkkkkkkkkfkkxkkffkkkfkxkfkvxfykxkkxkkkkxxxkkxxkkkkkkkkkkkxxxxxxxxxxxvxffkxxxxxxxkkkkkxxxxxxxxxxxxxxkxxxxkkkkkkkkkxxxxxxxxxxxxxxxxxxkkkkxxkkffkxxxkkkkkfkxfkkkffkxkffffkkkkkkffykkfxkfxkffffkkkkkxxkffffffkfffkkffffffffffffffkkkfyyyyfkkfffyyyfffffffyyffffffffkkfyttyffyyyyyyyffffffyyfffyyyfffyyyyyyyyyyyyyttyyyyyyyyyyyyyyyyyyfttyfytttyyyyyyytttttttyyyttttttttttttqqtyfytqqttqqtttttt77qttttq7tyqqtqqqqqqqqqfytq7qqt7q7qyq3qt737q7777qqqqq7777qtq777qqqq777q777777",
"ffffffffkkkffffffffkfkkkkkkfffffkkkkkkkkkkkkkkkkfyfkxkkvkkkkkkffykvxytkvkkkkkkkfkkkfkkkxxxkkkkkfkkkkkkkkkfyfkxkfkkkfkffffxxffxxkkkkkkkkkkffkxxxfkkkkkffffffxxffkyfffxvvkkkkkkkkffffkxxkkkkkkkkkkfkkxkkffkkkfkxkfkxxffxxkkkkkkkxxxkkxxkkkkkkkkkkkxxvxkkxvvkkvxfyfxxxxxxkkkkkkxxxxxxxxxxxxxxkxxxxkkkkkkkkkxxxxxxxxxxxxxxxxxxkkkkxxkkffkxxxxkkkkffkffffffkkkffffkkkkfxyxtkkkvxfkkyffkkkkkkkkkfffkffkffkkkkffffkkfffffyfkkkfqyffffkkfffyyfffffyffffffffffffffyyyyffyfyyyyyfkffyyytyyfyyyfffyyyyyyyttyyyyyyyfyyyttttyyyyyyyyyyyyyyyttttyyyyyttttttttyyyyttttttttttqqqyyytqqqtttttttyyq77qqtttt7tyqqtqqqqqqq77yttqqqqt3qqty73qt737qq777qqqqq7777qqq7777qqq7777777777",
"ffffffffkkkfkffffffffkkkkkkfkfffkkkkkkkkxxxxxxkkykkffxvkkkkkkkfftkvxfyfvkkkkkkkkxkkffkkxxxxkkkkfkkkkkkkkkffkkkkfkkkkkffffxxffxxfkkkkkkkkkffkxxxkfkffkkkkkxkffxkyyfkffxvxkkkkkkkffffkxxkkkkkkkkkkfkkkkkffkxkfkxxffxkffxvkkkkkkkxvxkkxxkkkkkkkkkkkxxxxkkxvvkkvxfyfxxxxxxkkkkkxxxxxxxxxxxxxxxkxxxxkkkkkkkkkxxxxkxkxkkxxkxxxxxkkkkkkkkffkxxxxxkkfffyffffkkkkkfffkkkkkfvyxtxktkkfxxkxkkkkkkkkfkkkkfffffkkkffkfffkkkffffffkkkf7ykfyyfkffyyffffffffyyfffffyyyyyyfkkfyyyffyyyffkffyyttyyyfffyyyfyyyyytttyyfyyyffyyyttttyyyyyyyyytyyyyyytttyyyytttttttttyyyytttttttqqqqqqfyqqqqttqtttttttqqqqqqtttqtt7qtqqqqqqq777tyyq7qq3qqty73tt737qq7777qqqqq7qqqqqq7777777q77777q7q",
"ffffffffkkffffffffffkkkkkkkfkfffkkkkkkkkkkxxxxkxyxxyfxxfkkkkkkfftxxkkfyxkkkffkkkxkffffxvxxxkkkkkkkkkkkkkffkkkkkkfkkkfffffkkffxxkkkkkkkkkkkfkxxxkffffkkkkxvktykf7fkkfyfxxkkkkkkkkfffkxxkkkkkkxkkkfkkxkkffxxxkkxxffkkfkxvkfkkkkxxvxkkxxkkkkkkkkkkkkxxxkkxxxxxvkffkxxxxxxkkkkxxxkxxxxxxxxxxxxkxxxkkkkkkkkkkxxxxxxkkkkkkkkxxxxkkkkkkkkffkxxxxxkkfkftkfyfkxxkkffffkkkkkxfkykkyxkfxxfkkkkkkkffffkkkkfkyfxkfffkfffkkkffffffkkfy7fxkyyfkfffyfffffffffyfffffyyyyyyfxkfytyffyyyyffffyyyyyyyfffyyyfyyyyttttyyffyyyfyyyyyyyyyyyyyyyyqyyytyytttyyyttqqqttttyyyyyyyyyyttqqqqqqkyq7qttqttttttttqtyq77qtyqqt7qtqqqqqq7773qfyq77q7ttqt73tt737qq7q77qqqqq7qq77qqqq3337qq73777qqq",
"ffffffffkkkffffffffkkkkkkkkkkfffkkkkkkkkxxkkkxxxkkkffkffkkkkkkffyxkfvkykxkffffkkxkfyyfxvxxkkkkkkkkkkkkkkffkkkkkkffkfffffkffkkfkxkkkkkkkkfkkkkkxxfffffkkkfffyyffykkkffkfykkxkffkxfffkxxkkkkxxxxkkfkkkxkffkxxkkxkffkkfkvvkffkxxxxvxkkxxkkkkkkkkkkkxxkkxxkffxvxkkxxxxxxxkkkfkxxkkkxxxxxxxxxxkkxxxxkkkkkkkkkkkkkkkkkkkkkkkxxxxkkkkkkkkffkxxxkxkffkftkffkxvxxkffffkkkkxkkykfkkvxfkkyfxkkkkkfyyfkxkkkkffkkkkfffkkkkfffffkkkkfyqykfffffffffffffffyyyyfffffyyyyffffffyyyffyyyyyyyyyyyyyyffffyyyfyyyyttttyfffytyyyyyyyyyyyyyyyyyyqyyttyytttyyytqqqttttyyyyyyyyyyyttqq777qfytqqqqtttttttqqqfft33qtfqqq7qyqqqqtq7737tyytq7qttq7t73tyq77qqqq77qqqq77tq77qqq73337q77337qqtq",
"ffffffffkkffffffkfkkkkkkkkkkkfffkkkkkkkkxxxxxxxxvkfxkyyfkkkkkkffyxfyMxyfxkffffkxxkfyyfxvxxxkkkkkkkkkkkkkffkkkfkkfkffffffxffxxffxkkkkkkkkfkkkfkxvfffffkkkq7qyfykMxkkfkkyqkkxkffkvfffkxxkkkkxxxxkkfkkxxkffxxxkkxkffkkfkvvkffkxxxxvxkkxxkkkkkkkkkkkxkkkxxkyfvMkfkvvxxxxxkkkfkxxkkkxxxxxxxxxxkkxxxkkkkkkkkkkkkkkkkkkkkkkkxxxxxkkkkxxkkffkxxxkxkfkxftxffkvMvxkfffkkkkkxfxtkfxykkfxxkkxkkkxkfyyfkxxkkkkfffkxfffkfkkfffkfkkkkyyyyfffkfyffffffffffyyyyfffffffffkfyttyffyyyffyyyytyyfffyyyfffyyyfyyyyytttyfffyttttyyfffyyyyyyyyyy7yfttyytttyyyytqqqtttyyyyyyyyyyyttq77777tyytq7qttttttqq7qfxt337tfqqq7qyqqqqtq773ttttttqqyy77q77tyq7qqqqq77qqqqq7tq77qqqq3:33qq33377qqt",
"ffffffffyfkffyffkkkkkkkkxkkffkkxkkkkkkkkxkfkxxxkkxkyykxkxkfffkkkkkkkfffkxxkffkxvffffkxkfxkfkxxkkkkkxkkkftyfkffxvkyykxkkkfkkkkfffxfyfkkkkxkfkkkxvfxkfyfkkfffffffffxxxfykvffffffkkkffkxkfkkkkkkxkfttyxvxkxkkkkkkkkxfkvkfxxkfkxxxkxkxxxxxkkfkxxkfffkkkkkkkkxxxxxxkkfxvvxkkkkkkkkkkkxxxxkkkkvkffxxkyfkkffkxxxxkkkkkkkkkkkkkkxxxxkxxxkkkkxxkffkkkxxftfxZykyvkkkkffkftfkfykfykkkkkkkkkfyykkfffkkxkkfkkkkkfffffffffffffkkffkkkxffkxt:3ykfyytyfffkkkffffffffffffffffffffyyyyyyyfffyffyyyyyyyyyyyttyyyyyyytyfyykyyyttqttyyyttyytqyfkfyttyyyyyytttyttyfyqq3fxfq7q7tqqqqttt7tytqttqttytqq77yttq77qtttqq7qqtyyytq7qqqqqqq7773qyytqqqqy7y7t7q77qqtq7377qqtqq77-:tyq37tttq73",
"ffffffffyfkkyyfkkkkkkkkkxkkffkkxkkkkkkkkxkfkxxxkkxkyykxkxkfffkkkffkkffffxxkkfkxxffffkxkfxkffxxkkkkxxkkkfffkkffkxffkvvkytfkkkkfffxfyfkkkkxkfkkkxvfkkfyfkkffffffffkkkkkkkxffffffkkxffxxkfkkkkkkxkffyfxvkfkkkkkkkkkxfkvffxxkfkxxxkxkxxxxxkkkkxxkfffkkkkkkkkxxxxxxxkkxxxxxxxkkkkkkkkxxxxkkkkxkffxxkyfkkffkxxxxkkkkkkkkkkkkkkxxxxkkkkkkkkkkkfkkxkxkfqfxMfffxkkkkffkftkkfykkykkkkkkkkkfyykkkffkkxkkfkkkkkfffffffffffffkfffkkkkytfkfqqffffyyyyyfkkkffffffffffffffffffffyyyyyyfyfffffyyyyyyyyyyyttyyyyyyftyftyfttttyyyyyyyyyttttyfkfyttyyyyyytttyttyfyqqqyftqqqqtqqqqtttqtytqttqtyytqqqqytqq7qqttqqq77qqtttq777qqttqtqqqqqq3::7t7q3t3t7q77qqqq7777qqqqq73:3ty737tttq73",
"ffffffffffkkfyfkkkkkkkkkxkkffkkxkkkkkkkkxkfkxxxkkxkyykxkxkfykkkkffkkffffxkkkkkxxffyfkxkfxkfkxxkfkxxxkkkfkkxkfyfkkkkvvfttffxkkfffxfyfkkkkkffkxkxvfkkffkkkffffffkfxfffxxkffffffkkkkffkkkffkkkkkxxfffkxxfyfkkkkkkkkxfkvffxxkfkxvxkxkxxxxxkkkkxkkffkkkkkkkkkkxxxxxxxxkkkkxxxkkkkkkkkxxxxkkkkxkffxxkyfkkffkxxxkkkkkkkkkkkkkkkxxxkkkkxxkkkkxkfkxxxkkyqfvvxyxkfkkkffkftkxfykkfkkkkkkkkkfyfkxkffkkkkkfffkkkfffffffffffffkkfffkkkyqtfkyykyfffffyyfkkkffffffffffffffffffyyfyyyyyffyfyffyyyyyyyyyyyttyyyyyyftyfttyqttyyfffytyfytqtyyfffyttyyyyyytttytqyfyqqftqqttqqttqqqtttqtytqtttyyytqqtttq77qtqqtttqq7777qq7777qqqqqqq777qtt737737:q3t7q7qqqqqqq7q7777773:3tt77qqtqq77",
"ffffffffffkkfffkkkkkkkkkxkkffkkxkkkkkkkkkkfkxxxkkxkyykxkxkfykkkkkkkkkkkkkkkkkkkxffyfkxkfxkfkxxkfkxxxkkkffkkkfyfkxxkffffffkkxkfffxfyfkkkkkfkxxkkxfkkffkkkffffkkkkkfffxxkyffffkkkkkkkkkkkkkkkkkxxfffkxkkffkkkkkkkkxfkvffxkkffxvxkxkxxxxxxkkkkkkkkkkkkkkkkkkkxxxxxxxkffkxvvkkkkkkkkxxxkkkkkkkfkkkkfkxkffkxxkkkkkkkkkkkkkkkkxxxkkkkxxkkkxxkfkxxxkkftkxykyMkkkkkffkftkxffkkfkkkkkkkkkfyfkkkfffkkkkfffkkkfffffffffffffffffffkkytyfftyfyyffffyyfkkkffffffffffffffffffyyyfyyyyfyyyyffyyyyyyyyyyytyyyyyyyftyfttytttyyyyyytyfyttttyyffyttyyyyyytttytqtyytqfq7tytqqttqqqtttqtttttttyyttqqtytq77ttq7qqtttqq7qqqq777qqq7777777qtytq777q3q3q3qqqqqqtttqq777777q337qqqqqqqq77",
"ffffffffykkkfffkkkkkkkkkxkkffkkxkkkkkkkkxkfkxxkfkxkyykxkxkffkkkkkkkkkkkkfkkkkkkkkfffkxkfxkfkxxkfkxxxkkffyfkkffxvkkfyyfkxfkxxkkffxfyfkkkkffkxxkkxkffkkkfkffkkkkkkfffkkkkfffffkkkkkkkkkkkkkkkkkxxftfkkkkkkkkkkkkkkkykvkfxkkfkxvxkxxxxxxxxkxxkkkkkkkkkkkkkkkkxxxxxxxkffkxvxkkkkkkkkkkkkkxxxkkkkkkffkxxkfkxxkkkkkkkkxxkkkkxxxkkkkkkkxkkkkxkffkxkkkkykf7yyZxkkkkffkftxxffxkfkkkkkkkkkfyfkxkfffkxkkfffkkkfffffffffffffffffffffffkkyqqtffyyyyffffkkfyyffffffffffffffyyyyfyyyyyyyyfffyyyyyyyyyyttyyyyyyyytyftyfyyyttttyyyyyyyytqyyyyyyyyyyyyytttytqyyytttqqyyqqtytqqttttttttttqqyyttqqtytq77tttqqqqtttttyyytq7qqqqqqqqtttq3:37tyqt7t3t7qqqqqqqqqq7773777t7::7ttqq777qq",
"fffffffffkkkfffkkkkkkkkkxkkffkkxkkkkkkkkkkfkxxkfkxkyykxkxkffkkkkkkkkkkkkffkkxkkkkfffkxkfxkffxxkkkxxxkkfftyfffkxvyfkffkkkfkxxxkffxfyfkkkkyfkvxffxkffkkkffffkkkkkkyfkkfffkkkkkkkkkfkkffkkkkkkkkxxftfkkkkxxkkkkkkkkkykvkfxkkfkxxxkxxxxkxxxxxxkfkkkxkkkkkkkkkxxxxxxxkkfkkxxxkkkkkkkkkkkkxxxxfkkkkffkkxxkfkxxkkkkkkkkxxxxkkxxxkkkkkkkxkkkkkkffkxkkkkfky7tfvxkfkkffkftxvkfxkfkffkkkkkkfyfkxkfffkxkkfffkkkffffffffffffffffffffffkxkt77qfyyyyyffffkffyyyffffffffffffffyyffyyyyyyfffffyyyyyyyyyytyyyyyyyyytyfyykyfytqqttyfytyfftqyyyyyyyyyyyyytttytqtyyttqqtyyqqtyttqtttttqqtttqqttttqqqtytq7qttqqqqtttttyyytqqqqqq77qqqttq77qtytty7y7t7qqqqqqqqq77777777q73:7yyqq777qq",
"fffffffffkkkfffkkkkkkkkkxkkffkkxkkkkkkkkkkffkxkfkxxfyxxkxkffkkkkkkkkkkkkffkxxkkfkfyfkxkfxkfkxxkfkkkxkkkfyfkkffkxfkxfyfkkfkxxxkkfxfyfkkkkyfxvxffxkffkxkffkkkkkkkkffffyffkkkkkkkkkfkxffkxkkkkkkxxfykxkffkkkkkkkkkkkykvkfxkkfkxvxkxxxkkxxxxvxffkkxxkkkkkkkkxxxxxxxkfkxxkkkkkkkkkkkkkkkkkxxxfkxxkffkkxxkfkxxkkkfkkkkxxxxkkxxkkkkkkkkkkkkxxkffkxkkkkfyyfykfkkfkkffkftxvkfxkfkffffkkkkfffkxkffkkxkkfffkkkfffffffffffffffffffyyffkfyyttyyyffffyyffffyyyffffffffffffffffffyyyyyyfffffyyyyyyyyyytyyyfyfyyytyftyfyyytttyyyyyyyyyttyyyyyyytyyytytttytqtyyttqttqqtytfytqqttqyqqtytqqtyttqqqqyyqqqqttqqqqqqqqttttq7qq777377qqqqqtyyt7qt3t3t7q7qqtqq777777qq77:7q77tyq7737qt",
"fffffffffkkkfffkkkkkkkkkxkkffkkxkkkkkkkkkkffkxkfkxxffxxkxkfffkkkkkkkkkkkyfkxxkkfkfffkxkfxkffxxkkkkkkkkkffkxkfyfkvvxtqykkfkxxxkkkxfyfkkkkyfxvxffxkyfkxkffkkkkkkkkfffyfffkkkkkkkkkfxxfykxkkkkkkxkfyxvkyffykkkkkkkkxfkvkfxkkfkxvxkxxkkkxxxxvxfffxxxkkkkkkkkxxxxxxkkfkxxxkkkkkkkkkkkkkkkkxxxfkxxkfkkkxxkfkxxkkkfkkkkxxxxxxxxxkkkkkkkxkkkxxkfkxvxkkkftyvfxtkkfkkffkftxvkfxkfkffffffkkfffkxkffkkxkkfffkkkffffffffffffffffffyyyyyyyfkkytyffkfyyyffffyyyffffffffffffffffffyyyyyffffffyyyyyyyyyytyyyfffyyftyfttytttyyyfyyyyffyttytttyyyytttytyttqytqtyyttttq37yftfyttqttqyqqtytqqttytqq77fytq7qtyttq77777qqqq777qtqq7qqttfq3:3qtq3q:q:q7q7qqttq73377qqq77+7yq7tyq7337qt",
"ffffffffkkfkkxkfkkkkkkkkkkkkkkkkkkkkkkkkkkkkkkkkyfkkkkkfytykxffkkkkkkkkkyyfkxxxkxkkkkkkffyyykxkyxkkffkkkkxxxkfyykkffxvxfkkfffkxxkkkkkkkxfffxxkffxxxkkkffxxxvvxxxxkffffkxkkxkkkkffyxxqyxffffkkxkkkfkkyfxxfyyyfkxxkkkkkkkkxffvMxkxxxxxxxxxxxxxxxxxxxxxxxxxkkxxxkfffxvxfkxxkkkkkkxxxkffkxxxkkffkxxxkkkkxxxxfxxyyxvkkkkkkkkkkkkfkkxxktkvffvkxvfvtyqyxxkkkkffkkkkkkkkxyvffvyk3ftky7xkkxxkfyfkkkkkkkkkfffkffffk3yvytkxkkkffyfyyyyyyyyyqyfffytqfxvxfyykffffffffffffffffffyyyyffyfffyfffffffyyyyqtttttttqffytyfyyytttttttyfyttykyttyyytqtyyytttyyyytttttttttttttttttqqqqftqyyqqyttttttyyqqqqtyytqqq77qtyy737qq7qqqqqqqttyt:ty7tqqttttqq73qq73773qqqqqqq7:7ttq7qt3:-:7q",
"fffffffffkkkkkkkkkkkkkkkkkkkkkkkkkkkkkkkkkkkkkkkyfkkkkkffyfxxkfkkkkkkkkkyfkkxxkkxxkkkkkkkffkxkkxxkkfkkkkxxxxkfyyfkkfkxxkkkfffkxxkkkkkkkxfyfxxkffxxxkkkffkxxxxxkxvfyfkkkxkkxkkxkfkyxxtyxffffkkkkkkfkkyfxxffyykxxxkkkkkkkkkkkxvxkxxxkkxxxxxxxkkxxxxxxkkkxxkkxxxkfffxvxfkkkxxkkkkkkkkkkkkkkkkffkxxxkkffkxxxfxkyyxvkkkkkkkkkkkkkkkkxkyfxkkxkxxkxyytfykvvxkffkkkkkkkkxyvffxyktffkfyxxkxkkfyfkkkkkkkkkfffkkkfff7yxytkkkkkkffffyyffffyytyfffyytkkxkfyffffffffffffffffffffyyyyffyffyyfffffffyyyyytttttyytyfytyfyyyttttttyyyttyyfyttyyytqtyyytttyyyyttttttttttttttttttqqqyttttqqtttttttttqqqqtttqy77qq33ty737qq7qqqqqqqqqyt:tt3q777qqqqq73qq737q7qqqq777q37ttq7qq3:-:7q",
"ffffffffykxkfykxkkkkkkkkkkkkkkkkkkkkkkkkkkkkkkkkyfkkkkkfffkxxkkkkkkkkkkkfkkxkkffxxkkkkfkxfkvvfkMxkkkkkkkkkxxkkfyfkxkkkxxkffffkkxkkkkkkkxyyfxxkkkxxkkkfffffkkkkkkvftykxxxkkxkkxkfkfkxyykfffkkkkkkkfkkyfxxffffkxxxkkkkkkkkkxxkkxxxxxkkxxxxxkxkkkxxxxxkkkxxkxxxxkkffxxkkkxxvxxkkkkkkxvxkffkkkffkxxxfffffkkkfkkffxxkkkkkkkxxxkkkkkkkkkfkvxfkkkxkktfktkvvxkkkkkkkkkkkxfxffxykkfxkkxkvkkkkfffkkkkkkkkkfffkffffttfkyfkffffkkkffffffffyftyfffyffkkffyffffffffffffyffyyyyfyyyyyyftyfyyffffffffyyyfyytttyftyyytyyyyyttttttfyttyyyyytttyyttttyytttyyyytttttttttttttttttttqqqyytqqttqqttttqqqqttytq77--qt77yt737qqqqqqqqqqqqyt:qt3733377qq777qq737qqttq7337737qq777q3::37q",
"ffffffffykvxytfxkkkkkkkkkkkkkkkkkkkkkkkkkkkkkkkkyfkkkkkfkkkxxkkkkkkkkkkkkkxxkffykkkkkfkfvyfvvffMxkkkkkkkkkkxxkfffkxkkxxkffkkkkkkkkkffkkxyyfxxkkxxxxkkkfffffffkkkvfqtkxxkkkxkkkkfkfkkfffkkkkkkkkkkykkfkxkfkkkxxxxkkkkkkkkkvvkfxxxxxkkkkxxxkkkkkxxxxkkkkxxxxxxxxkkkkxkkkkxxxxkkkkkkxxxkkfkkkffkkxxffyyfkkkfkkffkkkkkkkkkxxxxxxkkkkkxyfMxtfkfvfxtkkkkkkffkvkkkkkkkkkkkkfkfkvyvfkMfxkkkfffffffkfkkkkffkkfffftyffykkyyyfkkkffffffffffyyyffffkkfyyyfffffffffffffffyyyyfyyyyyyftyfyyyfyyyffffffffyyyyyftyyyyyyyyyttttttyytttyyyytttyytttttttttyyyytttttttttttttttttttqq7yyq7tytqqtttqq7qqtyyyq7:-:qyttyq777qqqqqqtqqqq7tt:tt3q77777qq77qq777qqtttq7337777qq777733:37q",
"fffffkffykvxytfxkkkkkkkkkkkkkkkkkkkkkkkkxxkkkkffffkkkkkfkkxxxkkfkkkkkkkkkkkkkfyykkkkkfffxtqkvfyxxxkkkkkkfkkkxkkfkkkfkxxffffkkkkkkkfffkkxyykxkfkxxxkkkkffffffffkkvyqykxxkkxxkkxkfxkfkkffkkxxkffkkkfkkfkxkfkkxxxxxkkkkkkkkkvvkfxvxkkkkkkkkxxkkkkxxxkkkkkxxxxxxxxxxkkkkkkkkxxkkkkxxxkffkxxkkkfffkxxffyffkkfkkkkkkfkkkkkkxxxxxxxkkkkkxffMxtfkfvfxqfkvxffkkkkkkkkkkkkkkfkkfkfvyxfkMykfffkkkkfffkkkkfffkkkkffftkkyfxfyyyfkkkffffffffffyyyffyfxkfttyfkfffffyyyyffffyyyyyyyyyyfftyfyyyfyyyyfffffffffyyyyyttyyyyyyytttttttyyyttyfytttyyytttttyyyyyyyttttttttttttttttttqqq7yyq7tytqqttqq77qqtyfyq7:ttqqfy77777qtttqqtqqqq7tq:ty7tqqqqqqq7qq7777qqtttq73377qq7777733337qq",
"ffffkffkykxkyyfxkkkkkkkkkkkkkkkkkkkkkkkkxxkkkkffffkkkkffkxxkkkfykkkkkkkkffkkkkfykkkkkfffxtqfxfyfxxkkfkkkffkkxkkkxkffxvxfffkkxkkkkffffkkkfkxxfyfxxxkkkkfffffffffkkyyfkkkkkxxkkxkfxkyfvkykkxxkfffkkyfkfkxkffxxxkkkkkkkkkkkkxxxkxxxkkkkkkkkkkkkkkkxxkkkkkkxxxxxxxxxxfykxxkkkkkkkxxxxkyykxxxkffffkkkkfffkkkkkfkxxffkkkkkkxxxxxxxkxxxkkfkvxyfkfxkktfkxkfkvvkykkkkkkkkfxfkkykyxffykxyyffffkkkkfffffffffkkkffffyxftkkfffffkkfffffffffffftyffyfxkfyyffffffffyyyyffffyyyyyyyyyyyftyfytyfyyyyyyyyyyyyyyyytyttyyytyyytttttttyyyqqyfyttttyyyttttyyyyyyytttttttttttttttttttttqqqqqtytqqttqq77qttyyyq7-yk77kf777qqqtytqttttq77qq:yf7tqtttqqq7qq777q7qqttqq3377qq777773377qqq",
"ffffkfkkffkffffkkkkkkkkkkkkkkkkkkkkkkkkkkxkkkkffffkkkkkffkxkffyqkkkkkkkkyyfkkkkfkkkkffffkfykkkkkxxkkfkkkyfkkxkkkkkkfkxxkffkxxxkkkffffkkkkxvxfqtkxxxkkkffffkkkkkkfffkkffkkkxkkkkfxxyfMktxkxxkfyfkkyfkfkxfyfkxkkfkkkkkkkkkxkkxvxxxkkkkkkkkkkkkkkkkkkkkkkkkxxxxxxxvxfyfxxkkxxkkkkkxkkkfkkkxkffffkkkkkfkkxxkxffvxfykkxkkxxxxxxkkkxxxkykvxkkyfffxfffxkkkkxxkfkkkkkkkkfxykkyxykkyfkfkyffffkxkffffffffffkkkffyykvytxxfxkkkkfffyffffffffytykkyyxffyffffyyyffffyfyyyyyyyyyyyyyyyytyfytyfyyyyyyyttttttttyyytqyyytyyyttttttttyttttyyttttyyyttqtyyyyyyytttttttttttttqqttttttt77qttttttqqqqqqtttttq3:#tfq7yyq37qqqtytttttqq73qq:ty7q7qq7777q7q737q737qqqq7777tq777q7:377qqq",
"ffffkkkkkfffkkffkkkkkkkkkkkkkkkkkkkkkkkkxxkkkkffffkkkkfffkkfyfyqkkkkkkkktyfkkkkkkkkkffffkxxxkkxxxxkfkkkkyffkxxkkfkxkkkxkyfkxxxkkkffffkkkxvMvy7qfxxxkkkfffkkkkkkfyfxxkyykkkxkkkkfvxtyMktxxxxkyyfkkyfkkxxftfkxkfffkkkkkkkkxffvMvxxkkkkkkkkkkkkkkkkkkkkkkkkxxxxxxxvxyykxxkkxxxkkkkkkxxxkffkkfyffkkkkkkkxxxxxyfvvfykxxxxxxxxxxkkkxxvktxMkfkyykyvfxkMkkfffkxvkkkkkkkkfxykktxykvtkxyvyfyykxxkfffffffffkkkffffyxvytxkyvxkkffyyyffffffffytykkttkfffffffyyyfffyyyyyyyyyyyyyyyyyyytyfytyyyyyyyttttttqqqtyyyqqyyytyyyttttttyttttyyttttttyyyttqtyyytyyytttttttttttttqqqttttty3:qyytytttqqqqtytttq7:-3tft3333:7qqqyyttttttq73qq:ty3q333333777q33qq733qqqqq777tq337q7:37qqtq",
"kkffffkkffkkkkkkkkkkkkkkkkkkkkkkkkkkkkkkkkxxkkkkkkkkkkkkkkkkkkkktkxkkxktyffkkkffkkkxkkffkkkkkkkkkfyyyfxvxvxkxxfxkxkfkxkfykffxxfkxxkkkxxkfkkffkkktfvvftykkffxxffkkkkkkkkkfkkxxxkkfykvvkyfxxfyyffykffkkffkkxxkkkxxfkkfkvvkkxxfkMvfkxxkkkkkkkkkkkkkykxkkxxkkkkxxxxvkffxvxkkxfkvMxkxxkkkfffkkkkfffkxkfkxxkkkxxxkkxxkkkkkkkxxxxkkkxkkfxkvykykxkkkkxxxfyxMyyf7qkMZxyttxMvtqkvxfxkfxxfffkkkffffkkkkkkkkyfkffkkyyyfkkkkffffffffffyttfkkffyfkfyfxkkfffyytfkxkfyyffffffffyffyyffff3fxyqyfyyttfxfytyyffffyyyyyyyyyyyyyyyyyyyyyyyyyfq77tfyyytq7qtyyytqqqtytttttttttttttttttttqqqttttqqttttyfM737:3t7:qkt7xv3qtqqffq7777qq7777qqqqq7777qtttytfq:-:7qqq7777773t33tt::q77q733",
"kkffffkkkkkkkkkkkkkkkkkkkkkkkkkkkkkkkkkkkkxxkkkkkkkkkkkkkkkkkkkkyfxxxkfyfkkkxkffkkxkkkffkkkkkkkkkfyyyfxxkvxkxxfxkkkffkkyykffxxfkvxkkkkkkfkkffkkkfffkkfyfkfkxkffkkkkkkkkkfkkxxxkkffkxkffkkkkffkfykfkkkkkkkxxkkkxxkkfykvvkkxxfkMvfkxxkkkxkkkkkkkkkykxkkxxkkkkxxxxxkffxvkfkkkxvxkkkxxxkkkkkkkkfffkxkfkxxkkkxvxkkxxkkkxkkkxxxkkkkxkkfxkvykykxkkkxxkkffxvkfftykvvfttykvxytkxkfxkfxxffffkkffffkkkkkkkkyfkffkfyyffkkkkffffffffffyttfkfffyyfkfffffffffyyyffffyyyffffffffyyyyfffyqfkytykfxyqtyyyfyyffffyyyyyyyyyyyyyyyyyyyyyyyyffq77tyyyyttqttyyyttqqtytttttttttttttttttttqqqttttqqttttyyf37yq7t7ytft-7q#7qq7tt7qqqqqqq7777qqqq777qqqqqqqq737qtqqq7777773777qq33377q733",
"kkkkkkkkkkkkkkkkkkkkkkkkkkkkkkkkkkkkkkkkxxxxkkkkkkkkkkkkkkkkkkkkffkxxkffkkxxxkfykkxxkkfykkkkkkkkkfyyyfkxkvkkxxfxfkfyfkfyykffxkfkxxkkkkkkfkxkfkkkxfyfxkfykfkkkffxkkkkkkkkkkkkkkxxxkfffykvffkffkkfkkkxxkkxkxxkfkxxkxkyfxxfkxkfkvvkkxxkkkxkkkkkkkkkfkkkkxxkkkkxxxxxxkkxxkkkkxvxkkkkvxxxkkxxkkkfffkxkffxxkkfxxxkkxxkkkxkkkxxxkkkkxkkfxkvykykxkkxxkkffxkkvxffkkkfyyyfkkkfffkkfxkfxkfffkkkffffkkkkkkkkfffffkfyyffkfkfffffffffffyyyffffkytfkfyyffffffffyytyyyyyyfffffffyyyyffyyyyyyyykxxyqqqtyfyyyffyyyyyyyyyyyyyyyyyyyyyyyyyyyq7qtytttyyyttttyttqqttttttttttttttttttttttttttttqqqtttyyq3qyqqtqfqq7--77qyt7qq7yqqqqqqq777qqqqq7qqqqq777:3qtttqqq77777733qt73q7:77q773",
"ffffffffkkkkkkkkkkkkkkkkkkkkkkkkkkkkkkkkxxxxkkkkkkkkkkkkkkkkkkkkkffvvfykkkkkffytkkxxkkfykkkkkkkkkffyffkxkxkkxkfxkkkffkkyykkkxkyxxxkkkkkkfkkkfkkkxfyfkkffkkkkfykxkkkkkkkkkkkkkkxkxkfyffkxyfffkxkfkffkkffkkxxkfkxxxxkyfxxfxxkfkvxkkxxkkkxkkkkkkkkkfkkkkkkkkkkkxxxxxkkxxkkkfvMkfkxkxxkkkkkkkkkkkkxxkffxxkffxxxkkxxkkkxkkkxxxkkkkxkkfxkvykykxkxxxkffkvkfMxykkkfyyfkkfyfxxfykfxkfkkfkfffffffffkffffkkffffffffffffffffffffffffffyyyffkfyyfkfytyffkkkkkyyttyfffyfffffffffyyyfyyfyyyfyykyytyyyttyyyyyyyyyyyyyyyyyyyyyyyyyyyyyyyyqqqtytttyyfytttytttttttttttttttttttttttttttttttyqqqtttttyqq77tyyqqq3:7yfyftqttqyttttqq7777qqqqq7qqqqqqqq37qq777q777777777qq77q7:77q733",
"ffffffffffkkkkkkkkkkkkkkkkkkkkkkkkkkkkkkxxxxkkkkkkkkkkkkkkkkkkkkxffxxfykyfffytqqkkxxkkfykkkkkkkkkkffffkkkxkfxkfkkxkkkxxffkkxxfyxxkffkkkkfxxkffkkkkkkfyfxfkkfffkkkkkkkkkkkkkkkkkkxfyykxkfffkfkxkffyyffffkkxxkkkxxxxkyyxxfxkffkxxkkxxkkkkkkkkkkkkkkkkkkkxxxkkkkkkkxxxxkkkkfvMkykkkkkkfffffkkkkkxxxkffxxkffxxxkfkxkkkxkkkxxkkffkkkkfxkvykykkkkxxkfykvkyvxykffffkkxxfyfxxyykfxkfkxfkffffffffffffkkkkkfffffffffffffffffffffffyfffyyfkyyfkfytyfffkkkkkfytyfkkfyyffffyyyyyyyyyyyyyffytyttyfffytyyyyyyyyyyyyyyyyyyyyyyyyyyyyyyyyqqtyytqtyffytttttttttttttttttttttttttttttttttttyqqqqtyttfy7:7yytqfy33tyyyyq7tyqtttttqqq7q7qqqqqqqqqqqqqq37qq777q77777777q77qq33777q773",
"ffffffffffkkkkkkkkkkkkkkkkkkkkkkkkkkkkkkkkxkkkkkkkkkkkkkkkkkkkkkkkkxkkfkyyffyytqkkxxkkfykkkkkkkkkkffffkkkxkfkkfkxxxkxxxkkxkxvfyxxkffkkkkkxxkffkkkkxkytfvfkkffkkfkkkkkkkkfkkkkkkkkfffkxkyfkkfkxkffyffkffkkxxkkkxxkxkyfxxfxkffkxxkkxxkkkkkkkkkkkkkkffkkkkxxxkkkkkkxxvkkkkkfxvxfkkkkffffyffkffkxxxxkffkxkffxxxffkxkkkxkkkkxxkfkkkkkfxkvykykkkkkxkkfkxkkxkyfffkkkxxxfyfxxfykfxkfkkfkkfyffkkkffffffffkffkkffkkkffffffffffffffyfkfyyfkyyfkftyfffffffffffyyffffyyffffyyyyyyyyyytyffyytttyytyfkfyyytttttyyyyyyyyyyyyyyyyyyyyyyyyqqtyyttyyyyyttttttyttttyttttttttttttttttttttttyytqqqtytqqyq:tkt33yt:7yyq77::ttqqqqqqqqq7qqqqqqqqtqq7777737tytqqq7777377qq33qq33777q773",
"ffffffffffkkkkkkkkkkkkkkkkkkkkkkkkkkkkkkkkkkkkkkkkkkkkkkkkkkkkkkkxxkkkkkffkkkkfykkkxkkfykkkkkkkkkkkkkkkkfxkfkfykkxkkkxxfkxxxvytxxkfffkkkkxkfffkkvkfffffxfkfyfxkykkkkkkkkffkkkkkkykxffkkfxxkffkkfkkfkxkkxkxxkkkxkfkfyfxxfxkyyfkkkkxxkkkkkkkkkkkkkkffkkkkvxxkkkkkfkvvkkkxkkkkxxkfkkkfffffffffkxvxxkffkxkffxxxffkkkkkxkkkkxxkffkkkkfxkvykykkkkkkkkfkfxxkkkffkkkffkxffkkkffkyxkykxfkkfyyfkkkffffffffkffkkffkkkfffffffffffffftfkkytykfyfffyfkffffffyyyfffyyyyyyfffyyyyyyyyyyyqfkytyffyyyqtykffyytttttyyyyyyyyyyyyyyyyyyyffyttqqyfyttyttttyytttyyttqtytttttttttttttttttttttttytqqqtyq7:yt3yfq33q3-qyqt7q77tt7qqqqqqq77qqqqqqtttqq77777qqttq7qq777337qt77q7777377q773",
"ffffffffffkkkkkkkkkkkkkkkkkkkkkkkkkkkkkkkkkkkkkkkkkkkkkkkkkkkkkkkxxffxxfkxxvvvxkkkkxkkfykkkkkkkkkkkkkkkkfxkfkfykkkkffkkfkxxvvytxxkfffkkkkkkfffkkZktykxkffffykxktkkkkkkkkffkkxkkftkvkyfkkxxkffkkfvxxvvxxvkxxkkkxkyffyfvxfxfyyfkkkkxxkkkkkkkkkkkkkxffkkkkvxxxkkkffkvvkfxxxkffvvkfkkkkkfffffffkxvvxkffkxkffxxxffkxkkkxkkkxxkkffkkkkfxkvykykkkffkkkkfyxMfkvfkxxkfyfkkkkfffkfyxkykkkxkfyyfkkkffffffffkffkkffkxkffyffffffffffftfxkytykkyyfkkffkkfffytttyffytqtyyffffyyyyyyyyyy7fktqfxktyyttyyyfyytttttyyyyyyyyyyyyyyyyyyyffyttqtyfytyftqqtyytqyyyytqtyttttttttttttttttttttttyytqqqtyq7-yt:qfq7tt::yq:ttffyft7q777qq777qqqqqqttqqq77qqtkyq3::7q777333qt:tt33tq-77q773",
"ffffffffffkxxkffkkkkxxxxkkkkkkkkkkkkkkkkkkkkkkkkkkkfffffxkfkxxkkkkkkffffxkkxxffkkkfyyffkkkfffkkkfyyfkfkxkkxkffkxffkkkkkkyfffffffkkkkfffkxxkkkffffyykxkkfvkyyfkkfkkxxkkkkkxxffvvfyfkxxkffxkqqxvkkxkfkxxkffkkxkffftvMktfkfkkkkkxxxkkkkxxkkkfxxffxkxxkxxxkkfkxxxkkkxkkkkxxxfkxkfffkfxfxfvfffkkkkkkkxkkkkkxxxfxxffkfxvffxxfkkkkkkkkkkkxkkkkkffkxxxkkfffkffyyfkkxfyfxqtfkxxkfxffkkffkvxkkftykfyyyyffyyyfffkffkkfyyttyfffffffffffffffffyyyyfffffyyffffffyyyfffyytyfffyyyyfyyyyyyyyyyyyyyyyyyyyfffffyyytyyyyyytyyttyyffttttyffyttyyttqqftq7tfftttttqqqttttttttttttttttttttttyffytqqqq73q7337qqqtyqqytqtqqqtttqqqqqttttt7tyytq7q7ttq7qtqqqqqq777qqqq777737qqq777777qqq",
"ffffffffffkxxkfykkkkkxxkkkkkkkkkkkkkkkkkkkkkkkkkkkkkffffxffxxkkxkkkkffffxkkxxffkkkfyfffkffffkkkkkffkkffkfkkkffkxfffffffffffffkkkkkkkffffxxkkkkffkyykxkkffkxkyykxkkxxkkkkkxxffvxfyfkkkkfkkkttxxffkkkxkkkkfkxxkkfkyvvftfxfkkkkkxxxkkkkxxxxkfxxffxxxxkxxxxkkkxxxkkkxkkkkxxxkkkkkffkfxfxfvfffkkkkkkkkkkkkkxxxkxxffkfxvffxxfkkkkkkkkkfkkkkkkffkkxxkkkfffkffyyfkkkfyfxqyfkkkkfxffkkfffxkkfyqtkffyffffyffyfkkfyffffyyyyffffffffffffffffyyfyyyfkffyyffffffyyyfffyyyyfffyyyyfyyyyyyyyfyyyyyyyyyyyyfffyyyytyyyyyytyyttyyfftyyttfftttyyttqqftqqtfytttttqqqtttttttttttttttttttttttttqq77qq77tq777qqqtyqqytqqqqqtttqqqqqqtttt7tyytqqq7ttq7qtqqqqq7777qqqq777737qqq777777qqq",
"ffffffffffkxkkffkkkkkxkkkkkkkkkkkkkkkkkkkkkkkkkkkkkkffffxffxxffxkkkkffffxkkxxffxkkfffffkfffffkkkxkkxkffkffffyyfkyyfffffffkkkkkkxffkkffffkkkkkkkfkfykkkkkffkkffkxfkxxkffkfxxkkxxkfkkkffkxfkffxxyffkxxkfkxfkxxkkkkfxxytkxkkkkkkxkkkkkkxxxxkfxxffxxxkkkxxxkkkxxxkkkxkkkxxxxkkkkkfkkfxfxfvffffkkfffkkkkkkkkkkkkkkkkfxxkfxxfkkkkkkkkkffkkfkfffkkxkxkkffffffffkfkkfyfxqykkfkkfkfffkfffffffyqtffffkkkfykfyfkkytyfkkfffffffffffffffffffftfffttfxffyyfffffyffffffyyyyffyyyyffffyyyyffffyyyyyyyyyyyyyyyyyttyyyyyytyyttyyyftyyttyyytttttttqyt7qyyyttttttttttttttttttttqqttttttttq77337qqtqqtqq7qqqttyqqytqqqqqtttqqqqqqqqqqqtyytqqq7ttqqqtqqqqq7777qqqq777737qqq777777qqq",
"fffffffffkkkkkkfkkkkkkkkkkkkkkkkkkkkkkkkkkkkkkkkkkkkffffkyfxxyfvkkkkffffxkkxxffxkkkfffffkkkkkkkkvxxxkfffyfffyyfkffffffffkkkkkxxxkkkkkkkkkkkkkkkfkfyfkkkkxftyxvkyfkkxkkfffxxkkxxkkkfffkkkykkkvkyyfkxxkfkkfkxxkkkkkxfttkvxkkkkkkkkkkkkxxxxkfxxffxxxkkxxxxkkkxxxkkkxkkkxxxxkkkkkkkkfxfxfvffyfkkffffkkkkkkkkkxkfkkfkxxkfxxfkkkkkkkkkffffffffkkkkkkkkffffffffkffkfffxtfxffkkfkfffkkffffffyyyfkkkkxkfyxkyfkkyqyfkkkfffffffffffffffffffyffyyyfxffyyffffffffffyyyyyyfyyyyyffyyyyyyyfffyyyyyyyyyyyyyyyyyttyyyyyyttttyyyyytyyttyyyttttttttyq7tyyyyttttqttttttttttttttqqttttttttq7777qqtttqttqqqqqqqyqqyt7qqqqqttttqqqqqqqqqtttqqqqqqqqqqqq77qq7777qqqq777737qqq7777777qq",
"ffffffffkkffffkkkkkkkkkkkkkkkkkkkkkkkkkkkkkkkkkkkkkkkkffffkxkyfxkkkkkkffxfkxxffxkkkkkfffkkkkkkkkvxkxkfyfyfffyyykkkkkkkkkkkkkkxxxkkkkkkkkfkkkkkkkkfyfkkkkxftyxvkyfkxxkffffxxkkkkkvkyykxkfykxxvktykkkkxxkffkxxxkkkkkfttkxxkkkkkkkkkkkkxxxxkfxxffxxkkkkxxkkkkxxkkkkxkkkxxxxkkffkkkkfxfxyvfyffkkffffkkkxkkkfkxfyxkykxvkfxxfkkkkkkkkkffffffkkkkkkkkkkffffffkkkfffffkxyxxfyfkfffffkkfyyfkkfffkkkkkxkfyxkyfkkyqyfkkkkffffffffffffffffffffyyffkkffyyfffyyffffyyyyyyfyyyyyyfffyyyyyffffyyyyyyyyyyyyyyyyyytyyyyyytttyyyyyytyyytyyytttttttttqqtfyyyttttttttttttttttttqqqtttqtttttqqqttyyttqqqtttqqqqtqqyt7qqqqqttqtqqqqq777tttqqqqqqqqqqqqq77777777qqqq777737qqq777777777",
"ffffffffkkfyyfkkkkkkkkkkkkkkkkkkkkkkkkkkkkkkkkkkkkkkkkfktfxkyykkkkkkkkfkxfkxxffkkkkkkkffkkkkkkkkxkkkkfyfffkfyyfkkkkkkkxxkkkkkkxxkkkkkkkkfkkkkkkkkfykxkkkfkkkffkxfkkkkffffkxkffkxxfyfkxkyykkxvktyxkfkxxkffkxxxkkkkkfyykxxkkkfffffkkkkkxxxkfxxffxxkkkkxxkkkkxxkkkkxkkkxxxxkkffkkkkfxfxfvfyfkkkkkkkkkxxkkffkvftxxykxvkfxxfkkkkkkkkkkfffkkkxxxkkkkffkfffffkkkfffffkxyvvftfkfffkffkfyykxkfkkkkffkkkfykfyfkkftffkkkfffffffffffffffffffffyyfkkfffyyfffyyffffyytyyffyyyyyyffffyyyyffffyyyyyyyyyyyyyyyyyytyyyyyytttyyyytttyfyttyyttttttttt7qyfytyyttttttttttttttttqqqqtttqttttttttyyyttqq7qtttqqqqtqqyt7qqqqtttqtqqqq7777tttqqqqqtqqqtqqq77777777qqqq777737qqq777777777",
"ffffffffxkfyyfkxffkkkkkkkkkkkkkkkkkkkkkkkkkkkkkkkkkkkkkkqkvftfkfkkkkkkkkxfkxxffxfkkkkkffkkkkkkkkfyffkffffkkkfyfkkkkkkkkkfffkkkkkkkkkkkkkffkkkkkkkyykxkfffkxkyykxfkkkkffffkxxfffxffkkkkfffkkkvxyykkkkxkkkfkxxxkkkffkffkkkkkkfffffkkkkkkxxkfxxffxxkkkkxkkkkkxxxkkkkkkkkxxxkkffkkxkfxfxfvffkkxxkkkkkkxxkkfykMytvxtxvvkfxxfkkkkkkkkkkkkkkxxxxxkkkfffkffffkkkkfyfffkxfvvyqfkfyfkffkfttkxkffffffyffffyffffkkfykkkkfyyyffffffffffffffffffffffkkffyyfffyyffffyttyfffyyyyyyyfyyyyyyyyyyyyyyyyyyyyyyyyyyyttyyyyyytttyyyytttyfyttyytttqqtttt7qffytfyytttttttttttttttqqqqqtttttqqqtqttytq77q37qtq7qqqtq7tt7qqqqqttqqqqqq7777ytqqqqqqt77qtqqq77777777qqqq777737qqq777777777",
"ffffffffxkfyyfkxfffkkkkkkkkkkkkkkkkkkkkkkkkkkkkkxkxkkkkk7xMyqfxfkkxkkkkkxfkxxffxfkkxxkffkkkkkkkkytyffffkkkxkffkxffffffkkffffkkkkkkkkkkkkffffkkkxfyykxxffvkyyfkkffkkkkffffkxkfyfxykvvkyyffkffvxyyfkxxkfkkfkxxxkkkyfkkffkkkkkfffyykkkkkkxxkfxxffxxkkkkkkkkkkxxxkkkkkkkxxxxkkffkxxkfxfxfvffkxxxxkkxkkxxkkfykMyqvxtxvvkfxxfkkkkkkkkkkkkkxxvvxxxkkfffkffffkkxxfyfffkxfMMyqfkkykkffkftqfkfyffyfyyyyffyyffffkffkkkfyyyyffffffffffffffffyfkfyykxffyyfffyyyfffyttyfffytyyyyyyyyyyyyyyyyyyyyyyyyyyyyyyyytttyyyyyytttyyyttttyfyttyytttqqtttq7qfkttfyytttttttttttttttqqqqqttyttqqqqqqttq7377:3qqq77qqtq7tt7qqqqqttqqqqq77773ytqqqqqqt77ttqqq77777777qqqq777737qqq777777777",
"tykxxkfytkkyfvvkkkkkkkkkkkkkkkkkkkkkkkkkkkkkkkkkfkxvvvxxkkkkkkkkffkkkkkkkkkkkkkkkkkkkkkkkkkkkkkkyyffkkkxkkkkkkkkqtyffffykkkkkxxfkkkkkkfffkxxxkkkyfkkffkxkxfyfkkvffkxkffkfkxkfkkxvkfyfkkktfkkkxxkxkfkxkkkfkxxkfffykxxxkkkkxxfyfkkkkkkkkkkkkkkkkkkkkkkkkkkkkxvvxkfkffxxkkvkkffkkkkkkkkkkkkkxxxkkkkkxxxxkkfffffffffxkffkkkfyvfkxfkkqvkkkykyxytfkfffyyfvxytfkkkkkkffykkfyyfxxkkffyyykkkfyfkfkyqtkytxkkkkkkkkkkffffffffffyffyffffffffyffffffffffyyyfffffffffffyytttyyfyyfffyqyfkfyttyyyyyyyyyfyffyyyyyyyyyytttttyyytqqtqqytqyqqttttyyttttttttyytqqttqttttttttttytqqqtttqtttqqqqqqqqqqqqqqqqqtqqqq7qqyttqqqqqtqttqqqqtt33qttqqqqqqqqq7qqqqq77777777qqqqqq77777777777",
"yffkkkkffxxffxxfkkkkkkkkkkkkkkkkkkkkkkkkkkkkkkkkkkxxxkkkkkkkkkkkffkkkkkkkkkkkkkkkkkkkkkkkkkkkkkkfffkkkkkkkkkkkkkyyfkkkkfkkkfkxxfkkkkkkfffkxxxkffffkkkfkkfxfyfkkvkffkxkkkfkxffkkxvkfffkkkyfkfkkkkxkfkxkkkfkxxkffffffkkkkffkkffkxkkkkkkkkkkkkkkkkkkkkkkkkkkkfkkxxxkffkxkkxkkfffkkkkkkkkkkkkxxxkkkkkxxxxkkfffffffkkxkfkkkkfyvfkxfkk3xffkfxxxfyffffkfkkfffkfkkkkkkffkkffyyfkxkkfffyfkkkfffkfyytfxftfkkkkkkffffffffffffffffyyfffffffyyffffffffffyyffffffffffffyyyyyyffyyyffytyfkfyttyyyyyyyyyfffyyyyyyyyyyytttttyyytqqtqqytqyytqttyytttttttttyytqqtytttttttttttytqqqtttqtttqqqqqqqqqqqqqqqqqtqqqq7qqtttqqqqqtqqtqqqqtt73qtqqqqqqqqq77qqqqq7777777qqqqqq7777qq777777",
"ffffffkkkxxffkkykkkkkkkkkkkkkkkkkkkkkkkkkkkkkkkkvxkfffffkkkkkkkkffkkkkkkkkkkkkkkxxkkkkkkkkkkkkkkkkkkkfffkkkkkkkkfkkxxxkkfkkfkxxfkkkkkkffxxxxkfffkkkkkkfffkfykkkvkfykxxkffkxffkkkxkfffkkkfkkffkkfxkfkxkkkfkxxkkffxfyfkxkftfkkkxvxkkkkkkkkkkkkkkkkkkkkkkkkkkfkkxxxfkkfkxxkkkffkkkkkkkkkkkxkkkxkkkkkxxxxkkffkkkkkkkkkkkkkkftxfkvfkktvkkkykkxkfffffkfxkyyxvfkkkkkkffvfyffyyfkkkfffffkxkfykkfffyfxftfffffffffffffffffffffffyyffffffyyyfffyyffffffyfffffffffffyyfffffffyyyffytyfffytyyyyyyyyyyyyfyyyyyyyyyyyttyttyyytqqytqytqyfytttyttttttttttyytqqyyttttttttqttttqqqtttttttqqqqqqqqqqqqqqqqqtqqqq7qtytttqqtqtqqqqqqqtt77qtqqqqqqqq777qqqqq77777qqqqqqqq77777q777777",
"kfyyyfkxkkkkkkkfkkkkkkkkkkkkkkkkkkkkkkkkkkkkkkkkxkfttyfkkkkkkkkkffkkkkkkkkkkkkkkxxxkkkkkkkkkkkkkxxkkkfffkkkkkkkkfkkkxkkffkkfkxxfkkkkkkffxxxxfffyxkffkkfyfkffxkfxkffkxxkffkxffkkkxkkfffkkkxkffffyxkfkxkkkkkxxkkffkfffxxkfykkkkxxxkkkkkkkkkkkkkkkkkkkkkkkkkkxvvxkffxxffxvkkkffkkkkkkkkkkkxkkkxxkkkkxxxxkkfkkkkkkkkkkkkkkfftxfkvfkkfMkkktyfxkffffkxkxkyfvvkkkkkkkffvfykkyykkkkfffffkxkffkkfxktykytkyyyffffffffffffffffffffyffffffytyfffyyyfffffyfffffffffffyyffkffffyyyffytyfffyytyyyyyyyyyyyyyyyyyyyyyyyttyyyyyyttqytqytqtffyyttttttttttttyytqqyytttttttttqtqqqqttttttttqqqqqqqqqqqqqqqqqtqqq77qtyttttttttqttqqqqqqqqqqqqqqqqq7777qqqqq77777qqqqqqqq777777777777",
"kfyyyfkxfffkkkkxkkkkkkkkkkkkkkkkkkkkkkkkkkkkkkkkkfyttykxkkkkkkkkffkkkkkkkkkkkkkkxxkxkkkkkkkkkkkkxxxkffffkkkkkkkkfffkffyykkkfkxxfkkkkkkffxxxkffyyxkffkkfyffyfvkfkffkxxkfkfkxffkkxkkkkffffkxkffffyxkfkxkkkfkxxkkkkfkxxxxkkkxxffkxxkkkkkkkkkkkkkkkkkkkkkkkkkkxvvxkffkxffxvkkkffkkkkkkkkxkxxkffxxkffkxxxxkffkkkkkkkkkkkkkfkktxfkxfkxyxykxtkvfkfyffxxxfykxxkxkkkkkkffkffkkyfxffffffffkxkffkkfxkyykyyxyyyfffffkkffffffffffffffffffffytyfkkyyyfffffyffffffffffffffffffffytyffytyyffyyyyyyyyyyyyyyyyyyyyyyyyyyttyyyyyytttytqytqyyffytqtyttttttttyytqqyytttttttttqqqqqtttttqtttqqqqqqqqqqqqqqqqttqqqq7qtttttqtttttqqqqqqqqqqq7qqqqqq77777qqqqqq7777qq7qqqq7777777777777",
"ffffffkkfyykxkkvkkkkkkkkkkkkkkkkkkkkkkkkkkkkkkkkfftttfkvkkkkkkkkffkkkkkkkkkkkkkkxxxkxkkkkkkkkkkkxkkkkkffkkkkkkkkfffffyttfkkfkxkfkkkkkkffkxxkfffykkkkkfffffykvkykffkxkffkfkxkffkkkxxxkffffkkffkkfxkfkxkkkkkxxxkkkfkvvxxkkxvxffkkxkkkkkkkkkkkkkkkkkkkkkkkkkkfkkxxxfkkfkxxkkkffkkkkkkkkkxxxkyyxvkffkxxxxkkfffkkkkkkkkkkffkxfvfkxykkkvfxxqyvfffyfkxkxyyxvffxkkkkkkfffkkxkfkkfffkkkffkkkffkkfffykvftfffffffffkkffffffffffffffffffffytyfkkyyyfffffyffffffffffffffffffffytyfffyyyyyyyyyyyyyyyyyyyyyyyyyyyyyyyttyyyyyytttytqyyqytyfyqqtfttttttttyytqqyytttttttttqqqqqtttttqttttqqqqqqqqqqqqqqqttqqqq7qtttttqtttttqqqqqq77qtq77qqqq777777qqqqqq7777qq7qqq77777777777777",
"yffkkkkfxyfxxffvkkkkkkkkkkkkkkkkkkkkkkkkkkkkkkkkkkfyyfkkkkkkkkkkkkkkkkkkkkkkkkkkxxxxxxxkkkkkkkkkkkkkkkxkkkkkkkkkkkkkkfytfkkfkxkfkkkkkkkkfkxxkffffffkkfkkfytkMkyfkffxxkfkfkxfffkkkxxxkfffyfkkkkkkxffkxkkkkxxxxkkkkkkxxxxkkxxkfkxxkkkkkkkkkkkkkkkkkkkkkkkkkkffkxxxkfkkkkkxkkfffkkkkxxxxxxxkttkvkffkxxxxkffffffffkkkkkfffkvkMffkyfkvMfxx7txfkfyfkkyfffkkfffkkkkkkkkfxxkkvxyyffkkkffkkkfykkfffykvkykkkffffffkkffffffkkfffffffffffftqtfxkfyyffffyyfffffffffffffyyyyfffytyfffyyyyyffyyyyyyyyyyyyyyyyttyyyyyyttyyyyfyytqytqyytyttttttyyttttttttyytqqyyttttttttqq77qttttttqttttqqqqqqqqqqqqqqqttqqqq77qtttttttttqqqqqq777tyq37qqqqq777777qqqq77777777qqq77777777777777",
"tykxxkfyvffxxyykkkkkkkkkkkkkkkkkkkkkkkkkkkkkkkkkxxkfffffkkkkkkkkkkkkkkkkkkkkkkkkxxxxxxxxkkkkkkkkffkkkxxxkkkkkkkkxxxxxkfyfkfffxkfkkkkkkkkyfkxkfffyfkkffkxfytkMktfxfykvxkffkxkfkkkkxxxkfyftfkkkxxkxffkxkkkkxxxxkkkxkffxvxkykkkkxvvkkkkkkkkkkkkkkkkkkkkkkkkfkxxvxkfxffxxfkvkkfffkkkxxxxxxxxkttkvkyfkxxxxkffffffffffkkkfyfxvxZffktfkxxyxx7yMkkfyfkfqykxytfkykkkkkkkkfvxfxMx7yyfkkkffkkkfykkfxkyfxffvkkkkkkffkkffffffkkkffffffffffftqtfxkfyyffffyyffffffffffffyytttyyfyttfffyyyyfffyyyyyyyyyyyyyyytttyyyyyyttyyyyfyytqytqyytfyq7qyfytttttttttyytqqyyttttttttq7777ttttttqtttqqqqqqqqqqqqqqqqttqqqq77qtttttttttqqqqtq737tyq37qqqqq777777qqqq77777777qqq77777777777777",
"fffkkkkkkkkkkfkkkkkkkkffffkkkkkkxkyyyfkxkkkkkkkkkkkkkkkkxxkffkxxkkkkkkkkxxkffkkkkkkkkkkkkkkkkkkkkkkkkkkkxxxxkkkkkfkxfkxkxfykxxfyfkkfkxkykxvxkffffkxkkkkfxxkfffxxfffkxxkfxkffffxvkkffffffkxxvxkkffkxxkfkkvxkkxxxxkkxxxkkkxxkkfkxvkxxkfkkkkxxkkkxkkkxxxkffyvZxffkkvkffkkkxxfyxvxkkkxxkfkxxkkkkkkkkkkkkkkkkffkxyfxkvykffvxxkyyxxffkkfffffffkkfkkkkfyZyyxykkkkkfffkkffffkffffffkkkkkfyyxxfykkfffkfytyyffffffffffffffffffffffxfyffffkfffyttyffffffyyyyyyyffyyttyyyfffytykkytyyyyyyyyytqtkkyyftq7tffytqqtfyqqyyyyyyytttttyytttyyytttttfytqtyttqqqqttyytyyyttqqytttqyfq7tyqqtytttttttttq777tyyytqqqqtttqttqqqqtttttqqq7ttttq7777777qqqqqqqqqqq7y7qq-:q737777qqqqqqqqq",
"fffkkkkkkkkkffffkkkkkkffffkkkkkkxkfyyfkxkkkkkkkkkkkkkkkkxkkffkkxkkkkkkkkxxkffkkxkkkkkkkkkkkkkkfkkkkkkkkkxxxxkkkkxfkxfkxkxffkxxkffkffkxkykxvxfkfffkxkkkkfxxkffkkxfffkkxkfxkfffkkxkkffffffkxxxxkkffkxxkkkkxxkkxxxxkkxxxkkkxxkkkxkkkxxkfkkkkxxkkkxkkkxxxkkffxvxkkkkvkfkkkkxxfyxvxkkkxxkfkxxkkkkkkkkkkkkkkkkfykxyfxkvykffvxxkyyxxffxkfffffffkffkkkkffvffffkkkkkkffkkffffkffffkkkkffffkkfffffkfyffkytffffffffffffffffffffffffxfyffffkfffytyyffffffyyyyyyyffyyyyyyyyffyyyffyyyyyyyyyyytqtffyttyyttyyyyqqtyyqtyyyyyyytttttyytttyyttttttyyttttttqqqqtttttttttqqqytttqyfq7tyqqtytttttttttq777ttyytqqqqtttqqqqqqqtttttqqq7ttttq7777777qqqqqqqqtqqqt377-3q77777qqqqqqqqqq",
"fffkfkkkkkffffffkkkkkkffkkkkkkkkxkfffkxvkkkkkkkkkkkkkkkkxkkffkkxkkkkkkkkxxkkkkkxkkkkkkkkkkkkkkkkkkkkkkkkxkxxkkkkxfkxfkxkvkkxxxxxffffkxkykxxkkkkffkkkkkkfxxkffkkxffffkkkfkkffkkkkkkkfkkkkkxxxxkkfkkxxkkkkxkkkxxxxkkxxxkkkxkfkxvkfkxxkfkxkkxxkkkkkxxxxxkkkkkkxxxkkxkffkkkxkffxvxkkkxxkfkxxkkkkxxxkkkkkkkkkfykxffxkvykffvxxkffkxffxkffffkffkffkkkkfkfxftkkkkkkfffffffffkkffkkkkkffffvxytkkykfyffkffkfffffffffffffffffffffffxfyffffkfffytyyffffffyyyyyyyffffyyyyyyyyfffytyyyyyyyyyyyytyfytqqykftqtyytttyyttyyyyyyytttttyytttttttttyyqtyyyttttttttttttqqqqqttyqttqtyq7tttqtyttttttttqqqqqttyytqqqqtttttqqqqqqqqttqqq7qtttq777777qqqqqqtqtttqqq337:7q77777qqqqqqqq7q",
"fffkfkkkkkffffffkkkkkkkkkkkkkkkkxxkkkxxvkkkkkkkkkkkkkkkkxkkffkkkkkkkkkkkxxkkkkkxkkkkkkkkkkkkkkkkkkkkkkkkkkxxkkkkxfkxfkxkvxxxxxxvkfffkxkfkxxkkkkffkkkkkkfxkkkkkkkffffkkffkfffkxkfkkkkkkkkkkxkkkkkkkkkkkkkkkkxxxkkkkxxxkkkxkfkxxkkkxxkfkkkkxxkkkkkxxkkkxxxxfyxMxkkxkffkkkkkfkkxxkkkxxkfkxkxxxxxxxxkkkkkkkkffkxffxkvykffvxkkffkkffxkkffkkfffffkkkkfvtMkqxkkkkkfffffffkkkkffkkkkkffffxkfykkykfyyfkkfkkffyyyfffffffffffffffffxfyfffffyffyyyfffffffyyyyyfyffffyfyyyyyyfkfqqyfyyyyyyyyyyyyyytqqfxf77yfttttttttyyyyyyytttttyyttttttttyyy7tyfytqttttttqttqq777qtyyqttqtyqqqtttttttttttttqqqqqqttytqqqqtttttttqqqtqqqtqqq7qttqq777777qqqqqqttttqqq73:37qq777777qqqq77777",
"fffffkkkffffkfffkkkkkkkkffkkkkkkxxxkkxxxkkkkkkkkkkkkkfffkkffffkkkkkkkkkkxxkkkkxxkkkkkkkkxkkkkkkkkkkkkkkkkkkkkkkkxfkxfkxfvxkxxxxvxkfkxxkfxxkfkxkffkkkkkkfkkkxkkkkfkkfffkkfffkkkffkkkkkkkkkkkkkkkkkkkfkkkkkkxxxkkkkkxxxkkkxxkkkkxxkxxkkkxkkxxkfkkkxkkkkkxxxfyxMxkkkkffkkkkkkkkkkkfkkxkfkxkxxxxxxxxkkkkkkkkkfxxffxkvykkfvkkxkkkffkxkffffkkffffkkkkfvqMkqxffffffkkfffkkkkkfffffkkkkffyfxkfyfkfyyfkkfkkffyyffffffffffffffffffkfyfffyfyyfyyyfffffyyyyyfffyyyffyyfyyyyyfkfqqyfyyyyyyyyyyyyyyyytfkt37ffqyyttttyyyyyyyytttttyyttttttttyyy7tyfytqqtyytqqttqq777qyyyqtyqqtqttqtttttttttqqqqttttqttttqqqqtttttqqqqttqqttqq77qtttq777777qqqqqqtqtqqqq33337q7777777qqq777777",
"fffffkkkffffkfffkkkkkkkkffkkkkkkxxkkkkxxkkkkkkkkkkkkffffkkffffkkkkkkkkkkxxkkkkxxkkkkkkkkxxxkkkkkkkkkkkkkkkkkkkkkxfkxfkxfxkfkxkkxxffkxkkkxkfykxkyfkkkkxkfkkxxxkffkkkffffkyffkkkffkkkkkkkkkkkffkkkkkfffkkffkxxxkkkkkxxxkkkxxxkffxvkxxkkkxxkxxkfkkkkkkkkkkkkkkxxxkkkkfffkkfkxxkkkkfkkkkfkkkkkkkkkkkkkkkkkkkkfxxffxkvykkfvkkxxxkfykxkkffkkkfffffkkkfkfxftkkfffffkkffkkkkkkfffffkkkkkftyxxfykkfyffkffkfffffffffffffffffffffffkffffyyytyyfyffkfffyyyyyffffyyyyyyyyyfyyfffytyyyyyyyyyyyyfyttyyyfyq7qffqyytqtyytyyyyyytttttyytttttttttyyttyyttqqtyyyqqtytqqqqtyfyqtyq7tttqqtttqtttttqqqqtttttqtttqqqqtttqtqqtqttqqttqq77qqtqq737777qqqqqttqqqqq73q33qq3q77777777777777",
"ffffkkkkkfkkkkffkkkkkkffffkkkkkkkkkkkkkkkkkkkkkkkkkkkkffkkffffkkkkkkkkkkxxxkkkxxkkkkkkkkxxkkkkkkkkkkkkkkxxxxkkkkxfkxfkxfxfykxkffvkfkxkkkxkyykxkyfkkkkxkfkkxxxkfykkkkfffkyfkkfffkkkkkkkkkkkkfffkxxkfffkkffkxvxkfffkxxxkkkxkkkkkxxkvvkkkxxkxxkkkxkkkkkkkfffxvxkkkkfkkffxkfkxxkfkkffxxffkkkkkfkkkffkkkkkkkkkfxxffxxvyxkfxkfxxxfyfkvkkffkkkkffffkkkffvffffkkffkkkkfffkkkkkkkfffkkkfffffkkfffkfyffkytyyffffffffffffffffffffffkffffyyytyyffffkfffyyyyyffffyyyyyyyyyfffyyyffyyyffyyyyyyyfyttyytyyttyyttfftqqyytyyyyyytttttyytttyyttttttyytttqqqtyyyqqtyttqqtyyfyqtyq7qqyq7tttqttttttqqqttytqqtttqqqqttttqqqqtttqqttqq77qttq7777777qqqqqtqqqq7773tq7tq:qq7777777777773",
"fffffkkkkkkkkkffkkkkkkffffkkkkkkfkkkkkkkkkkkkkkkkkkkkfffkkffffkkkkkkkkkkvxxkkkxxkkkkkkkkxxkkkkkkkkkkkkkkxxxxkkkkxfkxfkxfkytfxkyyxffkxkkkxkyykxkyfkkkkxkfkkxvxkfykkkffffktfkkfyfkkkkkkkkkkkfffkkxkkfffkkffkxvxkfffkxxxkkkxkfkxvxfxvxkkxxxkxxkkkxkfkkkkfyyyvZxffkkfkkffkkykxxkfkxkfkkffkkkffffffffkkkkkkkkkfxxffxxvyxkfxffxvxfyfkvkkffkkkkffffkkkfyZyyxykkfkkkkkfffkkkkkkfkkkkkffffxxyykkykfffkfytyyffkkkfffffffffffffffffkffffyyytyyffffkfffyyyyyffffyyyyyyyyyfffytykkytfffyyyyttyfyqqtytyyfffttyfftqqyftyyyyyytttttyytttyyytttttfyqqqqqqtyyyqqtftttttyffy7tyq7qqyqqtyqqqtqttqqqqtyytqqtttqqqqtttttqqttttqqttqq77qqqq77737777qqqqttqqq7333yt7t7:qqq777777777733",
"kkffffffkkffffkkxxkkkffffkkxxkffkkkkkkkkxxkffyytfkfxqxkykkkkkkkfkxxffxxfxxkkkxxvxxxxxkkkxkkfkkkkxxkkkkkxkkxkffkxxkffkxxkffkxxkkfkffkvvkytxvkfxvkvxffkkfyffkxkfyyxkffkkkkkkkfffkkkkkkkkkkvxkffkkxykkkvxfkxkkkkxxxxxxxxkxxffkkkfkxvxfffkkkvxxxxxkkffkkkkkkq7vMyxZtfkfqtxMxxffxvxkfkkkffkvMytfvvfykxffxvkfkyfkxxxkkxxkffkkkxffxffkkffffkkxxykfvyxfxkfyyfkkkkkffffkkxkkkkkkxtyxxqqffkkxkfyffffffffffffffffffkkffffffffyyffffffffffffffyyyyffyffyyyffffffyyyyyyyyffyyyyyyyyyyyytyyyyyyyyyyyyyyyyyyyytttyyyyyytttttttqttyyttttttttttyyfftqtfyqyyfytqttttttttqqtttyytttttttqqqqtttttttttqqqqqqqttttq7qq7qqqtq7777qqqqqqqqq77333qtttq777qq7qqqqq7qqqq77q77333333777777",
"kkffffffkffkkffkffkkkkkkfkkxkkffkkkkkkkkxkkffyytfkfxqxkykkkkkkffkxxffxxfxxkkkkxxxxxxkkkkxkkkkkkkxxkkkkkxkkxkkfkxxkffkxxkffkxxkkfkffkxxkfyxvxkxxkxkfkkxkyffkkkfyyxkffkkkkkkffffkkkkkkkkkkxkkffkkkykkkvxfkxkkkkxxxxxxkkkxxkffkxfkxxkffkkxkvxkxxxkkffkkkkkktqxMykMytkkyfvxfxffxvxkfMkyyxvxkytfvvfyfxkkxxkkkkkkkkkkkxxkffkkkxffxffkkffffkkkkfkfxfkfkkfyyfkkkkkkfffkkxkkfkkkxyyxkqqfkkkkkffffffffffffffffffffkkfffffffyyyfffffffffffffffyyyffyffyyyfffffyyyyyyyyyyfyyyyyyyyyyyyyyyyyyyyyyyyyyyyyyyyyttttyyyyyttyttttqttytttttttttttyyyytqtfyqyyyytqttttttttqqttttttttttttqqqqttttttttqqqqqqqqttttq7qqqqqqtqqq77qqqqqqqqq77777ytqqqqq7qq7qqqqq7qqq777777777777777777",
"kkffffffkyyxxyykyfffkkxxffkkkkkfkkkkkkkkkkkffyyyfkfxqxkykkkkkkfffxxffxxfkkfffkkxxxxxxkkkkkkkkkkkxxkkkkkxkkxkkfkxxkffkxkkffkkxkkfkkfkxxkffkxxxkxxkkfkxxkffkkkkffyxkkffkkkkkffffkkkkkkkkkkxxkfffkkykkkvxfkxkkkkxxxxxkkkkxxkfkxxkkkkkffkxxxxxkkkxkkkkkkkkkfftkMffxfyfkffxxfkffkvxkfMkyyxvxkfykvxfyfkxxkfkkfvxkkffffxxkffkkkxfkxffkkffkkkkffxfkfkfkfkffffkkkkfffffkkkkkfffkkyykkttkkxkffffffffffffffffffffffkkffffffffyyffffffffffffffyyyyffyffyyyfffffyyyyyyyyyffyyyyyyyyyyyyyyyyyyyyyyyyyyyyyyyyyyytttyyyytyyytttqttyttttttttttttyyytqtfytyyyytttttttttttttttttttqttttqqqttttttttttqqqqqqqttttq7qqqqqqqqqqqq7777qqqqq77777ft73qtq7qqqqqqqq7qqq777777777777q7qq77",
"fkffffffktyvvytkfffkkkkxfkkkkkkkkkkkkkkkkkkffffffkfxqxkykkkkkkfffxxffxxfkkffffkxxxxxkkkkkkxkfkkxxxkkfkkxkkxkkfkxxkffkxxkffkkxkkfkffkkkkfffxvxkkvffkkxxkkfkkkffffxkkfkkkkffffkkkkkkkkkkkkkkkkfffkykkkvxfkxkffkxxxxkkkkkkxkfkxxkkkkffkxxxxxxkkkkkkkkkkkkffkykMfykkkkfyyfxxkffxxxkkfkxkffxMffkxxffkfvvfyfkfxkkkffffxxkffkkkxfkxffkkfkkkkkffvfxtxfxfffffffkkkfffffkkkkfffffkyyfktykkxfyyfkkfffffffffffffffffkkffffffffyyffffffffffffffyyyyffyffyyyfffffyyyyyyyyfffyyyyyyyyyyyyyyyyyyyyyyyyyyyyyyyyyytttttyyyyyyytttttyyyttttttttttyyttttyyyttyytttttttttttttttttttqqttttqqqttttttttttqqqqqqqttttq7qqqqqqqtttqq77777qqqq77777yq77qtq7qqqqqqqq7qqq77777777777qqqqqqq",
"ffffffffkttxxttkkkkkkkkfkkkffkkkkkkkkkkkfffffffffxkxqxkykkkkkkkkkxxffxxfkfffffkkxkkkkkkkkkxxffkxxxkfffkxkkxkkfkxxkffkxxkffkxxkkfkfffkkffffxvxkkvffkkkkkkfkkfffffxkkkkkkkfffkkkkkkkkkkkkkfkkkfffkykkkvxfkxkkkkxxxkkkkkkkkxkfxxkkkkkfkxvvxkkkkkkkkkkkkkkffxfkvkyfxkkfffykxkfkxxkkkykvxffxMfkkkkffkfvvfyfkfffkkxxkkkxkffkkfxfkxffkkkkkkkkffxfktxyxfkkkkkkffffffffffkkfffffffyfkyfxkxkyyfkffffffffffffffffffkkffffffffffffffffffffffffyyyyffyffyyyffffyyyyyyyyffyfyyyyyyyyyyyyyyyyyfyyyyyyyyyyyyyyyyttttttyyyyyyyttttyyyttttttttttyyttttyyyytttttyytttttttttttttqqqqttttqqqttttttttttqqqqqqqttttqqqqqqqqqqttqq7777qqqqqq777qqq7qqqq7qq77qqqq7qqq7777777777qqqqqqqq",
"kkffffffxytfftyxxkkkkfffkkkfffkkkkkkkkkkffffkkfkfxkxqxxykkkkkkkkkxxffxxfkkfffkkxxkkkkkkkfxvxffkxxxkffkkkkkxkkfkxxkffkxxkfkkxxkfffffffffffkxxxkxxfkxkffkxfkfffffkxxkkkkkkyffkkkkkkkkkkkkkfkkkfyffykkkvxfkxkkkkxxxkkffkkkkxkfxxkkkxkkkxxxxkkkkkffkkkkkkkkfkkxxkffxffkvxyykkfkxxkkxkkkxxxkkfkkkffkxkxxfffkfyykxxxkkkxkfyfkfxfkxffkkkkkkkkffkffykfkffkxxkfffffffffffkkfffffffyfkfkxkkkffffffffffffffffffffffkkffffffffffffffffffffffffyyyyffyffyyyffffyyyyyyyyyfyyyyyyyyyyyyyyyyyyffyyyyyyyyyyyyyyyyttttttttyyyyyttttyyyytttttttttyyqqqyyyyyttttyyyyyyttttyyyttqqqqqttttqqqttttttttttqqqqqqqttttq7qqqqqqqqqqqqqqqqqqqqqqqqqq77qqqqq7qq77qqqq77qq777777777777777777",
"kkffffffxfttttfxkkkkkkkkxkkfffkxkkkkkkkkffffkkkkkxkxqvxfkkkkkkkkkxxffxxfxkkfkkxxkkkkkkkkfkvxfykvxkkfffkkkkxkffkxxkffkxxkfkkxkkffffffffffyxvxkxxkkxxkfyfxfkffyfkkxxkkkkkkyyfkkkkkkkkkkkkkyfkkfyyfyxkxvxfkxkkkkxxxkkffffkkvkfkvxkfvxkkkxxxffkkfffkffkkkkkkfvxkkkfkffkvxyykffkxxkkxkkxxxxkkfkkffkxxkffkkffffkkkkkkkkkkffkkfxfkxffkkxkkkkkkkyfykyfyffkxxkfffffffffffkkkfffyyfyfxkkxfkkkfyyyfffffffffffffffffffffkfffyyyyffffffffffffffyyyyffyffyyyfffyyyyyyyyyyyyyyyyyyyyyyyyyyyyyffyyyyyyyyyyyyyyyyttttttttyyyyyttttyyyytttttttttyyq7qyyttfttqtyyyyyyytyyyfyttqqqqqttttqqqtttttttttqqqqqqqqttttqqqqqqqtqqqq7qqqttttqqqqqqqqq737qtq7qq77qqqq77q7733777777777777777",
"kkffffffvkt77tkvyfffkxxxxkkfffkxkkkkkkkkffffkkkkkxkxtvxfkkkkkkffkxxffxxfxxkkkxxvkkkkkkkkfxvxfykvxkffffkkkkxkffkxxkffkxxkkkkxkkfyffffyffftxvkfxvkxxxkyyfxkkffyfkkxxkkkxxkyyfkkkxxkkkkkkkkyfkkfyyfyxkxvxkxxkkkkxxxkkffffkkvkfkxxkfMvkfkkxxffkkfffkffkkkkkkyvvfkxkkxffxktyvffkxxkkxqkMMkykMfkkffkxxxyyxxffkxxkkffffkkkfffkfxffxffkkxxkkkkkxqftxtktffkxxkffffffffffffkffffyyfyfxkxxyfkkkyyyfffffffffffffffffffffffffyyyyfffffffffffffyyyyyffyfffyyfffyyyyyyyyyyyyyyyyyyyyyyyyyyyyyyfyyyyyyyyyyyyyyyyttttttttyyyyyttttyyyytyyttttttyyq7qyyttfttqtyyyyyyytyyffyttqqqqqttttqqqtttttttttqqqqqqqqttttqqqqqqqtqq777qqtttttqqqq7qqqy7::qyt7qq77qqqq777q7337q7777777777777",
"kkkkffffxkfyyyyfkkkkkkffkkkkkkkkkkkkkkkkkxkfkkykxxkkkffyfffkkkkkxxxxxxxxxkkkkkxxkxxkkxxkkfkkffkfkkkkkkkkkkkkkkkkvyyxkkxxxkkffkkxfkkkffkxffkxxxkkkfykxkffkkfffyttkxktfvvkyxkfxkfkxxkkfffffkvvkfffykxkffkxkkxxkkxxxkkkffffvxkkkxkkkkkkkkkkffkkkkkkvxkffyyykvMMxkfkkffkxkffykkqMfffvkkxkfkxkfkytkvkyfxMvkfkxkkkxkkkxyxkfxffxkfvkyvxxffxvxkffffkkxkffkxkfyyfyyffkkkfytxxtfxtffvfxykfkkffffffkkkkkkffffffyfffffffffyyfkfyyfffyyyyfffyffffffffffffyyyyyyyyyyyyfyyyyffffyytttttyyyyyyyyyyyyyytttyyyyyyttyyyyyyttttyytttttttttqqtyyq7qqqtyyytqtttqqtyyyttyyyyyytttttttqqqqttttqqqqqtttqqqqqqqqqqttttq7qqqqqtqqqqqqq777qq7qqqqqq7777qqq777q7777777777qttytq777777777777",
"fkkkffffxkffyyffkkkkkkffkkkkkkkkkkkkkkkkkxkfkkykkkkkkkfffffkkkkkxxkkkkxxxkkkkkxxkxxkkxxkkfkkffxfkkkkkkkkkkkkkkkkvyyxkkxxxkkffkkxfkkkkkkkffkxxxkkkfykxkffkkfffyttkxkyfvxfyxkfxxfkxxkkfffffkvxkfffykxxkfkkkkkxkkxxxkkkkfffxxkkkxkkkkkkkkkkfkkkkkkkxxkffyffkxvvkffkkffkxkffyffyxfffvkkxkfkxkffytkvfffxvxffkkkxkkkkfxyxkfxffxkfxkyvfkkkkkkkffffkkkkkfkxkfyyffyffkkkfytkktfktffxfxykfkkffffffkkfkkkffffffyfyffffffyyyfkfyyfkfyyyyffffffffffffffffyyyyfyyyyyyyyyyyyyyyyyytttttyyyyyyyyyyyyyytttyyyyyyttyyyyyyttttyytttttttttqqtyyqqqttttyttttttqqtyytttyyyytytttttttqqqqttttqqqqqtttqqqqqqqqqqttttq7qqqqqtqqqqqqq777qq7qqqqqq7777qqq77qq77777777777qqq77377777777777",
"ffkkffffxkffffffkkkkkkffkkkkkkkkkkkkkkkkkxkfkkyfffkkkkkkfffffkkkxxxxkkxxxkkkkkxxfxxkkxxkkfkxffxfxxxkkkkkkkkkkkkkvyyxkkxxkkkkfkkkfffkkkkkffkxxxkkkyykxkffkfffffytkxkfkvkyyxkfxxffkkkkkkfffkxxkfffykxvxkffkkkkxxkkkkkkkfkkxxkkkkkkkkkkkkkkkkkkkkxxkxxkfyfkkkkkffkkkyfkxkfffffxykkkxkkkkfkkkffyyxxtffkxkffxfxxkkxkyxyxkfxffxkyxkyxyfxkytfkfffffkkkkfkxkkfffffffkkfffykkyfkyfyxyxykfffffffffffffkkkkffffyfyffffffyyyfkkyyfkffyffffffffffyyyyffyyyyyyfffyyyyyyyyyyyytyyyyyyyyyyyyyyyyyyyyyytttyyyyyyttyyyyyyttttyytttttttttqqtyytqtyttttttyyttttttyttttyyytttttttttttqqtttttqqqqtttqqqqqqqqqqtttqqqqqqqqtqqqqqqqq77777qqqqqq77777qqq7qqq77777777777773337qq77777777",
"ffkkkkfkkkkfffffkkkkkkffkkkkkkkkkkkkkkkkfxkfkkykyffkkxxxfffffkkkxxxxkkxxkkkfkkxxkkkkkkkkkfkxfkxfxxxxxxxxkkkkkkkkvyyxkkxxkkkkkkkkfffkxxkfffkxxxkkkyykxkfffffkkfytkxkkxxktyxkfxkffkkkkkkfkfkxxkfffykxvxkfyxkkkxxxkkkkkkkkkxkkkkkkkkkkkkkkkkkkkxkkkfkxkfffkkfyyffkkfyykxkkkfyyMqkxkkkkkkfkkkffyyxxtfkkkyykxyxxkkxkyxyxkfxffxftxkfxtfxxq7fxfffffkkkfkkkkkkffffffkkfffyfffffffykyxykfffffffffffffffffffffyyyffffffyyyfkkfyfkfffffffffffffyyyyfffyyyyyffyyyyyyyyyyyyttttyyfyyyyyyyyyyyyyyyyytttyyyyyyttyyyyyyttttyytttttttttqqyyytqtyytqqtyyytttttttttttyyyyttttttttttqqttttttqqqttqqqqqqqtttttqtqqqqqqqqqqqq7qqq777777qqqqqqq777qqqqqqqq7777777777773337qqtq7777777",
"ffffkkkkffkkkkkkkkkkkkkkkkkkkkkkkkkkkkkkfxkfkkykyffkkxxxfffffkkkkkkkkkkkkkfffkxxkkkkkkkkkfkxfkxfxxxxkkkxkkkkkkkkvtykkkxkfkkkkkkkfffkxxkfffkxxxkkkfykxkfffffkkkytkkkkxxftyxkfkkffkkkkkkkkkkkxffyyfkxvxkfyxkkkxxxkkkkkkkkkkkkkkkkkkkkkkkkkkkkkkkkkffkkffkkffyffkkkfyfkxkfkkyyv7kxkkkkkkkkfkfkfyxxtfkkfyfkxfxxkkxkyxyxkfxffxftxkyktfxkqqfxffffkkkffkkkxxkfyffffkkffffffkfyffyktxykffffffffffffffffffffyyfffyffffyyyfkfyyfkfffffffffffffyyyyfyyffffyyyyfyyyyyyyyyyttttyyfyyyyyyyyyyyyyyyyytttyyyyyyttyyyyyyttttyyttttttttttqyfyttyyyttqtyyyttttttttttttyyttttttttqqtqtttttttqqttttqqqqqqqtttqqqqqqqqqqqtqqq77777qq77qqqqqqqqqqqq77qqqqq77777777qqqqq77qtttq7777777",
"ffffkkkkffkkxxkkkkkkkkkkkkkkkkkkkkkkkkkkfxkfkkyfffkkkkkkfffffkkkkkkkkkkkkkkffkxxkffkkkkxkfkxfkxkxxkkkkkkkkkkkkkkxtykkfkkffkkkkkffffkxxkkffkxxxkkkfykxkfffffkkkfykkffkkfyyxkfkkffffkkkkkxkkkkffyykkkkkkfykkkkkxxkkkkkkkkkfkkkkkkkkkkkkkkkkkkkkkkkffkkkkkfffkkkkkkkfykkkkkkfyftkxkfkkkfkkfkkkfyxxyfkkffkkkkkkkkfffxyxkfxffxftxkyxtfxkytfkffffkkkffkkkxxxfyffffkkffkkyykfykfyftkykfkkfffffffffffffffffyyyffyyfffyyyfkfyyfkfffffffffffffyyfyfyyyfffyyyyfyyyyyyyyyyyyyyyyyyyyyyyyyyyyyyyyyytttyyyyyyttyyyyyyttttyyttttttttttqyfytqtyytttttttqttyttttttttttttttttttqqqqtttttttqqtttqqqqqqqttttqq7qqqqqqqqtqqq77777qqq77qqqqqq7qqqq777qqqq7777777qqqtttqqqqttq7777777",
"kkkkfkkfyfkkxxkkkkkkkkffkkkkkkkkkkkkkkkkfxffkkyfkkkkkkffffffkkkkkkkkkkkkkkfffkkxkffkxkkxkfkxfkxkkkkkffffkkkkkkkkxtykkkkkffkkkkfffkkkkkkxffkxxxkkkfykxkfffffkkkfyxkffkkkfyxkfkkyffffkkkxxkkkkffyyxkkkkkffkkkkkkxxkkkkkxxxyfkxkkkkkkkkkkkkkkkkkkkkkfffxxkfykvvvxkkkyyfkkkxxfyqkkxxfkkffkkyfkxkykvkfkkkkxxfxfykkyykxyxkfxffkfyxfyxfkkkkkkkfkkfkkkffkkkxvxkfffffkkffkkyyxftxftftkykfkkfffffffffffffffffyyfffyyyfyyyyfkfyyfkfyyyyffffyyyyyyyyfyffffyyyyffyyyyyyyyyyffyyytttttyyyyyyyyyyyyyytttyyyyyyttyyyyyyttttyyttttttttttqyfytqtttyyytqqqqttyytqqqtttttttttttttqqqttttttqqqqtttqqqqqqttttttq77qtqqqqqqqqq777qqqq777qqqqqq7qq7777qqqqq77777q77qqqtt77777q77777777",
"kkkkffkfyfkxxxxxkkkkkkffkkkkkkkkkkkkkkkkfxffkkyfxxxkkffffffffkkkkkkkkkkkkkfffkkxkffkxffxxfkxfkxkffffffffkkkkkkkkvtykkfkkffkxkkfyfkkkffkxffkxxxkkkfykxkffyffkxkfyxfyyfkkkykkfkkyfyffkkxxxkkkffffyxkfffkkkfkxxkkxxkkkkxxxxyfkxkkkkkkkkkkkkkkkkkkkfkfyfxxkyykMZMxkkkyyfkkkxxky:vkkxykkffkfyfkvkykvxfkkkxvxyvyykktyvxyxkfxffkkyxftvkxffxvxkfkffkkkffkkkxvvkfkfffkffykxtyvktxftfqkykfkkffffffffffffffffffyfffyyyyyyyyfkfyyfkfyyyyyyffyyyyyyyyffffyfyyyyffyyyyyyyyyyfffyytttttyyyyyyyyyyyyyytttyyyyyyttyyyyyyttttyyttttttttttqyfytqtttyyytq77qtyyytqqqtttttttttttttqqqttttttqqqqtttqqqqqqttttytq77qtqqqqqtqqqq77qqqq777qqqqqq7qq7777qq77q77777qq777qqt33333777777777",
"kkfffkkkfffkkkkkkkkkkkkkyxfyvxyvkkkkkkkkxkkffkkxkkxxkkkxkkkkkkkkyyfkkxxxkfffkxkfkkkkkkkkkfxfykyykyfxxfyfkxxkyyxZtyfxxkkfkfyfkkkkxxkkffkkfkkfkxkfkkkkfyyttxxytfxxkkkkxxfyfkxkfyfxfkftyxxfkfyfxvxkkkkffkkfkxxkkxxxxxxkkkkxykxffkxkkkkkxxxxkkkkkkkkkfffffkxkkkkffyyfkvvkfyyffkkxxkkfkkkkkkkffkkkkffkxxyykkfkkkkkffkkkffkkytfyMkyktkkkkkkkkkkkkfffkkfffffffffkkffffkkkfffxkfkxfykkykkkfffffffffffffffyttykkkfyttyffffffffffffffyfyyyfyyyyyytyffyyffyffffyyyyyyyyyyyytttyyyyyyyyyyyyyyyyttyyyyyyttyyytttyyttyyttttttyyttttttyttttttttqqqtyyyttttqqqqqqqqqttttyytttttttttttttttttqqqttqyyq7qttq77qtttqqqqqqqqqtqqqqqqqqqq77qqq7777qtttyt7337qqqqqq777777qq7777777777",
"kkfffkkkffkkkkkkkkkkkkkkyxfyxkfxkkkkkkkkxkkffkkxkkkkkkxxkkkkkkkkfffkkkkkkfffkxkfkkkkkkkkkfxfyxyfkyfxxfyfkkxxkkkxkkkkfyyfxkyfkkxkxxkkkkkkkkkfkxkfkfkkffyytkxytfxxkkkkkkfffkxkfyfxfkftyxxfkfyfxxxkkkfyfkkffxxkkxxxvkkfkxxkykxffkxkkkkkkxxxkkkkkkkkkfffffkxkkkkkffffkxvkfyfffkkxxkkfkkkkkkfffkkkkkkkkkffkkfkkkkkffkkkfkkkfykyvkfxykkkkkkkkkkkkfffkkfffffffffkkffffkkkfffkkfkxfykkykkkfffffffffffffffytyffkkfyyyyffffffffffffffyfyyyfyyyfffyfkftqqyfffffyyyyyyyyyyyyttyyyyyyyyyyyyyyyyyttyyyyyyttyyytttyyttyyttttttyyttttttyttttttttqqqtyyyttttqqqqqqqqttttttttttttttttttttttttqqqttqttq7qtqqqqqtttqqqqqqqqqtqqqqqqqqqq77qqq7777qtqqyq737qqqqqqq777777qq7777777777",
"kfffkkkkffffkkkkkkkkkkkkfkffxkfxkkkkkkkkxkkffkkxkkkkkkkkkkkkkkkkkkkkkkkkkffkxxkkkkkkkkkkfyxyfxfkfyyxxfyfkkxxxkfyxxkyttfxxkffkxkkxkkkffkkfkkfkxkfyffkkffyykxfyfxxkkkkfffkfkxkfyfxfkfyykxfkfyfxxxkxkfyfxxffkxkfkxxvkffkxxfykkffkxkkkkkkxxxkkkkkkkkkkfffkkxkkkkkfffkkkkkffffkkkxxkkkkkkkkkkfffffkkkkffkxkffxkkkkffkkkkkkkffkfxkkxfxkkkkkkkkkkffffkkfffffffffkkffffkkkfyfkkykxfykkykkffffffffffffffffyyyffffyfffyyyffffffffffffyfyyyyyyfffytykkyqtyfyyyyyyyyyyyyyyyyyyyyyyyyyyyyyyyyyyyttyyyyyyttyyytttyyttyyttttttyyttttttyttttttttqqqtyyytttttqtttttttttqqqqqttqqqtttttttttttqqqttqtt77qqqqtttqqqqqqqqqqqqtqqqqqqqqqq77qqq7777qqq7tq77qqqtqqqq777777qqqq77777777",
"fffffkkkfffkkkkkkkkkkkkkffffkkkkffkkkkkkxkkffkkxkkfkkxkkkkkkkkkkxxkkkfffkffkxxkkkkkkkkkkyykyfvkxfyyxxkffxxxxkfyyffkftyxMxkffkxkkkkkkkkkffkkfkxkftyfkkkkfykxfyfxxkkkkfykxfkxkfyfxfffyfkkfkfyfkxxfxkytfxxkfkxkfkxxvkffkxkfykxffkxkkkkkkkkxkkkkkkkkkkfffkkxkffffkkkkkfkkkkfkkkkkkkkkkkkkkkffffffkkxkyyxvkffxfkxkffkkkkkffkkxkkkxxxxfkffffkkkkffffffkfkkfffffkkffffkkkfyfkkfkxfykkfkkkffffffffffffffyyyfffyyyfkfyyyffffffffffffffyyyyfyfyyq7tykkkkfyyyyyyyyyyyyyyyyyyyyyyyyyyyyyyyyyyyyttyyyyyyttyyytttyyttyyttttttyyttttttyttttttttqqqtyyytttttttttttttttqqqqqqqqqqttttttttttqqqqtttqq77777ttytqqqqqqqqqqqqtqqqqqqqqqqq7qqq377qqq77qqqqttttqqqq777777q7qq77777777",
"ffkkffffffkkkkkkkkkkkkkkfyffffkffffkkkkkxkkffkkxkfffkxkfkkkkkkkkxxkkffffkfffkxkkkkkkkkkkyykffvkxftyxxkfkxvvkytfktfkkfykvxkffkkkffkkkkkkffkkfkxkftyfkkkkkyfkkfkkxfkkffyfkfkxkfyfxyfkkkkkkkfyfkxkfxkfyfxxffkxkfkxkkkkffffkykxffxxkkkkkkkkkkkkkkkkkkkfffkxxkffffkkkkfffkkkfkkkkkkkkkkkkkkkffffffkkxkyyxvkffxfkxxyyxkkkkffkkkkfxxxxkffffffkkkkffffffkkffffkffffffffkkffyfkkykxfykkfkkffffffyffffffffyyfffyyyyfkkfyyffffffffffffyyyyyyyfffyq7tyyfkxftyyyyyyyyyyyyyyyyyyyyyyyfyyyyyyyyyyyttyyyyyyttyyytttyyttyyttttttyyttttttytttttttytttttyttttttttttttttttqqqqqqqqqqttttttttqqqqqqtttq777777qtyttqqqqqqqqqqqqqqqqqqqqqqq7qqq337qqq777qqqqqqqqqq777777777qq77777777",
"fkkkffffkkkkkkkkkkkkkkkkftfkyfkfffffkkkkxkkffkkxxfyykxkfkkkkkkkkkkkkkkkkkfffkxkkkkkkkkkkfyxffvkxftykvkfkxvxfttfvfkxxfyyyxkffkkkfyfkkkkkffkkfkxkfyfffkkkkffkkkkkxfkkffffkfkxkyyfxyfkkkkkkkfyfkxkfkkkffkkyfkxkfkkkkkkfyffkyxxffxxkkkkkkkkkffffkkkkkkfffkxxxkfffkkkfffkffkkxxkkkkkkfkkkkkkffffffkkkkffkxkffxffxxyyxkkkkkkfffxfxxfxfffffffffkkffffffkkkkkkkkfffffffkkkfyfkkykxfykkfkffffffyyffffkffyyffkffyffffffffffffffffffffyyyyyyyffffytkftqtyytyfyyyyyyyyyyyyyyyyyyyyffyyyyyyyyyyyttyyyyyyttyyytttyyttyyttttttyyttttttytttttttytttttttttttyttytttttttqqqqqttttttttttttttqqqqqqttq77q777qqtttqqqqqqqqqqqtqqqqqqqqqqq7qqq7777qqq77qqqqqqqqqq777737777qq77777777",
"ffkkkkffkkkkkkkkkkkkkkkkftfkyfxyffffkkkkxkkffkkxxftyxxkykkkkkkkkfffkkkxxkfffkxkkkkkkkkkkkfvffxffytykvkfkfkkffykxkkxkfyyyxkffkkkfyykkxkkfkkkfkxkfkkkfffkkfffkkkkxkfffkkfyfkxkyyfxyfkxxkkkfyyfkxkfykxxkkfyfkkffkxkkkfffffffxxffxxkffkkkkkkffffffkkkkkfkkxxxkyykkkfyfkkfffkxxkkkkfkfkkkkkkffffkkkffkkkffkkfxffvxyyxkkffkkfytxfvxyxyffffffffkkffffkkkkkkkkkkfkfffffkkffyfkkykxfykkfkffffffyyfffkkfyyyfkkfyfkkfyyfffffffffffffffyyyyyfyyffffyffyq7qyyffffyyyyyyyyyyyyyyyyyyffyyyyyyyyyyyttyyyyyyttyyytqtyyttyyttttttyyttttttytttttttyttqttttttttyyyyyqqttttttttttttttttttttttqqqqqqqttq7qq77qq7qqtttqqqqqqqqqtqqqqqqqqqq77qqq7777qtqq7qqq777q77777733777qqq77777777",
"ffkkkkffkkkkkkkkkkkkkkkkfqfktfxyfffkkkkkxkkffkkxxftyxvkykkkkkkkkyyffkxxxkfffkxkkkkkkkkkkxkvffxyfytyxvkfkyfkkxkkfffyyfkxxxkffkkkftykxxxkfkkkfkxkfxkkffffkfffkkkkxkfffkkfyfkxkfyfxyfkxxkkkfyyfkxkftkvvkfytfkkffkxkxfyyfkkffxxkfxxkffkkkkkkfffffkkkkkkfkkxxxkyyfkkfyfxkfyfkxxkkkkfkfkkkkkkffkkkkfffkxxytfkfvffvxyyxkffkkkytqxfvxtkyffffffffkkkfffkkkkkkkkkkfkfffffkkffyfkkykxfykkfkfffffyyyfffkkfyyffkkfffkkfyyfkkkfffffffffffyyyyyffyyyyytqfkfqqyfffffyyyyyyyyyyyyyyyyyyyfyyyyyyyyyyyttyyyyyyttyyytqtyyttyyttttttyyttttttytttttttyttqttttttttyyyyyqqqqttttyyyyttttttttttttqqqqqqqqy73qqq7qq77qtytqqqqqqqqqtqqqqqqqqqq77qqq7777qttt7qqq737777777773777qqq77777777",
"ffffffffkkkkkkkkyfkkxkffyyfkkkfykkkkkkkkkkkkkkkkkkffffffkkkkkkkkkkkkxxxxkkkkxxxxkkffffffkkfffkxxxkfkxxkkkkkkkkkkkkkkkkkkkffkxxkykkkkvMxtkkkkfffk7tffyykvffkxxkfykkytfftykkkkftfxkfffffkkfqfMxffyfkxxkffkffkkkkkkxfvvtyvkfxxfyffyffkkkfkxkfkvxyyxkfkkfykMfyfkkffxfkkffkkfxfyykxkfkvyfxffffkxxfyyffkkkffffyxxfkytkkkkkkffyfkxkffffffkkkkkkkfyfvftkkkffkkkkffffffffkkkfffffffffkkfffkftyfkkkkffyyyyffffffffffyyffyyyffkffffffyffffyyyyyyyyyftfkfyfffyyyyyyyyyyyyyyyyyyyyyyyyyyyyyyyyyyyyyyyyyyyyyyyyyyyyyyytttttttttttyytttttttttttttttttttftqttqqttqqqqqqqtqttttqqqqqqqqqqtttttqqqqqqqqqqqqqqttqq737qqqqqqtq7777qqqqqqqqqqqqqqqqqqqqq777qq77qqqqqq7qqqqq77777777",
"ffffffffkkkkkkkkffkkkkffyyfkkkffkkkkkkkkkkkkkkkkkkkfffffkkkkkkkkkkkkxxxxkkkkxxxxkkkfffffkfffkkkkfkkkkkkkffffffffkkkkkkkkkffkxxkyffffxvkqkkkkfffkyt7tkvxffkxxkffkkkytfftykkkkftfxkfffyfkkfqfvxffffkxxkffkffkkkkkkxfxvyfvkfkkfyffyffkxkfkxffkxxffkkfkkfykvfyykxkfkfkkffkkkxfyykxkkfvyfxyfffkxxkyyfkkkkffffyxxfkytkkkkkkffyfkxkfffffffkkkkkkfyfvftkkffffkkkffffffffkkffffffffffkkfffkfyyfkkkfffyyyyffffffffffyyffyyyffkffffffyffffyyyyyyfffkyyfytfyffyyyyyyyyyyyyyyyyyyyyyyyyyyyyyyyyyyyyyyyyyyyyyyyyyyyyyytttttttttttyytttttttttttttttttttftqttqqtttttqqqqttttttqqqqqqqqqqttttqqqqqq7qqqqqttqqqq77tttq733337qtytqqqqqq7qqqqqqqqqqqqqq77qqq7qqqqq777qqqqq77777777",
"ffffffffffkkkkfffffkkkffyffkkkkfkkkkkkkkkkkkkkkkkkffffffkkkkkkkkfkkkkkkxkkkkkkxxkkkkkkffffkkkkffyfkkfyfkffffffffkkkkkkkkkffkxxkyffffxxftkkkkfffktyyyyfkxfkxkfykxkkytkfyykkkkytfxkfffyfkkftfvkffffkxxfffkffkkkkkkxfxxyfxkfkkffffykfkxkffxfkxkkkkkkfkkfffxkyykxxfyfkkffkkkkfyykkkkfvffxyffkxvxkffkkkkkfffkyxkfkyykkkkkkfffkkkkffffffffffkkkfyfvftkkkffffkkffffffffkkkkffffffffkkfffffyyfffyfffffffffffffffffyyffyyyfkkffffffyffffyyyyyffffxyyyttyyffyyyyyyyyyyyyyyyyyyyyyyyyyyyyyyyyyyyyyyyyyyyyyyyyyyyyyytttttttttttyytttttttttttttttttttyttttqqttttttqqqttttttqqttqqqqttqttqqqqqqq7qqqqqttqqqqqtyyt73::337qtytqqqqq77qqqqqqqqqqqqq7777qq77qqqq77777qq777777777",
"kkkkffffffkkkkffffffkffffffkkkkkkkkkffffkkkkkkkkkkkfffffkkkkkkkkfffkkkkxkkkkkkxxkkkkkkkkffkkxkfyyfffffffkkkkkkkkkkkkkkkkkffkxxkykkxxxvxfkkkkfffktykfttfvfkkkffkxfkytkkyfkkkkytfxkfffffkkkykvkfkkfkxxfffkffkkkkkkxkkkfkxkkkfffkfykfkxxfkxfxxyfxxfffkkffkkkfyfkxkffkkfkkkkkffffkkxfvfkxykfkxvxkkkkkkkkfffkfxkfkfykkkkkkkffkkkkffffffffffffkfyfvftkffffffffffffffffkkkfffffffffkkfffkfyfffyyyyfffffffffffffffyffffyyfkkffffffyffffyyyyyffffkyyfttfyfyyyyyyyyyyyyyyyyyyyyyyyyyyyyyyyyyyyyyyyyyyyyyyyyyyyyyyytttttttttttyytttttttttttttttttttytttqqqtttttttqqttttttqqtqqqqqttqtqqqqqqqqq7qqqqqqqqqtttqqq7777qtq7777qqqq7777qqqqqqqqqqqq7777qq77qqq777777q7777777777",
"kkffffkfffkkkkffffffffffffffkkkkkkkkffffkkkkkkkkkkkkkfffkkkkkkkkffffkkkkfkkkkkxxkkkkkkkfffkxkkfyfyyffkffkkkkkkkkkkkkkkkkkfffkxkyfkxxxxxfkkkffffkkyqtfxkyffffkxkffkyyxkyfkkkkytyxkffyyfkkkykxffkkykxxkffkfffkkkkkxkffkkkkkffkkkfykkkxkfkxfxktyvvffkkffffkkkffyfkxfkkfkxxkfffffkxxyvfkxyfkkxxxkkkkfkkfffkkfxfykfykkkkkkkkkkkffkkkfffffffffkfyfxftkfffffffffffffffffffffffffffffffyfkkffffyyyffffffffffffffffyfffyyyfkkffffffyffffyyyyyyyyyftykyyfyyyyyyyyyyyyyyyyyyyyyyyyyyyyyyyyyyyyyyyyyyyyyyyyyyyyyyyyytttttttttttyytttttttttttttttttttttytqqqtttttttttqqttttttttqqqqttqqqqqqqqqq77qqqqqqtttqqq7qqqqqqqtqq7777qqqq7777qqqqqqqqqqq7777qqqqqqq777777q7777777777",
"kkkkkkkkffkkkkffkfffyfffkkffkkxxffffffffkkkkkkkkkkkkkkffkkkkkkkkffffkkkkfkfkkkkxkkkkkkkkffkkkfffkfyfkkkfffffffffkkkkkkkkkfffkkkyyfkkfkfykkkffffkkfyyyfffkfyfkxkffkyyxxfkkkkkytyxkffyffkkkfkxyfxkykxxkffkffkkkkkkkxyyxxfkkfykxkfykfkxxkkxkxftfvvffkkffkffxxkytfxvfkkkkxxkyfffffxvyvfkkyfkkkkkkkkkffkfffkxfxfykffkkkkkkkkkkfffkkkkffffffffkfyfxftkffffffffkfffkkkkfffffffffyyffffyfkfyyfffffffffffffffffffffyfffyyyffkffffffyffffyyyyyyyyyftfkffffyyyyyyyyyyyyyyyyyyyyyyyyyyyyyyyyyyyyyyyyyyyyyyyytttttttttttttttttttyytttttttttttttttttttqyyt7qqtttttttttqqttttttttqqqqttqqqqqqqqqq77qqqqqqqtq73:ttytq73337qtytqqqq77777qqqqqqqqqqq7777qqqqqqq77777777777777777",
"kkkkkkkkfffkkfffkffyyffkkkfffkxxffffffffkkkkkkkkkkkkkfffkkkkkkkkfffffkkkfffkkkkkkkkkkkkkffffffkkkkkkkkkkffffffffkkkkkkkkkffkkxkyyfxkffffkkkffffkykxftqfxkfyyfkkkfkyfxxfkkkkkytykkffyffkkkfxkyfxxykxxkffkffkkkkkkkxttxxfkkyykxkfykkkxxkkxxkytfvvkfkkffkfyxxkyykxkfkkkkxxkyfkkffxvyvfkkykxkkffkkffffffffkxfkfykkfkkkkkkkkkkfffkkkkffffffffkfyfxftkffffffffkkffffkkfffffffffyyffffyfkfyyfkkkfffyyyyffffffffffyfffyyyffkfffffyyffkfyyyyyyyyyktykyyfyyyyyyyyyyyyyyyyyyyyyyyyyyyyyyyyyyyyyyyyyyyyyyyyytttttttttttttttttttyttttttttttttttttttttqyyq7qttttttttttqqtttttttttqqtttqqqqqqq7qq77qqqqttqqq777tttt733337qtytqqqq777777qqqqqqqqqq7777qqqqqqq77777777777777777",
"kkkkkkkkfffkkkffkffyyffkkkfffkxvffffffffkkkkkkkkkkkkkfffkkkkkkkkfffffkfkfffkkkkkkkkkkkkkkffyyfkxfkxxkfkxkkkkkkkkkkkkkkkkkfffxxkyfxvxkkxkkkkffffkvkyyfkfykfyyyfkvykyfvxfkfkkkytykkffyffkkkkxktyxxykxxkffkffkkkkkkkxtqvvfkkyykxkfykkkxxkkxvkttkvxkfkkffkfyxxfyfxxffkkfkxxkyfkkffxvyvfkkykxkfffffffffffffkxkkfyfffkkkkfkkkxkfyffkkfffffffffkfyfxftkffffffffkkffffkkffffffffffyffffyfkfyyfkkkkffyyyyffffffffffyfffyyyffkfffffyyffkfyyyyfffffxyyfttyyyyyyytyyyyyyyyyyyyyyyyyyyyyyyyyyyyyyyyyyyyyyyyyytttttttttttttttttttytttttttttttttttttttt7yyq7qttttttttttqqttttqqtttqqqttqqqqqq77qq77qqqqqqqqqttyqqq7337qqqq7777qq7777777qqqqqqqqqq7777qqqqqqq77777777777777777",
"kfffkkkkfffffkkkkxfyffykkkkkkkkkfffkftyxkfytyfkffxkkxq7vyfkkfffkyyfkxxkkfkkxxkkfkkkkkkkkxxkkffffkkfkkfffkkkkkkkkkytyfkfykkkkkkkkkyyfkfffkkffkkfyffkxftyvkyyfxkfkkkkffffffkxkffytfxxfkvxyffffytyfxxkkfyfffkkkkkkkxyyfxxkkkkkyykxkxxxkffkxxxftfMMffkkkkffffvkkffMvfkfyfvvkxfttfxvxvtqkMkfxxkfttfkkkkkkfffyfxfxtxfkxxkyfkkyffffffffffffffffffffkkffkxffxxfffxkyykxfffkfyyyytkkffytffffffffffyyyyfffyyfffffffytyffffyfffyyffffyyyyyfyyyffyyyyyyyyyyyyyyyytqqyfkftttyffyyyyyyyyyyyyyyyyyttyyyyyttttttyyyyyytttttyyttttttttttttttttttttttttttttttttttttqqqqqttttttttttqqqqqqqqttttqqqqttttqqqq7qqqqqq7qqqq77777333377qq77337qq737qqtq7777qqqq77qqqqqq777777777777777",
"kfffkkkkfffffkkkkxfyffykkkkkkkkkfffxftyxkfyyfkffkkfkxyqxyfkkfffkyyfkxxkkffkkxkffkkkkkkkkxxkkffffkkkkkfffkkkkkkkkxfffkxkfkkkkkkkkkyykkfffkkffkkfyfkkkfyfxkytfxkkkkkffffffkkkfyyfkfxxfkxxyffffffffkkxkffffkkfkkkkkkyykxxkkkxkyfkxkxkkkkkkkxxftfMvffkkkkffffvkkkfvxfkkfkxxkkfyyfkxxvtqkvkfkxkfttfkkkkkkfffyyxfxtxfkkxxffkkkffffffffffffffffffffkkffkxffxxfffxxffkkyyfkffyyytkkfffyffffffffffyyyyfffyyfffffffyyyffffyffyyyffffyyyyfffffffyyyyyyyyyyyyyyyyttqyfkfyttyffyyyyfyyyyyyyyyyyyttyyyyyttttttyyyyyttttttyyttttttttttttttttttttttttttttttttttttqqqqqttttttttttqqqqqqqqttttqqqqttttqqqq7qqqqqq7qqqqqqqqqqq777qqqq7777qq7777ttq7777qqqq77qqqqqq777777777777777",
"kkfffffkffffffkkkxfykffkkkkkkkkkffkxkyfvffffkkfyxkyfxftfyfkkfyfkyyfkxkkkfkkkkkffkkkkkkkkxxkkffffkkkkkkffkkkkkkkkxxkkxvxxkkkkkkkkkyfkkffkkkffkxfyfkkfyffffyyfxkfkkkffffffkffyyfxvfkkffxxykfffxxkyfkkxkkkfffkkkkkkfffxxkkkkxkffkxkxkfkxxkfxkfyfvvffkkkkffffvfkkfxfkkkxxkkkffkkffkxxytkvkfkxkfytfkkffkkffffykfktxkxfkxkyfkxffffffkkffffffffffffkkkfkkffxxyffxxffkkyyffkffyytkkffftffffffffffyyyyfffyyyffffffyyyfffffffyyyffffffffffffyffyyyyyyyyyyyyyyyytttyfffytyyfyyyyyyyyyyyyyyyyyyttyyyyyttttttyyyytttttttyyttttttttttttttttttttttttttttttttttttqqqqqttttttqqqqqqqqqqqqtqtqqqqqqtttqqqqqqqqqqq7qqqqqqqtttqqqqqqq777777q777qqqq7777qqqq777qqqq7777777777777777",
"ffffffffffffffkkkxfykffxkkffffkkffkxkyfvfyfkxkfyxkyfxkyyyfkkfyfkyfkkkkkffkkkkkkfkkkkkkkkxxkkffffkkkkkkffkkkkkkkkxkkkkxxxkkkkkkkkkffkkkfkkkffxxfykxkyykkyfyyfkkkfkkffffffffffffxvfkkffxkffkkkxxkfyfxxxkkfkkkkkkkkyfkxxffkkxkffkxkxkfkkkkfkkfffxxkfkkkkffffxfkkfxykkxvxffxtfxxkfkxkfykxkfkkxkyyfkkffffffffyxfxtxkxfkkkffkkfffffffkffffffffffffkkkfkxffxkyffxxffkfttyfkkffftkkffytffffffffffyyyyfffyyfffffyfyyyyfffyffyyyffffffffffyyyffyyyyyyyyyyyyyyyyyttyfffyyyyyyyyyyyyyyyyyyyyyyyttyyyyyttttttyyyttttttttyyttttttttttttttttttttttttttttttttttttqqqqqttttttqqqqqqqqqqqqqqqqqqqqqqqqqqqq7qqqqqq7qqqqqqqqqqqq77qqq777777777qqqqq7777qqqq777qqqq7777777777777777",
"ffffffffffffffkkkxfykkfxkfffkkkkffkxkyfvfffkxkfyxffffxktyfkkfffkfkkkkkffkkkkfkkkkkkkkkkkxxkfffffkkkkkkffkkkkkkkkffffffkkkkkkkkkkkffkkkkkkkffkkfykxkyykkyffyfkxkfkkffffffyfkkkkkkfkfffkkfykxkkxkkyfkxxkkfkkkkkkkkyfkvxfyfkkkffkxkkkkfffkxfkfffxxkfkxkkffffxfkkfkykkkvxyyktkvvkffkffkkkkffkxxfyfkkffkkfffffxfktkfkkkfkkkffffffffkkffffffffffffkkffkkffxkyffxxffkfttyfkkffftkkfffyffffffffffyyyyfffffffffyyyffffyyyyffyyyyfffffffyyffffffyyyyyyyyyyyyyyyyytyfffyyyyyyyyyyyyyyyyyyyyyyyttyyyyytttttttttttttttttyytttttttttttttttttttttttttttttttttttttqqqqqtqqqqqqqqqqqqqqqqqqqqqqqqqqqqqqqq7qqqqqq7qqq77777777777qqqq777777qqqtqqq7777qqtq777qqqq7777777777777777",
"ffffffffffffffffkxfykffxffffffffffkxkyfvkfffkkfykfkfykxtyfkkfffkkkkkkkfykkkffkkkfkkkffffxkkfffffkkkkkkkkkkkkkkkkffffyyfxffffkkkkkffkkkkkkkffkkfyfkkfyfffffffkxkfkkffffffyfxxxkfykffffkkftkxkfkkfyfkxkkffkkkkkkffyfkvxfyfkkkffkxkkkkfyykxffkkkkkkfkxkkffffxfkfyxfkfkxkffkfkxxxkfffkxkkkfykxxkffkkffkkfffyfxfktxfkkfyfxkfyffffffkkffffffffffffkkffkkfyxkyffkkyykftyffkffyytkkfffyffffffffffyyyyfffffffffyyyfffyyyyyffyyyyfffffffyyyyffffyyyyyyyyyyyyyyyyyyyyyyyyyyyyyyyyyyyyyyyyyyyyyttyyyyytttttttttttttttttyytttttttttttttttttttttttttttttttttttttqqqqqtqqqqqqqqqqqqqqqqqqqqqqqqqqqqqqq77qqqqqq7qqq77777773777qqqq777777qqttqq77777qqtq777qqqq7777777777777777",
"ffffffffffffffffkxfykkfxffffffffffkxkyfvxkffkkkffkvkqfxtyfkkfffkkkxxkfyyxkfffkkkffkkkkffkkkfffffkkkkkkkkkkkkkkkkkkxkyfkvffffkkffkffkxkkkkfffkkfyfkkkfyfkyffykxxykkffffffkkxkkfffkfffffffykkyykkyfkkkffffkkkkkfffyykvxfyykkkyfkxkkkkfffkkyfkxkffkfkkkkffffvfkfyvkfffffxkfxkkkxxkfykvkfkfykxvkffffffkkfffyfxfxtxfkfyfkkffkffffffkkffffffffffffkkffkkfyxkyffkkyykkyyfkffyyytkkyfyyffffffffffyyyyfffffffffyyyfkkyyyyyyfyyyyfyyffffyyfffffyyyyyyyyyyyyyyyyyyyfyyyyyfyyyytyyyyyyyyyyyyyyyttyyyyytttttttttttttttttyytttttttttttttttttttttttttttttttttttttqqqqqtqqqqqqqqqqqqqqqqqqqqqqqqqqqqqq77qqqqqqq7tqqq7qqqqq777qqqqqq77777qtttq777777qqqq777qqqq7777777777777777",
"ffffffffffffffffkxfykkfxffffffffffkxkyfvxkyyfkkkykMx7yvtyfkffffkkkxxkfytxkfffkkxffkkkfffkkkffyffkkkkkkkkkkkkkkkkxvvxfkxMkfffkkffkffkxkkkkfffkkfyffkxftyxyffykxxykkffffffxxkfyfkxkffffffffkftykktkkkfyyyfkkkkkfffyykvvkyykkkfykxkkfffkkfyyfkxkffkfkxkkfffyvkkfyvxyffyfxxfvkffxxkyyxvkffftfxvkffffffkkfffyykfxtxkxyyfxkffxffffffkkffffffffffffkkfffkfyxkyffkkyykkffkkfyyyytkkyffyffffffffffyyyyfffffffffyyyfkkyyyyyyyyyyyfyyfffyyyfffffyyyyyyyyyyyyyyyyyyyfyyyyffyyyytyyyyyyyyyyyyyyyttyyyyytttttttttttttttttyytttttttttttttttttttttttttttttttttttttqqqqttqqqqqqqqqqqqqqqqqqqqqqqqqqqqqq77qqqqqqq7qqqqqqtttttqqqqqqqq77777qtytq777777qqqq777qqqq7777777777777777",
"fkkyqfkqkyfxxffxxtfvyqkvfyyyfkfykkkkkfffkMkyxfqfkfffkkkff7MkkZqkyfkkkkkxkfyyfkkfttfkkkkkxxkkfyyyyvkfvktkyyyfkxxkkffkxxfyykfttfyqfffkxxkkyyyyyfffkkkkkffyyfxkffkxffffffffffkkkkxxkfyffykvfkkffkkffkkffkfyfffffffkvvxy77yxfyyfkxxkfttkvkffxkffkxkkfkfyfxxkffkxkkkkkkkkfyfkxxkkfyytyfxxkyyfvxxfyyfxfyykxkfffffkkfytffkxfttkkffffkffkyykkfyfktykfyftkkffffytxytfkyyfffffffffkkffffyykykyfktyffyyyyfftfkyykftffffffffyyyfffyyyyffyyyyyyyyyyyyyyyyyyyyytyffytyyyyyyyyyyyyyyyyytyyyyyytttttttttyyttttttyyyyyyyyttttttttttttttttqqttttqqqqqqqqqqqqqqttqqqqqqqqqqtqqqqqqqqq77qqqqqqqqqqqqqqqqqqqqqqqqqqqqqqq777qq77qqqqqtqqqqqtttqqqqqq7777qq77777777qqqq77777777777777",
"fkkytfkqfffkkffkxyfxftfvfyyyfkfykkkkkfffkvkykfqfffkkkkkkf7MkkMtkkkkkkkkkkfyyfkkftyfkkkkkkkkkffyyfxkkxkfffffyyyyykkfkxxfyfkkffkftyfkxxxkfyyffffffkkkkkffffffffkkxffffffffffkkkkkkkfyfffkxfkkffkkffkkffkfykyykkffkkkfyyykkffyfkxxkfttkxkffxkffkxxxfffyfxxkffkkkkkkkkkkfffkxxkkfyyyyfxxkfyfxxkfyyfxfyykxkfffffkkfytkffkyqyxkfffffffkyyfkfyfktyffyftkkffffytxyyfkyyfffffffffkkfffyfykykyfktyfffyyyffyffyfffyffffffffyyyffffyyyffyyyyyyyyyyyyyyyyyyyyytyffytyyyyyyyyyyyyyyyyytyyyyyytttttttttyyttttttyyyyyyyyttttttttttttttttqqttttqqqqqqqqqtqqqqtttqqqqqqqqqqqqqqqqqqq7qqqqqqqqqqqqqqqqqqqqqqqqqqqqqqqq777qq77qqqqqtqqqqqqqtqqqqq77777qq7777q777qqqq77777777777777",
"fkkyyfftyffyyffyxftykffxfyyyfkfykkkkffffkxkfkftfykxkfykxfqvkkMtkxkfkkkfykfyyfkkfyyfkkkkfffffffffkfkxkkkffkkftqtfkffkxxfyfxxkkxxftyxvxkfffffffkkkkffffkkkkfyykxxxffffffffffkkkkkkkffffffxfkkffkkffkkkfkfykttkxffkyttykvxkffyfkxxkfttkxkffxkffkxxxfkfyfxxkffkkkkkkkkkkfffkxkkkffyyyfxxkfffxxkfyffkfyykkkffffffkffykffkyqyxkffffkffkfffkfyfktykyyfykfffffyykyykkyyfffffffffffffffffkykyyktfffyyyyyffyyffyyfffffffffyyffffyyyyyfyyyyyyyyyyyyyyyyyyyyytyffytyyyyyyyyyyyyyyyyytyyyyyytttttttttyyttttttyyyyyyyyttttttttttttttttttttttqqqqqqqtttqqttttqqqqqqqqqqqqqqqqqqqqqqqqqqqqqqqqqqqqqqqqqqqqqqqqqqqqq777qq77qqqqqqqqqq7qqq7777777777qqqq77qq77q77777777777777777",
"fkfyfyyyykkytfftkxtqxxykfyyffkffkkkkffffkkkfkffftkvxyyfvftxkkvykvxkkkkfykfyyfkkfyfkkkkkffffffkkkxykxyfxyykxkytkMkffkxxfytkxkkxxfqyvMxkffffkkkkkkkfffffkkxyqtkvvkfffffffffffkkkkkkffffffkfkkffkkfffkkffffktqkvkfkyttyxvxkkfffkxkkfyykxfffxkffkkkxkfffkxxxkffkkkkkfkkkffffkkkfffyfffkkkfffkkkkffkkfffkkfffffffkffyffkxktykkffffkffffffkfffktykyykfkfffffffkyykkyyffffffffffffffffffykyykyfffyyyyyykytffyykfffffffffyffffyyyyyyyyyyyyyyyyyyyyyyyyyyytyffytyyyyyyyyyyyyyyyyytyyyyyytttttttyyyyttttttttttttttttttttttttttttttttttttqqqqqqttqqqqttttqqqqqqqqqqqqqqqqqqqqqqqqqqqqqqqqqqqqqqqqqqqqqqqqqqqq7777qq77qqqqqqqqq7777q7733377777q7qq777777777777777777777777",
"fkyykyqffkkytfyqkxtqxxfkkfyffkfykkkfffffkfffffkftkxxytfvfykfkxfkxxxxffffkfyyfkkfffkkkkfffffffkkkxykxyfvffkvkytfvkkkkxxfytfkfykkf7yxMxkfykkkkkkkkfffffkkxxyqtxMvkfffffffffffkkkkfffkffffffkkffkfyyfkkkffkkttkvkfkfffffkkkkfffxxkkfyyfkffkkkffkxkkkfffkkxxxkffkkkkffffkkfffffffffffkkkkkkkfffkkkkffkkffffffffffffyfyfxftykkffffkkffffffkfykyfkyykkfffffffkfyfkkyykfffffffffffffffffykyykyfffyyyyffkyyffyykffffffyyfffffffyyyyyyyyyyyyyyyyyyyyyyyyyytyffytyyyyyyyyyyyyyyyyytyyyyyyttttttyyyyyttttttttttttttttttttttttttttttqqttttttqqqtqqttqtttqqqqqqqqqqqqqqqqqqqqqqqqqqqqqqqqqqqqqqqqqqqqqqqq77qqqq7777qqqqqqqqqqqqq77777773333777777qq777777777777777777777777",
"fkytxy7fkkkfyyytfxftfxkkkfyffkffkkkkffffkyfkffxfyfxkfyfxffffkkkkkkxxfffkkfyyfffffkkxkkffffffffffkffkyfxkkxxft7qtkkkkxxfytfkytffyqykvxkffkfffkkkkfffffkkkkytyxvxkfffffffffffffffffkkffkfyyfkffffyyykxkffkfyykxkffxxkfyykxkfffxxkkffffkfkkkkffkxxkkffkkkxxxkffkxxkfffkkkkfffffffkkffkkkkkkfffkxkkffkkfyffkffffffffxfyfytfvkffffkkffffffkkykyfkyykkffffyfkxfyfxkyykffffffffffffffffftkyykykffyyyyfffyyffyyfyfffffyyffffffffyyyyyyyyyyyyyyyyyyyyyyyyytyffytyyyyyyyyyyyyyyyyytyyyyyytttttyyyyytttttttttttttttttttttttttttttttqqttttttqqqtttttqtttttqqqqqqqqqqqqqq77q7qqqqqqqqqqqqqqqqqqqqqqqqqqqq77qqqq7777qqqqqqqqqqqqq777qq777777777777qq777777777777777777777777",
"fkttxt3kvxkkfytyykkytkvfkfyfkkffkkffffffftfkyfvfffkkkkkkfkffkfxkfkkkkkkkkfyyffffkkxxkkfykkkfffyyfkfyfffxxxkfytqqkkkkxxfyfxxytfkfyyfkkkfffffffffkfkkkkfffffyfxxkkffffffffffffffffykkffkfyyfkffkfyyyfxkyfxykkffkkfxxkyyykxkkffxxxkfkkfffkkkkffkxkkxffkxkxxxkyyfxxkffffkkkffffffkkkfffkkkkkyyfkxxkyfxkytfkkffffffffxfyyytfvkffffkkfyffyfkkykyfkffxxyfffyfkxfyfxxyykffffffffffffffffytkfyfykffyyffffyffffffyyyyyfffyyfffffffyyffyyyyyyyyyyyyyyyyyyyyytyffytyyyyyyyyyyyyyyyyytyyyyyyttttyyyyyyytttttttttttttttttttttttttttttqqqttttttqqqqttttttttttttqqqqqqqqqqqq7777qqqqqqqqqqqqqqqqqqttttqqqqqq77qqqq777qqqqqqqqqqqqqqqqqqqqqqqq777777qqq777777777777777777777777",
"fkttvt:kMxkxkytfyfvf7fMfkfyfkkffkkfffffffqfxykvfkfffkkkffkyfkfxkffyfkxxkkfyyffffkkxxkkfyxxkffyyyfxytkkyvxxkkkkfykkkkxxfyxMMkyfxkfffkkkkffffffffffkkkkkffyffkkkkkffffffffffffffffykxffkftyfkffkfyyyfxkyfxyxkyykxfxkfyyfkxxkffkxxkfkkffkkkxkffkxkkxffkkkkvvkyyfxxkffffxxkffffffkkkffffkkkktyykxxkyfxxytykfffyfffffkyykkyykkffffkkfyffyfkkykykkyfxxyyfyyfkvfyfxxyykffffffffffffffffytkfykykffyyfffftfkyykftyyyyyyyyyfffffffyyffyyyyyyyyyyyyyyyyyyyyytyffytyyyyyyyyyyyyyyyyytyyyyyytttyyyyyyyytttttttttttttttttttttttttttttqqqttttqtqqqtttttqtttttttqqqqqqqqqqqq7777qqq7qqqqqqqqqqqqqqttttqqqqqq77qqqq777qqqqqqqqqqqqqqqqqqqqqqtqq77777qqq777777777777777777777777",
"fffkkffyffffffffyfkkyyfkfffkkfkkvykffftxfkxkyyfxkffkkffkyyxvfykfxkkkffyyyyffkkkxxvxkfkkyvvxkfytqxfyffyfxvffkkttyykxvxkkxfkxkyyfxfkffkytfkffffkffkkfyykkyfykvxfyfkytfkfyfkkkxxffxkkkfffxvkkkffkkktyyttfytkkttxvkfkxkytfxxkfffffkxkffxvxytyfkkxkffyxvkkxxkfktyMxtfkkxkkfffkffkkffkyykxxffkfttfxfyyMytkvfkMyttkvfqyfv7vffkxyyyffyyftykkfyfktfffkxkyyfkkfyyyfkfttkkyyyffffffffyyyyffffffffffffffyyyyffffyyffyyyyyyyyyyyyfffffyyyyyyyyyyyyyyyyyffffyyyyyyyyyyyyyyyyyyyyyttyyyyyyyyytttttttttttttttttttttttttttttttttttttyytttttqqqqqtttttttqqqtttqqqqqqqqqqqtqqqqqqqqqqq77qqqqqqqqqqqqqqqqq77qqqqqqq777777777qqqq77qqqqqqq7777777qq73qq7777qqtq73qttt33337773333333",
"fffkkffyffffffffyfkkyyfkffffkkkkvyfffftxkkkffykxkffkkffkyyxxfykfffkkkkkkffkkxxxvxvxkfkkyvxkffyyyxfyffyfxkxkffyytkffkvMxyfkxkfyfxfkffkytfkkffkfffkkfyfffykffxxkyyfyyfkfyfkkxxkffkfffkkkkkkkkffkkktyytyfftfkyyxxfkkxkyyfxxkfffffkxkkkxxfyfffkkkkffykxkfxxkfftyMxtfkkxkkfffkffkkffkfykxxffkfytfkfyyvfykxfkvyytkvfqykvqvffkkykxkkkfttfkkfyfkyfffkxkyffffffyyfffyyffyyyffffffffyyfyffffffffffffffyyyyffffyyffyyyyyyyyyyfyffffyyyyyyyyyyyyyyyyyyyfffyyyyyyyyyyyyyyyyyyyyyttyyyyyyyyytttttttttttttttttttttttttttttttttttttyytttttqqqqttttttttqqttttqqqqqqqqqqqtqqqqqqqqqqq77qqqqqqqqqqqqqqqqq77qqqqqqq777777777qqq777qqqqqqq7777777qq73q77777qq777777qq33337773333733",
"yffkkffyffffffffyfkffffkfkkkkkkkvykffftxxkfffkkkkffkkffkyykxffkfffffkkxxkkkkxxxxkxxkfkkfxkfyyfkkxfykfyfxfxxyykftkfykvMkykkxkfffkykfkkytfxkkffffyykkkffytxfykxxfyfyykkfyykkxxkffkkffkxxkfkkkfffkkyfyyfkfyfkffkkfkkkkyyfkxkfffffkxkkkkfyfkffkkkkkffkxffxxkfkyfvkykkkxkkfffkffkkffkffkxkffkkyyfkkfyxffkkkkxyyyfvftfkxtxffffyvvfyxxttfkkfyfkfffffkkyfffkkffyfyykkfyyyfffffffffffffffffffffffffyyyyyyffffyyffyyyfyyyyffffyfyyyyyyyyyyyyyyyyyyyyyyffyyyyyyyyyyyyyyyyyyyytttttyyyyyyytttttttttttttttttttttttttttttttttttttyytttttqqqqttqtqqqqqqtttttqqqqqqqqqqtqqqqqqqqqqq77qqqqqqq77qq7777q777qqqqqq7777777777qq7777qqqqqq7777777777737q77777q37qq777q73337773333337",
"fffkkffyffffffffffkffffkkkkkkkkkxykffftkxfyykxkfkffkkffkfykxffkffffkkkkkfffffffkkkkkkkkkxkyyyfxvxffkkyfxkxxfyffyyfxxxkkkkkkkkfkkfkkkxytfxkkkkffyykxxffytkffkkkfffffkkffykkxxkffkffffkkkkkkffffkkffyyfffffxfykfykfkkfffkkkfffffkxkfkkkffkffkkkkkkfkkyfkxffffkkkfkkkxkkfffkffkkffkffkxkfffkfffkkffkkkkkkkfyfyfxftkkkfkfffffkfttfkktfkkfyfkkkkffkfyfkkkffffytyxxfyfyyfffffffffffffffffffffffffyyyyyffyyyyffyyffyfyfffffyyyyyyyyyyyyyyyyyyyyyyyyffyyyyyyyyytttttttttyytttttttyyyytttttttttttttttttttttttttttttttttttttttttttttqqqqttqqqqqqqqqtttqqqqqqqqqqqtqqqqqqqqqqq77qqqqqqq77qq77777777qqqqqq7777777777qq7777qqqqqq777777777777q777777737qq777777777773773777",
"ffkkkkfyffffffffkkffkkkkkkkkkkkkxykkfftkvfyykxkfkffkkffkfyfxfkkykxkkkfffkfffffffffkkkkkkkfyyykxMxffkkyfxkffkkyyfyfxxkkkkkkkkkkkffkkkxftfxkkkkkffykxxffytfkkkffkkyfkffffffkxxfffkffkfffkxkkffffkkfyyyffffkxyykkyfffkkfffkkfffffkvkffkxkffkkkkkkxxkxkyykkfffkkfkkkkkxxkfffkffkkffkffkxkfffkkfffkkkfkkkffffykffxfykfykfffffkytffyyktfkkfyfkkkffkffyykvxfyykytyxxfyffffyffffffffffffffffffffffyyyyyyfyyyffffyyffffffffyfffyyyyffyyyyyyyyyyyyyyyyyyyyyyyyyyttttttttttytttttttttttytttttttttttttttttttttttttttttttttttttttttttttqqqqqtqqqqqqqqqqtttqqqqqqqqqqtqqqqqqqqqqq77qqqqqqq77qqq7777777qqqqqq7777777777q7777qqqqqqqqq777777777q7777777qqq777q7777773337777777",
"ffkkkffyffffffffxkfkkkkfkkkkkkkkxykkkfqfxkfffkkkkffkkffkkyfkkkkyxxxkkfffxxxxkkkkfffkkkkxkffyfkxvvkfkkyfxxyyxxyykkfykvvkykkfkxxkffkkkxftkxxkkkkkffkxkffytfxxfyykxfkkfyfkffxxkffffffkfyykxkffffffkkyyffffkkxytkkyyfffkkffkkfffffkvkyykxxfykkffkkxxkxfttkkfffxxyfxfkkxxkfffkffkkffkffkxkfffkkkffkkkkffkfyykykffkffxftxtkkffkyyvvtqftfkkfyfkxfffkfyyykxxftykfyykkfyyfffyffffffffffffffffffffffyyyyyyyyyyfyffyfffffffffyyffffyyyfyyyyyyyyyyyyyyyfyyyytyyyyytttttttttttttttttttttttttttttttttttttttttttttttttttttttttttttttttqttqqqqqtttqqqqqqqqtttqqqqqqqqqqtqqqqqqqqqqq77qqqqqqq77qqqq777777qqqqqq7777777777q77777qq77q7qq777qq777qqqq7777q7tq33qq777qq73337777777",
"fkkkkkffffffffffxkfkxxkfkkkkkkkkktkxkftfkkkfffkxkffkkffkktfkkxktkkkkkkkkxxxxkkfffyykkfkxkkkffkkkvkfkkyfxkffkkffkkyykvvkyxkfkxxkyfkkkxftkxxkkxxkkkkfyfffykxxytfkxfkkfyfkkfxxkffffffffffkkkfffffkkkfyfkffxkxfyfftffffxxffkkfffffkvkffkkkffkfffkkxvkxfttkkfffvxtfvkkkxxkfffkffkkffkffkxkfffkxkyykxkxffkfttxykkfkffxftMtkkffkffxxytftfkkfyfkxffkkfyfyfkkffyyfffyyffyffyyffffkffffffkffffffffffffyfyyffyyyyyfyffffffffyyyffffyyffyyyyyyyyyyyyyyffyyyytttyytttttttttttttttttttttttttttttttttttttttttttttttttttttttttttttttttqqttqqqqqtttttqtqqqqtttqqqqqqqqqqtqqqqqqqqqqq7qqqqqqqqqqqqqqqq7777qqqqqqq777777777777777777777qqqq7qq777qtq77777qq7777q7737qq73337777777",
"fkkkkkffffffffffxkffxxkfkkkkkkkkktkxkktffkxkyyfvkffkkffkkyykkxktfffkkxxxxkkkffyyfyykxkkvkkkkkkffvkfkkyfxykxffxxftfxxkffkxkfkxxkyfxkkxftkxxkkkxkkkkfyykfyxxftykxkfxkytfkkyxxkfffffyyfkxkfkfffffkkxfyfkkkxfxkffttkfyfxxffkkfffffkvkfffffkxkkfffkxvxxfqtfkfffvxtfMkfkxxkfffkffkkffkffkxkfyfkxkyykxxvfykfqtxyxkffffxftZqkkyykkyttfkxtykkfyfkxffkkfyffyyfkkyqfkfttkkyffyyffffkffffffkffffffffffffffyyffffyyfffffffffffyyyffffyyffyyyyyyyyyyyyyyffyyyytttyytttttttttttttttttttttttttttttttttttttttttttttttttttttttttttttttttqqttqqqqttttttttqqqqtttqqqqqqqqqqtqqqqqqqqqqq7qqqqqqqqqqqqqqqqqq7qqqqqqqq777777777q77777777777qqqqqqq777qt7q7777qq37qq73337qq73337777777",
"vyyffkxyxkfyyfkkxfykxkkxfffkkkxxffkkkkkfxfvq7vkffyfkfkxfkkqxMfxytfxxkfkvkffkkxkkfkxfkxxyyfkkkkfffkkkfykxyyyfkkxxytfxfyfyfffkkxxxfffyffkxxkkfyykkxxxkffyyyyffffffvxfyfkkfkfkkfxxyfkxfyfkkykxkyffkMMt:txkfxkffkxftkyfvvyykfkfyyxxyfffkfffffffkkkkkykxxffkxxyxxtyxfyyfkxxkkkkkkkkkkkkkkkkkfffyyyyyyykkytfkxftkxtyxfyykqkyxfvfkk7txxffyffyyfyktkqxfkkkkkkfffkffffffyfxkttkkyfkfttffyffffffffffkfyttyyyyfffffyyyfyyytfqtfttyyyyyyyffkytttyfytyyfyttttyyyyyyyyyyyttyyytyfytyytttttttttttttttttttttttttttttttttttttttttttttttttttqqqtttttttttttttttqqqq77777777qttqq7qqqqqqqqqqqqqqqqqq777777qq7777qqqq7qqq777777777q7777777733qqq77377qttq777q77777777qqq73337333777",
"xyyfykxfxkfyyfkkxyykxkkxffffkkkxffkxkkkfxfvt7vkffyfkfkxfykfvxqkxtfxxkfkxkfffxxkkkxkyyxxkffkkkkfffkkkfykxyyffkkkxkykxfykkffkkkxxxkkfffkxxxkffyffkxxxkffyyffffffffkkkfkxkyffkkfxxyykxfyfkkykkfyfkkxxt7fxfffytykxftxyyxxyykkffyfxkffffkffffffkkkkkkfkkkffkxxykxtyxffffkkkkkkkkkkkkkkkkkkkkfffyyyyyyykkftfkxftkxyyxfyfkyffkyvfffttkxfyyffyyffxyktxfkkkkkfffffffffffyffyffyyffffyyffyyyfffffffffyttyyyyyfffffyfyfyyytfqtfttyyfyyyyfffyyttyyyyyyfyttttyyyyyyyyyyyttyyytyfytyytttttttttttttttttttttttttttttttttttttttttttttttttttqqttttttttttttttttqqqqqqq7qqqqqttqq7qqqqqqqqqqqqqqqqqq7777q7qq7777qqqq7qqq777777777qqq77777773qqqq777qqq7777q777777777qqq73337333777",
"xyyfykxfkkffffkkxyykxkkkfffkkkkkffkxxxkfxfxt7xxffykkfkxffkfxkqkvyfxxkkkxkfffkxkkxxfttkvxfkkkkkkffkkkfykxyfffkkkkvfkkyyxvffkkkxxxkkkkkxxvkkkfyffkxxkkfffyfyfffffffkkkxxktkfkkfkxyyfkffkxxfkfyykxxfytyvxyfyttykkfyxyyxxyfxkyyfxkkfffkkkffffffkkkkkkffffkxxkfkkyfxkkkkfffkkkkkkkkkkkkkkkkffffyfyyfffkkfyfkkfyfkyfkfykfkykyyxxyyfyfvfyyfffyfkxfkyxffkfffffkkffffffffyqtkkttfyyyffyyfffyyyffkfyyyyyyyyyyyyfffyfffyyyyfttfttyyyfyyyyffyttyyyyyyyyyttttyyyyyyyyyyyttyyytyyytyytttttttttttttttttttttttttttttttttttttttttttttttttqqqqqtttttttttttqqqqqqttqqqqqqqqqttqq77qqqqqqqqqqqqqqqqqqqqqqqqq7q77qq7q7qqq777777777qqq77777777qqqqqqqt7733qq7777777777qqq77337333377",
"kyffyfkfkkffffkkxyykxkfkfffkkkkkffkxxxkfkkxyqfxkkykkfkxfvftfkkkkfkxxxkkkkfffkxkkxxftykxkkkkkkkkkfkkkfykxfffffkkkxfkkyyxxkkkkkkkkkkkkkkkxkkkfyykkkkkkfffffffffkfkkkffkxkyfykkfkxfyfkffkxxkkytykxxfytkMktffttfkkffxfykkyfxkyykvkfkffkkkkfffffkkkkkkffffkxxkfffffxxxxkfffffkkkkkkkkkkkkkkkffffffffffkkfffkkffffffkfykyxtxttxxytkftvfyyfkfffxvxkfkkfffffffkfyfkfyyfkyttfkyyfytykkyyffyyyyffkfyttyfffyyyyyyyfyffyyyyyftyfttfyyyyyyyffyyyyyyyyyyyytttyyyyyyyyyyyyttyyyqyyttyytttttttttttttttttttttttttttttttttttttttttttttttttqqqqqtttttttttttqqqqqtttttttqqqqqqtq77qqqqqqqqqqqqqqqqqqqqqqqqqqqq77qq777qqq777777777qqqq7777777qqqq777qq7777q7777777777qqq77337777777",
"kyfftykffkkkkkffxyykxkfkfffffkkkffkkxxkkkkkfqyvkkykkffxfvytfkkfxkkkxxxkfkfffxxkkfkkffxkykkkkkkkkfkkkfffxkkkffkkkftfxfyfykkkkkkkkffffffffkkffyyfkkkkfffffffffkkkkxkytykxkkykxffxfykkffkxxkkftykxxfytkvyqfxffkkfffkfykkyfkkyyxxffkffkkkkfffffkkkkkkfyyfkkxkkfyfkkxvxkfyyffkkkkkkkkkkkkkkfffffffffkkffkkffffkfffffkyxyxtxttkktyxftvfyyfkfffxvxfkkkfffffffffyfffyyffyfftyfkfytykkyyffyyyyffffytyfffffyyyyyyyyfffyyytfqtfttfyyyyyyyyyyyyyyyyyyytttyyyyyyyyyyyyyyttyyyqyytttytttttttttttttttttttttttttttttttttttttttttttttttttqqttqqqqttttttttqqqqqtttttttqqqqqqtq7777qqqqqqqqqqqqqqqqqqqqqqqqqqqqq7777q77q777777777qqqq7777qqqqq733377qqq737777777777qqq77337777777",
"fyfftykkffkxxkffkyykxkfkfffffkkkffkkxxkkfxkfqqvkkykkfkxfkyxkffyMxxkxxxfykfffxxkkykkffxkykkkkfkkkfkkkfykxkkkkfkffytfxfyftxxkkkkkfyffffffykkfyyyfkffffkkkkffffkkkkvxyqtkxxkykxffkkykkffkxxkkkyykxxkfyfxtqfxffxxfyfkffkkfyfkfkxkffkffkkkkkkfffkkkkfffffffkkkxftkkfxxxkfyyffkkkkkkkkkkkkkkffyfffkkkkkfykxkfykxfykkykykfkykytfyykvfyxfyyfffyfxxvykfkffffyyyffyfffyyyfykkttkkyyyyffyyfyyyyyfyyyyyyfffffyyyttyyyfffyyytftyfyyfyyyyyyyyyyyfyyyyyyytttyyyyyyyyyyyyyyttyyyqyytttttttttttttttttttttttttttttttttttttttttttttttttttttqqttqqqqttttttttqqqqqqttttqqqqqqqqqq7777qqqqqqqqqqqqqqqqqqqqqqqqqqqq77777qq7q77777777qqqqq777qqqqqq73:37qqtq733777777777qqq77337777777",
"fykfttkkffkxxkfykytfxkfkyyfffkkkffkkkkkkfxkkq7vxkykkfkxkftvxfftvvxkxvxfykfffxxkffkkyykkfxkkffkkxfkkkfyfxxxkkffffkyfxfykfxxxkkfffyfkkkffykkfyyyfkfffkkkkkffffkkkkxkytykxkkykxffkkykxfyfkkfkxkfkkkffyyfytkkyykxfykffkxkfytfxvkyykkkkkkkkkffffkfkffffkkfffkkvytkkyxxkkfffffkkkkkkkkkkkkkkffyffkkkkkkyykxkyykvftxkykffkyfyfyyqfMxyfxfyfffyyfkkxtkykyfffyyyyyffyyffyyyffyyyyyfffyyffyyyfffyyttyffffffffytttyyyfffyyytftyfyyffyyyyfyttyfffytyyfytttyyyyyyyyyyyyyyttyyyqtytqtttttttttttttttttttttttttttttttttttttttttttttttttttqqttttqqttttttttttqqqqqqqqq7qq77qqqq7777qqqqqqqqqqqqqqqqqqqqqqqq77qq77qq7q77q77777777q77q7777qqqqqq333377qq7777777777777qqq73337777777",
"fykkttkkffkxxkfykytfxkfkyyfffkkkffkkkkkffvfxq7vxfykkfkxkxqkkxvtfvxkxvxftkfffkxkkkxfqtkxkxxkffkkxfkkkfyfxxxkkkfffvfkkyyxxxxxkkffffkkxxkffkkfyyyfkffffkkkkfffkkkkkkffyfxkfkykvfykkfkxfffkkyxvkffkktfyyfyyktqqfkffxyfkxxftqfvMktykkkkkkkkkfyffffffffkxkfyffxvyqkkyxkkkfffffkkkkkkkkkkkkkkffyffkkkkkxyykvkyykvftxkykffxqktkyy3fZxykkfffkfyyfkfxqktkyfffyyyyykfyyffytfttkftqyfkfttffyyyfffytqtykkffffffytttyyyfffyyytftyfyyffyyyyyyttyfffytyyfytttyyyyyyyyyyyyyyttyyyqtytqttqttttttttttttttttttttttttttttttttttttttttttttttttqqtttttqtttttttttttqqqqq77777777qqqq7777qqqqqqqqqqqqqqqqqqqqqqqq77777qqq7q77777777777777q77777qtqqq7337q73337q7377777777qqq73337777777",
"yfxf77fxfffkkkkkyfffkkxxfyyfkkfyfkxxkfkxkkkkkkkkfyykkfkxfffkkkffkfyfkkkfxkkkxxxkkkfyfxxfkkffkfffffffffffxkkkffffffkkffkkxkfkvvxfkfkkkyfkkkkkkkkkkfkvf7txxkffkxxxkkkkkffffkytfkffffytykkfyfkkkfffttffyxvfqfxkyyfxfkkkkfyyfxxffkkkkkkkkkkkffffffffyyfkxkkxkvkttkxfxxkxkffkffffffkkkkkkkkkkyffffffffttkxffkfffffkkkykkfykkyfffyfkfyxyyxxyykkkffyyyfkykyxykfkfkktyfttyyfffffykytffyfyyfffyyykkyqqtyykkftyffyfyyyyffyyyyyyyyyyyyyffffyyyyyyttyyyyyyyyyyytttttttttttttttttttttttyttttttttttttttqqqqqqttttttttttttqqqtttttqqqqqqqttttqqqqttttqqqqqqqqqq7qqqqq77qttq777qqqqqqqq777qq777777qqqq77qq7777qqqqqqqqqq777777qqq777qqttq773:337777777777777777777777333773777",
"yfxf7qkxfffffkkkffffkkkkfyyfkkfffkxxffkxxkkkkkkxfyfkkkkxffkkkkffkfyfkkkfxkkkxxkkkkfyfxxfkkkfffffffffffffkkkkkkfffkkkffffxkfkxvkfkfkkkyfkkkkkkkkkffkkfffkkfffkxkkfffffffffkftfkfffffyykkfyfkkkfffttfkykvktykkfyfxkffyffkkfkxffkkkkkkkkkkkfffffffffffxxffkfkfyyxxkxxkxkffkffffffkkkkkkkkkkfffffffffyyfkffffffffkkkykkfykkyfffffkfyxyyxxyykffffffffkfkyxykfffkftyftyyyyffffffytffyfyffffyyykfytttyykkftyffyyyyyyfyyyyyyyyyyyyyyyfffyyyyyyttyyyyyyyyyyyttttttttttttttttttttttttttttttttttttttqqqqqqttttttttttttqqqttttqqqtqqqqttttqqqqttttqqqqqqqqqq7qqqqq77qttq777qqqqtqqq7q7q7777777qqqq77qqq777qqqqqqqqqq777777qq77777qqqq77333777777777777q77q7777777333773777",
"yyxkqqkxfffffkkkkkkkkfffkfyyfkkffkxkffkxxxkffkxxkffkkkfkffffkkkfkfyfkkkfxkkkxxkfkkfyfxxkkkkkffffffffffffkkkkkkkfkxxkkfffkkkkxxkfkkkkkyfkkkkkkkkkyffyfxxfkffkkxkfyyyyfffffkftfkfkffyyfkkffffkkkffyykkykvkytfxxffkkffyffkkfkkfffkkffkkkkkkffffffffkfkxkfyyyyffkxxxxkkkkffkffffffkkkkkkkkkkffffffffffkyyfffffffffkkffffyffffffffkfyxyyxxytfyyffffffkfkykykftykfqtfyffyyyyyyfkytfftfyyfffffyfttffttffffyyffyyyyyyyyyyyyyyyyyyyyyyyfyyyyyyyttyyyyyyyyyyyttttttttttttttttttttttttttttttttttttttttqqqqttttttttttttqqqttqqqqttttqqtttqqqqqqqttqqqqqqqqqqqqqqqq77qttq777qqqqtqqqqqqq7q77q7777qqq7qqq777qqqqqqqqqqq7qqqqqq7777q7q7777777777777777777qq7q7777777333777777",
"fykkttkkffffffkkxxxkkffykfyyfkkffkkkkkkkvxfyyfxvkffkkffkkkkkkkkkkfffkkkfxkfkxxkfkkffkxkkkkkkkfffffffffffkkkkkkkkxxxxkfyykkkkkxkkkkkkkyfkkkkkkkkkffyykxkfffffkkfytyyyfffffxftfkfkfffyffkkkffkkkfyyykkyfxxytyxvkfkfkkkkfyyfkkffkkkffffkkkkffffffffxkkxkyttfffkkkkvvkfkkffkffffffffkkkkkkfkfkfkfffyykxytfkffffffffffffffffffffffkftxffxxytyyyffkkkfkfktkykfqtfy7qffkffyyyyyfkytfftyyyyfffffyqtkkytfffyyyfytyyyyyyyyyyyyyyyyyyyyyyyyyyyyyyttyyyyyyyyyyytttttttttttttttttttttttttttttttttttttttttqqttttttttttttqqqqttqqqqttttqqtttqqqqqqqtqqqqqqqqqqqqqqqqqq7qttq777qqqqtqqqqqqq7qqqq7777qq77qqq777qqqqqqqqqqqqqqqqqq777qq7777777q7777777777777qq777777777333777777",
"fykxyykffffffkkkxxxkkfffxfyyfkkkkkfkkkkkxxfyyfxvkkkkffffkkkkkkkkkfffkxkfxkfkxxkfxfyffkkkkkkkkkffffffffffkkkkkkkkkxxxkffykkkkkkkkkfkkkffkkkkkkkkkxffxxyyfffyfkkfttyyyfffffkftfkfkffffffkkkkffkkkffyfkffxkftyxvkfffkkkkfyyfkkfyfkkfffffkkkffffffffkkkxkyttxkkkfyfxvkfffffkffffffkfkkkkkkkkkkffkfffykxytfkffffffffffffffffkfkkffkftxkfkkyyyyyffkkkfkfktktkfqqfyqtffffyyyyyykkytfftyyyyfffyftqtkkyyffyyffytttyffyyyyyyyyyyyyyyyyyyyyyyyyyyttyyyyyyyyyyyttttttttttttttttttttttttttttttttttttttttqqtttttttttttqqqqqqqqqqtqqqttqqttttqqqqqqqqqqqqqqqqqqqqqqqqqqqqtq777qqqqtqqqqqqqqqqqqqqq77777qq7777qqqqqq7777qqqqqqqq77qqq77377qqq7777777777777qqqq7777777777333777",
"fykxffkyffffffkkkkkkkkkfxkyyfkkkkfffkxkfxkffyfkxkxxffffykkkkkkkkkfffkxkfkkfkkxkfxfyfkkfkkkkkkkkkffffffffffkkkkkkfkxxxkffkkxkffkxkfkkkffkffkkkkffvyyvxtqffyyfkkfyyyyffffffxfykkfkfffffyfxfffkkkkkftfkffkfyffkxkffkffyyfkkfkkfffkkffffffkfffffffffkfkxxfttxvxkyyfkvkyfffkkffffffkkkkkkfkkffkfkffffffkfyfffkfffffffkfyffyfkfkkffkftvkfffyyfyfffffffkfktktfyqqfftyffffyyyyyykkttkftyyyfffffyttyfffffyyyffytttyffyttyyyyyyyyyyyyyyyyyyyyyyyttttttttttyyytttttttttttttttttttttttttttqqtttttttttttqttttttttqqqqqqqqqqqqttttqqttqqtttqqqqqqqqqqqqqqqqqqqqqqqqqqqqqtq777qqqqtqqqqqqqqqq77qqqq777qqq7777qqqqqq777777qqqqqq77qqq777777777777777777777qqqq7777777777333777",
"fykvkkkyyyffffkkkkkkkkkkvkyyykkkkfyfkxkfkkkfffkkkxxffffykkkkkkkkkfffkxkfkkffkxkfxftfkffkkkkkkkkkfffffffffffkkkxxyfkxxxxxfkxkffkxkfkkkffkffffkkkfxyykxkyyfyyykkffffkffffffxfykxfkfyfffyfxffkkkkkxfqykkfftykxffxkykffyffkkfkkfyfkffffffffffffffffffyfxxfyyfvvkfkxkMkyyffkxffffffkkkkkkkkfffffkkkfffyyfkfffkkffffffkfyffyfkfkkfkkytvkfffyffkfffffffkyktktfyttfkyfkytyyyyyyykkttffttyfffffyytfftykkyyttffyqqtyffytttyyyyyyyyttyyyyyyyyyyyyttttttttttyyyttttttttttttttttttttttttttqqqttttttttttttttttqqttqqqqtqqqqqqqttttqqqqqqtttqqq7qqqqqq7qqqqqqqqqqqqqqqqqqtq777qqqqtqqq7qq7q7777qqq777qqqq777qqq777777777777q7qqqqqq7qqqqq77777777777777777qq77777777377333777",
"fykvkkktyyyffffffffkkxxxvkytykkxkfyfkxkfffkkkfkfxxxfffftkkkkkkkkkfyfkxkfxkffkxkfxytfkffkkkkkkkkkffffffffffffkkxxtykxxxxxfkxkfykxkfkkkffkffffkkkffytyxMxtfyyyfkkfkkkkkffffxfykxkkfyfffyfxyfkkkfxvfqtkkkyqyxvfyxkyfkkkkfyyfkkfyfkfffffffffffffffffyyfxxfyytxvkfxvkMkyyfkkxffffffkkkkfkkffffffkkkkkfttkxffkkkkfffffkyyffyykfkkkkkyqvkfyyffkkkffyyyfkyktktfyttkkfkxtttyyffyykkttffttfffffyyytkfqtxxyyttfkyqqtyffyqttyyyyyyyytttyyyyyyyyyyyttttttttttyyytttttttttttttttttttttttttqtqqttttttttttttttttqqtttqqqqqqqqqqqttttqqqqqqttttqq7qqqqqq7qqqqqqqqqqqttqqqqqtq777qqqqtqqq7qq777777qqq777qqqq777qqq77777777777777qqqq777qttqq773377777777777777qq7777777377337777",
"ftyffkkqfxkfxkfkkkkkkkkkkkkkkkkkyyyyyfxxkkkkkfffxkyfkxfytxxfxvxkfyfkxxkfffkkkkffyfxvxfffffkxkkfyyxkytkvxkkfyfkxkkffxvkkxffxkyfxkyftyxkyyfffkkffkfkkffkkfyyyfffxMyykvkttffxxfyffffkxfyykkxkttfvvxqytfMf7yytykkffxkkkytyyyffffkfytykkyyfkkkkffffkkfyvkyxkkyxktqfxfyyyfkxkyfxyxykyfffffffffkkffffffffffffffkkffffffyyffyyfkffkffffyyffyfkxkfytykkkftkxytkkyffffffffffffffyyfyyyfkkfffffffyykytyyytyyyyyyyyyyyyyyyyyyyyyyyyyyyyyyyyyyyyyyyyyttttttttttttttttttyyttttqtttyyyytqqqtyyytttttqqqqtytq7qttqttttytttttttttqqqqttqqqqqqqqqqqqqqqqqqyq7qtq7q37737777qqq7qttqqqqqqqtt7737qttqqq777qqq77377qq7qqqqqqqq777777773qq7777777777777777777777733777777337777777773",
"yqtffkktfxkfxkfkkkkkkkkkkkkkkkkkfyyyfkxxkkkkkfffxkffkkfyykkkxxkkfyfkxxkfffkkkkffyfxxkfffffkkkkffkkkfkkfykkfyfkxkkffxvkkxffxkyfxkffttvvfyfffkkffkfkkffkkfktqfvvkyyfkxkyyffxxfyffffkkfyykkffttykfttytfMf7yyyfkkffxkkkytyfyffffffyyykkyyfkkkkffffkkfyvkyxfyykkyykxxyyyfkxkffkyxykyfffffffffkkffffffffffffffffffffffyffffyfkfffkkffyfkfyykkkfyyykkkfykkytffyffffyyfyfffffyyyfyyyfffffffffyyykytyyytyyyyyyyyyyyyyyyyyyyyyyyyyyyyyyyyyyyyyyyyyttttttttttttttttttyyttttqttttyyyttttttytttttttttqtttqqqttqqtttyqttttttttqqqqtttqqqqqqqqtqqqqqqqqyq7qtq7q77777777qqq7qttqqqqqqqtt7737qqqqqqq777qq77777qq7qqqqqqqq777777773qq777q777777777777777777773777777737777777773",
"yqtffkxyfkkfxkfxkkkkkkkkkkkkkkkkffffkkxxkkkkkkffkkxkfffkfffxxkkkfyfkxxkfffkkkkffyfxxkfffffkkkkkfxkkxxkyqkkfyfkkkkyfxxkkxffxkyfxkxktyvMfykffkkffkfkkffkkfkytkvvfqykkkfffyfkkfyffffkkfyfffkfytyffttyyfxfqyyyfkkffxfkkyyyfyyyfffyfffkkfffkkkkffffkkkyxkfxftyfkkkxxvfyyfkkkffkyxykyfffffffffkfffffffffffffffffffffffffffffkkfyfkxyyfkkfyyfkfkfyykkfyfffyyyfkfffyyyyyffffffyyffyyffffyyyyyyytfytyyyyyyyyyyyyyyyyyyyyyyyyyyyyyyyyyyyyyyyyyyyyyttttttttttttttttttyyytttqqttttttttyytqttttttttttqqqqqtttyqqyqtyqqqtqttqqqqttttqqqqqqqtttqqqqqqqqtq7qtqqqqqqq7777qtq7qttqqqqqqqqq7777qqqqqq7777qq77777qq7qqqqqqqqqq7777qq7qq7777777777777777777777773777777737777777773",
"tqyfykxffkffxkfxkkkkkkkkkkkkkkkkkkkkkkxxkkkkkkfffkxxfyfkftfvxfkkfyfkxxkffffkkkkffkxxkffffkkkkkkkxffxxftykkfyykkkkffxxkfkffxkyfxkxxyfvvkkkffkkffkfkkffkkfffkxkyyyykkffkftkffyfffffkkffffyvxyqtfxxyyykkftyyyffkfkkfkkfyffftyfffyfkfkkfffffkkffffkkxtkffvyqkfkxkfkxfyyfkkkkfkyxyxykffffffffkfffffffffffffffffffffffffffffkxfyyxxyyfxxkytfffkffffffykfyfytykffffyyyyffffffyyffyyfffyyyytttttfyyyyyyyyyyyyyyyyyyyyyyyyyyyyyyyyyyyyyyyyyyyyyyyttttttttttttttttttyyytttqqtttttttyyytqqqttttttyyq77qqttttqttqtyqqtttttqqqqttttqqqqqqttttqqqqqqqqqqqqtqqqttqqqqqqqqq7qttqqqqqqqqqq77qqqqqqq7777qq7777qqq7qqqqqqqqqq77777q3qq7777777777777777777777777777777777777777773",
"ytyfyfkkfkkfxkfxkkkkkkkkkkkkkkkkkkkkkkkkkkkkkkfffkxkyyfkkqfvkfkkyyfkxxkfkkfffffkfkkkffffkkkkkkkkkyykfyfvkkfyfkkkxffkxffkffxkyfxfkxkfxxkxkfkkkffkfkkffkkfkfffytykykkyfkktkfyyfffffffyfkftkftqtkxxfyfkffytyyfffkkffkkfyfffyyffyyfkffffkfffkkfffkkkxtkyyvfqvxkkfyfxkyyfkkkkfkyxykfkffffffffkfffffffffffffffkkfffffffffffkkkfyykkyyfxxkytyfyfffffffykfyfytykfffyffyyyyyyyyffffffyyyyyyytttyyyyfyyyyyyyyyyyyyyyyyyyyyyyyyyyyyyyyyyyyyyyyyyyyyttttttttttttttttttyyytttqttttttttyyytqqqttttttyy777qqtttt7qtqtyqqqttttqqqtttqqqqqqqqtqttqqqq77qqqqqqqttqtttqqqqqqtq7qttqqqqqqqqqqqqqqqqqqqq777qq7737qqq777qqqq77qq7777qq7qq777q777777773777777777777777777777777777773",
"fyffttkffkkfxkfkkkkkkkkkkkkkkkkkkkkkkkffkkkkkkffkkkkfffkfqfvffxfyyfkxxkfkkffffkkfkkkfffkkkkffkkxffffyykMkkfyfkkkxffkxfyfffxkyfxkfxxfkffvkfkkkffkfkkffkkfvyqtfkffyfkfffffxytyffffffyyfkftqtttyffykyfkyfftyffffkkyykkfffffyyffyffkkffkkfffkkfffkkkxtfyyvkyxxkfyyfkkytfxkfkfkyxykfkkfffkkkkffffffffffffffffkkffffffffffkkffkfffyyffkkkyyyfyfffffffyfffyyyfkffyyfyyyyyyyyyffyyffyyyyyyyttyyytffyyffyyyyyyyyyyyyyyyyyyyyyyyyyyyyyyyyyyyyyyyyyttttttttttttttttttyyytttqtttttttttyytttttttttttyqqqqqtttt7qtqtyqqqttttqqttttttqqqqqqttttqqqq77qq7qtqqqtqqqqqqqqqqtq7qttqqqqqq77qqttqq7qqqqq77qqq7737qqqq77q7qq77qq7777qq7qq777q7777777737777777777777777q7777777777773",
"kfkfqqyyfkkfxkfkkkkkkkkkkkkkkkkkfkkkkfyykkkkkkffxkffkkffyqkvtkvtfyfkxxkfkkffffkkfkkkfffkxkkffkkxfffyyfkfkkfyfkxkxffxxfyfffxkyfxkyxkfkffxffkkkffkfkkffkkfktqyxxfyfffkfyfkxyqtffffkfyykxfqqtyyyyt7kyfkyfkqyffyfxkyyfkffkkkfyyyffffkfykxkyffffffkkkxtfyyvxkykkyykxkxytkxkfxfkykyxfkkkffffkkfffyfyffffffffffkkffffffffffkfyykxkttffyffffyffyyfkkkffyykkytffyfyffyyyyfyyyyyfftyffyyyfffyyyyfftfkfyffyyyyyyyyyyyyyyyyyyyyyyyyyyyyyyyyyyyyyyyyyttttttttttttttttttyyytttqtttyyyttttttyttttttttttqtttqqttt7qtqtyqqqqttqqqqtttttttqqqqttttqqqq77qq7ttq7qtqqq7q7qq7qtq7qttqqqqq7777qttqq77qqq7777qq7737qqq777777777qqq77qqq3qq777q77777777377777777q777777qq7777777777773",
"xkxkq7yyfkkfxkfkkkkkkkkkkkkkkkkkffkkkfytkkkkkkffxkyfkxfyyqkxtkMtfyfkxxkfkkffffkkfkkkfffkxxkffkkxfkkfkxf7kkfyfkxkxffxxfyfffxkyfxkfkyykkfkfffkkffkfkkffkkf7qfxxffkfyfxftyxvyqtfkffkfyykxfqkkkfyytqxyfktfkqyffyfxkyyfkffkkkkfyyffffkyykxkyfffffffkkxtfytvvxqfkyyvMxxytfxkkxykykyxfkkkffffkkfffyyyffffffffffkkfffffffyffkfyqkvxqqfkyyffffffyyfkkkffftkxytkkyyffyyyyyyyyyyyfftyffyyyfkfyyyffkqfkfyffyyyyyyyyyyyyyyyyyyyyyyyyyyyyyyyyyyyyyyyyyttttttttttttttttttyyytttqtttyyyytqqqtyyyttttttqqqtytq7qtt7qtqtyqqqtqttqqqtttttttttqtttttqqqq77qq7tyq7qtq77777777qtq7qttqqqq77777tttt777qqq7777qq7737qqq777777777qq777qqq3qq777q7777777737777777qqq7777qqq77777q7777773",
"fkkfyttyffffffkkkkkkkkkkffffffffffffffffkkffffffkkkkkkffkkffkkkkyfkxxxxxxkffffkkkkkkkkkkkkkkkkkkkkxkkfyykkxxxkyykfffyyytkkkkkkffkkkkkkkkyffkkffyfffkkffkyffkkkkkfkkkffttffffkkxxfttfkfttttfkyqykyffyyfkftfxxkyfxkyqtfkfkkkffyyyyyyyfkxxkykxytkxfkkffkkkkkfffffffxkfkkyyfxkyyyykxkkkkfyytffffffffttkkyyffyykkyfxkfttkkttxffyyffffffyffffyfkkkfyyyffyffkfyyyyyyyyyyyyyyyffyx3ktfkyfyyyyfffyyfytttyyytqtffyyyyyyyyyyyyyyyyyyyyyyyytttttttttttttttttyyttttttyytttttttttttttttttttttttttqttyf3qtq7qttttqqqqttttttqqttqqqqqqqqttqtttq7qqtqq77q77qqqqqqq777qttq7777qq7777qqqqqqqqqqqq777q77777777qqqq77337qq77qqqqqqq777777777777777777777777777777777777777777777777",
"fkkfyttyffffffkkkkkkkkkkffffffffffffffffkkkfffffkkkkkkfffffkkkkkyfkxxxxxxkffffkkkkkkkkkkkkkkkkkkxkkkffffkkkkkkkkxxkkkfffkkkkkkffkkkkkkkkffkkkkfffffkkffkyfffkkkkkkkkfyyyffffkkkxfttfkftttyfkytykyffyyfkfyfkkfffkkytykfffkkffyyffffffkkkfykkyykxkkfffkkkkkfyyffffxkfkkfyfkkfytfkkkffyyfkkffffffffttkkyykffykkyykfffffyyfkffyyffffffyffffyffkkfyyyyfffffffyyyyyyyyyyyyyyffyx3ftykyffyyyfffyyfytttyyttqtffyyyyyyyyyyyyyyyyyyyyyyyytttttttttttttttttyyttttttyytttttttttttttttttttttttttqttty7ttq7qttttqqqqtttttqqtttqqqqqqqqttqtttq7qqtqq7777qqqqqqqqq7qqqqq7777qqq777qqqq77qqqqqq77qqqq77777qqqqq77337qq77qqqqq7q7777777q7777777777777777777777777777777777777777",
"ffkfytyyfffffffkkkkkkkkkffffffffffffffffffkfffffkkkkkkfffkkkkkkkyfkxxxkkxkffffkkkfkkkkkkkkkkkkkkxxkffffkxkfffkxvxxkkkfffkkkkkfffkkkkkkkkkkkkkkkkfffkkffkyyffkkkkkffffffffffffkkkfytffytttyffytykfffyyfkfykkfykkyfyykkfyfkfffffffkffffffyffffffkkkfffkkkkffyyffffkffkkffkfkkyykkfffyyffkxffffffffytkxyykfffkkyykfkxkttfkfffyyfffyffyffffyffkkfyyyyfkfyyyfyyyyyyyyyyyyyyffyk7ftyfyffyyyyffyyfyyttyyytqtffyyyyyyyyyyyyyyyyyyyyyyyytttttttttttttttttyyttttttytttttttttttttttttttttttttttttttqytq77qtttqqqqqtttqqqtttqqqqqqqqttttttq7qqtqq77q7qqqqqqqqqqq777q77qqqq77777q77777q777777qqqqqq777qqqqq77337qq77qqqqq777777qqqq7777777777777777777777777777777777777777",
"yfkfyyyfffffffffkkkkkkkkffffkkkkffffkkkkkkkkkfffkkkkkkffffkkkkkkffkxxxkkxkffffkkkkkkkkkkkkkkkkkkxkffyfkkffffkkxvffffffffkkkkkfffkkkkkkkkkkkkxxkkfffkkyfkyyffkkffkfyyyfkxffffffkkfyyffytttyffyyyffffyyffffkkyyxktyyfxkytyffffffffkkffffytfffffffxffffkkkkffyyyfkkfffkkkkkykkyykkyyykkkkfyffffffffyykxyykffykkyykfkkkytykkffyyfffyfyyffffyffkffyyyyffffyffyyyyyyyyyyyyyfffyftyyyyyfyyyyyyyyyyyytttyyyttyfyyyyyyyyyyyyyyyyyyyyyyyytttttttttttttttttyyttttttttttttttttttttttttttttttqqqtttqqtyyq37qtttqqqqqtttqqqqqtqqqqqqqqtqqttq77qqttq777qqqqqqqqqttq777q77qqqq7777qq777777777777qqqqqqq77qqqqq77777qq77q77qq777777qq777777777777777777777777777777777777777773",
"yfffyyfkffffffkfkkkkkfkkffffkkkkfffffkkkkkkfffffkkkkkkkfffkxxkkffkkxxkkfxkkfffkkkfkkkkxxkkkkkkkkkkffffkxyfkxxxxxffffffffkkkkkkffkkkkkkkkxxkkkkxxfffkkffkyyffffkfffyyfkxxffffffffffffyfytyfffyyyfffyyyffkkkftykkyyyfxkyyyfkffffffkffffyytfffffffxkfffkkkkfyytyffkfffffkkkykkffkkyyykkxkfyffffffffyyxxyykkyykkyykkfyykkyyxffyyfffffyyffffyffkffyyffyyyfffyyyyyyyyyffyyyyyyytftyyyyyyyfyyyyffyyttttyfyttyyyyyyyyyyyyyyyyyyytyyyyyytttttttttttttttttyyttttttttttttttttttttttttttttttqqtttqqqtyyq37qtttqqqqtttqqqqqtqqqqqqqqqqqqttq77qqtqq77qqqqqqqqqqttq777q7qqq7q77777777qq77777777qqqqqqqq77qqqqq7777qq77q7777777777qqqq7777777773777777777777777777777777733333",
"tyfffffkffffffkfkkkkffffkkkkkkkkkkkkkkkkkkkkffkkkkkkkkkkyfkxxxkfkkxxxkffxkkfffkkkfkkkkxxffkkkkkkfffffkkkyfxvvxkfkkkkkkxxkkkkkkffkkkkkkkkxkkffkkxfffkkyfkyyyffffffffffkxxfffffffffkkyyyytyfkfyffyfyyfyyfkkfyyyffffyykkfyfkkffffffffffffytffffffkkkfyfkkkkfyttyfkkfkkffkkkyfkkkkfyfffyfkxxffffffffyyxxyykfyykkyfkkfttxxtyxffyyffffffyffffyffkffyyyfyyykkfyyyyyyyyyffyyyyyyyqktyttyyyffyyyyffyttttqyffytyyyyyyyyyyyyyyyyyyytyyyyyytyyyyyyyyyyyyyyyyyyttttttttttttttttttttttttttttttqqqqqtqtqytq77qtttqqqqtttqqqqqqtqqqqqqqqqqqqqq73qqttq77q7qqqqqqqqqqq77qqqqqq7q77777777qqqq777777qqq7qqqq77qqqqq7777qq77q7777777777qqqq7777777773777733337777777777777777333333",
"tyffffkxffffffkkkkkkffffkkkkkkkkkkkkkkkkkkkkkfffkkkkkkkkyfkxxxfykxxxxkffxkkfffkkkkkkkkxxffffkkfkyyfkxkkkxxxxkkkkkkkkkxxxkkkkkfffkkkkkkkkkkffffkkfyfkkyfkyyyfffffyyfkkkkkkfffffyyfkkyyyytykkfyffykyyffyfkxytffyyxkytfkfffkkffyyyyfyyfkkffykkyykxkffyffkkkfyttyfkkfkkffkkfkyfvvfykkkffffkxffffffffyyxxyykkfykkyykkkffkfyfxkfyyffffffyffffyyfkfyyyyfffffffyyyyyyyyyfffyyyyyyqxqytqyyyyyyyttfytttttqyfkytyyyyyyyyyyyyyyyyyyytyyyyyytyyyyyyyyyyyyyyyyyyttttttttttttqqttttttttttttttttttqqqqtt7ttq7qtttqqqqqttqqqqqqqtqqqqqqqqqqqqqq77qqtqq77q77qqqqqqqq77qqqq7qqqqqqq7777qqqqqqqqqqq7qq77777777qqqq77337qq77q77777777777qq77777777773773333777777777777777777733333",
"tyffffkxffffffkkkkkkffffkkkkkkkkkkkkkkkkkkkkkkffkkkkkkkkyfkxvxfykxxxxkfyxkkfffkkfkkkkkxxfffkkffftyfxxxkfMvxkffkkffffffkkkkkkkkffkkkkkkkkkkfyyfkkfffkfyyktyyfffffyyfkxkkkkkfffffyfxkyyfytykkfyffykyyffyfkxttfftyvkytyfkfkkkfffyyyyyyfkkkkykkttkxfffyffkkkfyttyfkkfkkffkkfxyfvvfyxxxxkkfyyffffffffyyxxyykkfykkyykfkxxyyfkkkfyyffffffyffffyyfffyyyyyfkffyffyyyyyyyyffyyyyyyy7vqytqyyyyyyyttfyttttqqykkytyyyyyyyyyyyyyyyyyyytyyyyyytyyyyyyyyyyyyyyyyyyttttttttttttqtttttttttttttttttttqqqtty3qtq7qtttqqqqqttqqqqqqqqqqqqqqqqqqqqtq77qqtqq77q777qqqqqq777qttq7qqqqqqqqq7qqqqqqqq77qqqqq77777777qqqq77337qq77q777777777777qq7777777773777333777777777777777777733333",
"xkffkxkyfffffffftkvxxvktffkkxkffyfkkxkkfkf7kvyxffkkxxkfyfykxkkkykkxxkkfykxfykkyfkxxyykkyxfxffxykffkkkffkxxfyxvkkfffffkkkkkfkxxkfffffffffkkkkkkkffffkkkkfyfkffkfykxxkkxkfyyyfffffxfyffyfkyyyyyyyyxftqyfkfkkyqtkxkyfxxftyfkyqtkxxfkttkkyyfkkffffffkffkkfkxtyyyyfkkkkfyfxxykkkkkfyfkfffkkfffkkkkkfyykkykfttyfkkffffkkftykkfffyyyfffxyxtqftfffffffffffyyyyyfytfxkttftffttfftyyyfffffyyyyyyffqtyfytyfyyytttttftyfttfyyyyyyyyyyyyyyyyyyyyttttttttttttttttttttttttqqtyytqqyyq7ttttttttttttttqq7qtttqqqtqqqqqqqqqqqqqqqqqqqqtttttqqqqqqqqqqqqqqqqqqqqqqqqqqqq7737qttq777yt7:3qqqq7777777tq337qqqqqq7777qqqtq737q777777777777777777777777777777qq7777777777333333333333",
"kfyyfkftfffffffftkvkkvktffkkxkkffkkkkkffyxtfkfvyfkkkkkfffykxkkkykkkxkkfyyxxkftyxkxkfffffxfxffxykkfkkkffkxxfyxvkkfffffkkkkkfkxxkfkkkkkkkkkkkkkkkfffkkkkffyfkffkfyfkfffffyyyyfffffkfyffyfkyfffffffkfytyfkkkfytykkfffkxfyyffyffffffkytkkyyfkkffffffkffkkfkxtyyyyfkkkkfyfxkykkkxkfyffffffkfffkkkfkfyykfykkttffkkffffkkftykkffffyffffkyxtqftffffffffffffffyyyyyfkftyfyyyyyyyyttttttyyyyyyyyyytttyytyfyyyyttttftyfttfyyyyyyyyyyyyyyyyyyyyttttttttttttttttttttttttqttyytqqyyqqttttttttttttttqqqqtttqqqttqqtqqqqqqqqqqqqqqqqtttqtqqqqqqqqqqqqqqqqqqqqqqqqqqqqq77qqtq7733yt733qt777777777tq337qqqqqq777qqqqqq77777777777777777777777777777777777q7777777777333333333333",
"fyttyfyqfffffffftfkkkkftffkkkkffkkxkkfyytxkfyfvffkkkkkfffykxfkkfkkxxkkfyyxxfytyxxkfkkfyfxfxffxfkkfkkkffkxxyyxxkkfffffkkkkkfkxxkfxxxxxxxxkkkkkkfffffkffffykfffffyyfkfyffyyyyfffffkfyffffkfffffkkkfffyffkkfyyfkfyfkffkfyyytfxxftyffyykkfyfkkffffffkffkkfkxyffyyfkfxfyfkfffkfkkkfffyfffffkkfkkffkfyykfykkytffkkffffffyyyfkfffffffyyfykttfyfffffffffyffffyyyyffyyyyyyyyyyyyyttttttyyyyyyyyyyyttyfyyyyyyyttttftyfttyyyyyyyyyyyyyyyyyyyyyttttttttttttttttttttttttttttttqqttqqqtttttttttttttqqqqqttqqqtttttttqqqqqqqqqqqqqqttqqtqqqqqqqqqqqqqqqqqqqqqqqqqqqqqqqqqqq7333tq733qq777777777tq737qqqqqq7qqqq777777777777777777777777777777777777777q7777777777337333333333",
"fytyffytfffffffftfffffftffkkkkffxxxkffyttkxkyyxkkkkkkkkfkfkkfkxfkkkxkkfykxfykfyfvffkkyykxfxffxfkkfkkkffkxkyyxxfxfffffkkkkffkxxkfkkkkkkkxkkkkkkffffffffffffkffffyfxxkkkkfyyyfffffkfyyfffffffffffffffffffkytyxxytyxfyffyyytfxkytyffyyfkfffkkffffffffffkfkkfffyyfffxyyfkfykfffkkfffyfkfffkxykkffffyykfykkyyffkkffffffyyyfffffffffyyyyfyyfffffffffffyffffyytykfttfftfttffttfyyyfyfffffyyyyyyyttyfyttyyyyttttfqtfttyyyyyyyyyyyyyyyyyyyyytttttttttttttttttttttttttttttttttttqqttttttttttttttqqqqqtqqttttttttttqqqqqqqqtqttttqqtqqqqqqqqqqqqqqqqqqqqqqqtqqqqqqqqqq73337qq737qq77777777qqq777qqqqqqqqqtq73337qq7777777777777777777777777777777777777777777337333333333",
"xfyfkkfyffffffffyyffffyyyfkkkkfyvxkkfyyyyykxfyyvkkkkkkkkkfkkyfkfkkkxkkfykkyykfyfvffkkyykxfxffxfkffkkkffkxkyfxkfxfffkfkkkkfffxxkfffffffffkkkkkkkfyffffffffkfyyffffkxkkkkffyffffffkfyyyfffyyyyyfffyfffffffttyxxytyxfyyffyyyffyyyfkfyyfkfffkfffffffyffffkkkfffyyffykyyfkyyffffkkfffyyffffkxyffffffyfkytkkyyffkkfffffyyyfffkfffffyyttffyyykfffffffffyffffyyyykfttfftfttffttfyyyfffffyyyyyyyyyttyfyttyyyyytttfqtfttyyyyyyyyyyyyyyytttyyyttttttttttttttttttttttttttttttttqqtttttttttttttttttqqqqqqttttttttttttttqqtqqqttttqqqqqqqqqqqqqqqqqqqq7qqqqqqqtqqqqqqqqqq77377qqq77qq777777qqqq7qqqq7qq7qqqqqq73337qq7qq7777qq7777777777777777777777777777777777777333333333",
"xkffkxkfffffffffkyykkyykyffkffyyxxkfffffktfkkftvxkkffkkkxffkyfxfkkkxkkfytxxfyttxxkkkkfffxfxffxfkfffkkffkxkyfxfyxfffkfkkkkfffkxkfyyyfffffkkkkkkkfyyffffffkkfyyfkfyffyyffyyyffffffkkfyyfkfyyyyyyyyffyfffffyyfkkyyfxftyfyyfkyqqykkkyyyffkffkkffffffyffffkffffyyfkfyfyykkfyyfffkkfyfyfffffkkyffyyffyfkytkxyyffkkfffffytyfffkffffffyyykyyytkfffffffffyyyyyfffyyyttffyyyyyyyyyttttttyyyyyyyyyyyttyfyyyyyyyyyttyqtyttyyyyyyyyyyyyyyttttyyyttttttttttttttttttttttttttttqtytqqtttttttttttttttttttqqqqtttqttttttqttttttqqqttttqqqqtqqqqqqqqqqqqqqq7777qqqqqqqqqqq7qqqq777q7qq77qq777777qqq77qq777777777qqq77377qqqqq7777qq7777777777777777777737777777777777777333333333",
"kfyykkfyffffffffxfykkyfxyffkkfyyxkffffkkktkyfvykxkffffkkxffkyfxkkkkxkkfytxxfyqtxkxkffffyxfxffxfkfffkkffkxkyfxfyxfffkfkkkkfffkxkffffkkkkkkkkkkkkfyyyyffffkkfyyfkfyffyyffyyyyffffffkfyykkfyyyffffffytyyffyyfkfyfffkytyyyfkky7qykxkyyyyfkkffffffffftffyfkfyffyyfkkytfkkkkftkffkkyyyffffkkkfyffyyffffkytkxyyffkkkffffttyfffkfffyfffffxyytqkyfffffffffyyyyfffyttyfyyfyyyyyyyyttttttyyyyyyyyyytttyytyfyyyyyyttfqtyttyyyyyyyyyyyyytttttyyyttttttttttttttttttttttttyttqqyyt77tttttttttttttqqqtttqq7qtttqttqqqqqqttttttqqqqtttttttqqqqqqq7q7777qq7777qqqqqqqqq7737qqqqqqq7qtq7q777777qqqt77qqq77777777777qqq7777qqq777qqq7777777777777777777337777777777777773333333333",
"fyttyfytffffffffvfykxyfvyyffffyykkffffkxkyxtyZfyxxffffkkxffkyfxkkkxxkkfyfkytkfyfkxxfykkyxfxffxfkkffkkffkxkyfxfyvfffkkkkkkfffkxkfxxxxxxxxkkkkkkkfyyyyyffykkfytffffkkkfkkfyyyffffffkfyykkffffffkkkfyqtyffyykkytfxkkyyyyyfkkyqqykkfyyyyfkkffffffffftffyykfyffyyfxkfqfxkfkfqkffkkytykfffkkkfyffyyffyfkttkxfyffkkkfffyttyfyfkfffyyffffvtyt7kyfffffffffyytyfkkfqqyfyyftffttfftyyyyffffyyyyyyyyqtyfytyfffyyyyytfqtyttytyyyyyyyyyyttttttyyytttttttttttttttttttttttyyttqqyyt77tttttttttttttqqqtttqq7qtttqttqqqqqqttttttqqqqtttttttqqqqqqq777777qq7777qqqqqqqqq7337qtttqqq7qtq7q777777qqqt3qqqq77qq7773777qqtq737qqq777qqq7777777777777777777333777777777777773333333333",
"yyyyyyyyxkfyyyfkffyfkkfyffffffffxkkkfffyfkyyxkfffxxffxxfffkkfkkkkkfkkfffykkffxxkyfftyxvkfkfffffykkffffffffffkxxkkqfZxtykykxffxxxfffkkkkkfffffkkkyyyyykxvkffffkkkkftqqyfkfkkkkkfyyffyyyyfffffyyffq7yxfyyqqqqtfkfftfffkffxytttytykyxffvf37fkfyyfffyffffkfyffffffffykfykfyffffffffkkqtfykvyxkfffffyfffffffffyfffytykfffffkxf7yvyykfytfkyfkfffffffffkfttfffyyfffytyyttttttttyyyyyyffffyyyyfftqykkyqtfkyqqtytttttttttyyyyyyyytqqtyfyyttttttttttttttttttttttttttttttqqtttttttttttttttttttqqqttqttttqqq7tt77qttqqqqqq77qq7qqqqqttqqqqq7qqtqq7qqqqq77qqq7q7777773qt737q7qq7777777qtttq77777777777qq777qqqq7q777777777333773:--3777777777777777777777777777777337333333",
"ffffffffkkfyyfffffyfkkffffffffffkkkkffyyfkyyxkffkffkkkkkfffkkkkkkkkkkffffkkffxxkfkftyxxkxyyxxttkkkffffffffffxxxkfykvkffyykxkfxxxffkkkkkkffffkkkkyyyyfkkxkffffkkftyffkfyyffkkkkfyyffyyyyfffffyyfftqykfyytqqtyffffykkyftqyyyyyytykfkfkxfqqfkkyyfkfyffffkfyffffffffykfykfyfffffffffyyfkyfkfkkfffffffffffffffyfffytyfffffffkyqfxttkkfyfkyykyyfffffyykfttfffyyyffyyyyttttttttyyyyyyffyyyyyyyyytyffyttffyqqtytttttttttyyytttttttyyyyttttttttttttttttttttttttttttttttqqtttttttttttttttttttqqttttttttqqq7qq77qtqqqqqqq77qqqqqqqqttqqqqq7qqtqq7qqqqq77qqqqq7777773qt777q7qq7777777qtttq77777777777qq737qqqqq77777777777737773::3777777777777777777777777777777333333333",
"ffffyfyyfffkffyyffyyfkffffffffffkkkkfffffkyyxkffxyyxxfyxffffkkkkkkkkkkfffkkfkxkkkxkyykkfxffkkyyfkkkffffffffkxxxkyfxkykxtfkxkkxxxffffkkkkffffkkkkyyffkkkfkfyyffffffyyyffkffkkkkfyyyyyyfyfyfffyyffyqykfyyyqtyfffkkykfyyq7ttyffytykfykkyyytfkkyyfkfyffffkfyffffyfffykfykfyfkkfffyyyqfkkfttkffkffffkfffffffffyfffytyfffffffyttkfqtxxfykkyyfyyyyyyyyyfyttfffyyyyyyyyyttttttttfyyyyyyyyyyyyyytyfyttyytyfytqtyyttttttttyyttttqqtyfftqqtttttttttttttttttttttttttttttttttttttttttttttttttttqqqqttqqqqqqqqt77qqqqtqqqqqq77qqqqqqqqttqqtqq7qqttqqqqqqq77qqqq7q777773qq77777777q77qq7qtttq77777777777qq737qqq77777777777qq777q77333733777773777777777777777777773333333333",
"ffffyyyyyykkkfytfyyyfkfyffffffffkkkffffffkyyxkffkffkkffkfffffffkkkkkkkffffkkkkkkxxkyykkyyvvttxxtkkkfffffkffkxxxkfykfykxykkkkkkxxfffkkkkkfffffffkyyfkkkfykfyyffffkfyttykxffkkkkfyyyyyffyfyffyyyyfftykfyfytyfffffkqyyyfytktyfkytyxftkkqtxyfkkfyfkfyffffffyffffyfffykfykfyffffffffyqkkyfttxffkkfffkfffffffffyfffytyyffffyytyfktqyxkfykkyyfyyyyyyyyyfyttfffyytttyffyyyyyyyyyyyyyyyyyyyffyyttykfqqyftyyytttyyytttttttttttttttyyyytqqtttttttttttttttttttttttttttttttttttttttttttttttttttqqqqttqqqqqqqqt73qtqqtqqqqqq77qqqqqqqqtqqqtqq7qtttqqqqqqqq7qqqqqq7q77777777777777777qqqqqtqq77777777773qq737qq777777337777qqqqqqq7733333777773777777777777777777773333333333",
"ffffffffyyfkkfytfyyyfkfyfffffffffffkkkkkfkyyxkffykkyfkkfffffffkkkkkkkkfffffkkkkkxxkyykkyyvvttxxtkkffffffkffkxxxkktykfykkkkkkkkkkkkkkkkkkffffffkkyfkkkfyykfyyffkftyfkkkytffkkkffyyyyyffffyyyyyyyfktyfyyfytyfffyfkqffyfyyktyfkytyxftkf7yxffkkfffkkyffffffyfffyyfffykfykfyfyffffffftkyqfytxffkkfffkfffffffffffffttyyffffyttfxfqtfkffykkyyfyyyyyyyytfyttyffyfyttyffyyyyyyyyyyyyyyyyyyyyyyyttykfqqyfyyyyyyttyyyttttyyttttyyyyftqqqttttttttttttttttttttttttttttttttqqttttttttttttttttttqqqqqttqqqqqqqqt33qtq7qqqqqqq77qq77qqqqttqqtqq7qtttqqqqqqq77qqqqqqqqqq7q777777777qqqqqqqqqqqqq7777777773qq737qq77777733777qqqqqq777777733777733777777777777777777773333333333",
"ffffffffyfffffyyfyyyfkfyffffffffffffkkkkfkyyxkfftkkyykkyffffffffkkkkkkkkkffkkkkxkkktykkfxffkkyykkkffffffkffkxxxkxttkfykkxkfkxkkkkkkkkkkkffffffffffkkffyyffyyfffftyyfffyyfffkkffyyyyyffffyyyyttyyktykfffyyyffyyyffxkfftqytyffytykyyfyqfxffkkfffkkyffyyffyfyfyyfffykfykfyfyfyfffkkfftqyyykffkkfffffffffffffffffytyyffffyytkxytfkyffykkyyfyyyyyyyyyfyttyffyyyttyyyyyyyyyyyyyyyyyyyyyyyyyyttyfyttyfyyttyyttyyyttttyytttyyyyyyt77tyyttttttttttttttttttttttttttttttqqqttttttttqqqqttqqttqqqqttqqqqqqqqq77qqqqqqqqqqq77qq77qqqqttqqtqq7qqttqqqqqqq77qqqqqqqqqqqq737q777777qqqqqqqq77qqqqqqq77qq3qq737qq777777337777qqqtq733777333777733777777773777333377333333333333",
"ffffffffffyyyyfffyyyfffyffffffffyyffkkxxfkyykkffyfffyfffffffffffkkkkkkkkkffkxkkxffftyxxkvyyxxyyxkkffffffkkfkxvxkkyyytfxfxkfxxkfkkkkkkkkkffffffffkkfffyffffyyyfffyytqqtyyyffkkffyyfyfffffyyyyttyyfqtkffftyyyyyyttykkyytqyyyyyytyktkyqykfyfkkffkkkyffyyffyfyyyyfffykfykfyfffffffffkyyyttfykkfffffyfffffffffyfffytyyfffffyyykyyxktkfyfkyykyffffffffkyttyfyttyyyyytyyyyyyyyyyyyytyyyyyyytyyyyttyyyyfyttffttyyyyttyyyyyyyttttttttyyyytttttttttttttttttttttttttttttqqqttttttttqqqqttttqqqqqqqqqqqqqqqq7qq77qqqqqqqqqq7qq77qqqqttqqqqq7qqtqq7qqqqq7qqqqqqqqqqqqq73qq777777qqqqtqqq777qq77qq77773qq737qq77777733777777qq73::377737777733777777773377733377333333333333",
"ffffffffkfyttyfkfyyyfffyffffffffyyffkkxxfkyykkffktykkyykffffffffkkkkkkkkkffkxkkxyfytyxvkkkkffkffkkffffffkkfkxvxkfffq7xMyvkfxxkffkkkkkkkkffffffffxkfyyyffffyyffff7qyffyq7yffkkffyyfffffffyyyyttyyfqtkfffqyyttyytq7yytyttfytttytykqkyqkxyyfkkffkkkyffyyffyyyyyyfffykfykfyfkfffffffxykkqqyqxkfffffyfffffffffyfffytyffffffyytfyfvftvytfkyfkfffkkkkffkyttyfyttyffytttyyyyyyyyyyyttyyyyytttyyyyqtfkyyftttffttyyyyttyyyyyyttqqqqtfffyyytttttttttttttttttttttttttttttqqqtttttttttqqqttttqqqqqqqqqqqqqqqq3qt73qqqqqqqqqqqqq77qqqqttqqqqq7qqtqq7qqqqq7qqqqqqqqqqqqt73qq77777qqqqqtqqq777qq7qqq77773qq737qq77777733777777qq7:--:37777777733777777773377733373333333333333",
"ffffffkkytxkyt7fxkkffyyyffffffkkyfkkfffkfffkkkkkkkkfffkkkkfyyyffffkxvxkyfyykxxftyyfkkfytkxkfyffyfxkfkkykfkkkkkkkkfyyfxkyxfykxkfkkfyykxkykfffffkktvkyxxfffyyyfffyyfkkfyyyfffkfffkvkfffyyyyyfffyttyfkfyfytxyqyffyffyyffyfxtfkyyffqyfkfyyfkyyyffffyyytttfkftyyfffkfxffffyykkkfyxkyfkftyfkkffyyyfkkkyfkfyyyfttfkyykfffffffffffyyyyyyffffyttfyttyffff7qfkfttyyyytyyyfytq7qffyyyyyyyyytyfyttyyytfttyqyttyyqyky7tyttyyqtttttyyyyyttqqqqyqqtytqtttttttttqqqqqqttttqqqqttttqqqqqqqqqqqqqqtqqqqqqqqqqqqqqqqqqqqqqqqqqqttttqttttqqqqqqqqqqq3qttq77qqq777qttqq77777777qqqqq7qqqq7q7777777777777777777777777777777777777777777777773333333377733337773333777333777333333377",
"ffffffkkftkkfy7ykkffyyytffffffkkyfkkfyfkfffkkkkkkkkkffkkkkfyyyffkffkxxkffyfkxxfyyffkkffykkkfyffyfxffkkykfkkkkkkktkvkttfxkfkkkfkxyfkkyyfkkfffffkkyxkfkkfffyyyfffyyfkkfyyykfffffffkkffyyyfyffffyttyffyyyfyyfkxkyyffyyffyfxqffyykfttkxytyfkfyfffffyyyyttffftyyfffffxffffyyfkkyyxkyfkftyfkkffyyyfkkkyfffyyyfttfkyykfffffffffffyyyyyyffffyttfyttyffffqtyffttyyyyyyyyyyyq7tffyyyyyyyyytyyyttyyytfttyqyttyyqyftqtttqttqttttttyyyyttqqqqytqtytttttttttttqqqqqqttttqqqqttttqqqqqtqqqqqqqqtqqqqqqqqqqqqqqqqqqqqqqqqqqqttttttttqqqqqqqqqqqqqqqqqqq7qq777qqqqqq777qq77qqqqq777qqqq7777777777777777777777777777777777777777777777773333333377733377773333777337777333333337",
"ffffffkkktffkfqyfffyyyttffffffkkyfkkfffkfffkfkkkkkkfffffkkfyyyffkkffkkkffffkxxfyffkkkkkffkkfyffffkffkkykffkkkkkkfffffkkyykxkffkxyfkkyyfxkfyyffkkkyfxffkffyyffkfyyfkkfyyykffffffytffttyffyffffyytfffttfffykvxyqtkfyyffyfkqyfyfkftyxxtqykkffyfffyytyfyyyffyyyffffkkffffyyfkkyykkyfkftyfkkfffyyffkkyfffyyyfytfkyyffffffffffffyyyyyyffffyttfyttyffyfyttyfyyyyyyyyyyyyyqqtffyyyyyyyyyyyyyyyttytfttyqyttyyqtyqtqqttqqttttttttyytttqqqqytqtytttyytttttttqttttttttqqqqqtttqqqqqtqqqqqqqqtqqqqqqqqqqqqqqqqqqqqqqqqqqqqtqqqqttqqqqqqqqqqqqtq77qtq7qqqq7777qqqqqqqq77qqqq777qqq777777777777777777777777777777777777777777777777773333333777733377773333777377777333333333",
"ffffffffxtyfkkqtffffyyyyffffffkkyfkkfffkfffkfkkkkkkfffffkkffyffkxkyyfkkkyffkkkffkkkkkkkkfkkfyyfffkfykfykffkkkkkkkfyykvktyxxffkxkkfyykxkykfyyffkkxqfvyykfffyfkkfyfffkffyykkfffffy7yfqqfkfyffffyyyffyttfkfkkkyq7ykfyfffyfk7tyyfkfyyxktqkkyffffffyytfkfyyffyyffffffkfffffffkkyykkyykfttfkffffyyffffyyffyyyfyyfktyffffffffffyyyyyyyyffffyttfyttyffyfkt7tyfyyyyyyyyyyyytqtyfyffyyyyyyfyttyytqytfttyqyqqyyqtyqyq7tt7qytttttttttttttqqqttttttttyyttttqqttttttttttqqqqqtttqqqqqtqqqqqqqqtqqqqqqqqqqqqqqqqqqqqqqqqqqqqqqqqqtttqqqqqqqqqqqqq77qqq77777q77777qqttqq7qqqqq777777777777777777777777777777777777777777777777777777773377337777773777773333777377777333333333",
"ffffffkfxtffxxqtkkkkfffffffffkkkyfkkfffkfffffkkkffffkfffkkfffffkxfyyffffyfkkkfffkkkkkkxxfkkkfyykfkffkfyffffkkkkftkvkyyfxfkkffxxfkfyfkxkfkfyyffkkxqyxyykfkfffkkfyffffffyykkfyfkft7yftqfkfyfffffyyffytyfkfxftqtyyyfyfffyykqtyyfkfyykftyxktkfffffyytfkfyyfffffffffffkffffyyfkyykkyfxfttfkfyffffyyffyyffyyyffykkttffyfffffyyyyyyyyyyfyffyttfyttyfyyfkt7tyfyyyyyyyyytyyyqtyfyfyyyyyyyfyttyytqyqfttyqytqyyqtyqyqqtt7qyttttttttttttttqqttttttttttttttqqttttttttttqqqqtttttqqqqtqqqqqqqqqqqqqqqqqqqqqqqqqqqqqqqqqqqqqqqqqqttqqqqqqqqqqqq7qttqq7qq7qq777377qqtqqq7qqqqq777777777777777777777777777777777777777777777777777777773377777777777777773333777333777733333777",
"ffffffkkxtkkkkqyfkfkkkkkfffffkkkyfkkfffkfffffkkkffffkfkfxkffffkkkfyyfffyyfkkfffkkkkfkkkxkkkkftykfkfykfyffffkffkffkkfffkfkkffkxkfykxkfyfxkfyyffkkkyyfyyffkfffkkfyffffffyykkfyyxkttffttyffyyffffffyyytfkkyffyyfxfqfyfkfyykttyyffffffyykkftffffffyytfkfyfffffffyyfffkkffffyfkyykkyfxfttyffyyfffyyffyyffyyfkfykkttfyyfffffyytyyyfffyfyffyttfyttyfyyfyttyfyyyyyyyyyytyyyttyyyyyyyyyyyyyyyyyttyqfttyqyttyyqtyqytttttttqqttttttttttttttqtytttyytyttttqqqqttttttttqqqqtttttqqqqqqqqqqqqqtqqqqqqqqqqqq7qqqqqqqqqqqqqqqqqqqqttqqqqqqqqqqqq3qttq77qq7qq7777777qqqq77qqqqq777777777777777777777777777777777777777777777777777777773377777777777777773333777333777733333777",
"ffffffkkkyxxkfqkfffffkkkffffffkkyfkkfffkffffkkkkffkkkkffxkffffkkfyyfkkytyfkkfffkkfffffkxkkkxftykfkfykfyffffffkffxkyykvktkffkkkkkykxkfykxkfffffkkykftyfyfkfffkkfykfffffyyfkytfxktffffyyyffyyyffffyyyykkfttyfffkfyfyfkfyyfyyyyfyyffyykfyyffffffffyyffyyfkfkffyyyfffkkfffftfkyykkyykfttyffyyfffyyyfyyfyyyfkfykkttfyyffffyyttyyyffffffffyttfytqyyyyfqtyffttyyyyyyyytyfyttyfyyyyyyyyytyyytyyyyqyttyqyttyyqyftyyfytyytqqqtttttttttttqq7tytqtyyttttttqqqqqqtqqttqqqqqtttttqqqqqqqqqqqqqtqqqqqqqqqqqq777qqqqqqqqqqqqqqqqttttqqqqqqqqqqqq7qqqqqqqqq777qqqq777777777qqqq777777777777777777777777777777777777777777777777777777773377777777733377773333777333777733333777",
"fffffffkfyvxfyqkyyyffffkfffffkkkyfkkfffkfffffkkkfkkkkkfkxkffffkkyyyfkkyttfkkfyfkfffyffkxkkkxftykfkfykfyffffffkffykxkyfkkkfkxkyfvxfyfkxkfkfffffkktxfqfkyfkfffkxffkfyfffyyffytyxktxkfffyyyfffyfffftyyfkxfq7ykyqtfxfyfkfyyffyyyyyyffyfkfqtxfyyffffyyfytykkkkffyyyyfykkfffftfkyykkyyxfttyfyyyfffyyyfyyfyyyfkkfkfttfyyffffyytttyyffffffffyttfyqqyyyyy7tfkfttyyfffyyttyffttyfyyyyyyyyytyyyttyyyqfttyqyttyyqykytfkyyfytqqqqttttttttttqq7tytqtyyyyttttqtqqqqqqqqtqqqqqtttttqqqqtqqqqqqqqtqqqqqqqqqqq7777qqqqqqqqqqqqqqqqttttqqqqqqqqqqqqtq77qtq7qq777qttqq77337777qqqq777777777777777777777777777777777777777777777777777777773377777777733377777333777333777733333733",
"ffyyyyffytfkfkxkfytttykxkfffyyyyfffkkkkkyffkkkkffffyyffkkxvkffyqvxfyfffyfkkkfyffyyyyyyffffffffffffffyyyyfyyfkxkfkkkkkfffkkxxkkxxfyyfxxxkffffffffqqtyfkxxtfkffkfyfyfkkfyykffkkkftytyffyyffffytyy7kxkfyfftfkfffkyqkMxyyytqfyyyffytfffyyfkkffffffkkffffffffytfkyfkftyxqkyktqtfxxfyyyyyyyyyyyfkkkfyyyyxtxykyfffyttykfftqqyfytttkfyktyyyyyyyyyfffyytttyfytyfffttffttffyyyyyyytftyxy7ttttttyyyyytttttytqqyfytyyyyyyyyytttttttttttttttttttttttqqttttqqtqqqqqqqqqqqqqqqqqtqqqqqtttqqqqqqyq7tytqq77qtt77tqqqqqqqq3tt77ttqtqqqttttqq77777q7qqqqqq777777qqq777777777777777777777qqq7q77q777777777777777777777777777773333777777777773333777777777777777777733777333333333",
"kffyyffkfyfkyfxffytttfkxffffyyyyfffkkkkkyfkkkkkfkfffffkkkxxkffytxxkfyyyffkkkfyffyyyyyfffffffffffffffyyyyfyyfkxkfkkkkkffffffffffkkfffkxkffffffffftyyfkkxxyfkffkfyfyfkkytyffkkkfyyyyyfytyffytffttyxkfyyffyfkfffkyqfxfyffttyyyyffyyfkfyyfffffffffkkffffffffyyfkyfkftyftffkyttfkkftyyyyyyfyfffkkffyyfyktxtkyfffyttyfkkftqtttttykfykyyfyyyyyyyyyyyyttyffttyffyttffttyyyyyyyyytftyxy7ttttttyyyyytttttyt77tytttyyyyyyyyttttttttttttttttttttttqqqttttqqtqqqqqqqqqqqqqqqqqqqqqqqqttqqqqqqyqqtytqt77qtt77tqqqqqqqq7qqqqttqqqqqqqqqqq7777qq7qqqqqq777q777qq7777777777777777777777qq7q777777777777777777777777777777773333777777777773333777777777777777777777773333333333",
"kkffffkkkfkkyfkyfyytyfkxffffyffffffkfkkkyfkkkkkfkkfffkkxkxxkffftkkkfyyfkfkkkfyfkyyyyffffffffffffffffffyyfyyfkkkfkkkkkfffyffyyyfkkkffkkfyfffffffffkffkkkkyfkffkfyyyyffytyffkkffyyfyffyttykqqkkttkxkytyffyffffffyqyytykfqyyyffyyyyfkkfyffffffffffffffffffffyfkyykftyyfykfffyfkkytyyyyfffffffkkffyykyfyktyfffyyyyytfkkfttttftfkfkkyffyyyyffyyyyyyyyffftqtyyyttffttyyyyyyyyytytykyqttttttyyytyyttttyq77qttqtyyyyyyyyttttttttttttttttytttttqqqttttqqtttqqqqqqqqqqqqqqttqqqqqtttttttqtyqqttqqqq7qtq77qqqqqqqqqtq7qtqqqqqqqqqqqq777qqqq7qqqqqq7qqqq77777777777777777777777777777q77q777777777777777777777777777777733777777777773333777777777777377333337733333333333",
"xkkffkkxxfkkyyftkfyyyfkkfffffffffffkfkkkyfkkkkkfxkkfkkxxkkkffffykkkfyyfkfkkkfyffyyfffffffffffffffffffffffyyfkkkfkkkkkfffyfkfyyfxxkffkkytffffffffkkkfffffffffffffyttyyttyyfkkfyfffyyfyttfyqqfkyykxktqtfkyfffyfkyttqqyxftftyffyyyfykkfyffffffffffffffffffffyfkyykyqytktxfkkffffyyyyyffffffffffffyykyyfktyffyyyfytqqykfyffkktffykkfffyyyyyyfyyttyyykkftqtyyyttffttyyyyyyyyyyyyyfytttttttyyyyyttqqtytq7qttttttttttttttttttttttqtqtttttttttqqqttttqqtttqqqqqqqqqqqqqqttttqqqttttttttttqqqtqqqqqqqq7qqqqqqqqqqy77tyq7qqqqqqqqqqq77qqqq7qqqqqqqqqqq77777777777777777777777777777q77q777777777777777777777777777773733777777777773333377777777337777333333777333333333",
"xkkffkkxkfkkyyftkkffffffyyyffffkfffffkkkyfkkkkkfxkkfkkxxkfffffffkfyyffkkffkkfyfkyffffkkkffffffyyfffffffffyyfkkffkkkffffffkxkfykvxkffkfytffffffffkkffyyttffffffffyytyytyfyfffyyfkyyyfyyyfttyyfkfykfyqtffyfffyfkfttqqyxfqfyyffyyyfykxkfyffffffyfffyffffffffykkyyfytyqktkykkfyffyyyfffffffffffyyffffyykfytfyyyyffyqqykfyfkxxqfytxfffyyyyyfffyyttyyyfkfqqtyyyttffttyyyyyttttyyyyttyttttttyyytyttqqtyytqqtyyytttttttttttttttttttqqtttttttttqqqttttqqtttqqqqqqqqqqqqqqttqqqqttttttttttqttqqqqqqqq77qqqqqqqqqqqy77ttq7qqqqqqqqqqqqqq777qqqqqqqqqq777q77777777q77777777777777q777q77q77777777777777777777777777777773777777777777333337777773333777777333337333:333333",
"kkffffkkfyffyyftkkkfffffyyyfffkkfffffkkkyfkkkkkfkkffffkxfyyfyyykkyttfkkkffkkfyfkffffkkkkfffffyyyfffffffffyyffkffkkkffffffkxxkkkxkfffkkfyffffffffkfffyyttfyfffffffyyyyyykyfyyyyffytyffyyktyytykftfffyyyytfffyfkfttyyfkftffffffyyytkxkfyfyyyffyyyyyyyffffffykkyyfyyytfyffkkfyfkffffffffffffyyyyfffyfykyftyyyyyffyyfkkytyffv7fqqxyffyyyyyffyyyyyyyyffftqtyyyttffttyyyttttttytfyqtfttttttyyyttttqqttyytqqyyyttttttttttttttttttqqqqttttttttqqqttttqqtttttqqqqqqqqqqqqttqqqqttttttttqq7qtq7qqqttq37qqqqqqqqqqqtqqttq7qqqqqq777qqqqq777qqqqqqqqqq77qqqqq77777qq7777777777777qqq7qq7q77777777777777777773777333377773777777777777333337777773333333333333333333:3:3333",
"kffyyffkytyfyykykkkkffyyttyyfkkkffffkkkkyfkkkkkfkfffyfkkfytyyyfkfyttyfkkfkkkfyfkffkkkkkkfyyfyyyykkffkfffyyyykkkfkkkfffffkfyfxxfyfyyfkkfyffffffffffffffyykfyffyfkkfyffffxfyttyyffyyyfytyfyytyyytttfkfyytqffyyfkfyyxxffytfkfffffyttkvxfyyyyyyyyyyyyyfffffffykkyyfyftyyftfkkytfkkffffffffffyyttyfkkqkyktxyttyyfffffxxftqyffv3y33xqyyyyyyyyfyyfyyytttyyttyyyyqtyyqqyttttttttytfy7tkttttttyyyttttqqttyyt77tyttttttttttttttttttqqqqqttttqqttq7qttttqqtttttttttqqqqqqqqtqqqqtttttqtqqqq7qt77qq7tt737qtqqqq777qqqttq7qqq7777777777qq77777qqqqqq77777qqqqqqq77qqq7777777777777qqq7qq777777777777777777777337777337733337777777777733333777777733333333333333333:::3::33",
"ffyyyyffyqyfyfkfxkkkkfyyttyyfkkxfffffkkkyfkkkkkffffyyffkfytyyyfxyyyyyykxffkkfyfkfffkkkkkyyyyfyyykkkfkkffyyyykkffkkkfffffkt7txvf3yyyfkxkffffffffffkkkkkkkkyykkyykkfyfffkxfyttyffffyyfyttyktqffq7tqfxkytqqffyyfkfyyMMfyytykfffffyttkvxfyyyyyyyyyyyyyfffffffykkyyfyktftkqfkfttfkkkkffffffffyyttyfkx7kykqvfqtyffyyfkkftqqfxxv3y33kqyyyyyyyyyyfffyyttqyyttyfyyqtyyqqyttttttttytfy3tkttttttyyyttttqqqtttq33qtqttttttttttttttttqqqqqqttttqqtqq7qttttqqtttttttttqqqqqqqqttqqttttttqqqqqq3qt737q7tt733tt7qq7777qq7tyq7qtq7777777777qqq7777qqqqqq77777qqqqqqq77qqq7777777777777qqq7q77777777777777777777773377733377333377777777773333337777773333333333333333333:::3::3",
"kktfvyqxyyyyyyyyyyfyffffytyyyyyykkkkkffffkxxxxkfffffffffyqfkkfqfqtqftkykkfyyffkfyyyfffffffytyyfktqqtffffxkyyyfffkkkkffffykkfyfffyyyyffffkyyfytfvffkxkyykyytyfffykfttyyfytfkfytyk3tyttkkykftyfffytffytyyykqtvvytfkxxkfyfkyttyfyyfvytyfyfxffffffffffffffffyyfyyyyfffyyffyyyyffkfytfffffffffyxyxtftfkkfq777tyfffyttffytkftyyfytfftyfyyyyffyf7ftf7fyyyyyyyyyf7ftqt3fqqtkxfyfyyttyyyyttttttyytqqqtyyytttttttyqqtffq7tttytttttqtttttttttttttttqqqttttyq77qttqq7qttqqqttyt77tytqq7qqttqqqqqqq77qqqqqq7777777qqqqqqqqqqqqqqqqqqqqqqqqqqqqqqqqq7777qq777777777777777777777777qqq777777777777777qq777777773333337777777777777777777777777733333333377773333333333:3::3::",
"kfyfxytkyyyyyyyyfyffffffyyyyffffkkkkffffkkkxxkkfffffffffyqkkfktfqtqftkykkfyyfkffkkkfyyyyyyttttyyyfyyfxxffkxftqfxkkkkffffykkfyfffyyyyffffyyfkfyykq7qtt77tyyyyyffyffyyyyyyyyfffyyyqtyttffykftyffftyffytyfffttxxytffkkffffkfttyfyyffyqtyyyfffffffffkfffffffyyyyyyyfffyyffyyyyfffyyffffffffffykyktfyfffftqqtyyyyffytffytkftyyfytfftffyyyyffyyqyyyqfyyyyyyyyyy7ftqt7ftqtfkfyfyyttyyyyttttttyyttqqtyyyyttttttttttyyqqtttttttttttttttttttttttttqqqtttttq77qttqqqqttqqqttyt77qttqq77qttqqqqqqq77qqqqqqqq7777qqqqqqqqqqqqqqqqqqqqqqqqqqqqq7qqqq7777qqq77777777777777777777777qqq7777777777777777q777777773333337777777777777777777777777733333333777773333333333:::33:3",
"kyfkfyffffffffffffffffffffffffffkkkkffffkkkkkkkkffffffffytkyyxyytyqktkykffyfkkfyfkxkytyffyyyyyffykxffxxkfkxfqqyxkfkkffffyfkfyfffyyyfffffttfxkfyfyyfkkfkxtyyyyyffyyffyyyyfytykkytytyyyttfkytyffftyffytyffyyfkfyyfyyffyffkfytfffyyyyyttffyffffffffffffffyyyyyyyyyfffyyffyyyfkfytykyffffffyfyktktkyffyyytyyfyqtfkfyffttkftyyfytfftffyyyyffyyttkqtyyyyyyyyyyyqytqtqfytyffyyyyyttyyyttttttyyyttqqttttyttttytqtyytqtttytttttttqqttttttttttttttqqqttttttq7qtqqqqqqqqqttttt737ttqq77qttqqqqqqq77qqqqqqqqqqqqqqqqqqqqqqqqqqqqqqqqqqqqqqqq7777q77777qqqq777777777777777777qqq7qq77777777777777777q777777777777333377777777777777777777777777333377777777333333333:333333",
"ktfxyykyfffkkkkkffffffffffffffffkkkkkfffxkffffkxffffffffyyktyxytyftktkyfffffkkfttfkfttfvkkkkkkkkffkkfffxxkyyyfffffkfffffykkfyfffyyfyfffftyfkkfffttyfkkkxtyffyyfftykkfytyfytykkytkyyfy7qfkyttffyttyyttyyytfkfyyyyttyyyffkfyyfffyyykkyfkkyffffffffffffyyyyyyyyyyyfffyyffyyyfffyyyfyyfffffffyktktkffyyyyyyyfyttfffyyfttkftyyfytfftffyyyyffyytqx7ytyyyyyyyyttttttytyfyyyytyyyttttyyttttttyyyytqqttttytqtyytqyffqqtytttttttttqqqttttttttttttttqqttttttqqttqqqqtqqqqttttt733qtqq77qqqqqqqqqq77777qqqqqtttqqqqqqqqqqqqqqqqqqqqqqqqqqqqq7777q77777qqqq777777777777777777777777777777777777777777777777777777333337777773777777777777777773333377377773333333333:333333",
"ftfktyxtkkfkkkkkffffffffyyyyyyyykkkkkkffkkffffkkffffffyyfyftyvftfkyktkyffffkkkftyffytykvkkkkkkkkktyxfqqkxfyyyfffffffffffykkfyfffyyyfffffffyyyfkkqqttyffytyffyyfftykkfytyyyyyffyykyyky7qkkyttffyttyytqtyttfkytyyyttyyfffffyyfkfyytkkffkkyfffffffffffyyyyyyffyyyyfkffyffyyyyffffytyffffffyfyfqftkffyyyyyttyyfffyytyfttkftyyfttfftffyyyyffyytqx7ytyyyyyytttttttytyyffyttyyyyttttytttttttyyyttqqtttqytqtyyt7yffq7tytttttttttqqttttttttttttttttqqttttqqqytqqqtqqqqttqttq733qtq777qqqqqqqqqq77777qqqqqtttqqqqqqqqqqqqqqqqqqqqqqqqqqqqqqq777777777qqqq7777777777777777777777777777777777777777777777777773333737777773377777777777777777733337733777733333333::333333",
"ffkftfktffffkkkkffffffffyyyyyyyykkkkkkkkfffffffffffffyyyktyqyvyyfxyxtkyfffyfkkfyxkfytyyfyyfffffykttkfqqfykxfqqyxffffffffykkfyfffffffffffkfyttfkkfkkkkxxktyyyyyffyyffyyyyyyfyytyfytykyqtkkyttyfyttyytttyyqyfyyyyyfyyffffyfyykkfyyqyfyyyytfffffffffffyyyyyyffyyyyfkffyffyyyyyfkkytyffffffyfyktktfyyyyyyttttykkfyttyfttffttyfttfftffyyyyffyyttkqtyytyyytyttqyqyfyftyyyttyyyyttttttttttttyyytqqqtttqttttyytqtyytqttttttttttqqqttttttttttttttttqtqqttqqtyyqqqtqqqtqq7tq7777qtq777qqqqqqqqqq77qqqqqqqqqqqqqqqqqqqqqqqqqqqqqqqqqqqqqqqqqq77777777qqqq77777777777777777777777777777777777777377777777777773377773777773333737733777777777733337733777733333333:::3::33",
"txftyfytfffffffkfffffffkyyyyyfffkkkkkkkkyffkkffyfyyfyyyyxtttfxyfkxfxykyfkfyyfkffMktqyffytyyfffyykkkfffyyykxfqqyxffffffffykkfyfffffffffffyfyyykkyfkfffkftyyyyyffyffyyyyyyyyyyttyfqtykytyxfyttyfytyffyyfffqqtfffyykkfkkkfyfyfkkfyyttyffttyffffffffffyyyyyyyffyyyyfkfyyyyyyyyffffyyyyffffyyftktktyttyffyytyyyyfffyyyfttffttyfttfftffyyyyffyyqyyyqfytttyyttt7fqffyk7tyyqtyfyyttttttttttttyyyqqqqtttqqqtyyyttqqtytqqttttttqqqqqttttttttttttttqttttqqqqqyyyqqqqqqttq7:t73qttqtqq777qqqqqqqqqqqqqqqqqqq7777qqqq77777777qqqqqqqqqq7q7777qqqq7777qqqqqqqq7777777777777777777777777777777777733777777777777333777733377733333377737777777777733777337773333333333:::::33",
"qvkqfktyffffffffffffffkkffffffffkkkkkkkkyyfkkfyyyyyyfyyyvqqtfxtfkxfxykyfxfyyffffvy77fxxfyyfkkkfykMvyyvxqkfytyyfyffffffffykkfyffffffffffftyffkxftkxkffkfqyytyfffykfttyffyfyttttyf7tffyyfxfyttyfytfkkffkkkt7qfkfytxxkkkkytfyfkkftyfyfxkyykfffffffffyyyyyyyyffyyyyfkfyyyyyyyfkfytykyyffffyyytktktytqykkfyyyfyttfkfyyfttffttyfttfftffyyyyffyf7ftf7fytttyyttt7fqfkyk3tyyqtffyyttttttttttttyyyqqqqtttq7qtyyttyq7qfyq7tttttqqqqqqttttttttttttttqqqtqqqqqttyyqqqqqqttq3-t73qytttq7777qqqqqqqqq7qqqqqqqqq77777qqq777q7777qqqqqqqqqq777777qqqqq7qqqqqqqqqq7777777777777777777777777777777777333377777777773333777733377733333377777777777777733377337773333333333:::::33",
"yyyyttttffffffffffffyyyyyyffffkkxfkxfkxfyffkkffyyyyyyffffyfxxytyxffxtqk7fttyyttfytqtfkfyyfkffyfkfxxyqtyttyyffffytyyyffffyyyyyyyyfffffkkkfffffffyffffyyyfqykxkytqfft7tky77qtqyfftfytyytttqtfkfyyffffkkfyytfffttykffyyttttfkfkxftkytffykxyyyyyyffffyyyffffffyyyyyyffffffffyyyyfffkyffffkfyfytyyffykyyffyyfyyyyykfyyyyyffffffyyyyyyfffyyyyytttyytttttttyyyykqtq7yqqyftf7ftttqttyyffytqqtyffttttttq7tffq3qtqqqttqqtttttttttttttttttqttttqtttyq77qq73t73qtqqqttttqqqq777ttqqq77qqqqqq3qt77qttq777qtq7qqqqqqqqqqqqqqqqq77qqqqq77777777777777777qqqqqqq37qq77777777qqqqqq777777qqqqq777737777337777777333333333333377qqtq77777777773333:33333333333333:333333::::3333",
"yyyyyyyyffffffffffffyyyyyfffffkkxfkxfkxfyffkkffyyyyyfffffffkkfyfxffxtqk7fttffttftyffyyfkyfkkfyfkkxkfttyytyffffyyyyyyffffffkkkkkkffffffkkfffffffyffffyyyytyfkfyttykfqqyyttyttyfftffffyttftyfkfttyyyyffyttyffyytyyttyyyyyyyfffxftkttyytfkyyyyyffffffyyfffffffyyyyyffyyyyyyyyyyfffkyffffkfyfyyyyfffkyyffyyfyyyyfkfyyyffffyyffyyyyyyffyyyyyytyyyyyyyyyyttyyyf7ttqfttyftf7fttyyytttttytqqtyffytqttyytyyyttyytqqttqqqttttttttttttttqqqqqttqtttqqqqq777t73qtqqqqtttqqqq777ttqqq7qqqqqqq3qq77qttq777qtq777qqqqqqqqqqqqqqq7qqqqqq7777777777777777qqqqqqqq377777777777qqqqq77777333377777777777733777777733333333333333337q733377377773333:33333333333333:333333:::::333",
"ffffffyyfffffffffffffyyyyyffffkkxfkxfkxfyffkkffyyyyyfffffkfyyfffkkykyqkqfttffttftfkkfykxffkkfyfkkkkkftyfyfffffytyyyyfffffkkkkkkkfffffffffffyffffffffyyyyffyyyyytkkyqqyftffytyffykkkftqyxyffkytqytttfytqqffyyfyyt7qyfkkfyyfyyfyykqqffqyfyyyyyyfffffyyfffffffyyyyyyyyyyyyyyyyyffffyffffffyfyytyfyffyyyfyyfyyfffkfttykkfyyyffyyyyyyfffyyyyyyyyyyyyyyyytttttt3tttkyyyftf7ftttttttyyyyttttyyyytqqtyffyqqyffyyqtttqqttttttttttqttttqqqqqqtqqqq7qttq7qtq77qtqqqqqttqqqqq77ttq7qqqqqqqqq7qq77qttq777qtq7777qqqqqqqqqqqqq77qqqq777777777777777777qqqqqq77777777777777qqqq77777333::3333337777773377777733333333337333333373::333377333333:33333333333333:333333::::3333",
"kkkkfffffffffffffffffffyyyffffffxfkxfkxfyffkkffyyyyyfffffxkttfkffkykftktfttffttfkfyfxvxkffkkfyfkxkfkktyxffkkfyytyyyyffffyyyyyyyyffffffffffyyffffffffyyyfkfttyyyyvfq7ykftkkfyyyyykfkfytfxfyyfyttyyyyfftttfytyfkyqqtfxxxfyyytqyyykqtkftykyyyyyffyffffyfffffffyyyyyyyyyyyyyyyyfffffyyfyfffffyttyyyyffyfyyyyyffffkyqtfkkfyyyyfyyyyyyfffyyyytyyffffyyyyyttttty3yttkyyyftf7fttqqqttyyfyttttyyyyttqtyfftqqfkyttqqttqqttttttttttqqtttqqq7qqtqq773qqttqqqqqqqqqqqqqttttqtq77ttq7qqqqqqqqqqqqqqqqtq777qtq77777qqqqqqqqqqqq7q77qqq77777777777777777qqqqq777q7337q777777qq777777777333337333777777337777777333333333773333377733337377333333:33333333333333:333333::::3333",
"kkkkkkkkffffffffkfffffyyyffffffkkfkxfkxfyffkkffyfffffffffxfttfkffxyfkykffttffttfkfyfxvxkfkkkfyfkkffxktyxfffkfyttyyyyffffyyyyyyyyyfffffffyyfyyyyykfffffyfkftttyffxftqtffyxkffyyyffyyffyyfyttyyyfkfffkkfyyfttyfkytfkxvvkytyfqqyfyftyxkyfkfyyyffyyyfffffffffffyyyyyffffffffyyfffyyyyyyyfyffyyttyyyyffffyfyyyfffffyttfkkfyyyfffyyyyyyyyyyyttyyffffyyttttttyykqyq7yttyftf7ftttyttttqqttyyttttttttttttq7qfy77qttttttttttttttttqqqttqqq7qqqtq7777qttttqqqqqqqqqqqqqttttq77ttq7qqtttqqq7qq77qqqqq777qtq7777qqqqqqqqqqqqq77qqqq777777777777777777qqqqq777q733777777q7777777qqq777777777733377777777777733333333333333777qqq7377777333333::33333333333333:333333::::::::",
"kkkkkkkkffffffffkkffffffyffffffkkfkxfkxfyffkkffyfffffffffkfyyfffyvyfxfkkfyyffttfykxxffkvffkkfyfkfffffyfkffkkkfyyffffyyyykkkkkkkkyyffffffffyyyyyykfffffyfffyttyffyfkyq7yxffffyyykyttyfytttttyyffxkfkxxfffyttyfffykxxxkfytyftqyfyfyyxxyfxfffffffyyyffffyyfffyyyyyyffffffffyyfffyyyfyyyyyyfytttyyyyyffyyffyyffffkfttykkfyyyfffyyyyyyyyyytttyyffyyyyttttttyyxqyq7ytttftf7fttqtttttqqttyyttqtqtyytqqqqqttq33qttqttttqttttttttqqqqtqqq7qqqqqq7q77qttq77ttqqqtqqqqqttttq77ttq7qqqttqqq7t77qqqqqq777qqq777777q7qqqqqqqqq7qqqqq777777777777777777777qqq7777377777777q777377qqq777qqqq7777337777777777773333333333333377qqtq77777773333333:33333333333333:333333::::3:::",
"kkkkkfffffffffffkkkfffffffffffkkkykkffxfyffkkffyfffffffkfffkkfyfyvyfvfkxfyyffytfyfkkfykvfkkkfffktyfytyffyffkkffyffffyyyykkkkkkkkyyyffffffyyyyyyykfffyyyfyyyyyyyftyfyqqykytyfftykyttyyttyfttyyyfkfffkkfyytyyyyyffkkfyyyttfkyqfkfyyykkyfktffffffffyfkkfyyffffyyffffffffyyyyyffffyyfytyfyykytttyyyyyffyyfftyffyfkfyyyffffyyfffyyyyyyyyyyttttyyyyyytttttttttkqytqfyttftf7ftt77qttttttyyytqqqqtyytqqqqttq7qqqytqttttqttttttttqqqtqqqqqqqqqqqqq7qqqqqq7ttq7qttttttttqqq77ttqqqtttttqq7t77qqq7qq777qqq777777777777qqq7777qqq77777777777777777777777qq7777q7777777qq7733377qq7737777777733777777777777333333333333333377q7337777333333333333333333333333333333::::::::",
"ffffffffffffffffkkkkffffffffffkkkykkffxfyffkkffyyfffffkkfyfxxyyftvyyvfkxfyyffyyfkyyykxkffkkkfffkqyftqyffyyfkkkffffffyyyyyyyyyyyyyffyffffyyyyyyyykffyyyyftyffyyyfkt7qyfytqqtfftykyyyyqqtkkytyyyyfyyyffyttyfkftqykfytqqqtyfkytfkyyytffyffqffffffffyfkkfyyyfffyffffyyyyyyyyyyffffytfytyyyykyttttyyyyffyyfftyyyyykkyyyyyfffffffyyyyyyyyyyttttttyytttyttttttty7yytxfytftf7ftttttttqq7qyfytqqqqtyytqqttyt77yyqytqttttqttttttttqqqtqqqqqqqqqqqt7qqq737q7tyq7tttttttttqq777ttq7qtttttqq7t73qtq7qq777qqq777777777777qqq7777qq777777777777777777773777qqqq37qq7377777q773333777733333337773377777777777733333333337733333373::37773333333:3333333333333333333333:3::::::",
"kkkfffffkyfkkfykkkfyyffkyyyyyfxxfttykxfqxkytkkttffffffffk7fvykvqykkyfkxfffffffffkxxvvxxkxkfyyyffqfyqyfyfkkxxxxxxfyykftyxfffyyyyyfyyyfkkfyttffttfttyyffyqttyyttyykyyfkfffttttyyyykxkq7ttqfyyfkyykfyyffyttqky7yxxkffyyyfffyqqyffkvxkqqfq3yyyyyffffvxfyyyyyfkkfyfkkyf7fqftyttfftyfyyyttyyyykktqfkfkyffyyffyfyyyyyyyfyqfyqktqqykktqtttttttttqtyyfffytttttttttttttttyttttttttytttttttttttqqqttttttqqqtqttqtyqyt777qq7qtttq7qq7yq7yt7fqyytqqttqqttttttqtttttttqqqqqq77qqqqqqqqqqqqqqqq337qq77qqqqq7qqtq7377qqqqqqq77777777777777777777777777777777qqqq7777777777777777777777777777777777777737:3337733777337773333333333377777333333333333333333333333::3:33:::::333",
"kkkfffffkyfkkfykkkfyyyfkyyttyfkxfttykxfqkkytkftyffffffffkqfvykvqykkffxxfffffffffkkxxxxkkfffyffkktfytfkffkkkkkkkkyyyffyfkffffyyyyfytyfkkfvftyxxkfttyfkftqqttttqqtkytyffffttyyyyyyffytqtttfyyffffkkyyffytyyfyqykkkffyfffffyqqyffkkfktqft7fyyfyffffxkfyyyyyykkfyyfkyyqytfyyttfftyftyyyyyyyykftqfkfkyffyyffyyyyyyyyyfyqftqktqtykftqtttttttyyyyyytttttttttttttttttttyttttttttytttttqtttttqqqttttttqqqtqtyqtyqtqqqqqq7qqttq77qqtqqttqyqtytqqttqqtttttttqttqtqtqqqqqq77qqqqqqqqqqqqqqqq737qq77qqqqq7qqqq7777qqqqq77qq777777777777777777777777777777qqq77777777777777777777777777777777777773333:3337333777737773333333333377777333333333333333333333333::3:33:::::3:3",
"kkkfkfffkyykkffkkkfyyffkttttyyfffytykxftkkytfftyffffffffkqfxfkxtykkffxxfffffffffffkkkffftyyfkkkkykfykkfkffffffffyfyyfkkffffyfyyyfytyffffkytqykfttqtkxftqtyyyytttftqtyyyfyyyffffffttyyyyyfyyffyyfkyyffyyyfftqffyffffyyfffytqykkffykyqyyyfffyyyyfyffyyffyyykkyyyfkftyqyyfyttyftyftyyyyyyyyfktqfkykyffyyffyfyyyyyyyfytftqftttyffttttttyyyyfffytqqttttttttttyttttttyttttttttyyttqqqqttttqqqttttttqtqyqtyqttq7qtttqq7qqttq77qt7qtqqtqqtytqqttqqqqtqttqqqqqqqqqqqqqq77qqqqqqqqqqqqqqqq777qq77qqqqq77qq77777qq77777qqqq777777777777777777777777qq77qq77777777777777777777777777777777777733333333377733333333333333333333373377333333333333333333333333::::::::::::::",
"kkkkkfffkyykkffkkkfyyffktttttyyyfyyfkkftkkfyfytyffffffffftfxfkktykkffxxfkkkkkkkkyyffffyytyfkkkkffxkfkkfkyyyyyyyyyfftyxkyffffffyyfyttyfffqfkq3qyftqyxxtqtffkkkfyyftqqttyyfffffffffq7ykfyffffffyyykyyyfyyfkfqtkfqyffyyyyffytqykfyttkfttfkkfffyyyyyyyyffffyyfkytyffftfqktkytqyfttftyyyyyyyyfkytffyfyffyyffyfyyyyyyyfytfyqftttyyyytttttttyyyfyytttttttttttttttttttttttttttttytttqqqqttttqqqttttttqttyqtyqqt7qtyytq7q7qtt777qt3ty7qyqqtyq7qttqqqqqqqqqqqqqqqqqqqqqq77qqqqqqqqqqqqqqqq77qqq77qqqq777qq777777777777qqqq77777777777777777777777777777777777777777777777777777777777777777333333333777733333333333333333333373377333333333333333333333333::::::::::::::",
"kkkkkfffkffkkyykkkfyyyffttyyyyttyyyfkkfyfkfyfytyfffffffffyfkkkftykkffkxfffffkkkkyyffffyyffkkkkyykxffkkfkyyyyyyyyyfftyxkyfffffffffyttyffyyxxyqykxqtkxfqqffkkkkfyyft7qttyykkffffffyq7ykkfkfffyyyyykyyyfyyfffttkyqtfffyyyfffttfkfyttfkytfxffffyyyyytyyffffyyffytyffftfqktkytqyfttyttyffytttfkyykfyfyyfyyfyyyyyyyyyyfytfyqktyyytyyytttttttttttyyyyyyttttttttttttttttttttttttytttqqqqttttqqqqttttttqty7qyq7q7tyytq77q7qtq777qy7qy7qfq7ttq7qttttqq7qqqqqqqqqqqqqqqqqqqqqqqqqqq77qqqqqq77qtq77qqqqqq7777777777q77qq77qq77777777777777777777777777777777777777777777777777777777777777777333373333777733333333333333333333333377333333333333333333333333333:::::333:::",
"kkkkkfffkffkkyykkkfyyfffyyyyyyttyyfkkffyykfyytqfffffffffyyffxkfyykkffkxfkkkkkkkkyffkkffykkkkfffykkffxfykyyyyyyyfyffyfkkfffffffffftttyffykftqykftqykftqtftyffytttftqtyyyyfkffffffyttyfkkkfkfyyyytfyyyfyyytfytfyttffyyyyyffyykkfyyytfftfxfyyyyyyyyyyyyfffyyffytyfffyytfyfftqyfttyttyffytttykfykfyftyfyyfytyyyyyyyyfytfyqktyytttyytttttttttqtyyffffttttttttttttqttttttttttttttqqqqqttttqqqqtttttttty7qyq7qqyytq777q7qtq777qtqqt7qyt7qtq7qttttqq7777qqqqqqqqqqqqqq7qqqqqqqqqq777qqqq77qtq77qqqqq77777qq7777qq7qq77q7q7qqqq7777777777qqqq777q77777777777777777777777777777777777777773333373337777733333333333333333333333377333333333333333333333333333:::::333:::",
"kkkkffffkffkkyfkkkfyyffkfffffyttyykkkfffykkyytqfffffffffyfyfxxyyykkffkxfkkkkkkkkffkxkkffkkffffkkkkyfkytfffffffffyyyffyfkffffffffytqtyffyfq3qyytqtfftqyfyttyyttttftqyfyyyffffyyyyyyytyfkkfkfyyyytfytyfytt7fftffyyfyyyyyyyfffkfyyfkqtktykyyyyyyyyyyyyyffyytffyttyyfftfykfftqyfttytqykkytttykfykftftyyyyyytyyyyyyttfytfyqktyytqtyfyttttttttttyyyyyyttttttttttttqqtttttttttttttqqqqqttttqqqqtttttqqqf7qyq7tyttq7qqqq7qtq7777qtqqttqy7ttq7qttttq77777qqqqqqqqqqqqqqqq777qqqqq7777qqqq77qtt77q7qqqq7337qqq737qqqqq7777qqqqqqqq77777777qq7777qq777777777777777777777777777777777777777773773333777777333333333333333333333377773333333333333333:3::3:33::3:33:::3::::",
"kkkkffffkffkkffkkkfyyffkffkkkfytyykkffffykkyyqqfffffffffyfyfxxyyykkffkxfkkkkkkkkkkxxxxkkfffyfkxvkkyykyqffffffffffyykftyxffffffffytqtyyyyfyykftykyky77fktyyfyyyyffytyffyyyyyyyyyyykfttfkkfkkyyyyqfyyyftqq3kktyffyyyyyyyyyffkkfyykx7tkyyftyyyyyyyyfyyyyyyytyftttyyfktktxyktqyfttytqykkftttykffkftytyyyyyytyyyyytttfytfyqktfftqqffytttyyyyyfyytttttttttttttttttqqtttttttttttttqqqqqttttqqqqtttttqqqkqqytqyfq777qtqq7qtq77777t77yt7y7qtq7qttttq73377qqqqqqqqqqqqqqq77777qqqq77777qqq77qttq7q7qqq77337qqq337qqqqq7777qqqqqqqq77777777qqq777qq777777777777777777777777777777777777777777777777777773333333333333333333333777773333333333333333::::::33333:33::::::::",
"kkkkkkffffyyyyfffkftykktffkkkkfykkkkkkkkkkffffyyyfkkfffkyffkkkffyfffkkkxffffffffykkyykkykkffkkkfyyffffffxyqqfxftyttfkfytyyfffkkkftqtyttyyffyyfyqtyyfyytqkytyffyyqyyttffyffffyyyyfytffyyyyyyyfyyyyyyyyyyyykkytyfyyytyyyyytyyytttyffyyyyyyyyyyyyyyftfkyttqyqfkqtktfyyyffytyfkkfyyykkyqytqyfyyttyyftqfkqyktttttttttttyfkkfyttyyytttqkqyt7kttttyyyyytttttttttqyfqqttyq7tyyq7ytqqttqqq3fq7y7ffyq7qtttqqqq77qqq7qttqqq777qq7733qyt7777ttttttqq7qq77tt7qqqqqqqqt77qqq7q7tq7qq7qqqqqqqqq7737qqq7777qq7377777777777q77777777777777777777777q77377qq733qq77777777777777777337777777733377q3::37q773333333733333333333333333333333333333333333::::333::::::::::::::::::::",
"kkkkkfffffyyyyffffyyfkfyffkkkffykkkkkkkkffffffyyyfkkfffkyyfkkkfffffkfkkkfffffffffkkfffkfkfffkkffffffffffkytyfkfyfttfffyyffffffyyxt3qfkt7yyytyfyqyyyyyyttkytyffyytyttykftffffyyyyfytffyyyyytyfyyyyyyyyyyyykkytyfyyyyyyfyytyyyytyyffyyyyyyyyyyyyyyytfkytyt7qfvkfy7fyyyyyyyfyyyyyyyyfttfytyfyytyyyyttfftyftttttttttttyyffyyttyyytttqkqtt7kttttyyyyyyttttttttqyfqqttyqqtyyqqtttqqtqqt3yqqy7yftq7qtttqttqqqqtq7qttqqq77qqqq77qqtq77qqtttttqqq7qq77qq7qqqqqqqqt77qqq7q7tq7qq7qqqqqqqqq7737qqq7737qq7377777777777q77777777777777777777777q77373qq733qq77777777777777777337777337733377q33337q773333333733333333333333333333733333333333333:::::3333::::::::::::::::::",
"kkkkfffffffyyfffkyyfkffyffkkkffyfkkkkkffffffffyyyfkkfffkyffkkkfykkkkffffffffffffkffkkffkffyyfffyffffffffyyffffyykytyfyyykfffytttktqtkfq3yytttyytyyyttyyyfytfffytyyttykftffyyyyyyfyyfffyyfyyffyyyffyyyyyyfkkyyyfyfyyyffffyyyyytyyffyyyyyyyyyyyyyyytfkytytyfytffyfyyyyyyffkyttyyytqyttffyfyyyyyyyytfytyytttttttttttyyytttyttyyyttttftttqftttttyyyyyttttttttqyfqqyytqqtytqqttttqqqqt7tqqyqtftq7qttqttttqqtyq7qttqqq7777qqqqttq777ttqttttqqq7qqqqqqqqqqqqqqqtq7qqq7q7tq7qq7qqqqqqqqq7777qqq7737qq3377777777777q77777q7777777777777777qqq7777qq737qq777777777777777773377773377333777333377773333333333333333333333333337733333333377333:::33333333:3333:::::::::::",
"kkkkffffffffffffkttfkfyfyfkkkffyfkkkkfffffffffyyyfkkfyfkyffkkkfykkkkffyyffffffffkyykkyykfyyyfffykkfffffftykkkfyykyttyyyfffyyttttyykkytqqyyyttyyyfytttyyffyyffyttytttyffyffyyyyyyfyyfffyfyyyffyyyfyyyyyyyfffyyyfyffyyffkfyyyyyyyyffyyyyyyyyyyyyyyytfkytytkxq7fftxtyyyyyyffyttyyyytyttfftyyyyyyyyttktqffqttttyyttttyytqqqtttyyyttttytqqtyttttttyyytttttttttqtfqqyytqqtytqtqtytqqqqtqqqtyqqft77qttqqtttqqttq7qttqqqqq77qqtttq777qttqqttttqqqqqqqqqqqqqqqqqqt77qqq7q7tq7qq7qqqqqqqqq77777qqq737qq77q7777337777qq777777777777777777777qqq7777qq733qq7777777777777777733777733777333777333377733333333333333333333333333377333333333373333::3333333333333:::::::::::",
"kkkfffffffffffffkytfkfyfyffkkfyyffkkkkfffffffyfyyfkffyfkyffkkkfykkkkffyyffffffffkyykkyykfytyfffyxkffyffktykkkfyykyttyyyfyyyyyyyytfkkytttffyyyyfffyyttyffyyyfkyttttyyytyffffyyyyyfytfffyffyyffyyyffyyyyyyfyyfffyffyyyyffffyyyyyffffyyyyyyyyyyffffytfkytyytfttxkqytyffyyyfyfffyyyyfktqytqttyyffyyttktqffqtttyyyyttttttq7qtttytytttyyyqqyttttttttyyttttttttt7tyqqyyqqtyytqtqtyytqqqtt7qttt7ft777qqqqqqq77qqqqqttq7qqqqqqqttqq777qqqqqtttqqqqq7qqqqqqqqqqqqqtq7qqq7q7tq3qq7qqqqq77qq7qqq777q777qq77q777733377qqq7777777777777777777777qq77777q7337q777777777777777777377777733337333777733333333:333333333333333333333373333333333773333::3333333333::::::::::::::",
"kkffffffffkkkkffkyyfkffyyffkkfyyffkkkkfffffffyyyyfkffyfkyffkkkfykkffffffffffkffkkffkkffffyyyfkfyxkfyyfkxyyffkkfykytyfyyyyyyyyyffyyyyfkfqfyfffyfkfyyyyyyyttykkyttttffyqykffyfyyyyfyyfkfyffyyffyyyffyyyyyyfyyfffyffyttyfffkfyyyfffffyyyyyyyyyyffffytfxytffyfttyytyyyyyyyyftfkkfyyykktqttqtttyyfyyytfytyytttttyyytttttttqttttytytttftyqqftttttttttttttttttttqtyqqyyqqtytqqyttyttqqqqt7ttqyqft777qqq77q7777qqqqttq7qqqqqqqqt7qqqq777qqtttqqqq77qqqqtqqqqqqqqtq7qqq7q3t73qq7qqqqq77qqqqqq777q777qq7qtqq7333337qqq7777777777337777777777q77777q7733773777777777777777733777777333333337777333333:3:333333333333333333333373333333333773333::3333333333::3:::::::::::",
"kkffffffffkkkkffffyyfkfyyyfkffyyfffkkkffffffyyyyyfffyyfkyyfkkkfyfffffffkkkkkfkfkfkkfffkfkfffkkfyxkfyyfkxkftykxkyfttfffyyfffffyyytyttykkfttyfyttfyyfffyytttykkyttttyfytykffffyfyyfyyfkffffyyffyyyfyyyyyyyfttfkfyfytqqtyffkfyyyfffffyyyyyyffyyyyfyytkxttffkytq3qfffyyyyfyyyyffyyyyyftqyyqttttyyfffttyyqyfttytyyyytqqttyyytttyyytttftfqqfqttttttttttttttttttqty7qyf7qtytqtyyttttttq7y7tt7yqft777qqqqqqq7qqtqqqttq7qqqqqqqqqqqtq777qqqqtqqqqq77qq7qtqqqqqq77tq7qqq7q3t73qq7777777777qqtqq77q777qq7qtqq7333337qqq7777777773337777777777q77777q77337737777777777777777337777773377733:77q7333333:::33333333333333333333333333333333377333:::333333::::::::::::::::::",
"kkffffffffkkkkfffkftykktyyfkffyyffffkkffffffyyyyyfffyyffyyfkkkfyyyyfffkkkkfkkkffykkyykkykkffkkkfxkfyyfxvxfqtkxkyyttfkfytxxkkfytt3ykyqyxMqqtyyqqyyyfffyttttfkkyttyttyfyyffffffyyyfyyfkffffyyffyyyffyyyyyyfttfkfyfytqqtyyfkfyyffffffyyyyyyffyyyfffytkkttfkyqfkqqyqfyyyffytfyttyyytqtqqfytyqttyyfffq7yf7tkttyyyyyytqqqyffytttyyytttktf7qkqttttttttttttttttttqty7qyf7qyytqtffytttytt3y7yt3ftft777qqqttttqqttqqqttq7qqqqqqq77qtyt73qtqqqtqqq7q77qq77tqqq77q77t77qtq7q3q73qq7777777777qqtqq77q777qq7qtqq73::337qqq7777777773337777777777q77733777337737777777777777777337777333377733:77q73::333::333333333333333333333333333333333377333:::3333::::::::::::::::::::",
"ffffffffffffffffffffffffyyyyyyyykkkkffffyffttfkfftykktyxxfkxkttkffttfkfkxytkxffffffkfkkkkkffffffkkyyfkyqyttfkkkkfffffyyykffyytttqttqqyyt:ykyqtyykkftykftkkfyq7qyyqqyftykyqqtyytyxfttykkkkyqtffffyyfyyyfkffyttyyfyyyyfffyyyfffyytqyfftqtyqykkyttyfttytyfyffffytyyyyyyffffyttyfytqqZ+x7tyfy7yxttft7fkt3qyyqtffttyqykq7fyqyfttyt7qyyyyyyyyytq7qqtttyttttqtyttqqqqtttyqfqyqtt7y7y7tqqqqyytqtt7:3qtttqqqqqqqqtq7qqtq7qqqqqqqqfq7qt77ttq7777737qq33qq7qqqqqqqq3q73qq7q337qq33ttq77333777777777qq777777773333777777777777733377qqqq7377qqq77q73777777777777777777777733773733337qq73333333333333333333333333333333333333333333333333333333:3:::3::::37733:::::::::::-",
"ffffffffffffffffffffffffyfffyyyykkkkffffyfyttffffyykktyxxffxkttkffttfkfkfffkkffkfffkfkkkkkffffffkkyyfkftyyfkfffxfffffyfykffyytttqyfyyyyq7ykytqtykkfyyffyyyffyqtykfyytqtyfttfkfyfkyqtyffyt77qtttyyyyfffffffyttyffyyyyffffyyfffyyytyfyttyftyffyttyfttytyfyffffytyyyyyyyfffyytyfftqqM-kttffyqyfyyyytyytqtttqtffttyqtfq7fyqyyttttqqyyyyyyyyyttqqqtttyfyq7ttqtqqqqqtttyqfqyqttqy7y7tqqqqyytqtq737qtttqqqqqqqqtq7qqtq7qqqqqqqqtq7qq77qqq77qq777q773qq7qqqqqqqq7q73qq7q7777737ttq73337777777777qq777777777337777777777777733777qqqq7337qqq77q73777777777777777777777733777733337qq73333333333333333333333333333333333333333333333333333333:3:::::::333333::-::::::::-",
"ffffffffffffffffffffffffyyfffffykkkffffffyyyyyfkfyfkfyyxxffkftykfkttkkfkykxkyfkkfffkfkkkkfffffffkkfyfffttyfkfyfvffffffyykkfyyttttfkffftqyyffyqqyfffffyyfqtfkfttyyfyq7tfffytykfyyfyqtyyyt777ttqtyyytykkftffyttyfffyffffffffyyyfffffyyyyffyyyyyyyffttytyfyyfffyyyyyyyyyyyyyttyfftqtx3tyqfyyytykftyytqtyyttqtffqtyqtyqqyytytyytqtttyyyyyyyyytqqqtttykf33yyqtqqqqqttqyqfqyqttqt7yqtqqqtyyqqqqqqqqqqqqqqqqqqqtq7qttq7qqqqqqqqqttq77q7q777qtq77q777qq7qqqqqqqq7t73q73q7q7337qqqq77337777777777q77777777773777777777777777337777qq77377qq7377737777777777777777777777333777333377q73333333333333333333333333333333333333333333333333333333::::::::::33333::::::::::::",
"ffffffffffffkkkkffffffffyyffffffffffffffkttyytykyffkfyfkkfffyyfkfkttfkfkykxfykkffffkfkkkffffffffkkfyyffyyyfkfyfxffffffyfkkfyyyttkkkffyytkyyfyqqyfyykftykqtfkftqttyy7qfkyttqtyyttytqtyyt7qtykfyykfyyyffyyffyttyffffffffffffyyyffkkfttyfkkkytqtyfffttytyfyyyffyyyyyyyfyyyyyttyfytqtkt7k7kytyqqxfqyyq7yfttyqtffttfqttttyyyy7yytqyyqyyyyyyyyytqqtttttyyqqtyqtqqqqqttqyqfqyqtqqtqtqtqqqtyyqqq7qttq7qqqqqqqqqqtq7qttq7qqqqqqqq3ty73qq7777qtttq77777qqqqqqqqqqq7tq7q73qqtq::7qqqq77777777777777q777777777777777777777777777777777777777qq7337733377777777777777777777333733333377773333773333373333333333333333333333333333333333333333333::::::::::333333:::::::::::",
"ffffffffffffkkkkffffffffffffffffyyyfffkkkttyytykyfkfyyfkfffyyfkkffttfffkfkkyfxkyfffkkkkkfffffffyfkkytyfyfyyfkffffffffyyykkffyyyyvkfyttyfxytfyqqyfyykfqtkffffyq7tkkyqtfy3ttttyfyqytttytq7yfkxkyykfffyttyfffyttyffffffffffffyyyffkkfyyyfffkytqtyfffttytyfyyyyffyyyyfffyyyyyttyfftqtff3kqkytyqqxfqyyqtffttfqqyyqyftqqtytyfy7yytqyyqyyyyyyyyttqqtyyytqqyftqyttqqqqqtqyqfqyqtqtqtqtqqqqqytqqq7qytq77qqqqqqq77tq7qttqqqqqqqqqq3tt77qq7777qtytq777777qqqqqqqqqq7tq7q73qqtq::qq77q77777777777777q77777777777777777777777777777qq77777777qq7377733333777777777777777777333333333337773333773333773333333333333333333333333333333333333333333:::::::::::::33333:::::::::",
"ffffffffkkkkkkkkffffkkkkffffffffttyyffkkfytyytyfykxfyfkfffyttkxkfftqfffkkkfykkkyfffkkkkkffffffyyfkkytyyykfyfkffffffffyyykkffyyyyxfttqqykkfyyytyffyyfytyfkffft77tfyttyfyqyyyyfkftyyyyyytqyffkyqqtkkfyqqykffyttyyfyffffyffffyyyfffkfyyffytkytttyyyfttytyfyyyyfffyttyffyyyyyttyfftqtfk3ktfyttqtfyqtttyytqtfqqyyqyftq7yfttfyqyytqtttttttyyyyttqqtyyyt3qkkq7yttqqqqqtqyqfqyqtqt7y7tqtq7qttqqq7qttq77qqqqqqq77tq7qttqqqqqqqqqq7qq77qqq7777ttqqq777q77qqqqqqqqq7tq7qq7qqq777qq77777qqqqqq7777qqq7777777q777777777777777777777qq77777773qq733773333337777777777777777733333333333377333377333377333333333333333333333333333333333333333333::33::::33:::::333333:::::::",
"ffffffffkkkkkkkkfffkkkfkffffffffttyyffkkyyyttyfftkxfykkffkyqqkvkfftqffykkffkkffkfffkkkkkfffffyyyfkkfttfffffkfyyffffffyyykkffyyyyfttyyttyfffttyfkfffytyytfyyyt7qttqqtyyfkyyfyfkftyyffffytyyyftq7qkkfyttyyffyttyyfyfyyffffyyfffyyyyyyffytqffyyyyttfttytyfyyyyfffyttykkyttyyttyfftqtfk7yfyyyqtfytyttfftqtyyqqyyqtftt7yfqtftyttttqqytttttyyyyttttyyyt7tfftqtttqqqqqtqyqfqyqtqt7y7yqtq7qttqqqqqqqq7777qqqq777tq7qqtqqtttqqqtttq7qqq7qq737qq77q37qq77q77qqq7777t77tq7tq77qtq77777qqqqqqqq7777qqq777777q777777777777777777777qq73377773qq7337733333337777777777777777333333333333773333777777773777333733333333333333333333333333333333::::::::::33:::-::33333:::::::",
"ffffffffkkkkkkkkfffkkkfffffffffftttyffkktfyqqffytxxyykxfyky7qxvkfftqffykfyfxkyyxfffkkkkkfffffyyyfkxfttffffkkftykfffffyyykkffyyyyqqtfftqttkktqykkfkfttffqttyfyqtyfyyyq7txqtttyfy7fffffffyfyyfyqqtkfyyffytffyttyffyyyyyfffyyfffyyttyffftq7fffyytttfttytyfyyyyfffyttykkyttyyttyfftqtfkqykyyy7ykttftyffqqyytqqyyqtftt7ykqtftfttyt7qytttttyyyfytttyyyqtyttttqttqqqqqtqyqfqyqtqy7y7y7t77qttqqtqqqqq7777qqqq777tq7qqtq7tttqqqttfq3qt77ttq337q73q33qq77q7777q77q7q77tq7tq37tyq37777qqqqqqqqq77qqqq777777qq77777777777777777777qq73337773qq7337733333337777777777777777333333333333733333777777773777333733333333333333333333333333333333::::::::::33:::-::33333:::::::"
};
