/* XPM */
static char *_3ba1b3f5e8f4226e6aa03cf03bf6f27wAwSrUnKNWGuEe4E[] = {
/* columns rows colors chars-per-pixel */
"225 225 256 2 ",
"   c #0C0A0A",
".  c #100806",
"X  c #150C0B",
"o  c #190E0C",
"O  c #170706",
"+  c #1A100E",
"@  c #16160B",
"#  c #0E1619",
"$  c #121313",
"%  c #1C1412",
"&  c #131B1C",
"*  c #1B1919",
"=  c #120F0F",
"-  c #240500",
";  c #240A01",
":  c #2B0C02",
">  c #280703",
",  c #340E01",
"<  c #3B0D01",
"1  c #360D08",
"2  c #28170A",
"3  c #371104",
"4  c #3B1305",
"5  c #3B1609",
"6  c #37180B",
"7  c #251C1B",
"8  c #241B16",
"9  c #391C16",
"0  c #1B231B",
"q  c #182319",
"w  c #172310",
"e  c #2C210B",
"r  c #31210C",
"t  c #24231C",
"y  c #282217",
"u  c #3C2319",
"i  c #352417",
"p  c #29331D",
"a  c #151F21",
"s  c #1A1C23",
"d  c #191523",
"f  c #1F1D32",
"g  c #2C1C26",
"h  c #1C2325",
"j  c #1D262A",
"k  c #1B2729",
"l  c #1E2732",
"z  c #14332E",
"x  c #232423",
"c  c #2B2225",
"v  c #242A23",
"b  c #232C2D",
"n  c #2B2D2B",
"m  c #262829",
"M  c #3A2523",
"N  c #382B27",
"B  c #2C322B",
"V  c #28332A",
"C  c #36342D",
"Z  c #232D34",
"A  c #272935",
"S  c #263135",
"D  c #2E3234",
"F  c #293538",
"G  c #333233",
"H  c #373538",
"J  c #352D37",
"K  c #431307",
"L  c #571A0B",
"P  c #4D1D13",
"I  c #491C18",
"U  c #501E15",
"Y  c #591E12",
"T  c #490E05",
"R  c #6A1E0B",
"E  c #711C10",
"W  c #5E240E",
"Q  c #4F2016",
"!  c #45251A",
"~  c #512117",
"^  c #542219",
"/  c #5B2819",
"(  c #45220F",
")  c #6B240B",
"_  c #69280A",
"`  c #66220C",
"'  c #76270B",
"]  c #652411",
"[  c #682512",
"{  c #6D2D15",
"}  c #6E2D19",
"|  c #632A17",
" . c #752B14",
".. c #712F19",
"X. c #792B16",
"o. c #6D321B",
"O. c #64311D",
"+. c #72311B",
"@. c #773315",
"#. c #7C330D",
"$. c #422D29",
"%. c #44322E",
"&. c #48382C",
"*. c #493633",
"=. c #463733",
"-. c #55332B",
";. c #7D2E21",
":. c #743A23",
">. c #66352C",
",. c #461B24",
"<. c #35443C",
"1. c #504239",
"2. c #764832",
"3. c #7D421A",
"4. c #373A44",
"5. c #494648",
"6. c #6C5150",
"7. c #746761",
"8. c #3C3F45",
"9. c #853B1B",
"0. c #8C3B1B",
"q. c #863716",
"w. c #913619",
"e. c #933D1C",
"r. c #943E17",
"t. c #803110",
"y. c #812E21",
"u. c #8B3B25",
"i. c #933E25",
"p. c #893D31",
"a. c #87431B",
"s. c #8A421D",
"d. c #8C491F",
"f. c #864317",
"g. c #934016",
"h. c #96431B",
"j. c #91531A",
"k. c #8E4323",
"l. c #8C4B23",
"z. c #8D4C2A",
"x. c #884624",
"c. c #924425",
"v. c #924C26",
"b. c #9B4B26",
"n. c #95432C",
"m. c #9B452C",
"M. c #954B2B",
"N. c #9A4E2E",
"B. c #9B4323",
"V. c #8C5227",
"C. c #95522C",
"Z. c #9B522D",
"A. c #9A5529",
"S. c #8F4F34",
"D. c #864A37",
"F. c #9A4631",
"G. c #944F34",
"H. c #9C4C32",
"J. c #934B3C",
"K. c #89563B",
"L. c #945335",
"P. c #9D5433",
"I. c #9C5A35",
"U. c #945539",
"Y. c #9C533A",
"T. c #9D5B3A",
"R. c #965A33",
"E. c #A34A26",
"W. c #A44C2A",
"Q. c #A34727",
"!. c #A1522D",
"~. c #A9542E",
"^. c #A14C31",
"/. c #A14E38",
"(. c #A15635",
"). c #A15837",
"_. c #A45B3B",
"`. c #A95E3E",
"'. c #A85837",
"]. c #B25739",
"[. c #9D633B",
"{. c #986236",
"}. c #A6613E",
"|. c #AA633C",
" X c #A8663B",
".X c #B4673B",
"XX c #AC602F",
"oX c #A0471F",
"OX c #9C5B44",
"+X c #8C5A46",
"@X c #A45D43",
"#X c #A85842",
"$X c #B15E42",
"%X c #986449",
"&X c #85695B",
"*X c #896B5D",
"=X c #976C54",
"-X c #A26443",
";X c #AA6442",
":X c #AE6846",
">X c #A86948",
",X c #B16646",
"<X c #B26A45",
"1X c #BA6B42",
"2X c #B26C4A",
"3X c #B5674C",
"4X c #AD755D",
"5X c #B27359",
"6X c #AD6E51",
"7X c #856965",
"8X c #8B6D63",
"9X c #917466",
"0X c #B07A60",
"qX c #B57768",
"wX c #A77868",
"eX c #C36C4D",
"rX c #C6663C",
"tX c #AF8974",
"yX c #D29078",
"uX c #AB9A93",
"iX c #D0ADA0",
"pX c #D6C9B8",
"aX c #D8CAB6",
"sX c #D5D0BC",
"dX c #E6C7BB",
"fX c #DBC8C2",
"gX c #DED9CB",
"hX c #EDD5CB",
"jX c #E7E2DF",
"kX c #EAE6D7",
"lX c #F8EBD9",
"zX c #F8F0DB",
"xX c #F3E2C9",
"cX c #E8E3E0",
"vX c #E8E3E1",
"bX c #F6ECE2",
"nX c #FFEDE5",
"mX c #F8EAE8",
"MX c #FCF7EB",
"NX c #ECFAF8",
"BX c #F5FDF6",
"VX c #FEFEF2",
"CX c #FEF5FD",
"ZX c #F6FEFE",
"AX c #FAFEFF",
"SX c #F9FEFF",
"DX c #FFFFFD",
"FX c #FFFCFF",
"GX c white",
"HX c #FEFFFF",
"JX c #FDFDFF",
"KX c #FFFFFF",
"LX c #F7F4F6",
"PX c #F1F4EF",
"IX c #E8DDE6",
"UX c #B6B9C2",
/* pixels */
"GXGXGXGXGXGXGXGXGXGXGXGXGXGXGXGXGXGXGXGXGXGXGXGXGXGXGXGXGXGXGXGXGXGXGXGXGXGXGXGXGXGXGXGXGXGXGXGXGXGXGXGXGXGXGXGXGXGXGXGXGXGXGXGXGXGXGXGXGXGXGXGXGXGXGXGXGXGXGXGXGXGXGXGXGXGXGXGXGXGXGXGXGXGXGXGXGXGXGXGXGXGXGXGXGXGXGXGXGXGXGXGXGXGXGXGXGXGXGXGXGXGXGXGXGXGXGXGXGXGXGXGXGXGXGXGXGXGXGXGXGXGXGXGXGXGXGXGXGXGXGXGXGXGXGXGXGXGXGXGXGXGXGXGXGXGXGXGXGXGXGXGXGXGXGXGXGXGXGXGXGXGXGXGXGXGXGXGXGXGXGXGXGXGXGXGXGXGXGXGXGXGXGXGXGXGXGXGXGXGXGXGXGXGXGXGXGXGXGXGXGXGXGXGXGX",
"GXGXGXGXGXGXGXGXGXGXGXGXGXGXGXGXGXGXGXGXGXGXGXGXGXGXGXGXGXGXGXGXGXGXGXGXGXGXGXGXGXGXGXGXGXGXGXGXGXGXGXGXGXGXGXGXGXGXGXGXGXGXGXGXGXGXGXGXGXGXGXGXGXGXGXGXGXGXGXGXGXGXGXGXGXGXGXGXGXGXGXGXGXGXGXGXGXGXGXGXGXGXGXGXGXGXGXGXGXGXGXGXGXGXGXGXGXGXGXGXGXGXGXGXGXGXGXGXGXGXGXGXGXGXGXGXGXGXGXGXGXGXGXGXGXGXGXGXGXGXGXGXGXGXGXGXGXGXGXGXGXGXGXGXGXGXGXGXGXGXGXGXGXGXGXGXGXGXGXGXGXGXGXGXGXGXGXGXGXGXGXGXGXGXGXGXGXGXGXGXGXGXGXGXGXGXGXGXGXGXGXGXGXGXGXGXGXGXGXGXGXGXGXGXGX",
"GXGXGXGXGXGXGXGXGXGXGXGXGXGXGXGXGXGXGXGXGXGXGXGXGXGXGXGXGXGXGXGXGXGXGXGXGXGXGXGXGXGXGXGXGXGXGXGXGXGXGXGXGXGXGXGXGXGXGXGXGXGXGXGXGXGXGXGXGXGXGXGXGXGXGXGXGXGXGXGXGXGXGXGXGXGXGXGXGXGXGXGXGXGXGXGXGXGXGXGXGXGXGXGXGXGXGXGXGXGXGXGXGXGXGXGXGXGXGXGXGXGXGXGXGXGXGXGXGXGXGXGXGXGXGXGXGXGXGXGXGXGXGXGXGXGXGXGXGXGXGXGXGXGXGXGXGXGXGXGXGXGXGXGXGXGXGXGXGXGXGXGXGXGXGXGXGXGXGXGXGXGXGXGXGXGXGXGXGXGXGXGXGXGXGXGXGXGXGXGXGXGXGXGXGXGXGXGXGXGXGXGXGXGXGXGXGXGXGXGXGXGXGXGXGX",
"GXGXGXGXGXGXGXGXGXGXGXGXGXGXGXGXGXGXGXGXGXGXGXGXGXGXGXGXGXGXGXGXGXGXGXGXGXGXGXGXGXGXGXGXGXGXGXGXGXGXGXGXGXGXGXGXGXGXGXGXGXGXGXGXGXGXGXGXGXGXGXGXGXGXGXGXGXGXGXGXGXGXGXGXGXGXGXGXGXGXGXGXGXGXGXGXGXGXGXGXGXGXGXGXGXGXGXGXGXGXGXGXGXGXGXGXGXGXGXGXGXGXGXGXGXGXGXGXGXGXGXGXGXGXGXGXGXGXGXGXGXGXGXGXGXGXGXGXGXGXGXGXGXGXGXGXGXGXGXGXGXGXGXGXGXGXGXGXGXGXGXGXGXGXGXGXGXGXGXGXGXGXGXGXGXGXGXGXGXGXGXGXGXGXGXGXGXGXGXGXGXGXGXGXGXGXGXGXGXGXGXGXGXGXGXGXGXGXGXGXGXGXGXGXGX",
"GXGXGXGXGXGXGXGXGXGXGXGXGXGXGXGXGXGXGXGXGXGXGXGXGXGXGXGXGXGXGXGXGXGXGXGXGXGXGXGXGXGXGXGXGXGXGXGXGXGXGXGXGXGXGXGXGXGXGXGXGXGXGXGXGXGXGXGXGXGXGXGXGXGXGXGXGXGXGXGXGXGXGXGXGXGXGXGXGXGXGXGXGXGXGXGXGXGXGXGXGXGXGXGXGXGXGXGXGXGXGXGXGXGXGXGXGXGXGXGXGXGXGXGXGXGXGXGXGXGXGXGXGXGXGXGXGXGXGXGXGXGXGXGXGXGXGXGXGXGXGXGXGXGXGXGXGXGXGXGXGXGXGXGXGXGXGXGXGXGXGXGXGXGXGXGXGXGXGXGXGXGXGXGXGXGXGXGXGXGXGXGXGXGXGXGXGXGXGXGXGXGXGXGXGXGXGXGXGXGXGXGXGXGXGXGXGXGXGXGXGXGXGXGXGX",
"GXGXGXGXGXGXGXGXGXGXGXGXGXGXGXGXGXGXGXGXGXGXGXGXGXGXGXGXGXGXGXGXGXGXGXGXGXGXGXGXGXGXGXGXGXGXGXGXGXGXGXGXGXGXGXGXGXGXGXGXGXGXGXGXGXGXGXGXGXGXGXGXGXGXGXGXGXGXGXGXGXGXGXGXGXGXGXGXGXGXGXGXGXGXGXGXGXGXGXGXGXGXGXGXGXGXGXGXGXGXGXGXGXGXGXGXGXGXGXGXGXGXGXGXGXGXGXGXGXGXGXGXGXGXGXGXGXGXGXGXGXGXGXGXGXGXGXGXGXGXGXGXGXGXGXGXGXGXGXGXGXGXGXGXGXGXGXGXGXGXGXGXGXGXGXGXGXGXGXGXGXGXGXGXGXGXGXGXGXGXGXGXGXGXGXGXGXGXGXGXGXGXGXGXGXGXGXGXGXGXGXGXGXGXGXGXGXGXGXGXGXGXGXGXGX",
"GXGXGXGXGXGXGXGXGXGXGXGXGXGXGXGXGXGXGXGXGXGXGXGXGXGXGXGXGXGXGXGXGXGXGXGXGXGXGXGXGXGXGXGXGXGXGXGXGXGXGXGXGXGXGXGXGXGXGXGXGXGXGXGXGXGXGXGXGXGXGXGXGXGXGXGXGXGXGXGXGXGXGXGXGXGXGXGXGXGXGXGXGXGXGXGXGXGXGXGXGXGXGXGXGXGXGXGXGXGXGXGXGXGXGXGXGXGXGXGXGXGXGXGXGXGXGXGXGXGXGXGXGXGXGXGXGXGXGXGXGXGXGXGXGXGXGXGXGXGXGXGXGXGXGXGXGXGXGXGXGXGXGXGXGXGXGXGXGXGXGXGXGXGXGXGXGXGXGXGXGXGXGXGXGXGXGXGXGXGXGXGXGXGXGXGXGXGXGXGXGXGXGXGXGXGXGXGXGXGXGXGXGXGXGXGXGXGXGXGXGXGXGXGXGX",
"GXGXGXGXGXGXGXGXGXGXGXGXGXGXGXGXGXGXGXGXGXGXGXGXGXGXGXGXGXGXGXGXGXGXGXGXGXGXGXGXGXGXGXGXGXGXGXGXGXGXGXGXGXGXGXGXGXGXGXGXGXGXGXGXGXGXGXGXGXGXGXGXGXGXGXGXGXGXGXGXGXGXGXGXGXGXGXGXGXGXGXGXGXGXGXGXGXGXGXGXGXGXGXGXGXGXGXGXGXGXGXGXGXGXGXGXGXGXGXGXGXGXGXGXGXGXGXGXGXGXGXGXGXGXGXGXGXGXGXGXGXGXGXGXGXGXGXGXGXGXGXGXGXGXGXGXGXGXGXGXGXGXGXGXGXGXGXGXGXGXGXGXGXGXGXGXGXGXGXGXGXGXGXGXGXGXGXGXGXGXGXGXGXGXGXGXGXGXGXGXGXGXGXGXGXGXGXGXGXGXGXGXGXGXGXGXGXGXGXGXGXGXGXGXGX",
"GXGXGXGXGXGXGXGXGXGXGXGXGXGXGXGXGXGXGXGXGXGXGXGXGXGXGXGXGXGXGXGXGXGXGXGXGXGXGXGXGXGXGXGXGXGXGXGXGXGXGXGXGXGXGXGXGXGXGXGXGXGXGXGXGXGXGXGXGXGXGXGXGXGXGXGXGXGXGXGXGXGXGXGXGXGXGXGXGXGXGXGXGXGXGXGXGXGXGXGXGXGXGXGXGXGXGXGXGXGXGXGXGXGXGXGXGXGXGXGXGXGXGXGXGXGXGXGXGXGXGXGXGXGXGXGXGXGXGXGXGXGXGXGXGXGXGXGXGXGXGXGXGXGXGXGXGXGXGXGXGXGXGXGXGXGXGXGXGXGXGXGXGXGXGXGXGXGXGXGXGXGXGXGXGXGXGXGXGXGXGXGXGXGXGXGXGXGXGXGXGXGXGXGXGXGXGXGXGXGXGXGXGXGXGXGXGXGXGXGXGXGXGXGXGX",
"GXGXGXGXGXGXGXGXGXGXGXGXGXGXGXGXGXGXGXGXGXGXGXGXGXGXGXGXGXGXGXGXGXGXGXGXGXGXGXGXGXGXGXGXGXGXGXGXGXGXGXGXGXGXGXGXGXGXGXGXGXGXGXGXGXGXGXGXGXGXGXGXGXGXGXGXGXGXGXGXGXGXGXGXGXGXGXGXGXGXGXGXGXGXGXGXGXGXGXGXGXGXGXGXGXGXGXGXGXGXGXGXGXGXGXGXGXGXGXGXGXGXGXGXGXGXGXGXGXGXGXGXGXGXGXGXGXGXGXGXGXGXGXGXGXGXGXGXGXGXGXGXGXGXGXGXGXGXGXGXGXGXGXGXGXGXGXGXGXGXGXGXGXGXGXGXGXGXGXGXGXGXGXGXGXGXGXGXGXGXGXGXGXGXGXGXGXGXGXGXGXGXGXGXGXGXGXGXGXGXGXGXGXGXGXGXGXGXGXGXGXGXGXGXGX",
"GXGXGXGXGXGXGXGXGXGXGXGXGXGXGXGXGXGXGXGXGXGXGXGXGXGXGXGXGXGXGXGXGXGXGXGXGXGXGXGXGXGXGXGXGXGXGXGXGXGXGXGXGXGXGXGXGXGXGXGXGXGXGXGXGXGXGXGXGXGXGXGXGXGXGXGXGXGXGXGXGXGXGXGXGXGXGXGXGXGXGXGXGXGXGXGXGXGXGXGXGXGXGXGXGXGXGXGXGXGXGXGXGXGXGXGXGXGXGXGXGXGXGXGXGXGXGXGXGXGXGXGXGXGXGXGXGXGXGXGXGXGXGXGXGXGXGXGXGXGXGXGXGXGXGXGXGXGXGXGXGXGXGXGXGXGXGXGXGXGXGXGXGXGXGXGXGXGXGXGXGXGXGXGXGXGXGXGXGXGXGXGXGXGXGXGXGXGXGXGXGXGXGXGXGXGXGXGXGXGXGXGXGXGXGXGXGXGXGXGXGXGXGXGXGX",
"GXGXGXGXGXGXGXGXGXGXGXGXGXGXGXGXGXGXGXGXGXGXGXGXGXGXGXGXGXGXGXGXGXGXGXGXGXGXGXGXGXGXGXGXGXGXGXGXGXGXGXGXGXGXGXGXGXGXGXGXGXGXGXGXGXGXGXGXGXGXGXGXGXGXGXGXGXGXGXGXGXGXGXGXGXGXGXGXGXGXGXGXGXGXGXGXGXGXGXGXGXGXGXGXGXGXGXGXGXGXGXGXGXGXGXGXGXGXGXGXGXGXGXGXGXGXGXGXGXGXGXGXGXGXGXGXGXGXGXGXGXGXGXGXGXGXGXGXGXGXGXGXGXGXGXGXGXGXGXGXGXGXGXGXGXGXGXGXGXGXGXGXGXGXGXGXGXGXGXGXGXGXGXGXGXGXGXGXGXGXGXGXGXGXGXGXGXGXGXGXGXGXGXGXGXGXGXGXGXGXGXGXGXGXGXGXGXGXGXGXGXGXGXGXGX",
"GXGXGXGXGXGXGXGXGXGXGXGXGXGXGXGXGXGXGXGXGXGXGXGXGXGXGXGXGXGXGXGXGXGXGXGXGXGXGXGXGXGXGXGXGXGXGXGXGXGXGXGXGXGXGXGXGXGXGXGXGXGXGXGXGXGXGXGXGXGXGXGXGXGXGXGXGXGXGXGXGXGXGXGXGXGXGXGXGXGXGXGXGXGXGXGXGXGXGXGXGXGXGXGXGXGXGXGXGXGXGXGXGXGXGXGXGXGXGXGXGXGXGXGXGXGXGXGXGXGXGXGXGXGXGXGXGXGXGXGXGXGXGXGXGXGXGXGXGXGXGXGXGXGXGXGXGXGXGXGXGXGXGXGXGXGXGXGXGXGXGXGXGXGXGXGXGXGXGXGXGXGXGXGXGXGXGXGXGXGXGXGXGXGXGXGXGXGXGXGXGXGXGXGXGXGXGXGXGXGXGXGXGXGXGXGXGXGXGXGXGXGXGXGXGX",
"GXGXGXGXGXGXGXGXGXGXGXGXGXGXGXGXGXGXGXGXGXGXGXGXGXGXGXGXGXGXGXGXGXGXGXGXGXGXGXGXGXGXGXGXGXGXGXGXGXGXGXGXGXGXGXGXGXGXGXGXGXGXGXGXGXGXGXGXGXGXGXGXGXGXGXGXGXGXGXGXGXGXGXGXGXGXGXGXGXGXGXGXGXGXGXGXGXGXGXGXGXGXGXGXGXGXGXGXGXGXGXGXGXGXGXGXGXGXGXGXGXGXGXGXGXGXGXGXGXGXGXGXGXGXGXGXGXGXGXGXGXGXGXGXGXGXGXGXGXGXGXGXGXGXGXGXGXGXGXGXGXGXGXGXGXGXGXGXGXGXGXGXGXGXGXGXGXGXGXGXGXGXGXGXGXGXGXGXGXGXGXGXGXGXGXGXGXGXGXGXGXGXGXGXGXGXGXGXGXGXGXGXGXGXGXGXGXGXGXGXGXGXGXGXGX",
"GXGXGXGXGXGXGXGXGXGXGXGXGXGXGXGXGXGXGXGXGXGXGXGXGXGXGXGXGXGXGXGXGXGXGXGXGXGXGXGXGXGXGXGXGXGXGXGXGXGXGXGXGXGXGXGXGXGXGXGXGXGXGXGXGXGXGXGXGXGXGXGXGXGXGXGXGXGXGXGXGXGXGXGXGXGXGXGXGXGXGXGXGXGXGXGXGXGXGXGXGXGXGXGXGXGXGXGXGXGXGXGXGXGXGXGXGXGXGXGXGXGXGXGXGXGXGXGXGXGXGXGXGXGXGXGXGXGXGXGXGXGXGXGXGXGXGXGXGXGXGXGXGXGXGXGXGXGXGXGXGXGXGXGXGXGXGXGXGXGXGXGXGXGXGXGXGXGXGXGXGXGXGXGXGXGXGXGXGXGXGXGXGXGXGXGXGXGXGXGXGXGXGXGXGXGXGXGXGXGXGXGXGXGXGXGXGXGXGXGXGXGXGXGXGX",
"GXGXGXGXGXGXGXGXGXGXGXGXGXGXGXGXGXGXGXGXGXGXGXGXGXGXGXGXGXGXGXGXGXGXGXGXGXGXGXGXGXGXGXGXGXGXGXGXGXGXGXGXGXGXGXGXGXGXGXGXGXGXGXGXGXGXGXGXGXGXGXGXGXGXGXGXGXGXGXGXGXGXGXGXGXGXGXGXGXGXGXGXGXGXGXGXGXGXGXGXGXGXGXGXGXGXGXGXGXGXGXGXGXGXGXGXGXGXGXGXGXGXGXGXGXGXGXGXGXGXGXGXGXGXGXGXGXGXGXGXGXGXGXGXGXGXGXGXGXGXGXGXGXGXGXGXGXGXGXGXGXGXGXGXGXGXGXGXGXGXGXGXGXGXGXGXGXGXGXGXGXGXGXGXGXGXGXGXGXGXGXGXGXGXGXGXGXGXGXGXGXGXGXGXGXGXGXGXGXGXGXGXGXGXGXGXGXGXGXGXGXGXGXGXGX",
"GXGXGXGXGXGXGXGXGXGXGXGXGXGXGXGXGXGXGXGXGXGXGXGXGXGXGXGXGXGXGXGXGXGXGXGXGXGXGXGXGXGXGXGXGXGXGXGXGXGXGXGXGXGXGXGXGXGXGXGXGXGXGXGXGXGXGXGXGXGXGXGXGXGXGXGXGXGXGXGXGXGXGXGXGXGXGXGXGXGXGXGXGXGXGXGXGXGXGXGXGXGXGXGXGXGXGXGXGXGXGXGXGXGXGXGXGXGXGXGXGXGXGXGXGXGXGXGXGXGXGXGXGXGXGXGXGXGXGXGXGXGXGXGXGXGXGXGXGXGXGXGXGXGXGXGXGXGXGXGXGXGXGXGXGXGXGXGXGXGXGXGXGXGXGXGXGXGXGXGXGXGXGXGXGXGXGXGXGXGXGXGXGXGXGXGXGXGXGXGXGXGXGXGXGXGXGXGXGXGXGXGXGXGXGXGXGXGXGXGXGXGXGXGXGX",
"GXGXGXGXGXGXGXGXGXGXGXGXGXGXGXGXGXGXGXGXGXGXGXGXGXGXGXGXGXGXGXGXGXGXGXGXGXGXGXGXGXGXGXGXGXGXGXGXGXGXGXGXGXGXGXGXGXGXGXGXGXGXGXGXGXGXGXGXGXGXGXGXGXGXGXGXGXGXGXGXGXGXGXGXGXGXGXGXGXGXGXGXGXGXGXGXGXGXGXGXGXGXGXGXGXGXGXGXGXGXGXGXGXGXGXGXGXGXGXGXGXGXGXGXGXGXGXGXGXGXGXGXGXGXGXGXGXGXGXGXGXGXGXGXGXGXGXGXGXGXGXGXGXGXGXGXGXGXGXGXGXGXGXGXGXGXGXGXGXGXGXGXGXGXGXGXGXGXGXGXGXGXGXGXGXGXGXGXGXGXGXGXGXGXGXGXGXGXGXGXGXGXGXGXGXGXGXGXGXGXGXGXGXGXGXGXGXGXGXGXGXGXGXGXGX",
"GXGXGXGXGXGXGXGXGXGXGXGXGXGXGXGXGXGXGXGXGXGXGXGXGXGXGXGXGXGXGXGXGXGXGXGXGXGXGXGXGXGXGXGXGXGXGXGXGXGXGXGXGXGXGXGXGXGXGXGXGXGXGXGXGXGXGXGXGXGXGXGXGXGXGXGXGXGXGXGXGXGXGXGXGXGXGXGXGXGXGXGXGXGXGXGXGXGXGXGXGXGXGXGXGXGXGXGXGXGXGXGXGXGXGXGXGXGXGXGXGXGXGXGXGXGXGXGXGXGXGXGXGXGXGXGXGXGXGXGXGXGXGXGXGXGXGXGXGXGXGXGXGXGXGXGXGXGXGXGXGXGXGXGXGXGXGXGXGXGXGXGXGXGXGXGXGXGXGXGXGXGXGXGXGXGXGXGXGXGXGXGXGXGXGXGXGXGXGXGXGXGXGXGXGXGXGXGXGXGXGXGXGXGXGXGXGXGXGXGXGXGXGXGXGX",
"GXGXGXGXGXGXGXGXGXGXGXGXGXGXGXGXGXGXGXGXGXGXGXGXGXGXGXGXGXGXGXGXGXGXGXGXGXGXGXGXGXGXGXGXGXGXGXGXGXGXGXGXGXGXGXGXGXGXGXGXGXGXGXGXGXGXGXGXGXGXGXGXGXGXGXGXGXGXGXGXGXGXGXGXGXGXGXGXGXGXGXGXGXGXGXGXGXGXGXGXGXGXGXGXGXGXGXGXGXGXGXGXGXGXGXGXGXGXGXGXGXGXGXGXGXGXGXGXGXGXGXGXGXGXGXGXGXGXGXGXGXGXGXGXGXGXGXGXGXGXGXGXGXGXGXGXGXGXGXGXGXGXGXGXGXGXGXGXGXGXGXGXGXGXGXGXGXGXGXGXGXGXGXGXGXGXGXGXGXGXGXGXGXGXGXGXGXGXGXGXGXGXGXGXGXGXGXGXGXGXGXGXGXGXGXGXGXGXGXGXGXGXGXGXGX",
"GXGXGXGXGXGXGXGXGXGXGXGXGXGXGXGXGXGXGXGXGXGXGXGXGXGXGXGXGXGXGXGXGXGXGXGXGXGXGXGXGXGXGXGXGXGXGXGXGXGXGXGXGXGXGXGXGXGXGXGXGXGXGXGXGXGXGXGXGXGXGXGXGXGXGXGXGXGXGXGXGXGXGXGXGXGXGXGXGXGXGXGXGXGXGXGXGXGXGXGXGXGXGXGXGXGXGXGXGXGXGXGXGXGXGXGXGXGXGXGXGXGXGXGXGXGXGXGXGXGXGXGXGXGXGXGXGXGXGXGXGXGXGXGXGXGXGXGXGXGXGXGXGXGXGXGXGXGXGXGXGXGXGXGXGXGXGXGXGXGXGXGXGXGXGXGXGXGXGXGXGXGXGXGXGXGXGXGXGXGXGXGXGXGXGXGXGXGXGXGXGXGXGXGXGXGXGXGXGXGXGXGXGXGXGXGXGXGXGXGXGXGXGXGXGX",
"GXGXGXGXGXGXGXGXGXGXGXGXGXGXGXGXGXGXGXGXGXGXGXGXGXGXGXGXGXGXGXGXGXGXGXGXGXGXGXGXGXGXGXGXGXGXGXGXGXGXGXGXGXGXGXGXGXGXGXGXGXGXGXGXGXGXGXGXGXGXGXGXGXGXGXGXGXGXGXGXGXGXGXGXGXGXGXGXGXGXGXGXGXGXGXGXGXGXGXGXGXGXGXGXGXGXGXGXGXGXGXGXGXGXGXGXGXGXGXGXGXGXGXGXGXGXGXGXGXGXGXGXGXGXGXGXGXGXGXGXGXGXGXGXGXGXGXGXGXGXGXGXGXGXGXGXGXGXGXGXGXGXGXGXGXGXGXGXGXGXGXGXGXGXGXGXGXGXGXGXGXGXGXGXGXGXGXGXGXGXGXGXGXGXGXGXGXGXGXGXGXGXGXGXGXGXGXGXGXGXGXGXGXGXGXGXGXGXGXGXGXGXGXGXGX",
"GXGXGXGXGXGXGXGXGXGXGXGXGXGXGXGXGXGXGXGXGXGXGXGXGXGXGXGXGXGXGXGXGXGXGXGXGXGXGXGXGXGXGXGXGXGXGXGXGXGXGXGXGXGXGXGXGXGXGXGXGXGXGXGXGXGXGXGXGXGXGXGXGXGXGXGXGXGXGXGXGXGXGXGXGXGXGXGXGXGXGXGXGXGXGXGXGXGXGXGXGXGXGXGXGXGXGXGXGXGXGXGXGXGXGXGXGXGXGXGXGXGXGXGXGXGXGXGXGXGXGXGXGXGXGXGXGXGXGXGXGXGXGXGXGXGXGXGXGXGXGXGXGXGXGXGXGXGXGXGXGXGXGXGXGXGXGXGXGXGXGXGXGXGXGXGXGXGXGXGXGXGXGXGXGXGXGXGXGXGXGXGXGXGXGXGXGXGXGXGXGXGXGXGXGXGXGXGXGXGXGXGXGXGXGXGXGXGXGXGXGXGXGXGXGX",
"GXGXGXGXGXGXGXGXGXGXGXGXGXGXGXGXGXGXGXGXGXGXGXGXGXGXGXGXGXGXGXGXGXGXGXGXGXGXGXGXGXGXGXGXGXGXGXGXGXGXGXGXGXGXGXGXGXGXGXGXGXGXGXGXGXGXGXGXGXGXGXGXGXGXGXGXGXGXGXGXGXGXGXGXGXGXGXGXGXGXGXGXGXGXGXGXGXGXGXGXGXGXGXGXGXGXGXGXGXGXGXGXGXGXGXGXGXGXGXGXGXGXGXGXGXGXGXGXGXGXGXGXGXGXGXGXGXGXGXGXGXGXGXGXGXGXGXGXGXGXGXGXGXGXGXGXGXGXGXGXGXGXGXGXGXGXGXGXGXGXGXGXGXGXGXGXGXGXGXGXGXGXGXGXGXGXGXGXGXGXGXGXGXGXGXGXGXGXGXGXGXGXGXGXGXGXGXGXGXGXGXGXGXGXGXGXGXGXGXGXGXGXGXGXGX",
"GXGXGXGXGXGXGXGXGXGXGXGXGXGXGXGXGXGXGXGXGXGXGXGXGXGXGXGXGXGXGXGXGXGXGXGXGXGXGXGXGXGXGXGXGXGXGXGXGXGXGXGXGXGXGXGXGXGXGXGXGXGXGXGXGXGXGXGXGXGXGXGXGXGXGXGXGXGXGXGXGXGXGXGXGXGXGXGXGXGXGXGXGXGXGXGXGXGXGXGXGXGXGXGXGXGXGXGXGXGXGXGXGXGXGXGXGXGXGXGXGXGXGXGXGXGXGXGXGXGXGXGXGXGXGXGXGXGXGXGXGXGXGXGXGXGXGXGXGXGXGXGXGXGXGXGXGXGXGXGXGXGXGXGXGXGXGXGXGXGXGXGXGXGXGXGXGXGXGXGXGXGXGXGXGXGXGXGXGXGXGXGXGXGXGXGXGXGXGXGXGXGXGXGXGXGXGXGXGXGXGXGXGXGXGXGXGXGXGXGXGXGXGXGXGX",
"GXGXGXGXGXGXGXGXGXGXGXGXGXGXGXGXGXGXGXGXGXGXGXGXGXGXGXGXGXGXGXGXGXGXGXGXGXGXGXGXGXGXGXGXGXGXGXGXGXGXGXGXGXGXGXGXGXGXGXGXGXGXGXGXGXGXGXGXGXGXGXGXGXGXGXGXGXGXGXGXGXGXGXGXGXGXGXGXGXGXGXGXGXGXGXGXGXGXGXGXGXGXGXGXGXGXGXGXGXGXGXGXGXGXGXGXGXGXGXGXGXGXGXGXGXGXGXGXGXGXGXGXGXGXGXGXGXGXGXGXGXGXGXGXGXGXGXGXGXGXGXGXGXGXGXGXGXGXGXGXGXGXGXGXGXGXGXGXGXGXGXGXGXGXGXGXGXGXGXGXGXGXGXGXGXGXGXGXGXGXGXGXGXGXGXGXGXGXGXGXGXGXGXGXGXGXGXGXGXGXGXGXGXGXGXGXGXGXGXGXGXGXGXGXGX",
"GXGXGXGXGXGXGXGXGXGXGXGXGXGXGXGXGXGXGXGXGXGXGXGXGXGXGXGXGXGXGXGXGXGXGXGXGXGXGXGXGXGXGXGXGXGXGXGXGXGXGXGXGXGXGXGXGXGXGXGXGXGXGXGXGXGXGXGXGXGXGXGXGXGXGXGXGXGXGXGXGXGXGXGXGXGXGXGXGXGXGXGXGXGXGXGXGXGXGXGXGXGXGXGXGXGXGXGXGXGXGXGXGXGXGXGXGXGXGXGXGXGXGXGXGXGXGXGXGXGXGXGXGXGXGXGXGXGXGXGXGXGXGXGXGXGXGXGXGXGXGXGXGXGXGXGXGXGXGXGXGXGXGXGXGXGXGXGXGXGXGXGXGXGXGXGXGXGXGXGXGXGXGXGXGXGXGXGXGXGXGXGXGXGXGXGXGXGXGXGXGXGXGXGXGXGXGXGXGXGXGXGXGXGXGXGXGXGXGXGXGXGXGXGXGX",
"GXGXGXGXGXGXGXGXGXGXGXGXGXGXGXGXGXGXGXGXGXGXGXGXGXGXGXGXGXGXGXGXGXGXGXGXGXGXGXGXGXGXGXGXGXGXGXGXGXGXGXGXGXGXGXGXGXGXGXGXGXGXGXGXGXGXGXGXGXGXGXGXGXGXGXGXGXGXGXGXGXGXGXGXGXGXGXGXGXGXGXGXGXGXGXGXGXGXGXGXGXGXGXGXGXGXGXGXGXGXGXGXGXGXGXGXGXGXGXGXGXGXGXGXGXGXGXGXGXGXGXGXGXGXGXGXGXGXGXGXGXGXGXGXGXGXGXGXGXGXGXGXGXGXGXGXGXGXGXGXGXGXGXGXGXGXGXGXGXGXGXGXGXGXGXGXGXGXGXGXGXGXGXGXGXGXGXGXGXGXGXGXGXGXGXGXGXGXGXGXGXGXGXGXGXGXGXGXGXGXGXGXGXGXGXGXGXGXGXGXGXGXGXGXGX",
"GXGXGXGXGXGXGXGXGXGXGXGXGXGXGXGXGXGXGXGXGXGXGXGXGXGXGXGXGXGXGXGXGXGXGXGXGXGXGXGXGXGXGXGXGXGXGXGXGXGXGXGXGXGXGXGXGXGXGXGXGXGXGXGXGXGXGXGXGXGXGXGXGXGXGXGXGXGXGXGXGXGXGXGXGXGXGXGXGXGXGXGXGXGXGXGXGXGXGXGXGXGXGXGXGXGXGXGXGXGXGXGXGXGXGXGXGXGXGXGXGXGXGXGXGXGXGXGXGXGXGXGXGXGXGXGXGXGXGXGXGXGXGXGXGXGXGXGXGXGXGXGXGXGXGXGXGXGXGXGXGXGXGXGXGXGXGXGXGXGXGXGXGXGXGXGXGXGXGXGXGXGXGXGXGXGXGXGXGXGXGXGXGXGXGXGXGXGXGXGXGXGXGXGXGXGXGXGXGXGXGXGXGXGXGXGXGXGXGXGXGXGXGXGXGX",
"GXGXGXGXGXGXGXGXGXGXGXGXGXGXGXGXGXGXGXGXGXGXGXGXGXGXGXGXGXGXGXGXGXGXGXGXGXGXGXGXGXGXGXGXGXGXGXGXGXGXGXGXGXGXGXGXGXGXGXGXGXGXGXGXGXGXGXGXGXGXGXGXGXGXGXGXGXGXGXGXGXGXGXGXGXGXGXGXGXGXGXGXGXGXGXGXGXGXGXGXGXGXGXGXGXGXGXGXGXGXGXGXGXGXGXGXGXGXGXGXGXGXGXGXGXGXGXGXGXGXGXGXGXGXGXGXGXGXGXGXGXGXGXGXGXGXGXGXGXGXGXGXGXGXGXGXGXGXGXGXGXGXGXGXGXGXGXGXGXGXGXGXGXGXGXGXGXGXGXGXGXGXGXGXGXGXGXGXGXGXGXGXGXGXGXGXGXGXGXGXGXGXGXGXGXGXGXGXGXGXGXGXGXGXGXGXGXGXGXGXGXGXGXGXGX",
"GXGXGXGXGXGXGXGXGXGXGXGXGXGXGXGXGXGXGXGXGXGXGXGXGXGXGXGXGXGXGXGXGXGXGXGXGXGXGXGXGXGXGXGXGXGXGXGXGXGXGXGXGXGXGXGXGXGXGXGXGXGXGXGXGXGXGXGXGXGXGXGXGXGXGXGXGXGXGXGXGXGXGXGXGXGXGXGXGXGXGXGXGXGXGXGXGXGXGXGXGXGXGXGXGXGXGXGXGXGXGXGXGXGXGXGXGXGXGXGXGXGXGXGXGXGXGXGXGXGXGXGXGXGXGXGXGXGXGXGXGXGXGXGXGXGXGXGXGXGXGXGXGXGXGXGXGXGXGXGXGXGXGXGXGXGXGXGXGXGXGXGXGXGXGXGXGXGXGXGXGXGXGXGXGXGXGXGXGXGXGXGXGXGXGXGXGXGXGXGXGXGXGXGXGXGXGXGXGXGXGXGXGXGXGXGXGXGXGXGXGXGXGXGXGX",
"GXGXGXGXGXGXGXGXGXGXGXGXGXGXGXGXGXGXGXGXGXGXGXGXGXGXGXGXGXGXGXGXGXGXGXGXGXGXGXGXGXGXGXGXGXGXGXGXGXGXGXGXGXGXGXGXGXGXGXGXGXGXGXGXGXGXGXGXGXGXGXGXGXGXGXGXGXGXGXGXGXGXGXGXGXGXGXGXGXGXGXGXGXGXGXGXGXGXGXGXGXGXGXGXGXGXGXGXGXGXGXGXGXGXGXGXGXGXGXGXGXGXGXGXGXGXGXGXGXGXGXGXGXGXGXGXGXGXGXGXGXGXGXGXGXGXGXGXGXGXGXGXGXGXGXGXGXGXGXGXGXGXGXGXGXGXGXGXGXGXGXGXGXGXGXGXGXGXGXGXGXGXGXGXGXGXGXGXGXGXGXGXGXGXGXGXGXGXGXGXGXGXGXGXGXGXGXGXGXGXGXGXGXGXGXGXGXGXGXGXGXGXGXGXGX",
"GXGXGXGXGXGXGXGXGXGXGXGXGXGXGXGXGXGXGXGXGXGXGXGXGXGXGXGXGXGXGXGXGXGXGXGXGXGXGXGXGXGXGXGXGXGXGXGXGXGXGXGXGXGXGXGXGXGXGXGXGXGXGXGXGXGXGXGXGXGXGXGXGXGXGXGXGXGXGXGXGXGXGXGXGXGXGXGXGXGXGXGXGXGXGXGXGXGXGXGXGXGXGXGXGXGXGXGXGXGXGXGXGXGXGXGXGXGXGXGXGXGXGXGXGXGXGXGXGXGXGXGXGXGXGXGXGXGXGXGXGXGXGXGXGXGXGXGXGXGXGXGXGXGXGXGXGXGXGXGXGXGXGXGXGXGXGXGXGXGXGXGXGXGXGXGXGXGXGXGXGXGXGXGXGXGXGXGXGXGXGXGXGXGXGXGXGXGXGXGXGXGXGXGXGXGXGXGXGXGXGXGXGXGXGXGXGXGXGXGXGXGXGXGXGX",
"GXGXGXGXGXGXGXGXGXGXGXGXGXGXGXGXGXGXGXGXGXGXGXGXGXGXGXGXGXGXGXGXGXGXGXGXGXGXGXGXGXGXGXGXGXGXGXGXGXGXGXGXGXGXGXGXGXGXGXGXGXGXGXGXGXGXGXGXGXGXGXGXGXGXGXGXGXGXGXGXGXGXGXGXGXGXGXGXGXGXGXGXGXGXGXGXGXGXGXGXGXGXGXGXGXGXGXGXGXGXGXGXGXGXGXGXGXGXGXGXGXGXGXGXGXGXGXGXGXGXGXGXGXGXGXGXGXGXGXGXGXGXGXGXGXGXGXGXGXGXGXGXGXGXGXGXGXGXGXGXGXGXGXGXGXGXGXGXGXGXGXGXGXGXGXGXGXGXGXGXGXGXGXGXGXGXGXGXGXGXGXGXGXGXGXGXGXGXGXGXGXGXGXGXGXGXGXGXGXGXGXGXGXGXGXGXGXGXGXGXGXGXGXGXGX",
"GXGXGXGXGXGXGXGXGXGXGXGXGXGXGXGXGXGXGXGXGXGXGXGXGXGXGXGXGXGXGXGXGXGXGXGXGXGXGXGXGXGXGXGXGXGXGXGXGXGXGXGXGXGXGXGXGXGXGXGXGXGXGXGXGXGXGXGXGXGXGXGXGXGXGXGXGXGXGXGXGXGXGXGXGXGXGXGXGXGXGXGXGXGXGXGXGXGXGXGXGXGXGXGXGXGXGXGXGXGXGXGXGXGXGXGXGXGXGXGXGXGXGXGXGXGXGXGXGXGXGXGXGXGXGXGXGXGXGXGXGXGXGXGXGXGXGXGXGXGXGXGXGXGXGXGXGXGXGXGXGXGXGXGXGXGXGXGXGXGXGXGXGXGXGXGXGXGXGXGXGXGXGXGXGXGXGXGXGXGXGXGXGXGXGXGXGXGXGXGXGXGXGXGXGXGXGXGXGXGXGXGXGXGXGXGXGXGXGXGXGXGXGXGXGX",
"GXGXGXGXGXGXGXGXGXGXGXGXGXGXGXGXGXGXGXGXGXGXGXGXGXGXGXGXGXGXGXGXGXGXGXGXGXGXGXGXGXGXGXGXGXGXGXGXGXGXGXGXGXGXGXGXGXGXGXGXGXGXGXGXGXGXGXGXGXGXGXGXGXGXGXGXGXGXGXGXGXGXGXGXGXGXGXGXGXGXGXGXGXGXGXGXGXGXGXGXGXGXGXGXGXGXGXGXGXGXGXGXGXGXGXGXGXGXGXGXGXGXGXGXGXGXGXGXGXGXGXGXGXGXGXGXGXGXGXGXGXGXGXGXGXGXGXGXGXGXGXGXGXGXGXGXGXGXGXGXGXGXGXGXGXGXGXGXGXGXGXGXGXGXGXGXGXGXGXGXGXGXGXGXGXGXGXGXGXGXGXGXGXGXGXGXGXGXGXGXGXGXGXGXGXGXGXGXGXGXGXGXGXGXGXGXGXGXGXGXGXGXGXGXGX",
"GXGXGXGXGXGXGXGXGXGXGXGXGXGXGXGXGXGXGXGXGXGXGXGXGXGXGXGXGXGXGXGXGXGXGXGXGXGXGXGXGXGXGXGXGXGXGXGXGXGXGXGXGXGXGXGXGXGXGXGXGXGXGXGXGXGXGXGXGXGXGXGXGXGXGXGXGXGXGXGXGXGXGXGXGXGXGXGXGXGXGXGXGXGXGXGXGXGXGXGXGXGXGXGXGXGXGXGXGXGXGXGXGXGXGXGXGXGXGXGXGXGXGXGXGXGXGXGXGXGXGXGXGXGXGXGXGXGXGXGXGXGXGXGXGXGXGXGXGXGXGXGXGXGXGXGXGXGXGXGXGXGXGXGXGXGXGXGXGXGXGXGXGXGXGXGXGXGXGXGXGXGXGXGXGXGXGXGXGXGXGXGXGXGXGXGXGXGXGXGXGXGXGXGXGXGXGXGXGXGXGXGXGXGXGXGXGXGXGXGXGXGXGXGXGX",
"GXGXGXGXGXGXGXGXGXGXGXGXGXGXGXGXGXGXGXGXGXGXGXGXGXGXGXGXGXGXGXGXGXGXGXGXGXGXGXGXGXGXGXGXGXGXGXGXGXGXGXGXGXGXGXGXGXGXGXGXGXGXGXGXGXGXGXGXGXGXGXGXGXGXGXGXGXGXGXGXGXGXGXGXGXGXGXGXGXGXGXGXGXGXGXGXGXGXGXGXGXGXGXGXGXGXGXGXGXGXGXGXGXGXGXGXGXGXGXGXGXGXGXGXGXGXGXGXGXGXGXGXGXGXGXGXGXGXGXGXGXGXGXGXGXGXGXGXGXGXGXGXGXGXGXGXGXGXGXGXGXGXGXGXGXGXGXGXGXGXGXGXGXGXGXGXGXGXGXGXGXGXGXGXGXGXGXGXGXGXGXGXGXGXGXGXGXGXGXGXGXGXGXGXGXGXGXGXGXGXGXGXGXGXGXGXGXGXGXGXGXGXGXGXGX",
"GXGXGXGXGXGXGXGXGXGXGXGXGXGXGXGXGXGXGXGXGXGXGXGXGXGXGXGXGXGXGXGXGXGXGXGXGXGXGXGXGXGXGXGXGXGXGXGXGXGXGXGXGXGXGXGXGXGXGXGXGXGXGXGXGXGXGXGXGXGXGXGXGXGXGXGXGXGXGXGXGXGXGXGXGXGXGXGXGXGXGXGXGXGXGXGXGXGXGXGXGXGXGXGXGXGXGXGXGXGXGXGXGXGXGXGXGXGXGXGXGXGXGXGXGXGXGXGXGXGXGXGXGXGXGXGXGXGXGXGXGXGXGXGXGXGXGXGXGXGXGXGXGXGXGXGXGXGXGXGXGXGXGXGXGXGXGXGXGXGXGXGXGXGXGXGXGXGXGXGXGXGXGXGXGXGXGXGXGXGXGXGXGXGXGXGXGXGXGXGXGXGXGXGXGXGXGXGXGXGXGXGXGXGXGXGXGXGXGXGXGXGXGXGXGX",
"GXGXGXGXGXGXGXGXGXGXGXGXGXGXGXGXGXGXGXGXGXGXGXGXGXGXGXGXGXGXGXGXGXGXGXGXGXGXGXGXGXGXGXGXGXGXGXGXGXGXGXGXGXGXGXGXGXGXGXGXGXGXGXGXGXGXGXGXGXGXGXGXGXGXGXGXGXGXGXGXGXGXGXGXGXGXGXGXGXGXGXGXGXGXGXGXGXGXGXGXGXGXGXGXGXGXGXGXGXGXGXGXGXGXGXGXGXGXGXGXGXGXGXGXGXGXGXGXGXGXGXGXGXGXGXGXGXGXGXGXGXGXGXGXGXGXGXGXGXGXGXGXGXGXGXGXGXGXGXGXGXGXGXGXGXGXGXGXGXGXGXGXGXGXGXGXGXGXGXGXGXGXGXGXGXGXGXGXGXGXGXGXGXGXGXGXGXGXGXGXGXGXGXGXGXGXGXGXGXGXGXGXGXGXGXGXGXGXGXGXGXGXGXGXGX",
"GXGXGXGXGXGXGXGXGXGXGXGXGXGXGXGXGXGXGXGXGXGXGXGXGXGXGXGXGXGXGXGXGXGXGXGXGXGXGXGXGXGXGXGXGXGXGXGXGXGXGXGXGXGXGXGXGXGXGXGXGXGXGXGXGXGXGXGXGXGXGXGXGXGXGXGXGXGXGXGXGXGXGXGXGXGXGXGXGXGXGXGXGXGXGXGXGXGXGXGXGXGXGXGXGXGXGXGXGXGXGXGXGXGXGXGXGXGXGXGXGXGXGXGXGXGXGXGXGXGXGXGXGXGXGXGXGXGXGXGXGXGXGXGXGXGXGXGXGXGXGXGXGXGXGXGXGXGXGXGXGXGXGXGXGXGXGXGXGXGXGXGXGXGXGXGXGXGXGXGXGXGXGXGXGXGXGXGXGXGXGXGXGXGXGXGXGXGXGXGXGXGXGXGXGXGXGXGXGXGXGXGXGXGXGXGXGXGXGXGXGXGXGXGXGX",
"GXGXGXGXGXGXGXGXGXGXGXGXGXGXGXGXGXGXGXGXGXGXGXGXGXGXGXGXGXGXGXGXGXGXGXGXGXGXGXGXGXGXGXGXGXGXGXGXGXGXGXGXGXGXGXGXGXGXGXGXGXGXGXGXGXGXGXGXGXGXGXGXGXGXGXGXGXGXGXGXGXGXGXGXGXGXGXGXGXGXGXGXGXGXGXGXGXGXGXGXGXGXGXGXGXGXGXGXGXGXGXGXGXGXGXGXGXGXGXGXGXGXGXGXGXGXGXGXGXGXGXGXGXGXGXGXGXGXGXGXGXGXGXGXGXGXGXGXGXGXGXGXGXGXGXGXGXGXGXGXGXGXGXGXGXGXGXGXGXGXGXGXGXGXGXGXGXGXGXGXGXGXGXGXGXGXGXGXGXGXGXGXGXGXGXGXGXGXGXGXGXGXGXGXGXGXGXGXGXGXGXGXGXGXGXGXGXGXGXGXGXGXGXGXGX",
"GXGXGXGXGXGXGXGXGXGXGXGXGXGXGXGXGXGXGXGXGXGXGXGXGXGXGXGXGXGXGXGXGXGXGXGXGXGXGXGXGXGXGXGXGXGXGXGXGXGXGXGXGXGXGXGXGXGXGXGXGXGXGXGXGXGXGXGXGXGXGXGXGXGXGXGXGXGXGXGXGXGXGXGXGXGXGXGXGXGXGXGXGXGXGXGXGXGXGXGXGXGXGXGXGXGXGXGXGXGXGXGXGXGXGXGXGXGXGXGXGXGXGXGXGXGXGXGXGXGXGXGXGXGXGXGXGXGXGXGXGXGXGXGXGXGXGXGXGXGXGXGXGXGXGXGXGXGXGXGXGXGXGXGXGXGXGXGXGXGXGXGXGXGXGXGXGXGXGXGXGXGXGXGXGXGXGXGXGXGXGXGXGXGXGXGXGXGXGXGXGXGXGXGXGXGXGXGXGXGXGXGXGXGXGXGXGXGXGXGXGXGXGXGXGX",
"GXGXGXGXGXGXGXGXGXGXGXGXGXGXGXGXGXGXGXGXGXGXGXGXGXGXGXGXGXGXGXGXGXGXGXGXGXGXGXGXGXGXGXGXGXGXGXGXGXGXGXGXGXGXGXGXGXGXGXGXGXGXGXGXGXGXGXGXGXGXGXGXGXGXGXGXGXGXGXGXGXGXGXGXGXGXGXGXGXGXGXGXGXGXGXGXGXGXGXGXGXGXGXGXGXGXGXGXGXGXGXGXGXGXGXGXGXGXGXGXGXGXGXGXGXGXGXGXGXGXGXGXGXGXGXGXGXGXGXGXGXGXGXGXGXGXGXGXGXGXGXGXGXGXGXGXGXGXGXGXGXGXGXGXGXGXGXGXGXGXGXGXGXGXGXGXGXGXGXGXGXGXGXGXGXGXGXGXGXGXGXGXGXGXGXGXGXGXGXGXGXGXGXGXGXGXGXGXGXGXGXGXGXGXGXGXGXGXGXGXGXGXGXGXGX",
"GXGXGXGXGXGXGXGXGXGXGXGXGXGXGXGXGXGXGXGXGXGXGXGXGXGXGXGXGXGXGXGXGXGXGXGXGXGXGXGXGXGXGXGXGXGXGXGXGXGXGXGXGXGXGXGXGXGXGXGXGXGXGXGXGXGXGXGXGXGXGXGXGXGXGXGXGXGXGXGXGXGXGXGXGXGXGXGXGXGXGXGXGXGXGXGXGXGXGXGXGXGXGXGXGXGXGXGXGXGXGXGXGXGXGXGXGXGXGXGXGXGXGXGXGXGXGXGXGXGXGXGXGXGXGXGXGXGXGXGXGXGXGXGXGXGXGXGXGXGXGXGXGXGXGXGXGXGXGXGXGXGXGXGXGXGXGXGXGXGXGXGXGXGXGXGXGXGXGXGXGXGXGXGXGXGXGXGXGXGXGXGXGXGXGXGXGXGXGXGXGXGXGXGXGXGXGXGXGXGXGXGXGXGXGXGXGXGXGXGXGXGXGXGXGX",
"GXGXGXGXGXGXGXGXGXGXGXGXGXGXGXGXGXGXGXGXGXGXGXGXGXGXGXGXGXGXGXGXGXGXGXGXGXGXGXGXGXGXGXGXGXGXGXGXGXGXGXGXGXGXGXGXGXGXGXGXGXGXGXGXGXGXGXGXGXGXGXGXGXGXGXGXGXGXGXGXGXGXGXGXGXGXGXGXGXGXGXGXGXGXGXGXGXGXGXGXGXGXGXGXGXGXGXGXGXGXGXGXGXGXGXGXGXGXGXGXGXGXGXGXGXGXGXGXGXGXGXGXGXGXGXGXGXGXGXGXGXGXGXGXGXGXGXGXGXGXGXGXGXGXGXGXGXGXGXGXGXGXGXGXGXGXGXGXGXGXGXGXGXGXGXGXGXGXGXGXGXGXGXGXGXGXGXGXGXGXGXGXGXGXGXGXGXGXGXGXGXGXGXGXGXGXGXGXGXGXGXGXGXGXGXGXGXGXGXGXGXGXGXGXGX",
"GXGXGXGXGXGXGXGXGXGXGXGXGXGXGXGXGXGXGXGXGXGXGXGXGXGXGXGXGXGXGXGXGXGXGXGXGXGXGXGXGXGXGXGXGXGXGXGXGXGXGXGXGXGXGXGXGXGXGXGXGXGXGXGXGXGXGXGXGXGXGXGXGXGXGXGXGXGXGXGXGXGXGXGXGXGXGXGXGXGXGXGXGXGXGXGXGXGXGXGXGXGXGXGXGXGXGXGXGXGXGXGXGXGXGXGXGXGXGXGXGXGXGXGXGXGXGXGXGXGXGXGXGXGXGXGXGXGXGXGXGXGXGXGXGXGXGXGXGXGXGXGXGXGXGXGXGXGXGXGXGXGXGXGXGXGXGXGXGXGXGXGXGXGXGXGXGXGXGXGXGXGXGXGXGXGXGXGXGXGXGXGXGXGXGXGXGXGXGXGXGXGXGXGXGXGXGXGXGXGXGXGXGXGXGXGXGXGXGXGXGXGXGXGXGX",
"GXGXGXGXGXGXGXGXGXGXGXGXGXGXGXGXGXGXGXGXGXGXGXGXGXGXGXGXGXGXGXGXGXGXGXGXGXGXGXGXGXGXGXGXGXGXGXGXGXGXGXGXGXGXGXGXGXGXGXGXGXGXGXGXGXGXGXGXGXGXGXGXGXGXGXGXGXGXGXGXGXGXGXGXGXGXGXGXGXGXGXGXGXGXGXGXGXGXGXGXGXGXGXGXGXGXGXGXGXGXGXGXGXGXGXGXGXGXGXGXGXGXGXGXGXGXGXGXGXGXGXGXGXGXGXGXGXGXGXGXGXGXGXGXGXGXGXGXGXGXGXGXGXGXGXGXGXGXGXGXGXGXGXGXGXGXGXGXGXGXGXGXGXGXGXGXGXGXGXGXGXGXGXGXGXGXGXGXGXGXGXGXGXGXGXGXGXGXGXGXGXGXGXGXGXGXGXGXGXGXGXGXGXGXGXGXGXGXGXGXGXGXGXGXGX",
"GXSXBXGXDXDXVXVXGXGXGXGXFXGXGXFXGXFXFXGXFXGXFXFXGXGXGXGXFXGXGXFXGXGXGXGXGXGXFXFXGXGXGXGXFXGXGXFXGXFXFXGXFXGXFXFXFXFXFXFXFXFXFXFXFXFXFXFXFXFXFXFXSXSXSXSXSXSXBXGXBXBXDXGXGXGXGXGXFXFXFXFXFXFXFXFXFXFXFXFXFXFXFXFXFXFXFXFXFXFXFXFXGXGXGXGXGXGXGXFXFXFXGXGXGXGXFXFXSXSXSXSXSXSXSXSXGXGXGXGXSXSXSXSXGXGXGXSXSXSXGXGXGXGXGXGXGXGXGXGXGXGXGXGXGXGXGXGXGXGXGXGXGXGXGXGXGXGXGXGXGXGXGXGXGXGXGXGXGXGXGXGXGXGXGXGXGXGXGXGXGXGXGXGXGXGXGXGXGXGXGXGXGXGXGXGXDXVXPXDXGXSXSXSXGX",
"GXGXFXGXLXGXGXGXVXVXVXVXVXVXVXVXVXVXVXVXVXVXVXVXVXVXVXVXVXVXVXVXVXVXVXVXVXVXVXVXVXVXVXVXVXVXVXVXVXVXVXVXVXVXVXVXVXVXVXVXVXVXVXVXVXVXVXVXVXVXVXVXLXFXFXLXnXCXFXFXBXGXGXGXCXLXJXGXVXVXVXVXVXVXVXVXVXVXVXVXVXVXVXVXVXVXVXVXVXVXVXVXVXVXVXVXVXVXVXVXVXVXVXVXVXVXVXVXFXFXFXFXFXFXFXFXGXGXGXGXGXGXGXGXGXBXPXLXGXGXGXLXGXGXGXGXGXGXGXGXGXGXGXGXGXGXGXGXGXGXGXGXGXGXGXGXGXGXGXGXGXGXGXGXGXGXGXGXGXGXGXGXGXGXGXGXGXGXGXGXGXGXGXGXGXGXGXGXGXGXGXGXGXGXGXGXFXGXGXGXGXFXGXGXGX",
"FXGXGXGXGXGXFXGXSXSXSXSXSXSXSXSXSXSXSXSXSXSXSXSXSXSXSXSXSXSXSXSXSXSXSXSXSXSXSXSXSXSXSXSXSXSXSXSXSXSXSXSXSXSXSXSXSXSXSXSXSXSXSXSXSXSXSXSXSXSXSXSXSXSXBXSXSXSXNXPXGXFXFXFXGXGXGXSXSXSXSXSXSXSXSXSXSXSXSXSXSXSXSXSXSXSXSXSXSXSXSXSXSXSXSXSXSXSXSXSXSXSXSXSXSXSXSXSXBXBXBXBXBXBXBXBXGXVXLXVXDXDXVXMXPXBXGXGXGXGXGXGXGXGXGXGXGXGXGXGXGXGXGXGXGXGXGXGXGXGXGXGXGXGXGXGXGXGXGXGXGXGXGXGXGXGXGXGXGXGXGXGXGXGXGXGXGXGXGXGXGXGXGXGXGXGXGXGXGXGXGXGXGXGXGXGXGXGXGXFXCXFXFXFXGX",
"DXGXGXJXGXSXSXSXFXFXFXFXFXFXFXFXFXFXFXFXFXFXFXFXFXFXFXFXFXFXFXFXFXFXFXFXFXFXFXFXFXFXFXFXFXFXFXFXFXFXFXFXFXFXFXFXFXFXFXFXFXFXFXFXFXFXFXFXFXFXFXFXGXGXFXGXGXJXJXGXCXFXGXGXJXZXSXSXFXFXFXFXFXFXFXFXFXFXFXFXFXFXFXFXFXFXFXFXFXFXFXFXFXFXFXFXFXFXFXFXFXFXFXFXFXFXFXFXGXGXGXGXGXGXGXGXSXSXGXGXDXDXDXDXSXGXLXPXLXGXGXJXSXSXSXSXSXSXSXSXSXSXSXSXSXSXSXSXSXSXSXSXSXSXSXSXSXSXSXSXSXSXSXSXSXSXSXSXSXSXSXSXSXSXSXSXSXSXSXSXSXSXSXSXSXSXSXSXZXZXZXZXZXZXZXZXSXSXZXJXGXGXGXFXGX",
"SXSXBXBXGXGXGXSXBXBXBXBXBXBXBXBXBXBXBXBXBXBXBXBXBXBXBXBXBXBXBXBXBXBXBXBXBXBXBXBXBXBXBXBXBXBXBXBXBXBXBXBXBXBXBXBXBXBXBXBXBXBXBXBXBXBXBXBXBXBXBXBXFXGXFXLXFXGXGXLXGXGXBXBXSXBXBXVXBXBXBXBXBXBXBXBXBXBXBXBXBXBXBXBXBXBXBXBXBXBXBXBXBXBXBXBXBXBXBXBXBXBXBXBXBXBXBXBXFXGXGXGXGXGXGXGXBXGXGXGXJXLXGXGXNXSXGXDXDXDXGXGXGXGXGXGXGXGXGXGXGXGXGXGXGXGXGXGXGXGXGXGXGXGXGXGXGXGXGXGXGXGXGXGXGXGXGXGXGXGXGXGXGXGXGXGXGXGXGXGXGXGXGXGXGXGXGXGXGXGXGXGXGXGXGXGXVXDXDXGXBXPXLXZXGX",
"NXZXBXVXMXMXlXlXjXjXjXjXjXjXjXjXjXjXjXjXjXjXjXjXjXjXjXjXjXjXjXjXjXjXjXjXjXjXjXjXjXjXjXjXjXcXcXjXjXjXjXjXjXjXjXjXcXcXcXcXcXcXcXcXcXcXcXcXcXcXcXcXkXkXgXkXbXPXLXDXZXZXBXDXVXMXxXhXcXcXcXcXcXcXcXcXcXcXcXcXcXcXcXcXcXcXcXcXcXcXcXcXcXcXcXcXcXcXcXcXcXjXjXcXjXjXjXjXkXkXkXkXkXkXkXkXMXnXnXMXDXGXGXSXGXFXMXnXlXlXnXnXnXnXnXnXnXnXnXnXnXnXnXnXnXnXnXnXnXnXnXnXnXnXnXnXnXnXnXnXnXnXnXnXnXnXnXnXnXnXnXnXnXnXnXnXnXnXnXnXnXnXnXnXnXnXnXnXnXnXnXnXnXnXnXnXzXzXzXMXDXDXSXSXGX",
"SXGXDXnXtX=XS.z.W.W.W.W.W.W.W.W.W.W.W.W.W.W.W.W.W.W.W.W.W.W.W.W.W.W.W.W.W.W.W.W.W.W.W.W.W.W.W.W.W.W.W.W.W.W.W.W.W.E.W.E.E.E.E.E.E.E.E.E.E.E.E.E.N.M.G.Y.S.D.qXdXIXLXVXhXuX%XK.L.E.E.E.E.E.E.E.E.W.W.W.W.W.W.W.W.W.W.W.W.W.W.W.W.~.~.~.~.~.~.~.~.~.~.~.~.~.~.~.~.Y.Y.Y.OXOXOXOXOX%XOX=XtXaXbXMXPXlXiX=XOX5XtX0XwX4X4X4X4X4X4X4X4X0X0X0X0X0X0X0X0X0X0X0X0X0X0X0X0X0X0X0X0X0X0X0X0X0X0X0X0X0X0X0X0X0X0X0X0X0X0X0X0X0X0X0X0X0X0X0X0X0X0X0X0X0X0X0X0XtXtXtXuXpXVXGXBXGX",
"GXGXMXhX+XN.~.rX X X X X X X X X X X X X X X X X X X X X X X X X X X X X X X X X X X X X X X X X X X X X X X X X X X X X X X X X X X X X X X X X.XXXXX.X1X<X:X6X7.7.6.6.+XT.~.~. X X X X X X X X X X X X X X X X X X X X X X X X.X.X.X.X.X.X.X.X<X<X<X<X<X<X<X<X.X.X.X.X.X.X.X.XrXeX2X6X=X&X7.7.+XK.L.|..X.X;X6X1X1X1X1X1X1X1X1X1X1X1X1X1X1X1X1X1X1X1X1X1X1X1X1X1X1X1X1X1X1X1X1X1X1X1X1X1X1X1X1X1X1X1X1X1X1X1X1X1X1X1X1X1X1X1X1X1X1X1X1X1X1X1X1X1XeX6X=XuXnXFXGXGX",
"SXVXGXfXt.E.T.(._._._._._._._._._._._._._._._._._._._._._._._._._._._._._._._._._._._._._._._.`._.`.`.`._._._.`.}.}.}.}.}.}.}.;X;X;X;X;X;X;X;X;X;X;X;X;X;X2X2Xv.5.5.5.1.2.^.'._.;X;X;X;X;X;X;X;X;X;X;X;X;X;X;X;X:X:X:X:X:X:X:X:X;X;X;X;X;X;X;X;X;X;X;X;X;X;X;X;X;X;X;X;X;X:X:X:X|.6X2X1X%X5.5.5./ :.Z.|.;X>X>X2X2X2X2X2X2X2X2X2X2X2X2X2X2X2X2X2X2X2X2X2X2X2X2X2X2X2X2X2X2X2X2X2X2X2X2X2X2X2X2X2X2X2X2X2X2X2X2X2X2X2X2X2X2X2X2X2X2X2X2X2X2X2X2X2X3X2X2X$X4XzXSXFXGX",
"SXVXGXfX#.E.T.(._._._._._._._._._._._._._._._._._._._._._._._._._._._._._._._._._._.`.`._._._._.`.`._.`._._._._.`.`.}.}.`.`.}.}.}.`.`.`.;X;X;X}.;X;X;X;X;X2X2Xv.=.5.8.-.:.N.'.I.}.;X;X;X;X;X;X;X;X;X;X;X;X;X;X;X;X;X;X;X;X;X;X;X;X;X;X;X;X;X;X;X;X;X;X;X;X;X;X;X;X;X;X;X:X:X:X:X,X6X2X.X%X5.5.=.^ :.N.`.;X>X>X,X2X2X2X2X2X2X2X2X2X2X2X2X2X2X2X2X2X2X2X2X2X2X2X2X2X2X2X2X2X2X2X2X2X2X2X2X2X2X2X2X2X2X2X2X2X2X2X2X2X2X2X2X2X2X2X2X2X2X2X2X2X2X2X2X3X2X2X$X4XzXSXFXGX",
"SXVXGXfX#.E.U.A.).)._._._._._._._._._._._._._._._._._._._._._._._._._._._._._._._._._._._._._._._._._._._._._._.`.`.}.}.`.`.`.`.}.}.}.`.}.}.}.}.}.;X}.;X;X2X2Xz.N H H &.:.m.(.I.}.}.}.;X;X;X;X;X;X;X;X;X;X;X;X;X;X;X;X;X;X;X;X;X;X;X;X;X;X;X;X;X;X;X;X;X;X;X;X;X;X;X;X;X;X;X;X;X<X6X;X.X%X5.8.N P +.N.~.}.;X>X;X:X:X:X:X:X:X:X:X2X2X2X2X2X2X2X2X2X2X2X2X2X2X2X2X2X2X2X2X2X2X2X2X2X2X2X2X2X2X2X2X2X2X2X2X2X2X2X2X2X2X2X2X2X2X2X2X2X2X2X2X2X2X2X2X3X2X2X$X4XzXSXFXGX",
"SXVXGXfX#.E.U.A.).)._._._._._._._._._._._._._._._._._._._._._._._._._._._._._._._._._._._._._._._._._._._._._._._.`.`.`._._._._.`.`.`.`.`.`.`.`._.}.}.;X;X:X:Xz.c H G $.:.N.(.I.}.}.}.}.}.}.;X;X;X;X;X;X;X;X;X;X}.}.}.}.}.}.}.}.;X;X;X;X;X;X;X;X;X;X;X;X;X;X;X;X;X;X;X;X;X;X;X;X,X>X;X X%X8.4.y K o.b.~._.-X;X;X:X:X:X:X:X:X:X:X:X:X:X:X:X:X2X2X:X:X:X:X:X:X:X:X2X2X2X2X2X2X2X2X2X2X2X2X2X2X2X2X2X2X2X2X2X2X2X2X2X2X2X2X2X2X2X2X2X2X2X2X2X2X2X2X3X2X2X$X4XzXSXFXGX",
"SXVXGXfX#.E.U.A.(.(.).).)._._._._._._._._._.)._._._._._._._._._._._._._._._._._._._._._._._._._._._._._._._._._._._._._._._._._._._._._._._._._._.}._.;X}.;X;Xk.c H G u :.N.(.}._._._.}.}.}.}.}.;X;X}.}.}.}.}.}._._._._._._._._.;X;X;X;X;X;X;X;X;X;X;X;X;X;X;X;X;X;X;X;X;X;X;X;X|.>X;X|.+XH F 8 K o.N.~._.-X>X;X;X;X;X;X;X;X;X;X:X:X:X:X:X:X:X:X:X:X:X:X:X:X:X:X:X:X:X2X2X2X2X2X:X:X:X:X:X:X2X2X:X:X:X:X:X2X:X:X:X:X:X:X:X2X:X:X2X2X2X2X2X2X2X2X3X>X2X$X4XzXSXFXGX",
"SXVXSXfX#.E.U.A.P.P.(.(.).).).).).).).).).).(.)._._._._._._._._._._._._._._._._._._._._._._._._._._._._._._._._._._._._._._._._._._._._._._._._._._._.}._.;X;Xk.7 H G u :.(.(.}._._._._._.}.}.}.}.}.}.}.}.}.}.}.}.}.}.}.}.}.}.}.}.}.}.}.}.}.}.}.;X;X;X;X;X;X;X;X;X;X;X;X;X;X;X;X|.6X:X.XK.G S y < o.N.~._.-X>X;X;X;X;X;X;X;X;X;X;X;X;X;X;X;X:X:X:X:X:X;X;X;X;X;X:X:X:X:X:X:X:X:X:X:X:X:X:X:X:X:X:X:X:X:X:X:X:X:X:X:X:X:X:X:X:X:X:X:X:X:X:X:X:X:X3X>X2X$X4XzXSXFXGX",
"SXVXSXfX#.E.U.A.P.P.P.P.).).(.).).).).).).).).)._._._._._.).).)._._._._._.).).)._._._._._._._._._._._._._._._._._._._._._._._._._._._._._._._._._._._.}._.;X;Xk.7 H G u :.^.(.}._._._._._._._.}.}.}._._._._._._.;X;X;X;X;X;X;X;X}.}.}.}.}.}.}.}.;X}.;X;X;X;X;X;X;X;X;X;X;X;X;X;X|.>X:X|.K.G S t < o.Z.~._.>X>X;X;X;X;X;X;X;X;X;X;X;X;X;X;X;X;X;X;X;X;X;X;X;X;X;X;X;X;X;X:X:X;X;X;X;X;X;X;X;X;X;X;X;X;X;X:X:X;X;X;X;X;X;X:X:X;X;X:X:X:X:X:X:X:X:X3X>X2X$X4XlXSXFXGX",
"SXVXBXfX#.B.U.A.P.P.P.P.P.).(.(.(.(.(.(.(.(.(.(.).).).).).(.).(.).).).).).(.).(._._._._._._._._._._._._._._._._._._._._._._._._._._._._._._._._._._._.}._.;X;Xk.8 H B i :.N.Z.T._._._._._._._.}.}.}._._._._._._.;X;X;X;X;X;X;X;X}.}.}.}._._._.}.}.}.}.}.}.}.}.}.;X;X;X}.;X;X;X;X|.6X;X|.K.G F t < o.(.'.`.>X>X;X;X;X;X;X;X;X;X;X;X;X;X;X;X;X;X;X;X;X;X;X;X;X;X;X;X;X;X;X:X:X;X;X;X;X;X;X;X;X;X;X;X;X;X;X:X:X;X;X;X;X;X;X:X:X;X;X:X:X:X:X:X:X:X:X3X>X2X$X4XlXSXFXGX",
"SXVXGXfX#.E.L.A.P.P.P.P.(.(.(.(.).).).).).).).).).).).).).).).)._._._._._._._._._._._._._._._._._._._._._._._._._._._._._._._._._._._._._._._._._._._.;X;X:X;Xa.8 H G u :.N.(._._._._._._._._._.@X@X_._._.@X@X@X}.}.}.}.}.}.}.;X}.}.}.}.}.}.}.}.;X;X}.}.}.}.}.}.;X;X;X;X;X;X;X;X|.>X2X|.K.H Z t ; } m.).-X#X;X X;X;X;X;X;X;X;X;X;X;X;X;X;X;X;X;X;X;X;X;X;X;X;X;X:X:X;X;X;X;X:X:X:X:X:X:X:X:X:X:X:X:X:X:X:X:X:X:X:X:X:X:X:X:X:X:X:X:X:X:X:X:X:X:X,X>X:X`.4XzXSXFXGX",
"SXVXGXfXt.E.L.A.P.P.P.P.(.(.(.(.).).).).).).).).).).).).).).).)._._._._._._._._._._._._._._._._._._._._._._._._._._._._._._._._._._._._._._._._._._._.;X;X:X;Xa.8 G G u :.N.(._._._._._._._._._._.@X_._.@X@X@X@X}.}.}.}.}.}.}.}.}.}.}.}.}.}.}.}.;X;X}.;X}.}.}.}.}.;X;X;X;X;X;X;X|.>X2X|.K.H Z t ; } m.).-X#X;X X;X;X;X;X;X;X;X;X;X;X;X;X;X;X;X;X;X;X;X;X;X;X;X;X:X:X;X;X;X;X:X:X:X:X:X:X:X:X:X:X:X:X:X:X:X:X:X:X:X:X:X:X:X:X:X:X:X:X:X:X:X:X:X:X,X>X:X`.4XzXSXFXGX",
"SXVXGXfXt.E.L.A.P.P.P.P.(.(.(.(.).).).).).).).).).).).).).).).)._._.).)._._._._._._._._._._._._._._._._._._._._._._._._._._._._._._._._._._._._._._._.;X;X:X;Xa.8 H G u o.N.!.T._._._._._._._._._.@X_.@X_.@X@X@X}.}.}.}.}.}.}.}.}.}.}.}.}.}.}.}.;X;X;X;X;X;X;X;X}.}.;X;X;X;X;X;X|.>X2X|.K.H Z t ; } m.).-X#X;X X;X;X;X;X;X;X;X;X;X;X;X;X;X;X;X;X;X;X;X;X;X;X;X;X:X:X:X:X;X;X;X:X:X:X:X:X:X:X:X:X:X:X:X:X:X:X:X:X:X:X:X:X:X:X:X:X:X:X:X:X:X:X:X:X,X>X:X`.4XzXSXFXGX",
"SXVXGXfXt.E.L.A.P.P.P.P.(.(.(.(.).).).).).).).).).).).).).).).)._._.).).).)._._._._._._._._._._._._._._._._._._._._._._._._._._._._._._._._._._._._._.;X;X:X;Xa.8 G B u o.N.!.T._._._._._._._._._._._._._.@X_.@X_.}.}.}.}.}.}.}.}.}.}.}.}.}.}.}.;X;X;X;X;X;X;X;X}.}.}.;X;X;X;X;X|.>X2X|.K.H Z t ; } m.).-X#X;X X;X;X;X;X;X;X;X;X;X;X;X;X;X;X;X;X;X;X;X;X;X;X;X;X;X;X;X;X;X;X;X;X;X;X;X;X:X:X:X:X;X:X;X;X;X;X:X:X:X:X:X:X:X:X:X:X:X:X:X:X:X:X:X:X,X>X:X`.4XzXSXFXGX",
"SXVXGXfXt.E.U.A.P.P.(.(.(.(.(.(.).).).).).).).).).).).).).).).).).(.(.(.).).).)._._._._._._._._._._._._._._._._._._._._._._._._._._._._._._._._._._._.;X;X:X;X9.8 G B u o.m.!.T._._._._._._._._._._.@X@X_._._._._._._.}.}.}.}.}.}.}.}.}.}.}.}.}.;X;X;X;X;X;X;X;X}.}.}.}.}.}.}.}.|.>X2X|.K.G Z t ; } m.).-X#X;X X;X;X;X;X;X;X;X;X;X;X;X;X;X;X;X;X;X;X;X;X;X;X;X;X;X;X;X;X;X;X;X;X;X;X:X:X:X:X;X;X;X;X;X;X;X;X;X;X:X:X:X:X:X:X:X:X:X:X:X:X:X:X:X:X,X>X<X`.4XzXSXFXGX",
"SXVXGXfXt.E.U.A.P.P.(.(.(.(.(.(.).).).).).).).).).).).).).).).).).).(.(.).).).).).)._._._._._.)._._._._._._._._._._._._._._._._._._._._._._._._._._._.;X;X:X;Xa.8 G B u o.m.!.T._._._._._._._._._._._.@X_._._._._._._._.}.}._.}.}.}.}.}.}.}.}.}.;X;X;X;X;X;X}.;X}.}.}.}.}.}.}.}.|.>X2X|.K.G Z t ; } m.).-X#X;X X;X;X;X;X;X;X;X;X;X;X;X;X;X;X;X;X;X;X;X;X;X;X;X;X;X;X;X;X;X;X;X;X;X;X;X;X;X;X;X;X;X;X;X;X;X;X;X;X:X:X:X:X:X:X:X:X:X:X:X:X:X:X:X:X,X>X:X`.4XzXSXFXGX",
"GXVXGXfX#.E.U.A.P.P.P.P.).).(.(.).).).).).).).).).).).).).).).).).).(.(.).).).)._.).).)._._._._._._._._._._._._._._._._._._._._._._._._._._._._._._._.;X;X:X;X9.% G B u o.m.!.T._._._._._._._._._._.@X@X@X@X_._._._._._._.}._._.}.}.}.}.}.}.}.}.;X;X;X;X}.}.}.}._.}.}.}.}.}.}.}.|.>X2X|.K.G Z t ; } m.).-X#X;X X;X;X;X;X;X;X;X;X;X;X;X;X;X;X;X;X;X;X;X;X;X;X;X;X;X;X;X;X;X;X;X;X;X;X;X;X;X;X;X;X;X;X;X;X;X;X;X;X:X:X:X:X:X:X:X:X:X:X:X:X:X:X:X:X,X>X:X`.4XzXSXFXGX",
"GXVXGXfX#.E.U.A.P.P.P.P.(.(.(.(.).).).).).).).).).).).).).).).).(.(.(.(.(.(.(.(._.).).)._._._._._._._._._._._._._._._._._._._._._._._._._._._._._._._.;X;X:X;Xa.% G B u o.m.!.T._._._._._._._._._._.@X@X@X@X@X_._._._._._.}._._.}.}.}.}.}.}.}.}.;X;X;X}.}.}.}.}._._.}.}.}.}.}.}.|.>X2X|.K.G Z t ; } m.).-X#X;X X;X;X;X;X;X;X;X;X;X;X;X;X;X;X;X;X;X;X;X;X;X;X;X;X;X;X;X;X;X;X;X;X;X;X;X;X;X;X;X;X;X;X;X;X;X;X;X;X:X:X:X:X:X:X:X:X:X:X:X:X:X:X:X:X,X>X:X`.4XzXSXFXGX",
"SXVXGXfX#.E.L.A.P.P.P.P.P.P.P.P.P.P.(.(.(.(.(.(.).).).).).).).)._._._._._._._._.).).).).).).).).).)._._._._._._._._._._._._._._._._._._._._._._._._._._._.;X;Xs.8 G n u o.m.(.I._._._._._._._._._._._._._._._._.@X@X@X@X@X@X_._.}.}.}.}.}.}.}.}.}.}.}.}.;X;X;X;X}.}.}.}.}.}.;X;X|.-X;X|.K.H Z y - O.v.(.`.@X;X|.;X;X;X;X;X;X;X;X;X;X;X;X;X;X;X;X;X;X;X;X;X;X;X;X;X;X;X;X;X;X;X;X;X;X;X;X;X;X;X;X;X;X;X;X;X;X;X;X;X;X;X;X;X;X;X;X;X;X:X:X:X:X:X:X:X X|.`.5XzXSXFXGX",
"SXVXGXfX#.E.L.A.P.P.P.P.P.P.P.P.P.P.P.P.(.(.(.(.(.(.(.(.(.(.(.(._._._._._._._._.).).).).).).).).).)._._._._._._._._._._._._._._._._._._._._._._._._._._._.;X;Xs.8 G n u o.m.(.I._._._._._._._._._._._._._._._._.@X@X@X@X@X@X_._.}.}.}.}.}.}.}.}._.}.}.}.;X;X;X;X}.}.}.}.;X;X;X;X|.-X;X|.K.H Z y - O.v.(.`.@X;X_.;X;X;X;X;X;X;X;X;X;X;X;X;X;X;X;X;X;X;X;X;X;X;X;X;X;X;X;X;X;X;X;X;X;X;X;X;X;X;X;X;X;X;X;X;X;X;X;X;X;X;X;X;X;X;X;X;X;X;X;X:X:X:X:X:X X|.`.5XzXSXFXGX",
"SXVXGXfX' oXL.A.P.P.P.P.P.P.P.P.P.P.P.P.P.P.(.P.(.(.).).(.(.(.(.).).).).(.(.(.(.).).).).).).).).).).)._.).)._.)._._._._._._._._._._._._._._._._._._._._.`.;X;Xs.8 D n u o.m.(.I._._._._._._._._._._._._._._._._._._._._.@X@X@X@X}.}.}.}.}.}.}.}._._._.}.}.;X;X;X;X;X;X;X;X;X;X;X|.-X;X|.K.H Z y - O.v.(.`.@X;X_.}.;X;X;X;X;X;X;X;X;X;X;X;X;X;X;X;X;X;X;X;X;X;X;X;X;X;X;X;X;X;X;X;X;X;X;X;X;X;X;X;X;X;X;X;X;X;X;X;X;X;X;X;X;X;X;X;X;X;X;X;X;X:X;X:X-X;X`.5XzXSXFXGX",
"SXVXGXfX' oXL.A.P.P.P.P.P.P.P.P.P.P.P.P.P.P.P.P.(.).).).(.(.(.(.).).).).(.(.(.(.).).).).).).).).).).).).).).).)._._._._._._._._._._._._._._._._._._._._.`.;X;Xs.7 D n u o.m.(.I._._._._._._._._._._._._._._._._._._._._.@X@X@X@X}.}.}.}.}.}.}.}._._.}.}.}.}.;X;X;X;X;X;X;X;X;X;X|.-X;X|.K.H Z y - O.v.(.`.@X;X_.}.;X;X;X;X;X;X;X;X;X;X;X;X;X;X;X;X;X;X;X;X;X;X;X;X;X;X;X;X;X;X;X;X;X;X;X;X;X;X;X;X;X;X;X;X;X;X;X;X;X;X;X;X;X;X;X;X;X;X;X;X;X;X;X:X-X;X`.5XzXSXFXGX",
"GXVXGXfX' oXL.A.P.P.P.P.P.P.P.P.P.P.P.P.P.P.P.P.(.(.(.(.P.P.P.P.).).).).P.P.(.(.).).).).).).).).).).).).).).)._._._._._._._._._._._._._._._._._._._._._.`.;X;Xk.8 G n u o.m.(.I._._._._._._._._._._._._._._._._._._.@X@X@X@X_._._._._._.}.}.}.}._._.}.}._.}.}.}.;X;X;X;X;X;X;X;X|.-X;X|.K.H Z t - O.v.(.`.@X;X_.}.}.;X;X;X;X;X;X;X;X;X;X;X;X;X;X;X;X;X;X;X;X;X;X;X;X;X;X;X;X;X;X;X;X;X;X;X;X;X;X;X;X;X;X;X;X;X;X;X;X;X;X;X;X;X;X;X;X;X;X;X;X;X;X:X X|.`.5XzXSXFXGX",
"GXVXGXfX' oXL.A.P.P.P.P.P.P.P.P.P.P.P.P.P.P.P.P.(.(.(.(.P.P.P.(.).).).).P.P.(.(.).).).).).).).).).).).).).)._._._._._._.).).).)._._._._._._._._._._._._.`.;X;Xs.8 G n u o.m.(.I._._._._._._._._._._._._._._._._._._.@X@X_._._._._._._._.}.}.}.}._._._._.}.}.}.}.;X}.;X;X;X;X;X;X|.-X;X|.K.H Z t - O.v.(.`.@X;X_.}.}.}.;X;X;X;X;X;X;X;X;X;X;X;X;X;X;X;X;X;X;X;X;X;X;X;X;X;X;X;X;X;X;X;X;X;X;X;X;X;X;X;X;X;X;X;X;X;X;X;X;X;X;X;X;X;X;X;X;X;X;X;X;X:X X|.`.5XzXSXFXGX",
"GXVXGXfX' oXL.A.P.P.P.P.P.P.P.P.P.P.P.P.(.(.(.(.P.P.P.P.P.P.P.P.(.(.P.P.P.P.P.P.).).).).).).).).).)._.)._._._._._._._.).).)._._._._._._._._._._._._._._._.;X;Xs.8 G n u o.m.(.I._._._._._._._._._._._._._._._._._.@X@X@X_._._._._._._._._._._._._._._._.}.}.}.}.}.}.}.}.;X;X;X;X|.-X;X|.K.H Z t - O.v.(.`.@X;X`.}.}.}.}.;X;X;X;X;X;X;X;X;X;X;X;X;X;X;X;X;X;X;X;X;X;X;X;X;X;X;X;X;X;X;X;X;X;X;X;X;X;X;X;X;X;X;X;X;X;X;X;X;X;X;X;X;X;X;X;X;X;X;X;X:X X|.`.5XzXSXFXGX",
"SXVXGXfX' oXL.A.P.P.P.P.P.P.P.P.P.P.(.(.(.(.(.(.P.P.P.P.P.P.P.P.P.P.P.(.P.P.P.P.).).).).).).).(._.)._._._._._._._._._.).).)._._._._._._._._._._._._._._._.;X;Xs.8 G n u o.m.(.I._._._._._._._._._._._._._._._._._.@X@X@X_._._._._._._._._._._._._._._._._.}.}.}.}.}.}.}.;X;X;X;X.X-X;X|.K.H Z t > O.v.(.`.@X;X`.}.}.}.}.;X;X;X;X;X;X;X;X;X;X;X;X;X;X;X;X;X;X;X;X;X;X;X;X;X;X;X;X;X;X;X;X;X;X;X;X;X;X;X;X;X;X;X;X;X;X;X;X;X;X;X;X;X;X;X;X;X;X;X;X:X X|.`.5XzXSXFXGX",
"SXFXDXaXX.B.C.H.P.P.P.P.P.P.P.P.P.P.P.P.P.P.P.P.(.P.P.P.(.(.(.(.P.P.P.P.(.(.(.(._._.).).).).).).).).).).).).).)._._._._._._._._.).)._._._._._._._._._._._.;X;Xk.% D n i o.N.H.U._._._._._._._._._._._._._._._._._._._._._._._._._._._._._._._._.`.`._._._._._.`._.}.`.`.}.}.}.;X|.-X;X|.K.H S 8 : O.N.(._.-X}._.;X;X;X;X;X;X;X;X;X;X;X;X;X;X;X;X;X;X;X;X;X;X;X;X;X;X;X;X;X;X;X;X;X;X;X;X;X;X;X;X;X;X;X;X;X;X;X;X;X;X;X;X;X;X;X;X;X;X;X;X;X;X;X;X;X}.|.'.4XzXSXFXGX",
"SXFXDXaXX.Q.C.H.P.P.P.P.P.P.P.P.P.P.P.P.P.P.P.P.P.P.(.P.(.P.(.(.P.P.P.P.(.P.(.(.).).(.(.(.(.(.(.(.(.(.(.(.(.(.(._._._._._._._._.).)._._._._._._._._._._._.;X;Xk.% D n i o.N.N.U._._._._._._._._._._._._._._._._._._._._._._._._._._._._._._._._.`.`._._._._._.`.`.`.`.`.`.}.}.}.|.-X;X|.K.H S 8 > O.N.(._.-X}._.}.}.}.}.}.}.}.}.}.}.}.}.}.}.}.}.;X;X;X;X;X;X;X;X;X;X;X;X;X;X;X;X;X;X;X;X;X;X;X;X;X;X;X;X;X;X;X;X;X;X;X;X;X;X;X;X;X;X;X;X;X;X;X;X;X}.|.'.4XzXSXFXGX",
"SXFXDXaXX.Q.C.H.P.P.P.P.P.P.P.P.P.P.P.P.P.P.P.P.(.(.(.P.P.P.P.P.(.(.P.P.P.P.P.P.).(.(.(.(.(.(.(.(.(.).).(.(.(.(.).).).)._._.).).(.(.)._._._._._._._._._._.;X;Xs.% D n i o.m.N.U._._._._._._._._._._._._._._._._._._._._._._._._._._._._._._._._.`.`.`._.`.`.`.`.`.`.`.}.`.}.}.}.|.-X;X|.K.H S 8 > O.N.(._.-X}._.}.}.`.`.`.`.;X;X}.}.}.}.}.}.}.}.;X;X;X;X;X;X;X;X;X;X;X;X;X;X;X;X;X;X;X;X;X;X;X;X;X;X;X;X;X;X;X;X;X;X;X;X;X;X;X;X;X;X;X;X;X;X;X;X;X X|.'.4XzXSXFXGX",
"SXFXDXaXX.B.C.H.P.P.P.P.P.P.P.P.P.P.P.P.P.P.P.P.P.(.(.(.P.P.P.P.(.P.P.P.P.P.P.P.).(.(.(.(.(.(.(.(.).).).(.(.(.(.(.).).).).).).).(.(.(.)._.)._._._._._._._.;X;Xs.% D n i o.M.N.U._._._._._._._._._._._._._._._._._._._._._._._._._._._._._._._._._._._._._._._._._.`._.`.`.`.`.}.|.-X;X|.K.G Z 8 > O.M.(._.-X_._.}.}.`.`.`.`.;X;X}.}.}.}.}.}.}.}.}.}.}.;X;X;X;X;X;X;X;X;X;X;X;X;X;X;X;X;X;X;X;X;X;X;X;X;X;X;X;X;X;X;X;X;X;X;X;X;X;X;X;X;X;X;X;X;X;X}.|.'.4XzXSXFXGX",
"SXFXVXaXX.B.C.N.P.P.P.P.P.P.P.P.P.P.P.P.P.P.P.P.P.P.P.P.P.P.P.P.P.P.P.P.P.P.P.P.P.P.(.(.P.P.P.P.(.(.P.(.P.P.P.P.P.P.).).).).(.(.(.(.).)._._._._._._._._._.;X}.9.% D n i o.m.N.U.(.)._._._._._._._._._._._._._._._._._._._._._._._._._._._._._._._._._._._._._._._._._.`.`.`.`.`.|.-X;X|.K.G Z 8 > | M.(._.;X_._.`.`.`.`.`.`.}.}.}.}.}.}.}.}.}.}.}.}.}.;X}.;X;X;X;X;X;X;X;X;X;X;X;X;X;X;X}.}.;X;X;X;X;X;X;X;X;X;X;X;X;X;X;X;X;X;X;X;X;X;X;X;X;X;X;X}.|.'.4XzXSXFXGX",
"SXFXVXaXX.B.C.H.Z.P.P.P.P.P.P.P.P.P.P.P.P.P.P.P.P.P.P.P.P.P.P.P.P.P.P.P.P.P.P.P.P.P.(.(.P.P.P.P.(.(.P.(.P.P.P.P.P.P.(.(.).).(.(.(.(.(.).)._.).).(._._._._.}.}.9.% D n i o.m.N.U.(.(.)._._._._._._._._._._._._._._._._._._._._._._._._._._._._._._._._._._._._._._._._._.`._._.`.|.-X;X`.K.G Z 8 > | M.(._.;X_._.`.`.`.`.`.`.}.}.}.}.}.}.}.}.}.}._._.}.}.}.}.}.}.}.}.}.}.}.}.}.}.}.}.}.}.}.}.}.}.}.}.}.}.}.}.}.}.;X;X;X;X;X;X;X;X;X;X;X;X;X;X;X;X;X}.|.'.4XzXSXFXGX",
"SXFXVXaXX.B.l.M.Z.Z.P.P.P.P.P.P.P.P.P.P.P.P.P.P.P.P.P.P.P.P.P.P.P.P.P.P.P.P.P.P.P.P.P.P.P.P.P.P.P.P.P.P.P.P.P.P.P.P.P.P.(.P.P.P.(.(.(.(.(.(.(.).)._._._._.}.`.9.% D n i o.N.N.U.).).).)._._._._._._._._._._._._._._._._._._._._._._._._._._._._._._._._._._._._._._._._._.`._._.|.-X;X`.K.G Z 8 - | M.!._.@X_._._._.`._._._._._.}.}._._._._._._._._._._.}.}.}.}.}.}.}.}.}.}.}.}.}.}.}.}.}.}.}.}.}.}.}.}.}.}.}.}.;X;X}.;X}.}.}.}.;X;X;X;X;X;X;X;X;X}.}.'.4XzXSXCXGX",
"SXFXVXaXX.B.l.M.Z.Z.P.P.P.P.P.P.P.P.P.P.P.P.P.P.P.P.P.P.P.P.P.P.P.P.P.P.P.P.P.P.P.P.P.P.P.P.P.P.P.P.P.P.P.P.P.P.P.P.P.P.(.(.P.P.P.(.(.(.(.(.(.(.)._._._._.}.`.9.% D n i o.N.H.U.(.).).)._._._._._._._._._._._._._._._._._._._._._._._._._._._._._._._._._._._._._._._._._.`._._.|.-X;X`.K.G Z 8 - | v.!._.@X_._._.`.`.`._._._._.}.}._._._._._._._._._._._.}.}.}.}.}.}.}.}.}.}.}.}.}.}.}.}.}.}.}.}.}.}.}.}.}.}.}.}.}.}.}.}.}.}.}.;X;X;X;X;X;X;X;X;X}.}.'.4XzXSXCXGX",
"JXZXBXgX] B.g.j.v.v.M.M.M.v.v.v.M.M.M.M.M.M.C.C.P.P.P.L.P.P.P.P.N.N.N.N.C.C.C.C.P.P.P.P.P.P.P.P.P.P.P.P.P.P.P.P.Z.Z.!.!.Z.Z.Z.Z.H.H.H.H.P.P.P.(.C.v.P.I.I.:X}.@.7 v 0 e W i.m.C.Z.C.C.C.C.C.C.C.P.P.P.P.P.P.P.P.P.P.P.P.P.P.P.P.P.P.P.P.P.P.P.P.P.P.P.P.P.P.P.P.P.I.I.P.I.I.I.I.~.]..XT.2.%.j a - / z.Z.!.'.'.Y.I.I.I.I.I.I.P.P._.).).).).).).).I.).I.I.I.I.I.I.I.I.I.I.I.I.I.I._._._._._._._._._._._._._._._._.I.I.I.).).I.I.I.T.T.T.T.T.T.I.I..X~.~.P.%XlXFXFXGX",
"FXSXPXgX| i.N.f.c.c.c.c.c.c.c.c.c.c.c.c.k.k.c.c.c.c.c.c.c.c.c.c.n.m.m.m.M.M.M.M.c.c.c.c.c.c.c.c.c.c.c.c.c.c.c.c.c.c.c.c.c.k.k.k.c.c.c.c.M.M.M.M.M.c.M.N.N._.P.#.g D V i / u.n.v.m.m.N.m.m.m.m.m.N.N.N.N.N.N.N.N.N.N.N.N.N.N.N.N.N.N.N.N.N.N.N.N.N.N.N.N.N.N.N.N.N.N.N.N.N.N.N.N.W.(.P.S.2.&.n j , / x.M.b.Z.N.c.N.N.N.N.N.N.N.N.M.M.M.M.M.M.M.M.N.N.N.N.N.N.N.N.N.N.N.N.N.N.N.N.H.H.H.H.H.H.H.H.H.N.N.N.H.H.H.H.N.N.N.N.N.N.N.N.P.P.P.P.P.N.N.N.m.].].c.wXMXGXSXGX",
"CXLXDXMX2.T R o. . . . . . . . .X.X.X.X.X. . . .X.X.X.X.X.X.X.X. . . . . . . . . . . . . . . . . . . . . . . . .{ ..{ ....{ ..{ { { { { { { .... .)  . . . . .L g D B y P ] [ |  . . . . . . . . . . . . . . . . . . . . . . . . . . . . . . . . . . . . . . . . . . . . . . . .+...{ o.O.&.N x > K W { { { { ]  . . . . . . . . . . . . . . . . . . . . . . . . . . . . . . . . . .X.X. . . . .X.X. . . .X. . . . . . . . . . . . . . . . . . .X.y.E L tXMXBXSXGX",
"FXLXBXDXiX*X4 : < < K K K 4 K 4 < K K K 4 4 4 4 < < < < < < < < , , , , , , , , < < < < < < < < < < < < < < < < , , , , , , , , 3 3 3 3 3 3 3 3 4 , < 4 < < 3 , x D S * 2 1 , , < < < < < < < < < < < < < < < < < < < < < < < < < < < < < < < < < < < < < < < < , < < < < < < < 1 1 1 9 $.N n x O ; : , , , , , < < < < < < < < 4 4 4 4 3 3 3 4 < < < < < < < < < < < < < < < < 4 4 4 4 4 4 4 4 4 4 4 4 4 4 4 4 < < < < < < < < 4 4 4 K K K K K 5 K ^ *XgXVXBXSXGX",
"GXBXSXPXDXjXC . O O O O O O O O O O O O O O O O . . . . . . . . . . . . . . . . . . . . . . . . O O O O . . . . O O O O O O O O O O O O O O O X = X = % = = % * b F F k * 2 o o + + + + + + + + X X X X X X X X X X X X X X X X X X X X X X X X X X X X X X X X X + + + + + + % = = 8 n H H J Z s * + o o o o + % % % % % % % % = = = = = = = = % % % % % % % % % % % % % % % % % % % % % % % % % % % % % % % % % % % % % % % % % % % 8 8 8 8 8 0 t 6.jXDXBXBXGXGX",
"NXSXSXPXGXPXn % # # # # # # # # # # # # # # # # # # # # # # # # # # # # # # # # # # # # # # # # & & & & & & & & * * d d d d d d & & & & & * * * & a h h h h k b B H F V v v 0 t a a a a a a a a & & & & & & & & a a a a a a a a a a a a a a a a a a a a a a a a h h h h h h h h s h A H 4.4.H D A A x m m m x s h h h h h h h h k k k k k k k k j j j j j j h h j j j j j j h h j j j j j j j j j j j j j j k k k k k k k k k k j j b b b Z Z Z <.<.7.BXBXBXGXFXGX",
"SXSXGXJXGXcXc 7 7 7 * * * * * * * * * * * * * * * * * * * * * * x x x x x x x x m m m m m m m m m m m m m m m m m m m m m m x m m m m m m m m m x m m x m n n D N H C G B B n n m m m m m m m m m m m m m m m m n n n n n n n n n n n n n n n n n n n n n n n n n n n n n n D n G G H H 5.=.H C H H G G G G G n D G G G G G D D D D D D D D D D G G G G G G G G G G G G G G G G G G G G G G G G G G G G G G G G G G G G G G G G G G G H H H H H 5.5.6.PXBXSXGXCXGX",
"JXGXFXFXLXgX=.M M M M M M M M M M M M M M M M M N N N N N N N N M M M M M M M M M M M M M M M M N N N N N N N N N N N N N N N N N N N N N N N N N C N N N N N C *.*.*.H H H G J $.$.$.$.%.%.$.$.%.%.%.%.%.%.%.%.%.%.%.%.%.%.%.%.%.%.%.%.%.%.%.%.%.%.%.%.%.%.%.%.%.%.%.%.%.%.%.%.&.&.=.1.1.1.*.&.*.*.=.=.=.=.1.&.%.%.%.%.%.%.%.%.%.%.%.%.%.%.%.%.*.*.*.*.*.*.*.*.*.*.*.*.*.*.*.*.*.*.*.*.*.*.*.*.*.*.*.*.*.*.*.*.*.*.*.*.*.*.*.*.*.*.*.*.*.*.1.1.6.6.6.IXJXSXSXGXGX",
"LXCXBXVXyX`.C.H.P.P.P.P.P.P.P.P.P.P.P.P.P.P.P.P.P.P.P.P.P.P.P.P.P.P.P.P.P.P.P.P.N.N.N.N.N.N.N.N.N.N.N.N.N.N.Z.Z.N.z.l.m.+.2 D J w ;.n.V.P.P.L.!.M.M.M.M.M.M.M.N.N.N.N.N.M.N.N.N.M.M.M.M.M.M.M.M.N.N.N.N.N.N.N.N.M.M.M.M.M.M.M.M.N.N.N.N.N.N.N.N.Z.Z.Z.Z.Z.P.P.P.P.P.P.P.P.P.P.P.P.P.P.P.P.P.P.P.P.P.P.P.P.P.P.P.P.P.P.P.P.I.L.x.H 4.N 9 ] k.Z.P.P.P.P.P.P.P.P.I.I.I.I.I.I.I.I.I.I.P.I.I.P.I.P.P.I.I.I.I.I.I.I.I.I.I.I.I.I.I.I.I.I.I.I.I.I.I.I.I.'.I.:X5XdXVXSXFXGX",
"GXFXBXgXOXm.I.$X_._._.}.}.;X;X;X`.`.`.}.}.}.}.}.}.}.`.`.`.}.`.}.;X;X;X;X;X;X}.;X`.`.`.`.`.`.`.`.;X;X;X;X;X;X;X;X$X;X:X,XD.i D A p p.(.{.`.$X;X].;X;X;X;X;X;X;X;X;X;X;X;X;X;X;X;X,X,X,X,X,X,X,X,X;X;X;X;X;X;X;X;X,X,X,X,X,X,X,X,X2X2X2X2X2X2X2X2X,X,X,X,X,X,X,X,X,X,X,X,X,X,X,X,X,X,X,X,X,X,X,X,X2X2X2X2X2X2X2X2X2X,X2X2X2X2X:XT.B D 7 6 ] M.`.;X2X2X2X2X2X2X2X2X2X2X2X2X2X2X2X2X2X2X2X2X2X2X2X2X2X2X2X2X2X2X2X2X2X2X2X2X2X2X2X2X2X2X2X2X2X2X2X2XeX2X<X;XuXPXBXGXGX",
"GXFXBXsX@.c.P._.).).).(._._._._._._._._._._.)._._._._._._._._._._._._._._._._._._._._._._._._._._._._._._._.`.`.`.}.:X,Xx.2 b m p ;.H.R._._.T.'.`.`.}.;X;X;X;X;X;X;X;X;X;X;X;X;X;X;X;X;X;X;X;X;X;X;X;X;X;X;X;X;X;X;X;X;X;X;X;X;X;X;X;X;X;X;X;X;X;X;X;X;X;X;X;X;X,X,X,X,X,X,X,X;X;X;X;X;X;X;X;X;X2X2X2X2X2X2X2X2X2X;X,X2X2X2X:XI.B n 8 : ] N.|.;X2X2X2X2X2X2X2X2X:X:X:X:X:X:X:X:X2X2X2X2X2X2X2X2X2X2X2X2X2X2X2X2X2X2X2X2X2X2X2X2X2X2X2X2X2X2X2X2X3X2X:X_.wXbXBXFXGX",
"LXFXBXgX) B.C.n.P.P.P.P.P.P.P.P.P.P.P.P.P.P.P.P.P.P.P.P.P.P.P.P.P.P.P.P.P.P.P.P.).).).).).).).).P.P.P.P.(.).).).'.T.;X`.:.2 S J y ;.m.C.P.(.U.(.).)._._._._._._._._._._._._._._._._._._._._._._._._._._._._._._._._._._._._._._._._._._._._._._._._._._._._._._.`.`.`.`.`.`.`._.;X;X;X;X;X;X;X;X;X;X;X;X;X;X;X;X;X}.;X;X;X;X}.C.H D % : ] M.'._.;X;X;X;X;X;X;X;X;X;X;X;X;X;X}.;X;X;X;X;X;X;X;X;X;X;X;X;X;X;X;X;X;X;X;X;X;X;X;X;X;X;X;X;X;X;X;X;X#X>X X$X4XbXSXFXGX",
"GXFXBXpXR B.z.M.P.P.P.P.P.P.P.P.P.P.P.P.P.P.P.P.P.P.P.P.P.P.P.P.P.P.P.P.P.P.P.P._._._._._._.).).(.(.(.).).)._._.$X}.;X].:.; b J y ;.m.C.P.(.I.(.(.(.(.(.).).)._._._._._._._._._._._._._._._._._._._._._._._._._._._._._._._._._._._._._._._._._._._._._._._._._._._._._._._._._.`.`.`.`.`.`.`.`._._._._._._._._.;X_.}.}.}.;X_.N.H m X ; ] M.'._._._.}.}.}.}.}.}.;X;X;X;X;X;X;X;X}.;X;X}.}.}.}.}.;X;X;X;X;X;X;X;X;X;X;X;X;X;X;X;X;X;X;X;X;X;X}.;X3X}._.$X=XbXSXGXGX",
"GXCXBXpXR B.l.L.N.N.N.N.N.N.Z.Z.Z.P.P.P.P.P.P.Z.P.P.Z.P.P.P.P.P.P.P.P.P.P.P.P.P.P.P.P.P.P.P.P.P.P.P.P.P.(.(.).).'.T.}.`.:.O k A e ;.m.V.P.P.L.!.P.P.P.P.P.P.(.(.(.(.(.(.(.(.(.(._._._._._._.).).).).).).).).).)._._._._._._._._._._._._._._._._._._._._._._._._._._._._._._._._._._._._._._._._._._._._._._._._.}.T._.}._.}._.M.G m X : ] c.(._._._._._._._.}._.;X;X;X;X;X;X;X;X_._.}._._._._._.}.}.}.}.}.}.}.}.}.}.}.}.}.}.}.}.}.}.}.}.}.}._.}.3X}.'.$X6XmXSXGXGX",
"SXCXDXaXE Q.x.G.Z.Z.P.P.P.P.P.P.P.P.P.P.P.P.P.P.P.P.P.P.P.P.P.P.P.P.P.P.P.P.P.P.P.P.P.P.P.P.P.P.P.P.(.(.).).).).'.I.}.$X:.; k A y y.Q.C.P.(.I.(.).).)._._._._._._._._._._._._._.).).).).).).).)._._._._._._._._._._._._._._._._._._._._._._._._._._._._._._._._.`.`.`.`.`.`.`.`._._._._._._._._.`.`.`.`.`.`.`.`.;X}.}.;X;X;X`.N.G x o : ] k.!.).}.}.}.}.}.}.;X;X}.;X;X;X;X;X;X;X;X;X;X;X;X;X;X;X;X;X;X;X;X;X;X;X;X;X;X;X;X;X;X;X;X;X;X;X;X;X;X;X#X}.'.].4XmXSXFXGX",
"SXCXDXaXE i.x.Y.N.N.Z.N.Z.P.P.P.P.P.P.P.P.P.P.P.P.P.P.P.P.P.P.P.P.P.P.P.P.P.P.P.P.P.P.P.P.P.P.P.Z.Z.Z.P.P.P.P.P.`.I.}.`.:.; h A r y.Q.C.P.(.U.(.P.P.P.P.P.P.).).(.(.(.(.(.(.(.(._._._._._._._._.).).).).).).).)._._._._._._._._._._._._._._._._._._._._._._._._._._._._._._._._._._._._._._._._._._._._._._._._.}.T._.}._.}._.M.n h X : ] k.!._._._._._._._._._._._._._._._._._._._._._.}.}.}.}.}.}.}.}.}.}.}.}._._.}.}.}.}.}.}.}.}.}.}.}.}.}.}.@X>X|.Q.6XbXSXGXGX",
"GXFXDXaX' e.l.M.N.N.N.N.N.N.N.H.N.N.P.P.P.N.N.N.P.P.P.P.P.P.P.P.P.P.P.P.P.P.P.P.P.P.P.P.P.P.P.P.P.P.P.P.P.P.P.(.T._.`._.:.: c Z e ;.c.V.N.H.I.Z.P.P.P.P.P.P.(.(.).).).).).).).)._._._.).).)._._._._._._._._._._._._._._._._._._._._._._._._._._._._._._._._._._._._._._._._._._._._._._._._._._._._._._._._._._._._.`.}._.}._.P.n x X : ] k.!._._._._._._._._._._._.@X@X@X@X@X@X@X@X@X_._._.@X@X_._._._._._._._.}.}.}.}.}.}.}.}._.}.}.}.}.}.}.;X}.-X@X~.-XbXSXDXGX",
"GXFXDXaX' e.l.M.N.N.N.N.N.N.N.N.N.H.P.P.P.N.N.N.P.P.P.P.P.P.P.P.P.P.P.P.P.P.P.P.P.P.P.P.P.P.P.P.P.P.P.P.P.P.P.(.T._.`._.:.: c Z e ;.c.V.N.H.I.Z.P.P.P.P.P.P.(.(.P.P.(.(.(.(.(.(._._._._._._._._._._._._._._._._._._._._._._._._._._._._._._._._._._._._._._._._._._._._._._._._._._._._._._._._._._._._._._._._._._.`.}._.}._.P.n x X : ] k.(._._._._._._._._._._._.@X_.@X@X@X@X@X@X@X_._._.@X@X_._._._._._._._.}.}.}.}.}.}.}.}._._.}.}.}.}.}.}.}.-X@X~.-XbXSXDXGX",
"GXFXDXaX' e.v.M.N.N.N.N.N.N.P.P.N.N.P.P.P.P.N.N.H.H.N.N.N.N.H.H.P.P.P.P.P.P.P.P.P.P.P.P.P.P.P.P.P.P.P.P.P.P.P.P.I._.`._.:.: c Z e ;.c.V.N.H.R.Z.P.P.P.P.P.P.P.(.(.(.(.(.(.(.(.(.).)._._.).(.(.(.).)._._._._._.)._._._._._._._._._._._._._._._._._._._._._._._._._._._._._._._._._._._._._._._._._._._._._._._._._._.`.}._.}._.P.n x X : ] k.(._._._._._._._._._._._._._._._.@X_.@X@X@X_._._._._._._._._._._._._.}.}.}.}.}.}.}.}._._._.}.}.}.}.}.}.%X@X~.-XbXSXDXGX",
"GXFXDXaX' e.v.M.N.N.N.N.N.N.P.P.N.N.P.P.P.P.N.N.P.P.P.Z.N.N.N.H.P.P.P.P.P.P.P.P.P.P.P.P.P.P.P.P.P.P.P.P.P.P.P.P.I._.`._.:.: c Z e ;.c.V.N.H.I.Z.P.P.P.P.P.P.P.(.(.(.(.(.(.(.(.(.).)._._.).(.(.(.).)._._._._._.)._._._._._._._._._._._._._._._._._._._._._._._._._._._._._._._._._._._._._._._._._._._._._._._._._._.`.}._.}._.P.n x X : ] k.(._._._._._._._._._._._._._._._._._.@X@X@X_._._._._._._._._._._._._.}.}.}.}.}.}.}.}._._._._.}.}.}.}.}.-X@X~.-XbXSXDXGX",
"GXFXDXaX) e.v.M.N.N.N.N.N.N.P.P.N.N.P.P.P.P.P.N.P.P.P.P.N.Z.P.P.P.P.P.P.P.P.P.P.P.P.P.P.P.P.P.P.P.P.P.P.P.P.P.P.I._.`._.:.: c Z e ;.k.V.N.H.I.Z.P.P.P.P.P.(.P.P.P.P.(.(.P.P.P.P.).).).).).).).).).)._._._._.).)._._._._._._._._._._._._._._._._._._._._._._._._._._._._._._._._._._._._._._._._._._._._._._._._._._.`.}._.}._.P.n x X : ] k.!._._._._._._._._._._._._._._._._._._._._._.@X@X_._._._._._._._._._._._.}.}.}.}._._._._._._._.}.}.}.}.-X@X~.-XbXSXDXGX",
"GXFXDXaX) e.v.M.N.N.N.N.N.N.P.P.N.N.P.P.P.P.P.H.N.H.N.N.N.N.N.N.P.P.Z.Z.Z.Z.Z.Z.P.P.P.P.P.P.P.P.P.P.P.P.P.P.P.P.I._.`._.:.: c Z e ;.k.V.N.H.I.Z.P.P.P.P.P.(.(.P.P.P.(.(.P.P.P.P.(.(.).).(.).).).).)._._._._.).).).)._._._._.).)._._._._._._._._._._._._._._._._._._._._._._._._._._._._._._._._._._._._._._._._._._.`.}._.}._.P.n x X : ] k.!._._._._._._._._._._._._._._._.@X_._._._._.@X@X_._._._._._._._._._._._.}.}.}.}._._._._._._._._._.}.}.-X@X~.-XbXSXDXGX",
"GXFXDXaX) e.l.M.N.N.N.N.N.N.P.P.P.P.P.P.P.P.P.P.N.N.N.N.N.N.Z.Z.P.P.P.P.Z.Z.P.P.P.P.P.P.P.P.P.P.P.P.P.P.P.P.P.P.I._.`._.:.: c Z e ;.c.V.N.^.I.Z.P.P.P.P.P.(.P.P.P.P.P.P.P.P.P.P.P.P.P.P.P.P.(.(.).)._._._.).).).).).).)._._._.)._._._._._._._._._._._._._._._._._._._._._._._._._._._._._._._._._._._._._._._._._._.`.}._.}._.P.n x X : ] k.!._._._._._._._._._._._.@X_.@X@X@X@X_._.@X@X@X@X_._._._._._._._._._._._._._._._._._._._._._._._.}.}.}.-X@X~.-XbXSXDXGX",
"GXFXDXaX) e.l.M.N.N.N.N.N.N.P.P.P.P.P.P.P.P.P.P.N.N.N.N.N.N.N.N.P.P.P.P.P.P.Z.P.P.P.P.P.P.P.P.P.P.P.P.P.P.P.P.P.I._.`._.:.: c Z e ;.c.V.N.^.I.Z.P.P.P.P.P.(.P.P.P.P.P.P.P.P.P.P.P.P.P.P.P.P.(.(.).)._._._.).).).).).).)._._._._._._._._._._._._._._._._._._._._._._._._._._._._._._._._._._._._._._._._._._._._._._.`.}._.}._.P.n x X : ] k.!._._._._._._._._._._._.@X@X@X@X@X@X_._.@X@X@X@X_._._._._._._._._._._._._._._._._._._._._._._.}.}.}.}.-X@X~.-XbXSXDXGX",
"GXFXDXaX' e.l.M.M.M.M.M.N.N.N.N.N.N.N.N.N.N.N.N.N.N.P.P.N.N.N.N.Z.N.N.N.N.N.P.P.P.P.P.P.P.P.P.P.P.P.P.P.P.P.P.P.T.(._._.:.: c Z e y.c.V.N.^.U.Z.P.P.P.P.P.P.P.P.(.(.(.(.(.(.P.P.P.P.P.P.P.P.P.P.).).).).).).).)._._.).)._._._._._._._._._._._._._._._._._._._._._._._._._._._._._._._._._._._._._._._._._._._._._._._.`._.`._.Z.n x % : | 9.!.(._._._._._._._._._._._._._._._._._._._._._._._._._._._._._._._._._._._._._._._._._._._._._._._._._.-X#X~.-XbXSXDXGX",
"GXFXDXaX' e.l.M.N.M.M.M.N.N.N.M.N.N.N.N.N.N.N.N.N.N.N.N.N.N.N.N.Z.Z.N.N.H.H.P.P.P.P.P.P.P.P.P.P.P.P.P.P.P.P.P.P.T.(._._.:.: c Z r y.c.V.N.^.P.Z.P.P.P.P.P.P.P.P.(.(.(.(.P.P.P.P.P.P.P.P.P.P.P.P.(.(.(.(.(.(.(.(._._.).)._._._._._._._._._._._._._._._._._._._._._._._._._._._._._._._._._._._._._._._._._._._._._._._.`._.`._.Z.n x % : | u.!.(._._._._._._._._._._._._._._._._._._._._._._._._._._._._._._._._._._._._._._._._._._._._._._._._._.-X#X~.-XbXSXDXGX",
"GXFXDXaX' e.l.M.N.N.N.N.N.N.M.M.N.N.N.N.N.N.N.N.N.N.N.N.N.N.N.N.P.P.P.P.H.P.P.P.P.P.P.P.P.P.P.P.P.P.P.P.P.P.P.P.T.(._._.:.: c Z r y.c.V.N.^.U.Z.P.P.P.P.P.P.P.P.P.(.P.P.P.P.P.P.P.P.P.P.P.P.P.P.(.(.(.(.(.(.).(.).).(.(.).).).).).).).)._._._._.).).).).).)._._._._._._._._._._._._._._._._._._._._._._._._._._._._._.`._.`._.Z.n x % ; | u.!.)._._._._._._._._._._._._._._._._._._._._._._._._._._._._._._._._._._._._._._._._._._._._._._._._._.-X#X~.-XbXSXDXGX",
"GXFXDXaX' e.l.M.N.N.N.N.N.N.M.M.N.N.N.N.N.N.N.N.N.N.N.N.N.N.N.N.P.P.P.P.H.P.P.P.P.P.P.P.P.P.P.P.P.P.P.P.P.P.P.P.T.(._._.:.: c Z r y.c.V.N.^.U.Z.P.P.P.P.P.P.P.P.P.P.P.P.P.P.P.P.P.P.P.P.P.P.P.P.(.(.(.(.(.(.).).).).).).).).).).).).).)._._._._.).).).).).).)._._._._._._._._._._._._._._._._._._._._._._._._._._._._.`._.`._.Z.n x % : | 9.!.(._._._._._._._._._._._._._._._._._._._._._._._._._._._._._._._._._._._._._._._._._._._._._._._._._.-X#X~.-XbXSXDXGX",
"GXFXDXaX' e.l.M.N.N.N.N.N.N.M.M.N.N.N.N.N.N.N.N.N.N.H.P.P.P.H.N.H.H.P.P.P.P.P.P.P.P.P.P.P.P.P.P.P.P.P.P.P.P.P.P.T.(._._.:.: c Z r y.c.V.N.W.U.Z.P.P.P.P.P.P.P.P.P.P.P.P.P.P.P.P.P.P.P.P.P.P.P.P.P.P.P.P.(.(.(.P.(.(.(.(.).).(.(.(.(.).).).).).).).).).).(.(.(.)._._._._._._._._._._._._._._._._._._._._._._._._._._._.`._.`._.Z.n x % : | 9.!.(._._._._._._._._._._._._._._._._._._._._._._._._._._._._._._._._._._._._._._._._._._._._._._._._.'.@X#X~.-XbXSXDXGX",
"GXFXDXaX' e.l.M.N.N.N.N.N.N.M.M.N.N.N.N.N.N.N.N.N.N.N.Z.P.P.N.N.H.N.P.P.P.P.P.P.Z.Z.P.P.P.P.Z.Z.P.P.P.P.P.P.P.P.T.(._._.:.: c Z r y.c.V.N.W.U.Z.P.P.P.P.P.P.P.P.P.P.P.P.P.P.P.P.P.P.P.P.P.P.P.P.P.P.P.P.(.(.(.P.(.(.(.(.).).(.(.(.(.).).).).).).).).).).(.(.).)._._._._._._._._._._._._._._._._._._._._._._._._._._._.`._.`._.Z.n h % : | 9.!.(._._._._._._._._._._._._._._._._._._._._._._._._._._._._._._._._._._._._._._._._._._._._._._._._.'.@X#X~.-XbXSXDXGX",
"GXFXDXaX' e.x.M.M.M.N.N.N.N.N.N.N.N.N.N.M.M.N.N.N.N.N.N.N.N.N.N.N.N.N.N.P.P.P.P.Z.Z.Z.P.P.P.P.Z.P.P.P.P.P.P.P.P.T.(._._.:.: c Z r y.c.V.N.^.P.Z.P.P.P.P.P.P.P.P.P.P.P.P.P.P.P.P.P.P.P.P.P.P.P.P.P.P.P.P.P.P.P.P.P.P.P.P.(.(.(.(.).).).).).).).).).).).).).).).)._._._._._._._._._._._._._._._._._._._._._._._._._._._.`._.`._.Z.n x % : | 9.!.(._._._._._._._._._._._._._._._._._._._._._._._._._._._._._._._._._._._._._._._._._._._._._._._._.'.@X#X~.-XbXSXDXGX",
"GXFXDXaX' e.x.M.M.M.M.M.N.N.N.N.N.N.N.N.M.M.N.N.N.N.N.N.N.N.N.N.N.N.N.N.Z.Z.P.H.Z.Z.Z.Z.P.P.P.Z.P.P.P.P.P.P.P.P.T.(._._.:.: c Z r y.c.V.N.W.P.Z.P.P.P.P.P.P.P.P.P.P.P.P.P.P.P.P.P.P.P.P.P.P.P.P.P.P.P.P.P.P.P.P.P.P.P.P.(.(.(.(.(.(.(.(.(.(.(.(.(.(.(.(.(.(.(.(._._._._._._._._._._._._._._._._._._._._._._._._._._._.`._.`._.Z.n x % : | 9.!.(._._._._._._._._._._._._._._._._._._._._._._._._._._._._._._._._._._._._._._._._._._._._._._._._.'.-X#X~.-XbXSXDXGX",
"SXFXDXaX' e.x.M.M.M.M.N.N.N.N.N.N.N.N.N.N.N.N.N.N.N.N.N.N.N.N.N.P.P.P.P.P.P.N.H.N.N.H.P.N.N.N.N.N.N.P.P.P.P.P.P.T.P.'._.:.: c l 6 y.c.V.N.m.P.Z.P.P.P.P.P.P.P.P.P.P.P.P.P.P.P.P.P.P.P.P.P.P.P.P.(.(.P.P.P.P.P.(.P.P.P.P.P.P.P.P.).).).).).).).)._._._._._._._._.).).).).).).).)._._._._._._._._._._._._._._._._._._._._._._._.N.n x X : W k.Z.(._._.)._._._._._._._._._._._._._._._._._._._._._._._._._._._._._._._._._._._._._._._._._._._._._.'.@X#X~.[.bXSXDXGX",
"SXFXDXaX' e.x.M.M.M.M.N.N.N.N.N.N.N.N.N.N.N.N.N.N.N.N.N.N.N.N.N.P.P.P.P.P.P.N.N.N.N.N.P.N.N.N.N.N.N.P.P.P.P.P.P.T.P.'.T.:.: c l r y.c.V.N.^.P.Z.P.P.P.P.P.P.P.P.P.P.P.P.P.P.P.P.P.P.P.P.P.P.P.P.(.(.P.P.P.P.(.(.P.P.P.P.P.P.P.P.(.(.(.(.(.(.(.)._._._._._._._._.).).).).).).).)._._._._._._._._._._._._._._._._._.)._._._._._.N.n x X : W k.Z.(._._.)._._._._._._._._._._._._._._._._._._._._._._._._._._._._._._._._._._._._._._._._._._._._._.'.@X#X~.[.bXSXDXGX",
"SXFXVXaX' e.x.M.M.M.N.N.N.N.N.N.N.N.N.N.N.N.N.N.N.N.N.N.N.N.N.N.N.N.N.N.N.N.N.N.N.N.N.N.N.N.P.P.N.N.Z.P.P.P.P.P.T.P._._.:.: c l e y.c.V.N.m.P.Z.P.P.P.P.P.P.P.P.P.P.P.P.P.P.P.P.P.P.P.P.P.P.P.P.(.P.P.P.(.(.(.(.P.P.P.P.P.P.P.P.(.(.(.(.(.(.).).).).).).(.(.(.(.).).).).).).).)._._.).)._._._._._._._._._._._._._.)._._._._._.N.n x X : W k.Z.(._._._._._._._._._._._._._._._._._._._._._._._._._._._._._._._._._._._._._._._._._._._._._._._._.'.@X#X~.-XbXSXDXGX",
"SXFXVXaX' e.x.M.M.M.N.N.N.N.N.N.N.N.N.N.N.N.N.N.N.N.N.N.N.N.N.N.N.N.N.N.N.N.N.N.N.N.N.N.N.N.P.P.N.N.N.P.H.P.P.P.T.P._._.:.: c l 6 y.c.V.N.m.P.Z.P.P.P.P.P.P.P.P.P.P.P.P.P.P.P.P.P.P.P.P.P.P.P.P.(.P.P.P.(.(.(.(.P.P.P.P.P.P.P.P.(.(.(.(.(.(.).).).).).).(.(.(.(.).).).).).).).)._._.).).)._._._._._._._._._._._.).)._._._._._.N.n x X : W k.Z.(._._._._._._._._._._._._._._._._._._._._._._._._._._._._._._._._._._._._._._._._._._._._._._._._.'.@X#X~.-XbXSXDXGX",
"GXFXDXaX' e.x.M.M.M.N.N.N.N.N.N.N.N.N.N.N.N.N.N.N.N.N.N.N.N.N.N.N.N.N.N.N.N.N.N.N.N.N.N.N.N.N.N.N.N.N.N.H.H.N.P.I.P._._.:.: c l 6 X.h.V.N.m.L.Z.P.P.P.P.P.P.P.P.P.P.P.P.P.P.P.P.P.P.P.P.P.P.P.P.P.P.P.P.P.P.P.P.P.P.P.P.P.P.P.P.P.P.P.P.P.(.(.(.).).).).P.P.(.(.).).).).).).).).).(.(.(.).).).)._._._._._._._._.).(._._._._._.N.n x X : W k.Z.(.).)._._._._._._._._._._._._._._._._._._._._._._._._._._._._._._._._._._._._._._._._._._._._._._.'.@X#X~.-XbXSXDXGX",
"GXFXDXaX' e.x.M.M.M.N.N.N.N.N.N.N.N.N.N.N.N.N.N.N.N.N.N.N.N.N.N.N.N.N.N.N.N.N.N.N.N.P.Z.N.N.N.N.N.N.N.N.N.H.N.N.I.P._._.:.: c l 6 y.h.V.N.m.L.Z.Z.P.P.P.P.P.P.P.P.P.P.P.P.P.P.P.P.P.P.P.P.P.P.P.P.P.P.P.P.P.P.P.P.P.P.P.P.P.P.P.P.P.P.P.P.P.(.(.).).).).P.P.(.(.).).).).).).).).).).(.(.).(.).)._._._._._._.).).(.(._._._._._.N.n x X : W k.Z.(.).)._._._._._._._._._._._._._._._._._._._._._._._._._._._._._._._._._._._._._._._._._._._._._._.'.@X#X~.-XbXSXDXGX",
"SXFXDXaX' r.x.M.M.M.N.N.N.N.N.N.N.N.N.N.N.N.N.N.N.N.N.N.N.N.N.N.N.N.N.N.N.N.N.N.N.N.P.H.N.N.N.N.N.N.N.N.N.N.N.N.T.P._._.:.: c l e ;.c.V.N.m.L.Z.Z.Z.P.P.P.P.P.P.P.P.P.P.P.P.P.P.P.P.P.P.P.P.P.P.P.P.P.P.P.P.P.P.P.P.P.P.P.P.P.P.P.P.P.P.P.P.P.P.P.P.P.P.P.P.P.P.).).).).).).).).).).(.(.(.(.(.(._._._._.).).).).(.P._._._._._.N.n x X : W k.Z.(.).).)._._._._._._._._._._._._._._._._._._._._._._._._._._._._._._._._._._._._._._._._._._._._._.'.@X#X~.[.bXSXDXGX",
"SXFXDXaX' r.x.M.M.M.N.N.N.N.N.N.N.N.N.N.N.N.N.N.N.N.N.N.N.N.N.N.N.N.N.N.N.N.N.N.N.N.N.N.N.N.N.N.N.N.N.N.Z.N.N.N.T.P._._.:.: c l e ;.c.V.N.m.L.Z.Z.Z.P.P.P.P.P.P.P.P.P.P.P.P.P.P.P.P.P.P.P.P.P.P.P.P.P.P.P.P.P.P.P.P.P.P.P.P.P.P.P.P.P.P.P.P.P.P.P.P.(.(.P.P.P.P.).).).).).).).).(.(.(.P.(.P.P.P.)._._.).).).).).P.P._._._._._.M.n x X : W k.N.(._._.)._._._._._._._._._._._._._._._._._._._._._._._._._._._._._._._._._._._._._._._._._._._._._.(.@X#X~.}.bXSXDXGX",
"VXBXVXdXR e.0.V.M.M.M.M.M.M.M.M.M.M.M.M.M.M.M.M.M.M.M.M.M.M.M.M.G.G.H.H.H.H.H.H.G.G.G.G.G.G.N.N.H.H.H.H.H.H.P.P.U.[.P._.:.: c Z 6 O.k.h.c.M.U.L.P.P.P.P.P.P.P.P.U.U.U.U.U.U.U.U.L.L.L.P.P.P.L.L.L.L.L.L.L.U.L.L.L.L.L.L.L.L.L.L.U.U.U.U.U.U.U.U.U.U.U.U.U.U.U.U.U.U.U.U.U.U.U.U.T.T.T.T.T.T.T.T.T.T.T.T.T.T.T.T.'.'.(.(.'.'.(.n.H x o : Y u.Z.C.T.T.T.T.T.T.T.T._._._._._._._._.T.T.T.T.T.T.T.T.T.T.T.T.T._.T.T.T.T.T.T.T.T.T.T.'._._._._._._._.T.T.'.C.+XxXGXFXGX",
"DXSXGXhX` e.h.l.N.N.N.N.N.m.N.N.N.N.N.N.N.m.N.N.N.N.N.N.N.N.N.N.M.M.N.N.N.N.N.N.N.N.N.N.N.N.N.N.N.N.N.N.N.N.N.N.z.P.N.(.+.: 7 l 9 O.v.b.b.N.H.N.P.P.P.P.P.P.P.P.N.N.N.N.N.N.N.N.P.P.P.P.P.P.P.P.P.P.P.P.P.P.P.P.P.P.P.P.P.P.P.P.P.P.P.P.P.P.P.P.P.P.P.P.P.P.P.P.P.P.P.P.P.P.P.P.P.P.P.P.P.P.P.P.P.P.P.P.P.P.P.P.T.I.U.L.I.}.I.C.A s o : ` u.N.v.P.P.P.P.P.P.P.P.P.P.P.P.P.P.P.P.P.P.P.P.P.P.(.P.).).).).).).).)._._._._._._._._.I.I.I.I.I.I.I.T.}.Z.b.Z.=XzXDXGXGX",
"GXSXBXhX[ r.B.0.c.c.c.c.c.c.c.c.c.c.c.c.c.c.c.c.b.v.b.b.b.b.b.b.c.c.c.c.c.c.c.c.c.c.c.c.c.c.c.c.v.v.b.b.m.m.m.m.c.m.b.P.o.: 7 l 9 O.k.B.b.m.m.b.m.m.m.m.m.m.m.m.m.b.b.m.b.b.m.b.m.m.m.m.m.m.m.m.m.m.m.m.m.m.m.m.Z.Z.N.N.N.N.W.N.N.N.b.b.N.b.b.b.N.N.N.N.N.N.N.N.N.N.N.N.N.N.N.N.N.N.b.b.N.N.N.N.b.b.b.b.b.b.b.b.C.C.C.C.P.I.C.z.A s o : W u.m.b.N.N.N.N.N.N.N.N.(.(.(.(.(.(.(.(.N.N.N.N.N.N.N.N.N.N.N.N.N.N.N.N.N.N.N.N.N.N.N.N.C.C.C.C.C.C.Z.Z.Z.!.W.N.=XzXBXGXGX",
"GXSXGXhXW ) q.k.k.k.k.k.k.k.k.k.k.k.k.k.k.k.k.k.k.k.k.k.k.k.k.k.k.k.k.k.k.k.k.k.c.c.c.c.c.c.c.c.k.k.c.c.c.c.c.c.i.c.M.z.O.2 t b 9 / @.0.u.k.c.h.k.k.c.c.c.c.c.c.c.c.c.c.c.c.c.c.c.c.c.c.c.c.c.c.c.c.c.c.c.c.c.c.c.c.c.c.c.c.c.c.c.c.c.c.c.c.c.c.c.c.c.c.c.c.c.c.c.c.c.c.c.c.c.c.c.c.c.c.c.c.c.c.M.M.M.M.M.M.M.M.m.N.N.m.N.N.B.0.A h = ; L @.c.v.m.m.m.m.m.m.m.m.c.c.c.c.c.c.c.c.m.m.m.M.m.m.m.m.m.m.m.m.m.m.m.N.M.M.M.M.M.M.M.M.Q.Q.Q.^.^.W.W.^.v.W.W.@.%XzXDXSXGX",
"SXSXGXkX2.W L +.o.o.o.o.o.o.} } o.o.o.o.o.o.o.o.{ { { { { { } } o.o.o.o.o.o.o.o.+.+.+.+.+.+.+.+.o.o.+.+.+.+.+.+. ...+.O.( 2 x b M ! | [ | } +.X.} { } } } } } } +.+.+.+.+.+.+.+.................+.+.+.+.+.+.+.+.} } } } } } } } +.+.+.+.+.+.+.+.@.+.+.+.+.+.+.+.@.+.+.+.+.+.+.+.....+...........} } } } } } } } ..+... ...+... .J m * o 4 Y { { +.+.+.+.+.+.+.+.+.+.+.+.+.+.+.+.+.+.+.+.+.+.+.+.+.+.+.+.+.+.+.+.+.+.+.+.+.+.+.+.X.+.+.X.X.X.X.X.:.{ { o.tXMXDXZXGX",
"DXSXGXDXiXtXQ 4 , , , , , , , , , , , , , , , , 4 4 4 4 4 4 5 5 4 4 4 4 4 4 4 4 3 3 3 3 3 3 3 4 4 4 4 4 4 5 5 5 K 4 5 6 2 % x b c i 6 4 1 1 4 K 3 3 3 3 3 3 3 3 5 4 4 4 4 4 4 4 5 5 5 5 5 5 5 5 3 3 3 3 3 3 3 3 5 5 5 5 5 5 5 5 4 4 4 4 4 4 4 4 5 5 5 5 5 5 5 5 5 5 5 5 5 5 5 5 4 4 4 4 4 4 4 4 3 3 3 3 3 3 3 3 6 6 2 : 2 r ! ! J n h * 2 6 5 4 4 4 4 4 4 4 4 4 , , , , , , 3 3 4 4 4 4 4 4 4 4 5 5 5 5 5 5 5 5 5 5 5 5 5 5 5 5 6 6 6 6 6 6 6 6 ! 5 O.tXpXMXDXLXGX",
"DXJXFXGXVXkXC O o o o o o o o o o o o o o o o o o o o o o o o o o o o o o o o o o o o o o o o o X o o o o o o o 7 % % * * x b n j 7 2 2 % $ o O + + + + o + + + + + + + + + + + % 8 8 8 % % % % % % % % % % % % % % % % % % % % % % % % % % % % % % % % % % % % % % % % % % % % % * % % % % % % 7 7 7 7 7 7 7 7 0 0 0 * t n C H J G b h x 7 7 * 7 7 7 7 7 7 7 7 t t t t t t t t 7 7 7 7 7 7 7 7 7 7 7 7 7 7 t t 7 7 7 7 7 7 7 7 t t t t x x x x n N 6.cXDXDXGXGXGX",
"VXGXGXNXZXPXD d s s s s s s s s s s s s s s s s d d d d s s s s s s s s s s s s s s s s s s s s s h h h h h h h A h j k k D G D S b t x l k j x b b b b b b b b j j j j j j j j j j j j j j j j l l l l l l l l b b b b b b b b Z Z Z Z Z Z Z Z Z Z Z Z S S S Z Z Z Z Z S S S Z S S S S S S S S S S S S S S S S c A J J J H 4.H =.H F S b D D S S S S S S S S S Z Z Z Z Z Z Z Z S S S S S S S S S S S S S S S S F F F F F F F F D D J J J J J J 4.4.5.LXSXSXGXFXGX",
"DXPXGXZXSXPXC 2 q q q q q q q q q q q q q q q q 0 0 0 0 0 0 0 0 q q q q q q q q q q q q q q q q 0 0 0 0 0 0 0 0 x x x t v v v v v v v v v v v v t t t t t t t t x x x x x x x x x v v v v v v v y c J l A c z c 0 v V v v v v k v v v v v v v v B B B B n n n n B B B B B B B B B B B B B B B B B B B B B B B B B B B B B G G H B B B B V v v v B B B B B B B B H n D Z 4.A n B B B B n B n n G B B B B B B B B B B B B B B B B C C C G C C H H %.*.6.bXBXZXSXGXGX",
"VXLXFXFXcXaX-.I ~ ~ ~ ~ ~ ~ ~ ~ P P P P P P P P U U U U U U U U P P P P P P P P P P Q Q ~ ~ Q Q P Q Q Q Q Q Q Q ^ ^ ^ ^ ^ ^ ^ ^ ^ ^ ^ ^ ^ ^ ^ ^ ^ ^ ^ ^ ^ ^ ^ ^ U U U U U U U U U U U U U U ~ ~ u $.$.j A c z M K P P P P P P P P P P P P P U U P P P P P P P P P P P P P P P P P P P P P P P P P P P P Q P P P Q Q ^ ^ ^ / / / / / / ^ ^ ^ ^ ^ Q Q Q Q Q Q Q Q -.$.=.D J f 8 8 P U U P ^ U P ^ Q Q ~ ~ ~ ~ ~ ~ ~ ~ ~ ~ ~ ~ ~ ~ / / / / / / / / -.>.6.dXMXDXGXCXGX",
"DXGXCXnXuX=XD.D.F.F.F.F.F.F.F.F.F.F.F.F.F.F.F.F.m.m.m.m.m.m.m.m.F.F.M.M.M.m.M.M.F.F.F.F.F.F.F.F.n.n.n.M.M.M.M.M.F.F.F.F.F.F.F.F.F.F.F.F.F.F.F.F.F.F.F.F.F.F.F.F.n.n.n.n.n.n.n.n.m.m.m.m.m.m.m.m.2.2.>.v G c 0 I u.n.F.F.F.F.F.F.F.F.F.F.F.F.F.F.F.F.F.F.F.F.F.F.H.H.H.H.H.H.H.H.F.F.F.F.F.F.F.F.H.H.H.H.H.H.H.H.F.F.F.F.H.H.H.H./.H.H.H.H.F.F.F.H.H.H.H./.H././.J.D.2.N A % > I u.m.H.H././.H./.H.H././././././././././././././.H.H.H.H.H.H.H.H.OXJ.OXtXaXVXGXCXGX",
"DXGXCXhXK.9.(.`._._._._._._._._.|._._._._._._._.|.|.|.|.|.|.|.|.}.|.|.|.|.|.|.|.}.}.}.}.}.}.}.}.|.|.|.|.|.|.}.|.}.}.}.}.|.|.|.|.|.|.}.}.}.}.}.}.}.}.}.}.|.|.|.|.|.|.|.|.|.|.|.|.;X;X|.:X;X;X,X<X1X2XD.p D c q | P._.|.|.|.<X,X,X<X<X<X<X<X<X<X<X,X,X<X<X<X<X<X<X<X<X,X,X<X<X<X<X:X:X:X:X:X:X:X:X<X<X<X<X<X<X<X<X<X<X<X<X<X2X2X2X2X2X2X<X<X<X,X:X<X<X<X<X2X2X2X2XeX3XK.i h X : | C.|.<X,X2X2X<X2X2X2X2X2X2X2X2X2X2X2X2X2X2X2X2X2X<X<X<X<X<X<X<X<X3X,X,X%XtXnXDXFXGX",
"BXBXDXdXo.h.E.Z.C.C.C.C.C.C.C.C.C.C.C.C.C.C.L.L.R.R.R.R.R.R.R.R.R.R.R.I.R.R.R.R.I.I.I.I.I.I.R.I.I.I.I.I.I.I.I.I.I.I.I.I.I.I.{.[.I.I.I.I.I.I.I.I.I.I.I.{.I.I.I.I.[.[.[.[.[.[.[.[.[.[.[.[.[.[.}.}.rX.Xk.e b x % X.l.C.I.I.I.I.}.[.[.[.[.[.[.[.[.[.[.[.[.[.[.[.[.[.[.[.[.{.[.[.[.[.[.[.[.[.[.[.[.[.[.[.[.[.[.[.[.[.[.[.[.}.-X X-X-X-X-X-X-X X}. X X[.[.[.[.[.[.}.}.].;XK.i h   ; W 3.C.{.[.[.[.[.[.}.}.}.}.}.}.}.}.}.}.}.}.}.}.}.}.-X-X-X-X-X-X-X-X X|..X}.=XMXDXSXGX",
"SXNXBXaX_ B.h.z.N.N.N.N.N.N.N.N.P.P.Z.Z.P.H.H.P.N.N.N.N.N.N.N.N.N.N.N.N.N.N.N.N.H.H.H.H.H.H.N.N.P.P.P.P.P.P.P.P.P.P.P.P.P.P.(.(.P.P.P.P.P.P.P.P.P.P.P.P.P.P.P.P.P.P.P.P.P.P.P.P.P.P.P.(.(._._._.'.~.i.e b x @ ' k.M.P.P.P.(._._.P.(.(.P.P.P.P.P._._._._._._._._._._._._._._._._._._._._._._._._._._._._._._._._._._._._._._._._._._._._._._._._._._._._._._._._._.}.K.i &   ; L 9.Z._._._._._._._._._._._._._._.`.`.`.`._._._._._._._._.@X@X@X@XR._.`._.=XMXBXSXGX",
"GXSXBXaX` e.c.S.N.N.N.N.N.N.N.N.m.m.m.m.m.m.m.m.N.N.N.N.N.N.N.N.N.N.N.N.N.N.N.N.N.N.N.W.W.W.N.N.W.W.^.^.W.W.W.W.N.N.N.H.H.H.^.^.H.H.H.H.N.N.H.H.(.(.^.(.^.^.^.^.H.^.^.^.H.H.H.H.(.(.(.(.(.(.(.(.@X'.M.e Z m @ ' e.b.N.m.N.^.(.(.(.(.(.(.(.(.(.(.(.(.(.(.(.(.(.(.(.(.(.(.(.(.(.(.(.(.(.(.(.(.(.(.(.(.(.(.(.(.(.(._._._._._._._._.(.(.(.(.(.(.(._._._._._.(.(.(.(.;X_.D.u #   : L q.N.'.(.(.'.'.'._._._._._._._._.'.'.'.'.'.'.'.'.'.'.'.'.'.'.'.`.[.`.'.N.%XlXGXSXGX",
"CXGXFXdX .w.u.S.v.v.v.v.v.v.v.v.N.N.N.N.N.N.N.N.C.C.C.C.C.C.C.C.N.N.N.N.N.N.N.N.C.C.C.C.C.C.C.C.M.M.M.M.M.M.M.M.M.C.C.C.C.C.C.C.C.C.C.C.C.C.C.C.C.C.C.C.C.C.C.C.Z.Z.Z.Z.Z.Z.Z.Z.P.P.I.I.I.I.I.I.%XP.n.8 l f @ ' s.v.N.N.N.Z.Z.Z.Z.Z.Z.Z.Z.Z.Z.Z.Z.Z.Z.Z.Z.Z.Z.Z.P.P.P.P.I.I.I.I.Z.Z.Z.Z.Z.Z.Z.Z.I.I.I.I.I.I.I.I.I.P.Z.Z.Z.Z.Z.Z.I.I.I.I.I.).).).I.I.).I.I.I.I.I.R.G.D.,.% X 1 L 9.Z._.I.P.I.)._.I.I.I.).).).I.I.).).).).).).).).).).).).)._._._.%X`.].m.6XxXGXZXGX",
"GXFXDXpXR w.x.k.v.c.M.M.M.M.M.M.M.M.M.M.N.N.N.N.M.M.M.M.M.M.M.M.M.M.M.M.M.M.M.M.N.N.M.M.N.N.N.N.N.N.N.N.N.N.M.M.N.N.N.N.N.N.N.N.N.N.N.N.N.N.N.N.P.P.P.P.P.P.P.P.N.N.N.N.P.H.N.N.N.N.H.H.P.P.P.P.I.#Xs.8 A t & ) 9.v.N.N.P.P.H.P.P.P.P.P.P.P.P.P.P.P.P.P.P.P.P.P.P.P.P.P.P.P.P.P.P.P.P.P.P.P.P.P.P.P.P.P.P.P.P.P.(.(.(.(.(.(.P.P.P.P.P.P.(.(.(.(.P.P.P.P.(.(.(.(._.P.K.9 $   ; Y 9.N.P.P.).(.P.(.).).).).).).).)._._._._._._._._._._.).)._._._._.(.OXY.E.-XbXSXDXGX",
"GXFXDXpXR w.x.k.v.v.v.M.M.M.M.M.M.M.M.M.M.N.N.N.M.M.M.M.M.M.M.M.M.M.M.M.M.M.M.M.N.N.N.M.N.N.N.N.N.N.N.N.N.N.M.M.N.N.N.N.N.N.N.N.N.N.N.N.N.N.N.N.P.P.P.P.P.P.P.P.N.N.N.N.P.H.N.N.N.N.H.H.P.P.P.P.I.#Xs.8 A 7 & ) 9.M.N.N.P.P.H.P.P.P.P.P.P.P.P.P.P.P.P.P.P.P.P.P.P.P.P.P.P.P.P.P.P.P.P.P.P.P.P.P.P.P.P.P.P.P.P.P.(.(.(.(.P.P.P.P.P.P.P.P.(.(.(.P.P.P.P.P.(.(.(.(._.P.D.9 $   ; Y 9.N.P.P.).(.P.(.(.).(.(.(.(.(.(._._._._._._._._._.).).)._._._._.(.OXY.E.-XbXSXDXGX",
"GXFXDXpX) w.x.k.v.v.v.v.M.M.M.M.M.M.M.M.M.M.N.N.M.M.M.M.M.M.M.M.M.M.M.M.M.M.M.M.N.N.M.M.N.N.N.N.N.N.N.N.N.N.N.N.N.N.N.N.N.N.N.N.N.N.N.N.N.N.N.N.N.N.N.N.N.N.N.N.N.P.N.N.P.N.N.N.N.N.H.H.P.P.P.P.I.#Xs.8 A 7 & ' 9.M.N.N.P.P.H.P.P.P.P.P.P.P.P.P.P.P.P.P.P.P.P.P.P.P.P.P.P.P.P.P.P.P.P.P.P.P.P.P.P.P.P.P.P.P.P.P.P.(.P.P.P.P.P.P.P.P.P.P.(.(.P.P.(.(.P.P.(.P.(.(._.P.D.9 $   ; Y 9.N.P.P.).(.P.(.).).).).(.(.(.(.(.).).)._._.).).).).).).).).).).(.OXY.E.-XbXSXDXGX",
"GXFXDXpX) w.x.k.c.c.v.v.c.M.M.M.M.M.M.M.M.M.M.M.M.M.M.M.M.M.M.M.M.M.M.M.M.M.M.M.N.N.M.M.M.N.N.N.M.N.N.N.N.N.N.N.N.N.N.N.N.N.N.N.N.N.N.N.N.N.N.N.N.N.N.N.N.N.N.N.Z.P.N.N.N.N.N.N.Z.N.H.H.P.P.P.P.I.#Xs.8 A t & ' 9.M.N.N.P.P.P.P.P.P.P.P.P.P.P.P.P.P.P.P.P.P.P.P.P.P.P.P.P.P.P.P.P.P.P.P.P.P.P.P.P.P.P.P.P.P.P.P.P.P.P.P.P.P.P.P.(.(.P.P.P.(.P.P.(.(.P.P.P.P.P.P._.Y.D.9 $   ; Y 9.N.P.P.).(.P.(.).).).).(.(.(.(.(.).).)._._.).).).).).).).).).).(.OXY.E.}.bXSXDXGX",
"GXFXDXpX) w.x.c.c.v.v.c.v.v.M.M.M.M.M.M.M.M.M.M.M.M.M.M.M.M.M.M.M.M.M.M.M.M.M.M.M.M.M.M.M.M.M.M.M.M.N.N.N.N.N.N.N.N.N.N.N.N.N.N.N.N.N.N.N.N.N.N.N.N.N.N.N.N.N.N.Z.N.N.N.N.N.N.N.Z.Z.P.P.P.P.P.P.I.#X0.8 A 7 & ) 9.M.N.N.P.P.P.P.P.P.P.P.P.P.P.P.P.P.P.P.P.P.P.P.P.P.P.P.P.P.P.P.P.P.P.P.P.P.P.P.P.P.P.P.P.P.P.P.P.P.P.P.P.P.P.P.P.P.P.P.P.P.P.P.(.(.(.(.P.P.P.P._.Y.D.9 $   ; Y 9.N.P.P.).(.P.(.P.P.(.(.(.(.(.(.P.P.).).).).(.(.(.(.(.(.(.(.(.(.(.OXY.E.-XbXSXDXGX",
"GXFXDXpX) w.x.c.c.c.c.c.c.v.v.v.c.M.M.M.M.M.M.M.M.M.M.M.M.M.M.M.M.M.M.M.M.M.M.M.M.M.M.M.M.M.M.M.M.M.N.N.N.N.N.M.N.N.N.N.N.N.N.N.N.N.N.N.N.N.N.N.N.N.N.N.N.N.N.N.N.N.N.N.N.N.N.N.Z.Z.P.P.P.P.P.P.I.#X0.8 A 7 & ) 9.M.N.N.P.P.P.P.P.P.P.P.P.P.P.P.P.P.P.P.P.P.P.P.P.P.P.P.P.P.P.P.P.P.P.P.P.P.P.P.P.P.P.P.P.P.P.P.P.P.P.P.P.P.P.P.P.P.P.P.P.P.P.P.(.(.P.P.P.P.P.P._.Y.D.9 $   ; Y 9.N.P.P.).(.P.(.P.P.(.(.(.(.(.(.P.P.).(.).).(.(.(.(.(.(.(.(.(.).(.OXY.E.-XbXSXDXGX",
"GXFXDXpXR w.x.c.c.c.c.c.c.c.v.v.c.c.M.M.M.M.M.M.M.M.M.M.M.M.M.M.M.M.M.M.M.M.M.M.M.M.M.M.M.M.M.M.M.N.N.N.N.M.M.M.N.N.N.N.N.N.N.N.N.N.N.N.N.N.N.N.N.N.N.N.N.N.N.N.N.N.N.N.N.N.N.N.N.N.P.P.P.P.P.P.I.#Xs.8 A t & ) 9.M.N.N.P.P.P.P.P.P.P.P.P.P.P.P.P.P.P.P.P.P.P.P.P.P.P.P.P.P.P.P.P.P.P.P.P.P.P.P.P.P.P.P.P.P.P.P.P.P.P.P.P.P.P.P.P.P.P.P.P.P.P.P.P.P.P.P.P.P.(.(._.Y.K.9 $   ; Y 9.N.P.P.).(.P.(.P.P.P.P.P.P.P.P.P.P.P.P.(.P.P.P.P.P.P.P.P.P.(.(.(.@XY.E.-XbXSXDXGX",
"GXFXDXpX) w.x.c.c.c.c.c.c.c.v.v.c.c.v.M.M.M.M.M.M.M.M.M.M.M.M.M.M.M.M.M.M.M.M.M.M.M.M.M.M.M.M.M.M.M.N.N.N.M.M.M.N.N.N.N.N.N.N.N.N.N.N.N.N.N.N.N.N.N.N.N.N.N.N.N.H.N.N.N.N.N.N.N.N.N.P.P.P.P.P.P.I.#Xs.8 A 7 & ) 9.M.N.N.P.P.P.P.P.P.P.P.P.P.P.P.P.P.P.P.P.P.P.P.P.P.P.P.P.P.P.P.P.P.P.P.P.P.P.P.P.P.P.P.P.P.P.P.P.P.P.P.P.P.P.P.P.P.P.P.P.P.P.P.P.P.P.P.P.P.P.(._.Y.D.9 $   ; Y 9.N.P.P.).(.P.(.P.P.P.P.P.P.P.P.P.P.P.P.(.P.P.P.P.P.P.P.P.P.(.(.(.@XY.E.-XbXSXDXGX",
"GXFXDXpXR w.x.k.c.c.c.c.c.c.c.c.c.v.v.v.v.v.v.v.M.M.M.M.N.N.N.N.M.M.M.M.M.M.M.M.M.M.M.M.M.M.M.M.M.M.M.M.M.M.M.M.N.N.N.N.N.N.N.N.M.M.M.N.N.N.M.M.N.N.N.N.N.N.N.N.N.N.N.N.N.N.N.N.N.N.P.P.P.P.P.P.Z.#X0.8 A * & ) 9.k.M.N.N.N.N.N.N.N.N.P.P.P.P.P.P.P.P.P.P.P.P.P.P.P.P.P.P.P.P.P.P.P.P.P.P.P.P.P.P.P.P.P.P.P.P.P.P.P.P.P.P.P.P.P.P.P.P.P.P.P.P.P.P.P.P.P.P.P.(.(.'.P.D.u $ $ - L 9.M.P.P.P.P.P.(.(.(.(.(.(.P.P.P.P.P.P.P.(.(.(.(.P.P.P.P.P.P.P.P.(.T.Y.W.[.bXSXDXGX",
"GXFXDXpXR w.x.k.c.c.c.c.c.c.c.c.c.v.v.v.v.v.v.v.M.M.M.M.M.N.N.N.M.M.M.M.M.M.M.M.M.M.M.M.M.M.M.M.M.M.M.M.M.M.M.M.N.N.N.N.N.N.N.N.M.M.M.N.N.N.M.N.N.N.N.N.N.N.N.N.N.N.N.N.N.N.N.N.N.N.P.P.P.P.P.P.Z.#X0.8 A * & ) 9.k.M.N.N.N.N.N.N.N.N.P.P.P.P.P.P.P.P.P.P.P.P.P.P.P.P.P.P.P.P.P.P.P.P.P.P.P.P.P.P.P.P.P.P.P.P.P.P.P.P.P.P.P.P.P.P.P.P.P.P.P.P.P.P.P.P.P.P.P.(.(.'.P.D.u $ $ - L 9.M.P.P.(.P.P.(.(.(.(.(.P.P.P.P.P.P.P.P.(.(.(.P.P.P.P.P.P.P.P.P.(.T.Y.E.[.bXSXDXGX",
"GXCXDXpXR w.x.k.c.c.c.c.c.c.v.v.v.v.v.v.v.v.c.c.M.M.M.M.M.M.N.N.M.M.M.M.M.M.M.M.M.M.M.M.M.M.M.M.M.M.M.M.M.M.M.M.N.N.N.N.N.N.N.N.M.M.N.N.N.N.N.N.N.N.N.N.N.N.N.N.N.N.N.N.N.N.N.N.N.N.N.P.P.P.P.P.C.#X0.8 A * & ) 9.c.M.N.N.N.P.N.N.P.N.N.P.P.P.P.P.P.P.P.P.P.P.P.P.P.P.P.P.P.P.P.P.P.P.P.P.P.P.P.P.P.P.P.P.P.P.P.P.P.P.P.P.P.P.P.P.P.P.P.P.P.P.P.P.P.P.P.P.P.P.(.'.P.D.u $ $ - L 9.v.P.P.P.P.P.(.(.(.P.P.P.P.P.P.P.P.P.P.(.(.P.P.P.P.P.P.P.P.P.P.(.T.Y.W.[.bXSXDXGX",
"GXCXDXpXR w.x.k.c.c.c.c.c.c.v.v.v.v.v.v.c.c.c.c.M.M.M.M.M.M.M.M.M.M.M.M.M.M.M.M.M.M.M.M.M.M.M.M.M.M.M.M.M.M.M.M.N.N.N.N.N.N.N.N.N.N.N.N.N.N.N.N.N.N.N.N.N.N.N.N.N.N.N.N.N.N.N.N.N.N.N.P.P.P.P.P.Z.#X0.8 A * & ) 9.k.M.N.N.N.P.N.N.N.N.N.P.P.P.P.P.P.P.P.P.P.P.P.P.P.P.P.P.P.P.P.P.P.P.P.P.P.P.P.P.P.P.P.P.P.P.P.P.P.P.P.P.P.P.P.P.P.P.P.P.P.P.P.P.P.P.P.P.P.(.(.'.P.D.u $ $ - L 9.v.P.P.P.P.P.P.P.P.P.P.P.P.P.P.(.P.P.P.(.(.P.P.P.P.P.P.P.P.P.P.(.T.Y.W.[.bXSXDXGX",
"GXCXDXpXR w.x.k.c.c.c.v.v.v.v.v.c.c.v.v.v.v.n.c.M.M.M.M.M.M.M.M.M.M.M.M.M.M.M.M.M.M.M.M.M.M.M.M.M.M.M.M.M.M.M.M.M.M.N.N.N.N.N.N.N.N.N.N.N.N.N.N.N.N.N.N.N.N.N.N.N.N.N.N.N.N.N.N.N.N.N.N.N.P.P.P.C.#X0.8 A * & ) 9.k.N.N.N.N.P.N.N.N.N.N.P.P.P.P.P.P.P.P.P.P.P.P.P.P.P.P.P.P.P.P.P.P.P.P.P.P.P.P.P.P.P.P.P.P.P.P.P.P.P.P.P.P.P.P.P.P.P.P.P.P.P.P.P.P.P.P.P.P.P.P.'.P.D.u $ $ - L 9.v.P.P.P.P.P.P.P.P.P.P.P.P.P.P.P.P.P.P.P.P.P.P.P.P.P.P.P.P.P.P.(.T.Y.W.[.bXSXDXGX",
"GXCXDXpXR w.x.k.c.c.c.v.c.c.v.v.c.c.v.v.v.v.n.n.v.M.M.M.M.M.M.M.M.M.M.M.M.M.M.M.M.M.M.M.M.M.M.M.M.M.M.M.M.M.M.M.M.M.M.M.N.N.N.N.N.N.N.N.N.N.N.N.N.N.N.N.N.N.N.N.N.N.N.N.N.N.N.N.N.N.N.N.N.H.P.P.Z.#X0.8 Z * & ) 9.k.N.N.N.N.P.N.N.N.N.N.N.P.P.P.P.P.P.P.P.P.P.P.P.P.P.P.P.P.P.P.P.P.P.P.P.P.P.P.P.P.P.P.P.P.P.P.P.P.P.P.P.P.P.P.P.P.P.P.P.P.P.P.P.P.P.P.P.P.P.P.(.P.D.u $ $ - L q.v.P.P.P.P.P.P.P.P.P.P.P.P.P.P.P.P.P.P.P.P.P.P.P.P.P.P.P.P.P.P.(.T.Y.W.[.bXSXDXGX",
"GXFXDXpXR w.x.k.c.c.c.v.c.c.v.c.c.c.c.c.v.v.v.n.v.c.M.M.M.M.M.M.M.M.M.M.M.M.M.M.M.M.M.M.M.M.M.M.M.M.M.M.M.M.M.M.M.M.M.M.N.N.N.N.M.N.M.M.N.N.N.N.N.N.N.N.N.N.N.N.N.N.N.N.N.N.N.N.N.N.N.N.N.P.P.P.Z.#X0.8 Z * & ) 9.k.N.N.N.N.P.N.N.N.N.N.N.N.P.P.P.P.P.P.P.P.P.P.P.P.P.P.P.P.P.P.P.P.P.P.P.P.P.P.P.P.P.P.P.P.P.P.P.P.P.P.P.P.P.P.P.P.P.P.P.P.P.P.P.P.P.P.P.P.P.P.'.P.D.u $ $ - L q.v.P.P.P.P.P.P.P.P.P.P.P.P.P.P.P.P.P.P.P.P.P.P.P.P.P.P.P.P.P.P.(.T.Y.W.[.bXSXDXGX",
"GXFXDXpXR w.x.k.c.c.c.v.c.c.v.c.c.c.c.c.v.v.M.n.v.c.c.M.M.M.M.M.M.M.M.M.M.M.M.M.M.M.M.M.M.M.M.M.M.M.M.M.M.M.M.M.M.M.M.M.M.N.N.N.M.M.M.M.N.N.N.N.N.N.N.N.N.N.N.N.N.N.N.N.N.N.N.N.N.N.N.N.N.H.P.P.Z.#X0.8 A * & ) 9.k.N.N.N.N.P.N.N.N.N.N.N.N.N.P.P.P.P.P.P.P.P.P.P.P.P.P.P.P.P.P.P.P.P.P.P.P.P.P.P.P.P.P.P.P.P.P.P.P.P.P.P.P.P.P.P.P.P.P.P.P.P.P.P.P.P.P.P.P.P.P.(.P.D.u $ $ - L q.v.P.P.P.P.P.P.P.P.P.P.P.P.P.P.P.P.P.P.P.P.P.P.P.P.P.P.P.P.P.P.(.T.Y.W.[.bXSXDXGX",
"GXFXDXpXR w.k.k.k.k.k.c.c.c.c.v.v.v.v.c.c.v.v.v.n.n.n.v.v.v.c.c.M.M.M.M.M.M.M.M.M.M.M.M.N.N.N.N.M.M.M.M.M.M.M.M.M.M.M.M.M.M.M.M.M.M.M.M.M.M.M.M.N.N.N.N.N.N.N.N.N.N.M.M.M.M.M.M.M.N.N.N.N.N.N.P.U.(.u.e b d w [ 9.k.M.N.N.N.N.M.P.P.H.N.P.P.P.P.Z.Z.Z.Z.H.H.Z.N.P.P.P.P.P.P.P.P.P.P.P.P.P.P.P.P.P.P.P.P.P.P.P.P.P.P.P.P.P.P.P.P.P.P.P.P.P.P.P.P.P.P.P.P.P.P.P.P.P.P.D.u $   - L @.M.Z.P.P.P.(.P.P.P.P.P.P.P.P.P.P.P.P.P.P.P.P.P.P.P.P.P.P.P.P.P.A.U.Y.W.}.bXSXDXGX",
"GXFXDXpXR w.k.k.k.k.k.c.c.c.c.v.v.v.v.c.n.v.v.v.n.n.n.v.v.v.c.c.M.M.M.M.M.M.M.M.M.M.M.M.M.M.N.N.M.M.M.M.M.M.M.M.M.M.M.M.M.M.M.M.M.M.M.M.M.M.M.M.N.N.N.N.N.N.N.N.N.N.N.N.M.M.N.M.M.N.N.N.N.N.N.P.U.(.u.e m d w [ 9.k.M.N.N.N.N.M.P.H.H.N.P.P.P.P.N.Z.Z.Z.H.H.N.N.P.P.P.P.P.P.P.P.P.P.P.P.P.P.P.P.P.P.P.P.P.P.P.P.P.P.P.P.P.P.P.P.P.P.P.P.P.P.P.P.P.P.P.P.P.P.P.P.P.P.D.u $   - L @.M.Z.P.P.P.P.P.P.P.P.P.P.P.P.P.P.P.P.P.P.P.P.P.P.P.P.P.P.P.P.P.A.U.Y.W.}.bXSXDXGX",
"GXFXDXpXR w.x.k.k.k.k.c.c.c.v.v.v.v.c.c.n.n.v.v.c.c.v.v.v.v.c.c.M.M.M.M.M.M.M.M.M.M.M.M.M.M.N.N.M.M.M.M.M.M.M.M.M.M.M.M.M.M.M.M.M.M.M.M.M.M.M.M.N.N.N.N.N.N.N.N.N.N.N.N.N.N.N.N.M.N.N.N.N.N.N.P.U.(.i.e b d w [ 9.k.M.N.N.N.N.M.N.N.N.N.N.N.N.N.N.N.Z.Z.N.H.N.N.P.P.N.N.H.H.P.P.P.P.Z.Z.P.P.P.P.P.P.P.P.P.P.P.P.P.P.P.P.P.P.P.P.P.P.P.P.P.P.P.P.P.P.P.P.P.P.P.P.P.P.D.u $ = - Y @.M.N.P.P.P.P.P.P.P.P.P.P.P.P.P.P.P.P.P.P.P.P.P.P.P.P.P.P.P.P.P.A.U.Y.W.-XbXSXDXGX",
"GXFXDXpXR w.k.k.k.k.k.c.c.c.c.v.v.v.c.c.n.n.v.v.c.c.v.v.v.v.c.c.M.M.M.M.M.M.M.M.M.M.M.M.M.M.M.M.M.M.M.M.M.M.M.M.M.M.M.M.M.M.M.M.M.M.M.M.M.M.M.M.N.N.N.N.N.N.N.N.N.N.N.N.N.N.N.N.M.N.N.N.N.N.N.P.U.(.u.8 m d w ) 9.k.M.N.N.N.N.M.N.N.N.N.N.N.N.N.H.H.N.N.N.N.Z.N.P.P.N.N.N.H.P.P.P.P.Z.Z.Z.Z.P.P.P.P.P.P.P.P.P.P.P.P.P.P.P.P.P.P.P.P.P.P.P.P.P.P.P.P.P.P.P.P.P.P.P.P.D.u $   - Y @.M.N.Z.P.P.P.P.P.P.P.P.P.P.P.P.P.P.P.P.P.P.P.P.P.P.P.P.P.P.P.P.A.U.Y.W.}.bXSXDXGX",
"GXFXDXpXR w.k.k.k.k.k.c.c.c.c.v.v.v.c.c.n.c.v.v.c.v.v.v.v.c.c.c.M.M.M.M.M.M.M.M.M.M.M.M.M.M.M.M.M.M.M.M.M.M.M.M.M.M.M.M.M.M.M.M.M.M.M.M.M.M.M.M.N.N.N.N.N.N.N.N.N.N.N.N.N.N.N.N.M.N.N.N.N.N.N.P.U.(.u.e h d @ R 9.k.M.N.N.N.N.M.N.N.N.N.N.N.N.N.H.N.N.N.N.N.N.N.P.N.N.N.P.P.P.P.P.Z.Z.Z.P.P.P.P.P.P.P.P.P.P.P.P.P.P.P.P.P.P.P.P.P.P.P.P.P.P.P.P.P.P.P.P.P.P.P.P.P.P.D.u $   - Y #.v.N.Z.P.P.P.P.P.P.P.P.P.P.P.P.P.P.P.P.P.P.P.P.P.P.P.P.P.P.P.P.Z.U.Y.W.[.bXSXDXGX",
"GXFXDXpXR w.k.k.k.k.k.c.c.c.c.v.v.v.c.c.c.c.v.v.c.v.v.v.v.v.c.c.v.v.v.v.v.v.c.c.c.M.M.M.M.M.M.M.M.M.M.M.M.M.M.M.M.M.M.M.M.M.M.M.M.M.M.M.M.M.M.M.N.N.N.N.N.N.M.M.N.N.N.N.N.N.M.M.M.N.N.N.N.H.N.P.U.(.u.8 h d @ R 9.k.M.N.N.N.N.M.N.N.N.N.N.N.N.N.H.H.N.N.N.N.N.N.N.N.N.N.N.N.N.N.N.N.N.N.Z.Z.N.N.P.P.P.P.P.P.P.P.P.P.P.P.P.P.P.P.P.P.P.P.P.P.P.P.P.P.P.P.P.P.P.P.P.P.D.u $   - L #.v.N.N.P.P.P.P.P.P.P.P.P.P.P.P.P.P.P.P.P.P.P.P.P.P.P.P.P.P.P.P.Z.Y.Y.W.[.bXSXDXGX",
"GXFXDXpXR w.k.k.k.k.k.c.c.c.c.v.n.n.c.c.c.c.c.c.v.v.v.v.v.v.v.v.v.v.v.v.c.v.c.c.v.c.M.M.M.M.M.M.M.M.M.M.M.M.M.M.M.M.M.M.M.M.M.M.M.M.M.M.M.M.M.M.M.M.M.M.M.M.M.M.M.M.N.N.N.N.M.M.M.N.N.N.N.N.N.Z.P.(.u.8 h d @ R 9.k.M.N.N.N.N.M.N.N.N.N.N.N.N.N.Z.Z.N.N.N.N.N.N.N.N.N.N.N.N.N.N.Z.N.N.N.Z.Z.Z.Z.P.P.P.P.P.P.P.P.P.P.P.P.P.P.P.P.P.P.P.P.P.P.P.P.P.P.P.P.P.P.P.P.P.P.D.u $   - L #.v.N.N.P.P.P.P.P.P.P.P.P.P.P.P.P.P.P.P.P.P.P.P.P.P.P.P.P.P.P.P.A.U.Y.W.[.bXSXDXGX",
"GXFXDXpXR w.k.k.k.k.k.c.c.c.c.v.c.c.c.c.c.c.c.c.v.v.v.v.v.v.v.v.c.v.v.c.c.c.c.c.v.v.v.M.M.M.M.M.M.M.M.M.M.M.M.M.M.M.M.M.M.M.M.M.M.M.M.M.M.M.M.M.M.M.M.M.M.M.M.M.M.M.N.N.N.M.M.M.M.N.N.N.N.N.N.Z.P.(.u.8 h d @ R 9.k.M.N.N.N.N.M.N.N.N.N.N.N.N.N.Z.Z.Z.N.N.N.N.N.N.N.N.N.N.N.N.N.Z.N.N.N.Z.Z.Z.Z.P.P.P.P.P.P.P.P.P.P.P.P.P.P.P.P.P.P.P.P.P.P.P.P.P.P.P.P.P.P.P.P.P.P.D.u $   - L #.v.N.N.P.P.P.P.P.P.P.P.P.P.P.P.P.P.P.P.P.P.P.P.P.P.P.P.P.P.P.P.A.U.Y.W.[.bXSXDXGX",
"BXGXFXhXR u.9.z.d.d.d.x.x.x.l.l.z.z.z.z.z.z.z.z.v.v.v.v.v.v.v.v.z.z.l.l.l.l.l.l.l.l.l.l.l.l.l.l.v.v.v.v.v.v.v.v.v.v.v.v.v.v.v.v.v.v.v.v.v.v.v.v.v.v.v.v.v.v.v.v.v.v.v.v.v.v.v.v.v.v.v.C.C.C.C.C.A.(.y.2 h s w E 9.l.C.v.l.v.C.Z.C.C.C.C.C.C.C.C.G.G.G.G.G.G.G.G.L.L.L.L.L.L.L.L.G.L.L.L.L.L.L.L.L.L.L.L.L.L.L.L.L.L.L.L.L.L.L.L.L.L.L.L.L.L.L.L.L.L.L.U.U.U.U.U.Q.N.D.u $ . 1 L #.l.C.C.R.I.I.R.U.U.U.U.U.U.U.U.U.U.U.U.U.U.U.U.U.U.U.U.U.U.U.U.P.I.Z.E.;XxXBXFXGX",
"BXBXVXdX] s.s.x.c.c.c.c.c.c.B.B.m.m.m.m.m.m.m.m.m.m.m.m.m.m.m.m.m.m.m.m.m.m.m.m.m.m.m.m.m.m.m.m.m.m.m.m.m.m.m.m.m.m.m.m.m.m.m.m.m.m.m.m.m.m.m.m.m.m.m.m.m.m.m.m.N.N.N.N.N.N.N.N.m.m.N.N.W.W.^.W.d.(.p.y h & @ [ q.c.^.W.m.m.N.N.^.^.^.^.^.^.^.^.W.W.W.W.W.W.W.W.W.W.W.W.W.W.W.W.W.W.W.W.W.W.W.W.W.W.!.!.!.!.!.!.!.!.!.!.!.!.!.!.Z.Z.Z.Z.Z.Z.Z.Z.Z.Z.Z.!.!.!.!.!.'.P.2.i &   - T X.c.H.H.(.'.H.N.!.!.!.!.!.!.!.!.!.!.!.!.!.!.!.!.!.!.!.!.!.!.!.!.M.T.).^.>XMXSXFXGX",
"NXPXFXdXW #.f.a.u.i.i.i.i.i.i.i.c.c.c.c.i.i.c.c.c.c.c.c.c.c.c.c.n.n.n.n.M.M.M.M.n.n.n.n.n.n.n.n.n.M.n.n.M.M.M.M.M.M.M.M.M.M.M.M.M.M.M.M.M.M.M.M.F.F.F.F.F.F.F.F.m.m.m.m.m.m.m.m.m.m.F.H.F.H.H.H.C.'.p.e k * w ] q.i.m.F.m.H.H.H.F.F.F.F.F.F.F.F.b.b.b.b.b.b.b.b.b.b.b.b.b.b.b.b.b.b.b.b.b.b.b.b.b.b.b.b.b.b.b.b.b.b.b.b.b.b.b.b.b.b.b.b.b.b.b.b.b.b.b.b.b.b.b.b.b.P.2.i $   2 / X.c.F.F.H.(.F.F.b.b.b.b.b.b.b.b.b.b.b.b.b.b.b.b.b.b.b.b.b.b.b.b.M.I.P.H.+XbXZXCXGX",
"SXSXGXhX` t.r.q.x.x.x.x.x.x.x.x.x.x.x.x.x.x.x.x.x.x.x.x.x.x.x.x.z.z.z.z.z.z.z.z.z.l.l.l.z.z.l.l.z.z.z.z.z.z.z.z.z.z.z.z.z.z.z.z.z.z.z.z.z.z.z.z.z.z.z.z.z.l.z.z.z.z.z.z.z.z.z.z.C.C.C.L.L.L.L.L.!.'.u.2 x %   T @.x.z.z.z.z.C.C.z.z.z.z.z.z.z.z.S.S.S.S.S.S.S.S.S.S.S.S.S.S.S.S.S.S.S.S.S.S.S.S.G.G.G.G.G.G.G.G.G.G.G.G.G.G.G.G.G.G.G.G.G.G.G.G.G.G.L.L.L.L.L.L.'.P.2.6 % . - T @.z.C.z.C.C.C.L.L.L.L.L.L.L.L.L.L.L.L.L.L.L.L.L.L.L.L.L.L.L.L.L.m.C.N./.OXbXSXFXGX",
"DXGXmXfXL 0.e.0.a.a.a.a.a.a.a.a.a.a.a.a.a.a.a.a.a.a.a.a.a.a.a.a.a.a.a.a.a.a.a.a.d.d.d.d.d.d.d.d.d.d.d.d.d.d.d.d.l.l.l.l.l.l.l.l.l.l.l.l.l.l.d.d.d.d.d.d.d.d.d.d.l.l.l.l.l.l.l.l.l.l.l.l.v.v.v.v.i.m.p.2 7 % @ ] 9.d.l.l.l.v.v.l.l.l.l.l.l.l.l.l.z.z.z.z.z.z.z.z.z.z.z.z.z.z.z.z.z.z.z.z.z.z.z.z.M.M.M.M.M.M.M.M.M.M.M.M.v.v.v.v.M.v.M.M.M.M.M.M.M.M.M.M.M.M.M.M.b.m.D.! % . > L #.d.v.v.l.d.d.v.M.M.M.M.M.M.M.M.M.M.M.M.M.M.M.M.M.M.M.M.M.M.M.M.oXb.b.Q.OXlXBXCXGX",
"GXGXFXhXW ' X.u.0.0.0.0.0.0.0.0.0.0.0.0.0.0.0.0.0.0.0.0.0.0.0.0.0.0.0.q.0.0.q.0.0.0.0.0.0.0.0.0.0.0.0.0.0.0.0.0.e.e.e.e.e.e.e.e.e.e.e.e.e.e.e.e.c.c.c.c.e.e.e.i.e.e.e.e.e.e.e.e.0.0.0.0.0.0.0.0./.x.[ . . O @ T #.0.e.c.c.c.c.0.e.h.i.e.e.e.h.h.g.g.g.g.g.g.g.g.r.g.g.r.g.g.g.g.g.g.g.g.g.g.g.g.g.g.g.g.g.g.g.g.g.g.g.g.r.r.r.r.r.r.r.r.r.r.r.r.r.g.g.g.h.h.h.h.M.u.O.- . . - K ' q.e.e.c.0.0.e.g.g.g.g.g.g.g.g.g.g.g.g.r.r.r.g.g.g.h.h.g.g.g.g.h.v.k.q.%XzXVXFXGX",
"BXSXBXgX2.W L | ] ] ] ] [ [ [ [ ] ] ] ] ] ] ] ] [ [ [ [ [ [ ] ] ] ] ] ] ] ] ] ] ] ] ] ] ] ] ] ] ] ] ] ] ] ] ] ] [ [ [ [ [ [ [ [ [ [ [ [ [ [ [ [ ] ] ] ] ] ] ] ] [ [ [ [ [ [ [ [ ] ] ] ] ] [ [ [ L / =XuXUXUXuX&XR ] ] R ` ] ] R [ [ [ [ [ [ [ [ _ _ _ _ _ _ _ _ _ _ _ _ _ _ _ _ _ _ _ _ _ _ ` ` _ _ _ _ _ _ _ _ _ _ _ _ _ _ _ _ _ _ _ _ _ _ _ _ _ _ _ _ _ _ _ _ ` | *XuXUXUXuX6.R [ ] ] { { [ { _ _ _ _ _ _ _ _ _ _ _ _ _ _ _ _ _ _ _ _ _ _ _ _ ` W O.| wXbXBXFXGX",
"BXNXZXDXpXtXtXwX&X&X&X&X&X*X*X*X&X&X&X&X&X&X&X&X&X&X&X&X&X&X&X&X*X*X*X*X*X*X*X*X&X&X&X&X&X&X&X&X&X&X&X&X&X&X&X&X&X&X&X&X&X&X&X&X&X&X&X&X&X&X&X&X&X&X&X&X&X&X&X&X&X&X&X&X&X&X&X&X*X*X*X8X8X8X8X8XtXuXxXNXSXFXNXhXtXtX9X8X&X&X*X&X&X&X&X&X&X&X&X&X7X7X7X7X7X7X7X7X7X7X7X7X7X7X7X7X7X7X7X7X7X7X7X7X7X7X7X7X7X7X7X7X7X7X7X7X7X7X7X7X7X7X7X7X7X7X7X7X7X7X7X7X7X7X7X7XtXtXlXDXZXNXBXkXtXtX8X&X8X8X*X*X7X7X7X7X7X7X7X7X7X7X7X7X7X7X7X7X7X7X7X7X7X7X7X7X*X7.9XuXhXBXNXGXGX",
"GXGXGXGXGXGXGXGXGXGXGXGXGXGXGXGXGXGXGXGXGXGXGXGXGXGXGXGXGXGXGXGXGXGXGXGXGXGXGXGXGXGXGXGXGXGXGXGXGXGXGXGXGXGXGXGXGXGXGXGXGXGXGXGXGXGXGXGXGXGXGXGXGXGXGXGXGXGXGXGXGXGXGXGXGXGXGXGXGXGXGXGXGXGXGXGXGXGXGXGXGXGXGXGXGXGXGXGXGXGXGXGXGXGXGXGXGXGXGXGXGXGXGXGXGXGXGXGXGXGXGXGXGXGXGXGXGXGXGXGXGXGXGXGXGXGXGXGXGXGXGXGXGXGXGXGXGXGXGXGXGXGXGXGXGXGXGXGXGXGXGXGXGXGXGXGXGXGXGXGXGXGXGXGXGXGXGXGXGXGXGXGXGXGXGXGXGXGXGXGXGXGXGXGXGXGXGXGXGXGXGXGXGXGXGXGXGXGXGXGXGXGXGXGXGX",
"GXGXGXGXGXGXGXGXGXGXGXGXGXGXGXGXGXGXGXGXGXGXGXGXGXGXGXGXGXGXGXGXGXGXGXGXGXGXGXGXGXGXGXGXGXGXGXGXGXGXGXGXGXGXGXGXGXGXGXGXGXGXGXGXGXGXGXGXGXGXGXGXGXGXGXGXGXGXGXGXGXGXGXGXGXGXGXGXGXGXGXGXGXGXGXGXGXGXGXGXGXGXGXGXGXGXGXGXGXGXGXGXGXGXGXGXGXGXGXGXGXGXGXGXGXGXGXGXGXGXGXGXGXGXGXGXGXGXGXGXGXGXGXGXGXGXGXGXGXGXGXGXGXGXGXGXGXGXGXGXGXGXGXGXGXGXGXGXGXGXGXGXGXGXGXGXGXGXGXGXGXGXGXGXGXGXGXGXGXGXGXGXGXGXGXGXGXGXGXGXGXGXGXGXGXGXGXGXGXGXGXGXGXGXGXGXGXGXGXGXGXGXGXGXGX",
"GXGXGXGXGXGXGXGXGXGXGXGXGXGXGXGXGXGXGXGXGXGXGXGXGXGXGXGXGXGXGXGXGXGXGXGXGXGXGXGXGXGXGXGXGXGXGXGXGXGXGXGXGXGXGXGXGXGXGXGXGXGXGXGXGXGXGXGXGXGXGXGXGXGXGXGXGXGXGXGXGXGXGXGXGXGXGXGXGXGXGXGXGXGXGXGXGXGXGXGXGXGXGXGXGXGXGXGXGXGXGXGXGXGXGXGXGXGXGXGXGXGXGXGXGXGXGXGXGXGXGXGXGXGXGXGXGXGXGXGXGXGXGXGXGXGXGXGXGXGXGXGXGXGXGXGXGXGXGXGXGXGXGXGXGXGXGXGXGXGXGXGXGXGXGXGXGXGXGXGXGXGXGXGXGXGXGXGXGXGXGXGXGXGXGXGXGXGXGXGXGXGXGXGXGXGXGXGXGXGXGXGXGXGXGXGXGXGXGXGXGXGXGXGXGX",
"GXGXGXGXGXGXGXGXGXGXGXGXGXGXGXGXGXGXGXGXGXGXGXGXGXGXGXGXGXGXGXGXGXGXGXGXGXGXGXGXGXGXGXGXGXGXGXGXGXGXGXGXGXGXGXGXGXGXGXGXGXGXGXGXGXGXGXGXGXGXGXGXGXGXGXGXGXGXGXGXGXGXGXGXGXGXGXGXGXGXGXGXGXGXGXGXGXGXGXGXGXGXGXGXGXGXGXGXGXGXGXGXGXGXGXGXGXGXGXGXGXGXGXGXGXGXGXGXGXGXGXGXGXGXGXGXGXGXGXGXGXGXGXGXGXGXGXGXGXGXGXGXGXGXGXGXGXGXGXGXGXGXGXGXGXGXGXGXGXGXGXGXGXGXGXGXGXGXGXGXGXGXGXGXGXGXGXGXGXGXGXGXGXGXGXGXGXGXGXGXGXGXGXGXGXGXGXGXGXGXGXGXGXGXGXGXGXGXGXGXGXGXGXGXGX",
"GXGXGXGXGXGXGXGXGXGXGXGXGXGXGXGXGXGXGXGXGXGXGXGXGXGXGXGXGXGXGXGXGXGXGXGXGXGXGXGXGXGXGXGXGXGXGXGXGXGXGXGXGXGXGXGXGXGXGXGXGXGXGXGXGXGXGXGXGXGXGXGXGXGXGXGXGXGXGXGXGXGXGXGXGXGXGXGXGXGXGXGXGXGXGXGXGXGXGXGXGXGXGXGXGXGXGXGXGXGXGXGXGXGXGXGXGXGXGXGXGXGXGXGXGXGXGXGXGXGXGXGXGXGXGXGXGXGXGXGXGXGXGXGXGXGXGXGXGXGXGXGXGXGXGXGXGXGXGXGXGXGXGXGXGXGXGXGXGXGXGXGXGXGXGXGXGXGXGXGXGXGXGXGXGXGXGXGXGXGXGXGXGXGXGXGXGXGXGXGXGXGXGXGXGXGXGXGXGXGXGXGXGXGXGXGXGXGXGXGXGXGXGXGXGX",
"GXGXGXGXGXGXGXGXGXGXGXGXGXGXGXGXGXGXGXGXGXGXGXGXGXGXGXGXGXGXGXGXGXGXGXGXGXGXGXGXGXGXGXGXGXGXGXGXGXGXGXGXGXGXGXGXGXGXGXGXGXGXGXGXGXGXGXGXGXGXGXGXGXGXGXGXGXGXGXGXGXGXGXGXGXGXGXGXGXGXGXGXGXGXGXGXGXGXGXGXGXGXGXGXGXGXGXGXGXGXGXGXGXGXGXGXGXGXGXGXGXGXGXGXGXGXGXGXGXGXGXGXGXGXGXGXGXGXGXGXGXGXGXGXGXGXGXGXGXGXGXGXGXGXGXGXGXGXGXGXGXGXGXGXGXGXGXGXGXGXGXGXGXGXGXGXGXGXGXGXGXGXGXGXGXGXGXGXGXGXGXGXGXGXGXGXGXGXGXGXGXGXGXGXGXGXGXGXGXGXGXGXGXGXGXGXGXGXGXGXGXGXGXGXGX",
"GXGXGXGXGXGXGXGXGXGXGXGXGXGXGXGXGXGXGXGXGXGXGXGXGXGXGXGXGXGXGXGXGXGXGXGXGXGXGXGXGXGXGXGXGXGXGXGXGXGXGXGXGXGXGXGXGXGXGXGXGXGXGXGXGXGXGXGXGXGXGXGXGXGXGXGXGXGXGXGXGXGXGXGXGXGXGXGXGXGXGXGXGXGXGXGXGXGXGXGXGXGXGXGXGXGXGXGXGXGXGXGXGXGXGXGXGXGXGXGXGXGXGXGXGXGXGXGXGXGXGXGXGXGXGXGXGXGXGXGXGXGXGXGXGXGXGXGXGXGXGXGXGXGXGXGXGXGXGXGXGXGXGXGXGXGXGXGXGXGXGXGXGXGXGXGXGXGXGXGXGXGXGXGXGXGXGXGXGXGXGXGXGXGXGXGXGXGXGXGXGXGXGXGXGXGXGXGXGXGXGXGXGXGXGXGXGXGXGXGXGXGXGXGXGX",
"GXGXGXGXGXGXGXGXGXGXGXGXGXGXGXGXGXGXGXGXGXGXGXGXGXGXGXGXGXGXGXGXGXGXGXGXGXGXGXGXGXGXGXGXGXGXGXGXGXGXGXGXGXGXGXGXGXGXGXGXGXGXGXGXGXGXGXGXGXGXGXGXGXGXGXGXGXGXGXGXGXGXGXGXGXGXGXGXGXGXGXGXGXGXGXGXGXGXGXGXGXGXGXGXGXGXGXGXGXGXGXGXGXGXGXGXGXGXGXGXGXGXGXGXGXGXGXGXGXGXGXGXGXGXGXGXGXGXGXGXGXGXGXGXGXGXGXGXGXGXGXGXGXGXGXGXGXGXGXGXGXGXGXGXGXGXGXGXGXGXGXGXGXGXGXGXGXGXGXGXGXGXGXGXGXGXGXGXGXGXGXGXGXGXGXGXGXGXGXGXGXGXGXGXGXGXGXGXGXGXGXGXGXGXGXGXGXGXGXGXGXGXGXGXGX",
"GXGXGXGXGXGXGXGXGXGXGXGXGXGXGXGXGXGXGXGXGXGXGXGXGXGXGXGXGXGXGXGXGXGXGXGXGXGXGXGXGXGXGXGXGXGXGXGXGXGXGXGXGXGXGXGXGXGXGXGXGXGXGXGXGXGXGXGXGXGXGXGXGXGXGXGXGXGXGXGXGXGXGXGXGXGXGXGXGXGXGXGXGXGXGXGXGXGXGXGXGXGXGXGXGXGXGXGXGXGXGXGXGXGXGXGXGXGXGXGXGXGXGXGXGXGXGXGXGXGXGXGXGXGXGXGXGXGXGXGXGXGXGXGXGXGXGXGXGXGXGXGXGXGXGXGXGXGXGXGXGXGXGXGXGXGXGXGXGXGXGXGXGXGXGXGXGXGXGXGXGXGXGXGXGXGXGXGXGXGXGXGXGXGXGXGXGXGXGXGXGXGXGXGXGXGXGXGXGXGXGXGXGXGXGXGXGXGXGXGXGXGXGXGXGX",
"GXGXGXGXGXGXGXGXGXGXGXGXGXGXGXGXGXGXGXGXGXGXGXGXGXGXGXGXGXGXGXGXGXGXGXGXGXGXGXGXGXGXGXGXGXGXGXGXGXGXGXGXGXGXGXGXGXGXGXGXGXGXGXGXGXGXGXGXGXGXGXGXGXGXGXGXGXGXGXGXGXGXGXGXGXGXGXGXGXGXGXGXGXGXGXGXGXGXGXGXGXGXGXGXGXGXGXGXGXGXGXGXGXGXGXGXGXGXGXGXGXGXGXGXGXGXGXGXGXGXGXGXGXGXGXGXGXGXGXGXGXGXGXGXGXGXGXGXGXGXGXGXGXGXGXGXGXGXGXGXGXGXGXGXGXGXGXGXGXGXGXGXGXGXGXGXGXGXGXGXGXGXGXGXGXGXGXGXGXGXGXGXGXGXGXGXGXGXGXGXGXGXGXGXGXGXGXGXGXGXGXGXGXGXGXGXGXGXGXGXGXGXGXGXGX",
"GXGXGXGXGXGXGXGXGXGXGXGXGXGXGXGXGXGXGXGXGXGXGXGXGXGXGXGXGXGXGXGXGXGXGXGXGXGXGXGXGXGXGXGXGXGXGXGXGXGXGXGXGXGXGXGXGXGXGXGXGXGXGXGXGXGXGXGXGXGXGXGXGXGXGXGXGXGXGXGXGXGXGXGXGXGXGXGXGXGXGXGXGXGXGXGXGXGXGXGXGXGXGXGXGXGXGXGXGXGXGXGXGXGXGXGXGXGXGXGXGXGXGXGXGXGXGXGXGXGXGXGXGXGXGXGXGXGXGXGXGXGXGXGXGXGXGXGXGXGXGXGXGXGXGXGXGXGXGXGXGXGXGXGXGXGXGXGXGXGXGXGXGXGXGXGXGXGXGXGXGXGXGXGXGXGXGXGXGXGXGXGXGXGXGXGXGXGXGXGXGXGXGXGXGXGXGXGXGXGXGXGXGXGXGXGXGXGXGXGXGXGXGXGXGX",
"GXGXGXGXGXGXGXGXGXGXGXGXGXGXGXGXGXGXGXGXGXGXGXGXGXGXGXGXGXGXGXGXGXGXGXGXGXGXGXGXGXGXGXGXGXGXGXGXGXGXGXGXGXGXGXGXGXGXGXGXGXGXGXGXGXGXGXGXGXGXGXGXGXGXGXGXGXGXGXGXGXGXGXGXGXGXGXGXGXGXGXGXGXGXGXGXGXGXGXGXGXGXGXGXGXGXGXGXGXGXGXGXGXGXGXGXGXGXGXGXGXGXGXGXGXGXGXGXGXGXGXGXGXGXGXGXGXGXGXGXGXGXGXGXGXGXGXGXGXGXGXGXGXGXGXGXGXGXGXGXGXGXGXGXGXGXGXGXGXGXGXGXGXGXGXGXGXGXGXGXGXGXGXGXGXGXGXGXGXGXGXGXGXGXGXGXGXGXGXGXGXGXGXGXGXGXGXGXGXGXGXGXGXGXGXGXGXGXGXGXGXGXGXGXGX",
"GXGXGXGXGXGXGXGXGXGXGXGXGXGXGXGXGXGXGXGXGXGXGXGXGXGXGXGXGXGXGXGXGXGXGXGXGXGXGXGXGXGXGXGXGXGXGXGXGXGXGXGXGXGXGXGXGXGXGXGXGXGXGXGXGXGXGXGXGXGXGXGXGXGXGXGXGXGXGXGXGXGXGXGXGXGXGXGXGXGXGXGXGXGXGXGXGXGXGXGXGXGXGXGXGXGXGXGXGXGXGXGXGXGXGXGXGXGXGXGXGXGXGXGXGXGXGXGXGXGXGXGXGXGXGXGXGXGXGXGXGXGXGXGXGXGXGXGXGXGXGXGXGXGXGXGXGXGXGXGXGXGXGXGXGXGXGXGXGXGXGXGXGXGXGXGXGXGXGXGXGXGXGXGXGXGXGXGXGXGXGXGXGXGXGXGXGXGXGXGXGXGXGXGXGXGXGXGXGXGXGXGXGXGXGXGXGXGXGXGXGXGXGXGXGX",
"GXGXGXGXGXGXGXGXGXGXGXGXGXGXGXGXGXGXGXGXGXGXGXGXGXGXGXGXGXGXGXGXGXGXGXGXGXGXGXGXGXGXGXGXGXGXGXGXGXGXGXGXGXGXGXGXGXGXGXGXGXGXGXGXGXGXGXGXGXGXGXGXGXGXGXGXGXGXGXGXGXGXGXGXGXGXGXGXGXGXGXGXGXGXGXGXGXGXGXGXGXGXGXGXGXGXGXGXGXGXGXGXGXGXGXGXGXGXGXGXGXGXGXGXGXGXGXGXGXGXGXGXGXGXGXGXGXGXGXGXGXGXGXGXGXGXGXGXGXGXGXGXGXGXGXGXGXGXGXGXGXGXGXGXGXGXGXGXGXGXGXGXGXGXGXGXGXGXGXGXGXGXGXGXGXGXGXGXGXGXGXGXGXGXGXGXGXGXGXGXGXGXGXGXGXGXGXGXGXGXGXGXGXGXGXGXGXGXGXGXGXGXGXGXGX",
"GXGXGXGXGXGXGXGXGXGXGXGXGXGXGXGXGXGXGXGXGXGXGXGXGXGXGXGXGXGXGXGXGXGXGXGXGXGXGXGXGXGXGXGXGXGXGXGXGXGXGXGXGXGXGXGXGXGXGXGXGXGXGXGXGXGXGXGXGXGXGXGXGXGXGXGXGXGXGXGXGXGXGXGXGXGXGXGXGXGXGXGXGXGXGXGXGXGXGXGXGXGXGXGXGXGXGXGXGXGXGXGXGXGXGXGXGXGXGXGXGXGXGXGXGXGXGXGXGXGXGXGXGXGXGXGXGXGXGXGXGXGXGXGXGXGXGXGXGXGXGXGXGXGXGXGXGXGXGXGXGXGXGXGXGXGXGXGXGXGXGXGXGXGXGXGXGXGXGXGXGXGXGXGXGXGXGXGXGXGXGXGXGXGXGXGXGXGXGXGXGXGXGXGXGXGXGXGXGXGXGXGXGXGXGXGXGXGXGXGXGXGXGXGXGX",
"GXGXGXGXGXGXGXGXGXGXGXGXGXGXGXGXGXGXGXGXGXGXGXGXGXGXGXGXGXGXGXGXGXGXGXGXGXGXGXGXGXGXGXGXGXGXGXGXGXGXGXGXGXGXGXGXGXGXGXGXGXGXGXGXGXGXGXGXGXGXGXGXGXGXGXGXGXGXGXGXGXGXGXGXGXGXGXGXGXGXGXGXGXGXGXGXGXGXGXGXGXGXGXGXGXGXGXGXGXGXGXGXGXGXGXGXGXGXGXGXGXGXGXGXGXGXGXGXGXGXGXGXGXGXGXGXGXGXGXGXGXGXGXGXGXGXGXGXGXGXGXGXGXGXGXGXGXGXGXGXGXGXGXGXGXGXGXGXGXGXGXGXGXGXGXGXGXGXGXGXGXGXGXGXGXGXGXGXGXGXGXGXGXGXGXGXGXGXGXGXGXGXGXGXGXGXGXGXGXGXGXGXGXGXGXGXGXGXGXGXGXGXGXGXGX",
"GXGXGXGXGXGXGXGXGXGXGXGXGXGXGXGXGXGXGXGXGXGXGXGXGXGXGXGXGXGXGXGXGXGXGXGXGXGXGXGXGXGXGXGXGXGXGXGXGXGXGXGXGXGXGXGXGXGXGXGXGXGXGXGXGXGXGXGXGXGXGXGXGXGXGXGXGXGXGXGXGXGXGXGXGXGXGXGXGXGXGXGXGXGXGXGXGXGXGXGXGXGXGXGXGXGXGXGXGXGXGXGXGXGXGXGXGXGXGXGXGXGXGXGXGXGXGXGXGXGXGXGXGXGXGXGXGXGXGXGXGXGXGXGXGXGXGXGXGXGXGXGXGXGXGXGXGXGXGXGXGXGXGXGXGXGXGXGXGXGXGXGXGXGXGXGXGXGXGXGXGXGXGXGXGXGXGXGXGXGXGXGXGXGXGXGXGXGXGXGXGXGXGXGXGXGXGXGXGXGXGXGXGXGXGXGXGXGXGXGXGXGXGXGXGX",
"GXGXGXGXGXGXGXGXGXGXGXGXGXGXGXGXGXGXGXGXGXGXGXGXGXGXGXGXGXGXGXGXGXGXGXGXGXGXGXGXGXGXGXGXGXGXGXGXGXGXGXGXGXGXGXGXGXGXGXGXGXGXGXGXGXGXGXGXGXGXGXGXGXGXGXGXGXGXGXGXGXGXGXGXGXGXGXGXGXGXGXGXGXGXGXGXGXGXGXGXGXGXGXGXGXGXGXGXGXGXGXGXGXGXGXGXGXGXGXGXGXGXGXGXGXGXGXGXGXGXGXGXGXGXGXGXGXGXGXGXGXGXGXGXGXGXGXGXGXGXGXGXGXGXGXGXGXGXGXGXGXGXGXGXGXGXGXGXGXGXGXGXGXGXGXGXGXGXGXGXGXGXGXGXGXGXGXGXGXGXGXGXGXGXGXGXGXGXGXGXGXGXGXGXGXGXGXGXGXGXGXGXGXGXGXGXGXGXGXGXGXGXGXGXGX",
"GXGXGXGXGXGXGXGXGXGXGXGXGXGXGXGXGXGXGXGXGXGXGXGXGXGXGXGXGXGXGXGXGXGXGXGXGXGXGXGXGXGXGXGXGXGXGXGXGXGXGXGXGXGXGXGXGXGXGXGXGXGXGXGXGXGXGXGXGXGXGXGXGXGXGXGXGXGXGXGXGXGXGXGXGXGXGXGXGXGXGXGXGXGXGXGXGXGXGXGXGXGXGXGXGXGXGXGXGXGXGXGXGXGXGXGXGXGXGXGXGXGXGXGXGXGXGXGXGXGXGXGXGXGXGXGXGXGXGXGXGXGXGXGXGXGXGXGXGXGXGXGXGXGXGXGXGXGXGXGXGXGXGXGXGXGXGXGXGXGXGXGXGXGXGXGXGXGXGXGXGXGXGXGXGXGXGXGXGXGXGXGXGXGXGXGXGXGXGXGXGXGXGXGXGXGXGXGXGXGXGXGXGXGXGXGXGXGXGXGXGXGXGXGXGX",
"GXGXGXGXGXGXGXGXGXGXGXGXGXGXGXGXGXGXGXGXGXGXGXGXGXGXGXGXGXGXGXGXGXGXGXGXGXGXGXGXGXGXGXGXGXGXGXGXGXGXGXGXGXGXGXGXGXGXGXGXGXGXGXGXGXGXGXGXGXGXGXGXGXGXGXGXGXGXGXGXGXGXGXGXGXGXGXGXGXGXGXGXGXGXGXGXGXGXGXGXGXGXGXGXGXGXGXGXGXGXGXGXGXGXGXGXGXGXGXGXGXGXGXGXGXGXGXGXGXGXGXGXGXGXGXGXGXGXGXGXGXGXGXGXGXGXGXGXGXGXGXGXGXGXGXGXGXGXGXGXGXGXGXGXGXGXGXGXGXGXGXGXGXGXGXGXGXGXGXGXGXGXGXGXGXGXGXGXGXGXGXGXGXGXGXGXGXGXGXGXGXGXGXGXGXGXGXGXGXGXGXGXGXGXGXGXGXGXGXGXGXGXGXGXGX",
"GXGXGXGXGXGXGXGXGXGXGXGXGXGXGXGXGXGXGXGXGXGXGXGXGXGXGXGXGXGXGXGXGXGXGXGXGXGXGXGXGXGXGXGXGXGXGXGXGXGXGXGXGXGXGXGXGXGXGXGXGXGXGXGXGXGXGXGXGXGXGXGXGXGXGXGXGXGXGXGXGXGXGXGXGXGXGXGXGXGXGXGXGXGXGXGXGXGXGXGXGXGXGXGXGXGXGXGXGXGXGXGXGXGXGXGXGXGXGXGXGXGXGXGXGXGXGXGXGXGXGXGXGXGXGXGXGXGXGXGXGXGXGXGXGXGXGXGXGXGXGXGXGXGXGXGXGXGXGXGXGXGXGXGXGXGXGXGXGXGXGXGXGXGXGXGXGXGXGXGXGXGXGXGXGXGXGXGXGXGXGXGXGXGXGXGXGXGXGXGXGXGXGXGXGXGXGXGXGXGXGXGXGXGXGXGXGXGXGXGXGXGXGXGXGX",
"GXGXGXGXGXGXGXGXGXGXGXGXGXGXGXGXGXGXGXGXGXGXGXGXGXGXGXGXGXGXGXGXGXGXGXGXGXGXGXGXGXGXGXGXGXGXGXGXGXGXGXGXGXGXGXGXGXGXGXGXGXGXGXGXGXGXGXGXGXGXGXGXGXGXGXGXGXGXGXGXGXGXGXGXGXGXGXGXGXGXGXGXGXGXGXGXGXGXGXGXGXGXGXGXGXGXGXGXGXGXGXGXGXGXGXGXGXGXGXGXGXGXGXGXGXGXGXGXGXGXGXGXGXGXGXGXGXGXGXGXGXGXGXGXGXGXGXGXGXGXGXGXGXGXGXGXGXGXGXGXGXGXGXGXGXGXGXGXGXGXGXGXGXGXGXGXGXGXGXGXGXGXGXGXGXGXGXGXGXGXGXGXGXGXGXGXGXGXGXGXGXGXGXGXGXGXGXGXGXGXGXGXGXGXGXGXGXGXGXGXGXGXGXGXGX",
"GXGXGXGXGXGXGXGXGXGXGXGXGXGXGXGXGXGXGXGXGXGXGXGXGXGXGXGXGXGXGXGXGXGXGXGXGXGXGXGXGXGXGXGXGXGXGXGXGXGXGXGXGXGXGXGXGXGXGXGXGXGXGXGXGXGXGXGXGXGXGXGXGXGXGXGXGXGXGXGXGXGXGXGXGXGXGXGXGXGXGXGXGXGXGXGXGXGXGXGXGXGXGXGXGXGXGXGXGXGXGXGXGXGXGXGXGXGXGXGXGXGXGXGXGXGXGXGXGXGXGXGXGXGXGXGXGXGXGXGXGXGXGXGXGXGXGXGXGXGXGXGXGXGXGXGXGXGXGXGXGXGXGXGXGXGXGXGXGXGXGXGXGXGXGXGXGXGXGXGXGXGXGXGXGXGXGXGXGXGXGXGXGXGXGXGXGXGXGXGXGXGXGXGXGXGXGXGXGXGXGXGXGXGXGXGXGXGXGXGXGXGXGXGXGX",
"GXGXGXGXGXGXGXGXGXGXGXGXGXGXGXGXGXGXGXGXGXGXGXGXGXGXGXGXGXGXGXGXGXGXGXGXGXGXGXGXGXGXGXGXGXGXGXGXGXGXGXGXGXGXGXGXGXGXGXGXGXGXGXGXGXGXGXGXGXGXGXGXGXGXGXGXGXGXGXGXGXGXGXGXGXGXGXGXGXGXGXGXGXGXGXGXGXGXGXGXGXGXGXGXGXGXGXGXGXGXGXGXGXGXGXGXGXGXGXGXGXGXGXGXGXGXGXGXGXGXGXGXGXGXGXGXGXGXGXGXGXGXGXGXGXGXGXGXGXGXGXGXGXGXGXGXGXGXGXGXGXGXGXGXGXGXGXGXGXGXGXGXGXGXGXGXGXGXGXGXGXGXGXGXGXGXGXGXGXGXGXGXGXGXGXGXGXGXGXGXGXGXGXGXGXGXGXGXGXGXGXGXGXGXGXGXGXGXGXGXGXGXGXGXGX",
"GXGXGXGXGXGXGXGXGXGXGXGXGXGXGXGXGXGXGXGXGXGXGXGXGXGXGXGXGXGXGXGXGXGXGXGXGXGXGXGXGXGXGXGXGXGXGXGXGXGXGXGXGXGXGXGXGXGXGXGXGXGXGXGXGXGXGXGXGXGXGXGXGXGXGXGXGXGXGXGXGXGXGXGXGXGXGXGXGXGXGXGXGXGXGXGXGXGXGXGXGXGXGXGXGXGXGXGXGXGXGXGXGXGXGXGXGXGXGXGXGXGXGXGXGXGXGXGXGXGXGXGXGXGXGXGXGXGXGXGXGXGXGXGXGXGXGXGXGXGXGXGXGXGXGXGXGXGXGXGXGXGXGXGXGXGXGXGXGXGXGXGXGXGXGXGXGXGXGXGXGXGXGXGXGXGXGXGXGXGXGXGXGXGXGXGXGXGXGXGXGXGXGXGXGXGXGXGXGXGXGXGXGXGXGXGXGXGXGXGXGXGXGXGXGX",
"GXGXGXGXGXGXGXGXGXGXGXGXGXGXGXGXGXGXGXGXGXGXGXGXGXGXGXGXGXGXGXGXGXGXGXGXGXGXGXGXGXGXGXGXGXGXGXGXGXGXGXGXGXGXGXGXGXGXGXGXGXGXGXGXGXGXGXGXGXGXGXGXGXGXGXGXGXGXGXGXGXGXGXGXGXGXGXGXGXGXGXGXGXGXGXGXGXGXGXGXGXGXGXGXGXGXGXGXGXGXGXGXGXGXGXGXGXGXGXGXGXGXGXGXGXGXGXGXGXGXGXGXGXGXGXGXGXGXGXGXGXGXGXGXGXGXGXGXGXGXGXGXGXGXGXGXGXGXGXGXGXGXGXGXGXGXGXGXGXGXGXGXGXGXGXGXGXGXGXGXGXGXGXGXGXGXGXGXGXGXGXGXGXGXGXGXGXGXGXGXGXGXGXGXGXGXGXGXGXGXGXGXGXGXGXGXGXGXGXGXGXGXGXGXGX",
"GXGXGXGXGXGXGXGXGXGXGXGXGXGXGXGXGXGXGXGXGXGXGXGXGXGXGXGXGXGXGXGXGXGXGXGXGXGXGXGXGXGXGXGXGXGXGXGXGXGXGXGXGXGXGXGXGXGXGXGXGXGXGXGXGXGXGXGXGXGXGXGXGXGXGXGXGXGXGXGXGXGXGXGXGXGXGXGXGXGXGXGXGXGXGXGXGXGXGXGXGXGXGXGXGXGXGXGXGXGXGXGXGXGXGXGXGXGXGXGXGXGXGXGXGXGXGXGXGXGXGXGXGXGXGXGXGXGXGXGXGXGXGXGXGXGXGXGXGXGXGXGXGXGXGXGXGXGXGXGXGXGXGXGXGXGXGXGXGXGXGXGXGXGXGXGXGXGXGXGXGXGXGXGXGXGXGXGXGXGXGXGXGXGXGXGXGXGXGXGXGXGXGXGXGXGXGXGXGXGXGXGXGXGXGXGXGXGXGXGXGXGXGXGXGX",
"GXGXGXGXGXGXGXGXGXGXGXGXGXGXGXGXGXGXGXGXGXGXGXGXGXGXGXGXGXGXGXGXGXGXGXGXGXGXGXGXGXGXGXGXGXGXGXGXGXGXGXGXGXGXGXGXGXGXGXGXGXGXGXGXGXGXGXGXGXGXGXGXGXGXGXGXGXGXGXGXGXGXGXGXGXGXGXGXGXGXGXGXGXGXGXGXGXGXGXGXGXGXGXGXGXGXGXGXGXGXGXGXGXGXGXGXGXGXGXGXGXGXGXGXGXGXGXGXGXGXGXGXGXGXGXGXGXGXGXGXGXGXGXGXGXGXGXGXGXGXGXGXGXGXGXGXGXGXGXGXGXGXGXGXGXGXGXGXGXGXGXGXGXGXGXGXGXGXGXGXGXGXGXGXGXGXGXGXGXGXGXGXGXGXGXGXGXGXGXGXGXGXGXGXGXGXGXGXGXGXGXGXGXGXGXGXGXGXGXGXGXGXGXGXGX",
"GXGXGXGXGXGXGXGXGXGXGXGXGXGXGXGXGXGXGXGXGXGXGXGXGXGXGXGXGXGXGXGXGXGXGXGXGXGXGXGXGXGXGXGXGXGXGXGXGXGXGXGXGXGXGXGXGXGXGXGXGXGXGXGXGXGXGXGXGXGXGXGXGXGXGXGXGXGXGXGXGXGXGXGXGXGXGXGXGXGXGXGXGXGXGXGXGXGXGXGXGXGXGXGXGXGXGXGXGXGXGXGXGXGXGXGXGXGXGXGXGXGXGXGXGXGXGXGXGXGXGXGXGXGXGXGXGXGXGXGXGXGXGXGXGXGXGXGXGXGXGXGXGXGXGXGXGXGXGXGXGXGXGXGXGXGXGXGXGXGXGXGXGXGXGXGXGXGXGXGXGXGXGXGXGXGXGXGXGXGXGXGXGXGXGXGXGXGXGXGXGXGXGXGXGXGXGXGXGXGXGXGXGXGXGXGXGXGXGXGXGXGXGXGXGX",
"GXGXGXGXGXGXGXGXGXGXGXGXGXGXGXGXGXGXGXGXGXGXGXGXGXGXGXGXGXGXGXGXGXGXGXGXGXGXGXGXGXGXGXGXGXGXGXGXGXGXGXGXGXGXGXGXGXGXGXGXGXGXGXGXGXGXGXGXGXGXGXGXGXGXGXGXGXGXGXGXGXGXGXGXGXGXGXGXGXGXGXGXGXGXGXGXGXGXGXGXGXGXGXGXGXGXGXGXGXGXGXGXGXGXGXGXGXGXGXGXGXGXGXGXGXGXGXGXGXGXGXGXGXGXGXGXGXGXGXGXGXGXGXGXGXGXGXGXGXGXGXGXGXGXGXGXGXGXGXGXGXGXGXGXGXGXGXGXGXGXGXGXGXGXGXGXGXGXGXGXGXGXGXGXGXGXGXGXGXGXGXGXGXGXGXGXGXGXGXGXGXGXGXGXGXGXGXGXGXGXGXGXGXGXGXGXGXGXGXGXGXGXGXGXGX",
"GXGXGXGXGXGXGXGXGXGXGXGXGXGXGXGXGXGXGXGXGXGXGXGXGXGXGXGXGXGXGXGXGXGXGXGXGXGXGXGXGXGXGXGXGXGXGXGXGXGXGXGXGXGXGXGXGXGXGXGXGXGXGXGXGXGXGXGXGXGXGXGXGXGXGXGXGXGXGXGXGXGXGXGXGXGXGXGXGXGXGXGXGXGXGXGXGXGXGXGXGXGXGXGXGXGXGXGXGXGXGXGXGXGXGXGXGXGXGXGXGXGXGXGXGXGXGXGXGXGXGXGXGXGXGXGXGXGXGXGXGXGXGXGXGXGXGXGXGXGXGXGXGXGXGXGXGXGXGXGXGXGXGXGXGXGXGXGXGXGXGXGXGXGXGXGXGXGXGXGXGXGXGXGXGXGXGXGXGXGXGXGXGXGXGXGXGXGXGXGXGXGXGXGXGXGXGXGXGXGXGXGXGXGXGXGXGXGXGXGXGXGXGXGXGX",
"GXGXGXGXGXGXGXGXGXGXGXGXGXGXGXGXGXGXGXGXGXGXGXGXGXGXGXGXGXGXGXGXGXGXGXGXGXGXGXGXGXGXGXGXGXGXGXGXGXGXGXGXGXGXGXGXGXGXGXGXGXGXGXGXGXGXGXGXGXGXGXGXGXGXGXGXGXGXGXGXGXGXGXGXGXGXGXGXGXGXGXGXGXGXGXGXGXGXGXGXGXGXGXGXGXGXGXGXGXGXGXGXGXGXGXGXGXGXGXGXGXGXGXGXGXGXGXGXGXGXGXGXGXGXGXGXGXGXGXGXGXGXGXGXGXGXGXGXGXGXGXGXGXGXGXGXGXGXGXGXGXGXGXGXGXGXGXGXGXGXGXGXGXGXGXGXGXGXGXGXGXGXGXGXGXGXGXGXGXGXGXGXGXGXGXGXGXGXGXGXGXGXGXGXGXGXGXGXGXGXGXGXGXGXGXGXGXGXGXGXGXGXGXGXGX",
"GXGXGXGXGXGXGXGXGXGXGXGXGXGXGXGXGXGXGXGXGXGXGXGXGXGXGXGXGXGXGXGXGXGXGXGXGXGXGXGXGXGXGXGXGXGXGXGXGXGXGXGXGXGXGXGXGXGXGXGXGXGXGXGXGXGXGXGXGXGXGXGXGXGXGXGXGXGXGXGXGXGXGXGXGXGXGXGXGXGXGXGXGXGXGXGXGXGXGXGXGXGXGXGXGXGXGXGXGXGXGXGXGXGXGXGXGXGXGXGXGXGXGXGXGXGXGXGXGXGXGXGXGXGXGXGXGXGXGXGXGXGXGXGXGXGXGXGXGXGXGXGXGXGXGXGXGXGXGXGXGXGXGXGXGXGXGXGXGXGXGXGXGXGXGXGXGXGXGXGXGXGXGXGXGXGXGXGXGXGXGXGXGXGXGXGXGXGXGXGXGXGXGXGXGXGXGXGXGXGXGXGXGXGXGXGXGXGXGXGXGXGXGXGXGX",
"GXGXGXGXGXGXGXGXGXGXGXGXGXGXGXGXGXGXGXGXGXGXGXGXGXGXGXGXGXGXGXGXGXGXGXGXGXGXGXGXGXGXGXGXGXGXGXGXGXGXGXGXGXGXGXGXGXGXGXGXGXGXGXGXGXGXGXGXGXGXGXGXGXGXGXGXGXGXGXGXGXGXGXGXGXGXGXGXGXGXGXGXGXGXGXGXGXGXGXGXGXGXGXGXGXGXGXGXGXGXGXGXGXGXGXGXGXGXGXGXGXGXGXGXGXGXGXGXGXGXGXGXGXGXGXGXGXGXGXGXGXGXGXGXGXGXGXGXGXGXGXGXGXGXGXGXGXGXGXGXGXGXGXGXGXGXGXGXGXGXGXGXGXGXGXGXGXGXGXGXGXGXGXGXGXGXGXGXGXGXGXGXGXGXGXGXGXGXGXGXGXGXGXGXGXGXGXGXGXGXGXGXGXGXGXGXGXGXGXGXGXGXGXGXGX",
"GXGXGXGXGXGXGXGXGXGXGXGXGXGXGXGXGXGXGXGXGXGXGXGXGXGXGXGXGXGXGXGXGXGXGXGXGXGXGXGXGXGXGXGXGXGXGXGXGXGXGXGXGXGXGXGXGXGXGXGXGXGXGXGXGXGXGXGXGXGXGXGXGXGXGXGXGXGXGXGXGXGXGXGXGXGXGXGXGXGXGXGXGXGXGXGXGXGXGXGXGXGXGXGXGXGXGXGXGXGXGXGXGXGXGXGXGXGXGXGXGXGXGXGXGXGXGXGXGXGXGXGXGXGXGXGXGXGXGXGXGXGXGXGXGXGXGXGXGXGXGXGXGXGXGXGXGXGXGXGXGXGXGXGXGXGXGXGXGXGXGXGXGXGXGXGXGXGXGXGXGXGXGXGXGXGXGXGXGXGXGXGXGXGXGXGXGXGXGXGXGXGXGXGXGXGXGXGXGXGXGXGXGXGXGXGXGXGXGXGXGXGXGXGXGX",
"GXGXGXGXGXGXGXGXGXGXGXGXGXGXGXGXGXGXGXGXGXGXGXGXGXGXGXGXGXGXGXGXGXGXGXGXGXGXGXGXGXGXGXGXGXGXGXGXGXGXGXGXGXGXGXGXGXGXGXGXGXGXGXGXGXGXGXGXGXGXGXGXGXGXGXGXGXGXGXGXGXGXGXGXGXGXGXGXGXGXGXGXGXGXGXGXGXGXGXGXGXGXGXGXGXGXGXGXGXGXGXGXGXGXGXGXGXGXGXGXGXGXGXGXGXGXGXGXGXGXGXGXGXGXGXGXGXGXGXGXGXGXGXGXGXGXGXGXGXGXGXGXGXGXGXGXGXGXGXGXGXGXGXGXGXGXGXGXGXGXGXGXGXGXGXGXGXGXGXGXGXGXGXGXGXGXGXGXGXGXGXGXGXGXGXGXGXGXGXGXGXGXGXGXGXGXGXGXGXGXGXGXGXGXGXGXGXGXGXGXGXGXGXGXGX",
"GXGXGXGXGXGXGXGXGXGXGXGXGXGXGXGXGXGXGXGXGXGXGXGXGXGXGXGXGXGXGXGXGXGXGXGXGXGXGXGXGXGXGXGXGXGXGXGXGXGXGXGXGXGXGXGXGXGXGXGXGXGXGXGXGXGXGXGXGXGXGXGXGXGXGXGXGXGXGXGXGXGXGXGXGXGXGXGXGXGXGXGXGXGXGXGXGXGXGXGXGXGXGXGXGXGXGXGXGXGXGXGXGXGXGXGXGXGXGXGXGXGXGXGXGXGXGXGXGXGXGXGXGXGXGXGXGXGXGXGXGXGXGXGXGXGXGXGXGXGXGXGXGXGXGXGXGXGXGXGXGXGXGXGXGXGXGXGXGXGXGXGXGXGXGXGXGXGXGXGXGXGXGXGXGXGXGXGXGXGXGXGXGXGXGXGXGXGXGXGXGXGXGXGXGXGXGXGXGXGXGXGXGXGXGXGXGXGXGXGXGXGXGXGXGX",
"GXGXGXGXGXGXGXGXGXGXGXGXGXGXGXGXGXGXGXGXGXGXGXGXGXGXGXGXGXGXGXGXGXGXGXGXGXGXGXGXGXGXGXGXGXGXGXGXGXGXGXGXGXGXGXGXGXGXGXGXGXGXGXGXGXGXGXGXGXGXGXGXGXGXGXGXGXGXGXGXGXGXGXGXGXGXGXGXGXGXGXGXGXGXGXGXGXGXGXGXGXGXGXGXGXGXGXGXGXGXGXGXGXGXGXGXGXGXGXGXGXGXGXGXGXGXGXGXGXGXGXGXGXGXGXGXGXGXGXGXGXGXGXGXGXGXGXGXGXGXGXGXGXGXGXGXGXGXGXGXGXGXGXGXGXGXGXGXGXGXGXGXGXGXGXGXGXGXGXGXGXGXGXGXGXGXGXGXGXGXGXGXGXGXGXGXGXGXGXGXGXGXGXGXGXGXGXGXGXGXGXGXGXGXGXGXGXGXGXGXGXGXGXGXGX",
"GXGXGXGXGXGXGXGXGXGXGXGXGXGXGXGXGXGXGXGXGXGXGXGXGXGXGXGXGXGXGXGXGXGXGXGXGXGXGXGXGXGXGXGXGXGXGXGXGXGXGXGXGXGXGXGXGXGXGXGXGXGXGXGXGXGXGXGXGXGXGXGXGXGXGXGXGXGXGXGXGXGXGXGXGXGXGXGXGXGXGXGXGXGXGXGXGXGXGXGXGXGXGXGXGXGXGXGXGXGXGXGXGXGXGXGXGXGXGXGXGXGXGXGXGXGXGXGXGXGXGXGXGXGXGXGXGXGXGXGXGXGXGXGXGXGXGXGXGXGXGXGXGXGXGXGXGXGXGXGXGXGXGXGXGXGXGXGXGXGXGXGXGXGXGXGXGXGXGXGXGXGXGXGXGXGXGXGXGXGXGXGXGXGXGXGXGXGXGXGXGXGXGXGXGXGXGXGXGXGXGXGXGXGXGXGXGXGXGXGXGXGXGXGXGX",
"GXGXGXGXGXGXGXGXGXGXGXGXGXGXGXGXGXGXGXGXGXGXGXGXGXGXGXGXGXGXGXGXGXGXGXGXGXGXGXGXGXGXGXGXGXGXGXGXGXGXGXGXGXGXGXGXGXGXGXGXGXGXGXGXGXGXGXGXGXGXGXGXGXGXGXGXGXGXGXGXGXGXGXGXGXGXGXGXGXGXGXGXGXGXGXGXGXGXGXGXGXGXGXGXGXGXGXGXGXGXGXGXGXGXGXGXGXGXGXGXGXGXGXGXGXGXGXGXGXGXGXGXGXGXGXGXGXGXGXGXGXGXGXGXGXGXGXGXGXGXGXGXGXGXGXGXGXGXGXGXGXGXGXGXGXGXGXGXGXGXGXGXGXGXGXGXGXGXGXGXGXGXGXGXGXGXGXGXGXGXGXGXGXGXGXGXGXGXGXGXGXGXGXGXGXGXGXGXGXGXGXGXGXGXGXGXGXGXGXGXGXGXGXGXGX",
"GXGXGXGXGXGXGXGXGXGXGXGXGXGXGXGXGXGXGXGXGXGXGXGXGXGXGXGXGXGXGXGXGXGXGXGXGXGXGXGXGXGXGXGXGXGXGXGXGXGXGXGXGXGXGXGXGXGXGXGXGXGXGXGXGXGXGXGXGXGXGXGXGXGXGXGXGXGXGXGXGXGXGXGXGXGXGXGXGXGXGXGXGXGXGXGXGXGXGXGXGXGXGXGXGXGXGXGXGXGXGXGXGXGXGXGXGXGXGXGXGXGXGXGXGXGXGXGXGXGXGXGXGXGXGXGXGXGXGXGXGXGXGXGXGXGXGXGXGXGXGXGXGXGXGXGXGXGXGXGXGXGXGXGXGXGXGXGXGXGXGXGXGXGXGXGXGXGXGXGXGXGXGXGXGXGXGXGXGXGXGXGXGXGXGXGXGXGXGXGXGXGXGXGXGXGXGXGXGXGXGXGXGXGXGXGXGXGXGXGXGXGXGXGXGX",
"GXGXGXGXGXGXGXGXGXGXGXGXGXGXGXGXGXGXGXGXGXGXGXGXGXGXGXGXGXGXGXGXGXGXGXGXGXGXGXGXGXGXGXGXGXGXGXGXGXGXGXGXGXGXGXGXGXGXGXGXGXGXGXGXGXGXGXGXGXGXGXGXGXGXGXGXGXGXGXGXGXGXGXGXGXGXGXGXGXGXGXGXGXGXGXGXGXGXGXGXGXGXGXGXGXGXGXGXGXGXGXGXGXGXGXGXGXGXGXGXGXGXGXGXGXGXGXGXGXGXGXGXGXGXGXGXGXGXGXGXGXGXGXGXGXGXGXGXGXGXGXGXGXGXGXGXGXGXGXGXGXGXGXGXGXGXGXGXGXGXGXGXGXGXGXGXGXGXGXGXGXGXGXGXGXGXGXGXGXGXGXGXGXGXGXGXGXGXGXGXGXGXGXGXGXGXGXGXGXGXGXGXGXGXGXGXGXGXGXGXGXGXGXGXGX",
"GXGXGXGXGXGXGXGXGXGXGXGXGXGXGXGXGXGXGXGXGXGXGXGXGXGXGXGXGXGXGXGXGXGXGXGXGXGXGXGXGXGXGXGXGXGXGXGXGXGXGXGXGXGXGXGXGXGXGXGXGXGXGXGXGXGXGXGXGXGXGXGXGXGXGXGXGXGXGXGXGXGXGXGXGXGXGXGXGXGXGXGXGXGXGXGXGXGXGXGXGXGXGXGXGXGXGXGXGXGXGXGXGXGXGXGXGXGXGXGXGXGXGXGXGXGXGXGXGXGXGXGXGXGXGXGXGXGXGXGXGXGXGXGXGXGXGXGXGXGXGXGXGXGXGXGXGXGXGXGXGXGXGXGXGXGXGXGXGXGXGXGXGXGXGXGXGXGXGXGXGXGXGXGXGXGXGXGXGXGXGXGXGXGXGXGXGXGXGXGXGXGXGXGXGXGXGXGXGXGXGXGXGXGXGXGXGXGXGXGXGXGXGXGXGX",
"GXGXGXGXGXGXGXGXGXGXGXGXGXGXGXGXGXGXGXGXGXGXGXGXGXGXGXGXGXGXGXGXGXGXGXGXGXGXGXGXGXGXGXGXGXGXGXGXGXGXGXGXGXGXGXGXGXGXGXGXGXGXGXGXGXGXGXGXGXGXGXGXGXGXGXGXGXGXGXGXGXGXGXGXGXGXGXGXGXGXGXGXGXGXGXGXGXGXGXGXGXGXGXGXGXGXGXGXGXGXGXGXGXGXGXGXGXGXGXGXGXGXGXGXGXGXGXGXGXGXGXGXGXGXGXGXGXGXGXGXGXGXGXGXGXGXGXGXGXGXGXGXGXGXGXGXGXGXGXGXGXGXGXGXGXGXGXGXGXGXGXGXGXGXGXGXGXGXGXGXGXGXGXGXGXGXGXGXGXGXGXGXGXGXGXGXGXGXGXGXGXGXGXGXGXGXGXGXGXGXGXGXGXGXGXGXGXGXGXGXGXGXGXGXGX",
"GXGXGXGXGXGXGXGXGXGXGXGXGXGXGXGXGXGXGXGXGXGXGXGXGXGXGXGXGXGXGXGXGXGXGXGXGXGXGXGXGXGXGXGXGXGXGXGXGXGXGXGXGXGXGXGXGXGXGXGXGXGXGXGXGXGXGXGXGXGXGXGXGXGXGXGXGXGXGXGXGXGXGXGXGXGXGXGXGXGXGXGXGXGXGXGXGXGXGXGXGXGXGXGXGXGXGXGXGXGXGXGXGXGXGXGXGXGXGXGXGXGXGXGXGXGXGXGXGXGXGXGXGXGXGXGXGXGXGXGXGXGXGXGXGXGXGXGXGXGXGXGXGXGXGXGXGXGXGXGXGXGXGXGXGXGXGXGXGXGXGXGXGXGXGXGXGXGXGXGXGXGXGXGXGXGXGXGXGXGXGXGXGXGXGXGXGXGXGXGXGXGXGXGXGXGXGXGXGXGXGXGXGXGXGXGXGXGXGXGXGXGXGXGXGX",
"GXGXGXGXGXGXGXGXGXGXGXGXGXGXGXGXGXGXGXGXGXGXGXGXGXGXGXGXGXGXGXGXGXGXGXGXGXGXGXGXGXGXGXGXGXGXGXGXGXGXGXGXGXGXGXGXGXGXGXGXGXGXGXGXGXGXGXGXGXGXGXGXGXGXGXGXGXGXGXGXGXGXGXGXGXGXGXGXGXGXGXGXGXGXGXGXGXGXGXGXGXGXGXGXGXGXGXGXGXGXGXGXGXGXGXGXGXGXGXGXGXGXGXGXGXGXGXGXGXGXGXGXGXGXGXGXGXGXGXGXGXGXGXGXGXGXGXGXGXGXGXGXGXGXGXGXGXGXGXGXGXGXGXGXGXGXGXGXGXGXGXGXGXGXGXGXGXGXGXGXGXGXGXGXGXGXGXGXGXGXGXGXGXGXGXGXGXGXGXGXGXGXGXGXGXGXGXGXGXGXGXGXGXGXGXGXGXGXGXGXGXGXGXGXGX",
"GXGXGXGXGXGXGXGXGXGXGXGXGXGXGXGXGXGXGXGXGXGXGXGXGXGXGXGXGXGXGXGXGXGXGXGXGXGXGXGXGXGXGXGXGXGXGXGXGXGXGXGXGXGXGXGXGXGXGXGXGXGXGXGXGXGXGXGXGXGXGXGXGXGXGXGXGXGXGXGXGXGXGXGXGXGXGXGXGXGXGXGXGXGXGXGXGXGXGXGXGXGXGXGXGXGXGXGXGXGXGXGXGXGXGXGXGXGXGXGXGXGXGXGXGXGXGXGXGXGXGXGXGXGXGXGXGXGXGXGXGXGXGXGXGXGXGXGXGXGXGXGXGXGXGXGXGXGXGXGXGXGXGXGXGXGXGXGXGXGXGXGXGXGXGXGXGXGXGXGXGXGXGXGXGXGXGXGXGXGXGXGXGXGXGXGXGXGXGXGXGXGXGXGXGXGXGXGXGXGXGXGXGXGXGXGXGXGXGXGXGXGXGXGXGX",
"GXGXGXGXGXGXGXGXGXGXGXGXGXGXGXGXGXGXGXGXGXGXGXGXGXGXGXGXGXGXGXGXGXGXGXGXGXGXGXGXGXGXGXGXGXGXGXGXGXGXGXGXGXGXGXGXGXGXGXGXGXGXGXGXGXGXGXGXGXGXGXGXGXGXGXGXGXGXGXGXGXGXGXGXGXGXGXGXGXGXGXGXGXGXGXGXGXGXGXGXGXGXGXGXGXGXGXGXGXGXGXGXGXGXGXGXGXGXGXGXGXGXGXGXGXGXGXGXGXGXGXGXGXGXGXGXGXGXGXGXGXGXGXGXGXGXGXGXGXGXGXGXGXGXGXGXGXGXGXGXGXGXGXGXGXGXGXGXGXGXGXGXGXGXGXGXGXGXGXGXGXGXGXGXGXGXGXGXGXGXGXGXGXGXGXGXGXGXGXGXGXGXGXGXGXGXGXGXGXGXGXGXGXGXGXGXGXGXGXGXGXGXGXGXGX",
"GXGXGXGXGXGXGXGXGXGXGXGXGXGXGXGXGXGXGXGXGXGXGXGXGXGXGXGXGXGXGXGXGXGXGXGXGXGXGXGXGXGXGXGXGXGXGXGXGXGXGXGXGXGXGXGXGXGXGXGXGXGXGXGXGXGXGXGXGXGXGXGXGXGXGXGXGXGXGXGXGXGXGXGXGXGXGXGXGXGXGXGXGXGXGXGXGXGXGXGXGXGXGXGXGXGXGXGXGXGXGXGXGXGXGXGXGXGXGXGXGXGXGXGXGXGXGXGXGXGXGXGXGXGXGXGXGXGXGXGXGXGXGXGXGXGXGXGXGXGXGXGXGXGXGXGXGXGXGXGXGXGXGXGXGXGXGXGXGXGXGXGXGXGXGXGXGXGXGXGXGXGXGXGXGXGXGXGXGXGXGXGXGXGXGXGXGXGXGXGXGXGXGXGXGXGXGXGXGXGXGXGXGXGXGXGXGXGXGXGXGXGXGXGXGX"
};
