/* XPM */
static char *brick_xpm[] = {
"64 64 3 1",
"_ c #2A2A2A",
"# c #B34D4D",
"@ c #C75B5B",
"____####____####____####____####____####____####____####____####",
"____####____####____####____####____####____####____####____####",
"____####____####____####____####____####____####____####____####",
"____####____####____####____####____####____####____####____####",
"####____####____####____####____####____####____####____####____",
"####____####____####____####____####____####____####____####____",
"####____####____####____####____####____####____####____####____",
"####____####____####____####____####____####____####____####____",
"____####____####____####____####____####____####____####____####",
"____####____####____####____####____####____####____####____####",
"____####____####____####____####____####____####____####____####",
"____####____####____####____####____####____####____####____####",
"####____####____####____####____####____####____####____####____",
"####____####____####____####____####____####____####____####____",
"####____####____####____####____####____####____####____####____",
"####____####____####____####____####____####____####____####____",
"____####____####____####____####____####____####____####____####",
"____####____####____####____####____####____####____####____####",
"____####____####____####____####____####____####____####____####",
"____####____####____####____####____####____####____####____####",
"####____####____####____####____####____####____####____####____",
"####____####____####____####____####____####____####____####____",
"####____####____####____####____####____####____####____####____",
"####____####____####____####____####____####____####____####____",
"____####____####____####____####____####____####____####____####",
"____####____####____####____####____####____####____####____####",
"____####____####____####____####____####____####____####____####",
"____####____####____####____####____####____####____####____####",
"####____####____####____####____####____####____####____####____",
"####____####____####____####____####____####____####____####____",
"####____####____####____####____####____####____####____####____",
"####____####____####____####____####____####____####____####____",
"____####____####____####____####____####____####____####____####",
"____####____####____####____####____####____####____####____####",
"____####____####____####____####____####____####____####____####",
"____####____####____####____####____####____####____####____####",
"####____####____####____####____####____####____####____####____",
"####____####____####____####____####____####____####____####____",
"####____####____####____####____####____####____####____####____",
"####____####____####____####____####____####____####____####____",
"____####____####____####____####____####____####____####____####",
"____####____####____####____####____####____####____####____####",
"____####____####____####____####____####____####____####____####",
"____####____####____####____####____####____####____####____####",
"####____####____####____####____####____####____####____####____",
"####____####____####____####____####____####____####____####____",
"####____####____####____####____####____####____####____####____",
"####____####____####____####____####____####____####____####____",
"____####____####____####____####____####____####____####____####",
"____####____####____####____####____####____####____####____####",
"____####____####____####____####____####____####____####____####",
"____####____####____####____####____####____####____####____####",
"####____####____####____####____####____####____####____####____",
"####____####____####____####____####____####____####____####____",
"####____####____####____####____####____####____####____####____",
"####____####____####____####____####____####____####____####____",
"____####____####____####____####____####____####____####____####",
"____####____####____####____####____####____####____####____####",
"____####____####____####____####____####____####____####____####",
"____####____####____####____####____####____####____####____####",
"####____####____####____####____####____####____####____####____",
"####____####____####____####____####____####____####____####____",
"####____####____####____####____####____####____####____####____",
"####____####____####____####____####____####____####____####____"
};