/* XPM */
static char *_f4eca1f91bc4d9588f12991e4c3e8c44sTEzaQwBVvk3tOA[] = {
/* columns rows colors chars-per-pixel */
"260 258 256 2 ",
"   c #3D0203",
".  c #36020C",
"X  c #3D030C",
"o  c #3D090D",
"O  c #380604",
"+  c #350213",
"@  c #3C0413",
"#  c #3D0A14",
"$  c #3D041A",
"%  c #3D0A1B",
"&  c #35071A",
"*  c #380E15",
"=  c #3C0822",
"-  c #3C1021",
";  c #430303",
":  c #4A0402",
">  c #440903",
",  c #4C0B02",
"<  c #43040C",
"1  c #4A040C",
"2  c #440A0C",
"3  c #4B0A0C",
"4  c #530403",
"5  c #5D0501",
"6  c #530C02",
"7  c #5C0B03",
"8  c #53040C",
"9  c #540C0C",
"0  c #5B0C0C",
"q  c #5A040B",
"w  c #4E1103",
"e  c #4C120C",
"r  c #541203",
"t  c #5B1203",
"y  c #55120E",
"u  c #5C130D",
"i  c #5B1B0C",
"p  c #591A07",
"a  c #430514",
"s  c #4A0513",
"d  c #430A14",
"f  c #4B0A13",
"g  c #43051A",
"h  c #4B051A",
"j  c #430A1B",
"k  c #4A0B1B",
"l  c #530513",
"z  c #530C13",
"x  c #5B0D13",
"c  c #530D1B",
"v  c #5B0D1A",
"b  c #590714",
"n  c #4C1313",
"m  c #47121A",
"M  c #541213",
"N  c #5C1213",
"B  c #5C1B13",
"V  c #54131B",
"C  c #5C131A",
"Z  c #5C1B1C",
"A  c #561A15",
"S  c #630601",
"D  c #640B03",
"F  c #6A0D02",
"G  c #640C0B",
"H  c #690D0C",
"J  c #66060A",
"K  c #710E03",
"L  c #641203",
"P  c #6C1204",
"I  c #63130D",
"U  c #6C130B",
"Y  c #641A0C",
"T  c #6C1B0D",
"R  c #6A1B04",
"E  c #721403",
"W  c #731B03",
"Q  c #72150C",
"!  c #741C0B",
"~  c #7A1C0C",
"^  c #7A1A05",
"/  c #630D13",
"(  c #690C13",
")  c #680917",
"_  c #631313",
"`  c #6A1413",
"'  c #631B14",
"]  c #6C1D14",
"[  c #63131A",
"{  c #631B1B",
"}  c #6B1D1A",
"|  c #69131B",
" . c #731C13",
".. c #7A1C12",
"X. c #741B18",
"o. c #740519",
"O. c #5D2118",
"+. c #5A220A",
"@. c #65240C",
"#. c #6A230D",
"$. c #672606",
"%. c #74220C",
"&. c #7C230C",
"*. c #7A2A08",
"=. c #793309",
"-. c #652313",
";. c #6B2313",
":. c #64231C",
">. c #6C231B",
",. c #6D2C1B",
"<. c #692A16",
"1. c #732314",
"2. c #7C2413",
"3. c #7C2B13",
"4. c #73251B",
"5. c #7B251B",
"6. c #752A1D",
"7. c #7C2C1C",
"8. c #742B13",
"9. c #6D311C",
"0. c #7B3514",
"q. c #7C3A15",
"w. c #7C341B",
"e. c #7D3A1B",
"r. c #743518",
"t. c #6D310C",
"y. c #440522",
"u. c #440B22",
"i. c #490925",
"p. c #591823",
"a. c #4F0F24",
"s. c #641C22",
"d. c #691021",
"f. c #5D2225",
"g. c #6C2422",
"h. c #6D2B22",
"j. c #662626",
"k. c #742B23",
"l. c #7C2D23",
"z. c #762725",
"x. c #6A3224",
"c. c #7D3223",
"v. c #793627",
"b. c #793533",
"n. c #702D34",
"m. c #7C4131",
"M. c #7F400A",
"N. c #852D04",
"B. c #8B2D05",
"V. c #83250C",
"C. c #852C0B",
"Z. c #8B2E0D",
"A. c #882609",
"S. c #912E0E",
"D. c #922D05",
"F. c #853205",
"G. c #8B3205",
"H. c #85320C",
"J. c #8C310D",
"K. c #8D3A0C",
"L. c #893A08",
"P. c #913205",
"I. c #92330D",
"U. c #923C0D",
"Y. c #943808",
"T. c #832513",
"R. c #852C14",
"E. c #8D2E13",
"W. c #852D1A",
"Q. c #8C2E1A",
"!. c #872517",
"~. c #912E12",
"^. c #912D1A",
"/. c #992E17",
"(. c #863213",
"). c #8D3011",
"_. c #8D3A13",
"`. c #85331B",
"'. c #8C331B",
"]. c #843B1C",
"[. c #8C3A1C",
"{. c #843912",
"}. c #923313",
"|. c #933B13",
" X c #993D14",
".X c #92331A",
"XX c #943C1A",
"oX c #9A3C1B",
"OX c #993316",
"+X c #832C23",
"@X c #8C2E22",
"#X c #852B29",
"$X c #932D22",
"%X c #843323",
"&X c #8C3422",
"*X c #843C24",
"=X c #8C3B23",
"-X c #8C3429",
";X c #86392B",
":X c #923422",
">X c #933B22",
",X c #963926",
"<X c #873932",
"1X c #811C0C",
"2X c #8D450A",
"3X c #94440D",
"4X c #99460D",
"5X c #954A0D",
"6X c #9A4A0D",
"7X c #964805",
"8X c #995109",
"9X c #8E4115",
"0X c #8C461A",
"qX c #954413",
"wX c #9A4514",
"eX c #954A14",
"rX c #9B4A14",
"tX c #94441B",
"yX c #9B451A",
"uX c #954B1B",
"iX c #9C4B1B",
"pX c #95521C",
"aX c #9B511C",
"sX c #985214",
"dX c #8F501D",
"fX c #A14B14",
"gX c #A1461C",
"hX c #A14C1B",
"jX c #A14514",
"kX c #A2531B",
"lX c #A14B0C",
"zX c #854125",
"xX c #84422B",
"cX c #8C442B",
"vX c #8D4A2A",
"bX c #8C4824",
"nX c #944423",
"mX c #9C4522",
"MX c #944D24",
"NX c #9B4C23",
"BX c #944C2A",
"VX c #9A4E2A",
"CX c #95452A",
"ZX c #955224",
"AX c #9A5223",
"SX c #94522B",
"DX c #9B532A",
"FX c #98592B",
"GX c #8A4835",
"HX c #944C33",
"JX c #975335",
"KX c #8D512B",
"LX c #A24C22",
"PX c #A34825",
"IX c #A25327",
"UX c #A45036",
/* pixels */
"rXrXrXrXrXrXrXrXrXrXrXrXrXrXrXrXrXrXrXrXrXrXrXrXrXrXrXrXrXrXrXrXrXrXrXrXrXrXrXrXrXrXrXrXrXrXrXrXyXrX6X5X5X5XeXuXxX  f $ = $ j # % + j O : *XuXsXeXeXeX5X5X5X5X5X6X6X6X6X6X6XrX6XrXrXrXrXrXrXrXrXrXrXrXrXrXrXrXrXeXeXeXeXeXeXeXeXVXw.; @ j a x 0 5 ! _.6X7X5XiXuXeXeX5X5X5X5XeXeXiXeXsX2XuXbXu : ; < a @ d o . % i.X g.&XH.K.K.iXrXrXrXrXrXrXrXrXrXrXrXrXrXrXrXrXrXrXrXrXrXrXrXrX6X6X6X6X6X6X6X6X7X6XtXL 7 } l b h s l x N [ v l # $ $ # 2 o 2 d a j d + y.y.g s g a   ,.SXuXsX7XuXeXeXeXeX5X5X5X6X6XrX6X6X6X6X6XrXrXrXrXrXrXrXrXrXrXrXrX",
"rXrXrXrXrXrXrXrXrXrXrXrXrXrXrXrXrXrXrXrXrXrXrXrXrXrXrXrXrXrXrXrXrXrXrXrXrXrXrXrXrXrXrXrXrXrXrXrXyXrXrX6X5XeXeXuXvX; 3 @ $ $ j d % @ k < y cXuX5XeXeXeXeXeX5X5X5XrXrXrXrXrXrXrXrXrXrXrXrXrXrXrXrXrXrXrXrXrXrXrXrXeXeXeXeXeXeXeXeXIXw.: o j f N G 5 ! tXkX6X5XeXtXeXeX5X5X5X5XeXeXqX3XsX5XpXvXY : ; a a j m d + j j < >.'.C.G.K.iXrXrXrXrXrXrXrXrXrXrXrXrXrXrXrXrXrXrXrXrXrXrXrXrXrXrXrXrXrXrXrXrX4XiXtXL 5 | b v h 1 1 x x [ x 8 d # $ j d 2 2 j @ d @ @ u.i.h s a a ; ,.BXuXsX7XiXrXeXeXeXeX6X6XrXrXrXrXrXrXrXrXrXrXrXrXrXrXrXrXrXrXrXrX",
"iXiXiXiXiXiXiXiXiXiXiXiXiXiXiXiXiXiXiXiXiXiXiXiXiXiXiXiXiXiXiXiXiXiXiXiXiXiXiXiXiXiXiXiXiXiXiXiXiXiXrXrXrXiXiXiX*X: : X g @ j d # o X O , ].NXkXiXiXiXrXrXrXrXrXrXrXrXrXrXrXrXrXiXiXiXiXiXiXiXiXiXiXiXiXiXiXiXiXiXiXiXiXiXiXiXiXNX3.:   < ; 0 7 5 ! XXkX6X6XiXNXiXiXrXrXrXrXiXiXrXqXiXeXuXbXt : ; < a $ j d a h 2 ; ;.(.B.K.U.LXiXiXiXiXiXiXiXiXiXiXiXiXiXiXiXiXiXiXiXiXiXiXiXiXrXrXrXrXrXrXrXrXyXNXnXP 4 / l l l 1 1 0 x [ x 8 2 a a a < < a g # # X # u.y.a f     ; ;.BXNXkX6XiXiXiXiXrXrXrXrXrXrXrXrXrXrXrXrXiXiXiXiXiXiXiXiXiXiXiXiX",
"wXwXwXwXwXwXwXwXwXwXwXwXwXwXwXwXwXwXwXwXwXwXwXwXwXwXwXwXwXwXwXwXwXwXwXwXwXwXwXwXwXwXwXwXwXwXwXwXwXwXwXwXwXwXwXwX].t u z V X d d 2 M y : t {.yXLXwXwXwXwXwXwXwXwXwXwXwXwXwXwXwXwXwXwXwXwXwXwXwXwXwXwXwXwXwXwXwXwXwXwXwXwXwXwXwXwXyXR.7 9 9 6 I L F ~ |.wX4X3XyXmXyXwXwXwXwXwXwXyXqXqXrX3XtXzXY 6 , n j $ j a s c > : %._.K.U.|.yXwXwXwXwXwXwXwXwXwXwXwXwXwXwXwXwXwXwXwXwXwXwXwXwXwXwXwXwXwXwXwXwXyXyXXX&.P ] _ 4 8 8 8 0 / / / q , 1 h h s 1 a y.# d # # - % @ n r r r 8.nXyXwXwXwXwXwXwXwXwXwXwXwXwXwXwXwXwXwXwXwXwXwXwXwXwXwXwXwXwXwXwX",
"J.J.J.J.J.J.J.J.J.J.J.J.J.J.J.J.J.J.J.J.J.J.J.J.J.J.J.J.J.J.J.J.J.J.J.J.J.J.J.J.J.J.J.J.J.J.J.J.K.K.J.J.J.J.K.K.[.3.6.g.j.< 2 2 3 v.GX*X=X[.J.H.J.J.J.J.J.J.J.J.J.J.J.J.J.J.J.J.J.J.J.J.J.J.J.J.J.J.J.J.J.J.J.J.J.J.J.J.J.J.J.J.|.'.%.7.l.4.W.R.!.!.}.U.G.G.J.).).J.K.K.K.K.J.).J.J.|.K._.>X3.4.6.g.p.g a a l v u 6 0.tXqXqX_._.J.J.J.J.J.J.J.J.J.J.J.J.J.J.J.J.J.J.J.J.J.J.J.J.J.J.J.J.J.J.J.J.J.J.|._.{.zX=XR 0 0 0 / / / / G 7 x v v z z c a.$ d X # % @ d O.zX].].].[._.G.I.K.K.K.J.J.J.J.J.J.J.J.J.J.J.J.J.J.J.J.J.J.J.J.J.J.J.J.J.",
"H.H.H.H.H.H.H.H.H.H.H.H.H.H.H.H.H.H.H.H.H.H.H.H.H.H.H.H.H.H.H.H.H.H.H.H.H.H.H.H.H.H.H.H.H.H.H.H.F.H.Z.Z.Z.Z.B.B.).'.&X;Xb.: 3 > , GXJXDXNXJ.C.Z.C.C.H.Z.H.Z.Z.Z.Z.Z.Z.H.Z.Z.Z.Z.H.H.H.H.H.H.H.H.H.H.H.H.H.H.H.H.C.C.C.H.C.C.Z.Z.G.}.(.=X=X`.[.'.$XQ.E.Z.B.N.H.).E.E.Z.H.H.Z.Z.E.Z.B.}.C.H.[.W.&X`.c.p.a X < l | Y t `.NXyXiX_.H.H.H.H.H.H.H.H.H.H.H.H.H.H.H.H.H.H.H.H.H.H.H.H.H.Z.Z.Z.Z.Z.Z.Z.Z.C.C.K.iXiXNXNXR 7 G I _ / H ` H L H / x 0 0 x c a d 2 # # . 2 O.FXZXVX_.J.J.N.I.H.H.C.C.Z.Z.Z.Z.Z.Z.Z.Z.Z.C.H.H.H.H.H.H.H.H.H.H.H.H.H.H.",
").).).).).).).).).).).).).).).).).).).).).).).).J.).).).).).).).).).).).).).).).).).).).).).).).H.H.).).~.~.I.I.C.}.'.%Xc.: , ; , vXbX9XqXN.Z.OXJ.J.).).).).).).).).).).).).).).).).).).).).).).J.).).).).).).).).).).).).).).).B.J.C.'.'.V.).C.$XQ.E.S.C.C.}..X).).).J.J.).).).~.S.OXZ.Z.[.T.'.H.7.C < X < 9 [ I 7 `.NXNXNX|.).).).).).).).).).J.).).).).).).).).).).).).).).).).'.).).).).).).Q.'.J.hXwXqXMXL L D G H H H H H F H ( 0 7 7 0 l h s 2 d # . 2 O.eX2XiXL.H.}.A.OXJ.J.J.).).).).).).).).).).).).).).).).).).).).).).).).).",
").).).).).).).).).).).).).).).).).).).).).).).).).).).).).).).).).).).).).).).).).).).).).).).).H.H.).Q.Q.~.S.S.B.OXE.W.%X: , > , vXMXuXkXJ.Z.~.Z.Z.E.E.E.E.Q.Q.'.'.'.'.'.'.'.'.).).).).).).).).).).).).).).).).E.E.).).).E.E.E.B.I.C.).'.C.).C.$X^..XOXS.C.).).Q.E.E.Z.Z.E.E.Q.Z.C.}.Z.).XXT.'.I.W.{ < < 2 8 / / 7 `.CXnXNX|.).).).).).).).).).).).).).).).).).).).).).).).).).'.'.'.'.'.'.'.'.@XQ.).LXqXtXVXL L 7 D G G H H J F H H G D 7 7 0 s < 2 f j o 2 :.sX5XrXL.G.OXA.}.J.J.J.E.E.E.E.E.'.'.'.'.'.'.'.'.).).).).).).).).).).).).",
").).).).).).).).).).).).).).).).).).).).).).).).).).).).).).).).).).).).).).).).).).).).).).).).).).).).).E.~.~.Z.}.).`.c.: f a t cXuX5X4XG.E.Q.'.'.).H.H.).'.'.).).).).).).).).).).).).).).).).).).).).).).).).E.).E.E.E.E.E.E.E.E.~.~.S.S.J.H.'.Q.E.~.~.E.H.H.H.H.).'.'.).H.H.J.E.E.E.E.J.J.G.'.*XN o # . d j 2 2 y T P E V._.).).).).).).).).).).).).).).).).).).).).).).).).).).).).).).).).OXB.Z.}.Z.Z.|.yX,X,X,XE S H J ( G ` 5 '.yXJ.CX] 9 : M k j a > <.rXrXwX|.Z.E.'.!.(.).).).).).).).).).).).).).).).).).).).).).).).).).).).",
").).).).).).).).).).).).).).).).).).).).).).).).).).).).).).).).).).).).).).).).).).).).).).).).).).(.).).).~.~.Z.}.'.`.c.: f a 7 cXNXiXrXG.E.Q.'.'.).H.H.).'.'.).).).).).).).).).).).).).).).).).).).).).).).).).).E.E.E.E.E.E.).E.~.~.S.S.J.H.'.E.E.~.~.E.H.H.H.H.).'.'.).H.H.J.E.E.E.E.J.J.G.).%Xz o # . # a < < 9 H D F ~ '.).).).).).).).).).).).).).).).).).).).).).).).).).).).).).).).).}.Z.Z.).C.C.|.mXqXNXmXW D ` J | I ` D .XLXqXNX%._ 0 N f g a : ;.sXiXrX X).E..XQ.).).).).).).).).).).).).).).).).).).).).).).).).).).).).",
").).).).).).).).).).).).).).).).).).).).).).).).).).).).).).).).).).).).).).).).).).).).).).).).).).).).).).E.~.Z.}.'.`.c.: f a 7 =XNXiXrXG.)..XE.'.).H.).).).E.).).).).).).).).).).).).).).).).).).).).).).).).).).).E.E.E.E.E.).E.~.~.S.~.J.H.'.'.E.~.~.E.H.H.J.J.).'.).).J.J.J.Z.E.E.E.Z.J.J.}.&Xx X # . o o s 1 b / G F 2.&X).).).).).).).).).).).).).).).).).).).).).).).).).).).).).).).).Z.C.Z.J.C.Z.XXmXrXhXyXW D H 5 ( 7 D 5 ).hXrXNX*.G 7 u 3 a s : ,.aXiXiX X).E.E.Q.).).).).).).).E.).).).).).).).).).).).).).).).).).).).).",
").).).).).).).).).).).).).).).).).).).).).).).).).).).).).).).).).).).).).).).).).).).).).).).).E.).).).).).E.~.Z.}.'.`.c.: f a 7 ;XnXwXqXH.)..XE.'.).H.H.).'.E.).).).).).).).).).).).).).).).).).).).).).).).).).).).).).).).).).).~.~.~.~.).H.).).E.~.~.E.).H.J.).).'.).).J.J.Z.E.E.E.E.Z.J.J.OX&Xx @ # O f M 0 8 G ` F P 2.Q.).).).).).).).).).).).).).).).).).).).).).).).).).).).).).).).).E.Z.Z.J.C.H.}.XXtXmXnX! P U D X.L P P H.4X3XrXN.F G I 9 s s 1 ,.iXiXyXXXZ.E.E.E.).).).).).).E.E.).).).).).).).).).).).).).).).).).).).).",
").).).).).).).).).).).).).).).).).).).).).).).).).).).).).).).).).).).).).).).).).).).).).).).).~.E.).).).).E.E.Z.}.'.`.c.: f a 7 *X[.K.U.H.J.E.E.E.).J.J.).E.E.).).).).).).).).).).).).).).).).).).).).).).).).).).).).).).).).H.J.S.~.~.~.).).H.H.Z.S.~.E.).).J.J.E.E.E.E.J.J.E.E.E.E.E.E.J.J.D.Q.x @ # o Z k.5.1.2.R.2.V.C.R.).).).).).).).).).).).).).).).).).).).).).).).).).).).).).).).)..X}.}.I.H.H.C.&. . .z.H G F D R.[.'.'.|.G.G.U.N.W.W.6.N 1 1 1 :.9XK.(.).Z.}.}.).).).).).).E.~.~.).).).).).).).).).).).).).).).).).).).).",
").).).).).).).).).).).).).).).).).).).).).).).).).).).).).).).).).).).).).).).).).).).).).).).).~.E.).).).).).).Z.}.'.`.c.: f a 6 %X(.H.J.B.Z.E.E.E.E.Z.Z.E.E.E.).).).).).).).).).).).).).).).).).).).).).).).).).).).).).).).).H.J.S.S.~.~.E.'.H.H.J.S.S.E.).).J.Z.E.E.E.E.Z.J.E.E.E.E.E.E.J.J.D.'.M @ # 2 >.<XOX).'.XX_.).}.J.).).).).).).).).).).).).).).).).).).).).).).).).).).).).).).).)..X.X}.I.J.).V.E q q / / 5 D D (.aXNXmXoXB.B.I.).&X&X].I 1 < ; :.].H.C.Z.Z.}.}.).).).).).E.E.~.~.).).).).).).).).).).).).).).).).).).).).",
").).).).).).).).).).).).).).).).).).).).).).).).).).).).).).).).).).).).).).).).).).).).).).).).~.~.).).).).).).Z.}.'.`.c.: f a 4 c.`.H._.B.J.J.E.E.E.Z.Z.E.E.E.).).).).).).).).).).).).).).).).).).).).).).).).).).).).).).).).H.J.S.S.~.~.E.).H.H.J.S.S.E.).).J.Z.E.E.E.E.Z.J.E.E.E.Q.E.E.E.J.P.`.M @ o : X.-XS.Z.C.H.H.H.J.Z.).).).).).).).).).).).).).).).).).).).).).).).).).).).).).).).).Q.E.).J.J.).R.W U G ` ` H D L [.sXwXmX|.B.B.}.}.Q.`.w.p ; < 2 j.[.(.R.).E.Z.J.Z.).).).E.~.~.~.~.).).).).).).).).).).).).).).).).).).).).",
").).).).).).).).).).).).).).).).).).).).).).).).).).).).).).).).).).).).).).).).).).).).).).).).~.~.E.).).).).).Z.}.'.`.c.: f a 4 c.`.(._.C.J.}.E.E.E.Z.Z.E.E.E.).).).).).).).).).).).).).).).).).).).).).).).).).).).).).).).).H.J.S.S.~.~.E.E.K.H.J.S.S.E.).).J.Z.E.E.E.E.Z.J.E.E.E.Q.E.E.Z.J.G.`.y @ # : ..$X/.S.).).).).}.}.).).).).).).).).).).).).).).).).).).).).).).).).).).).).).).).).Q.E.}.J.H.).R.W L 4 D I G 5 D [.sXqXNX|.B.I.E.!.'.'.].t : < < j.=X'.'.}.E.Z.).I.).).).E.~.~.~.~.).).).).).).).).).).).).).).).).).).).).",
").).).).).).).).).).).).).).).).).).).).).).).).).).).).).).).).E.E.E.E.E.E.E.E.Q.Q.E.E.).H.H.H.H.H.H.H.).).).E.I.A..XW.l.8 s < t <XcX9XtXH.C.C.).E.~.~.~.~.E.).J.J.J.J.J.J.J.J.E.E.E.E.J.J.J.J.).).).).).).).).J.J.).J.).E.E.E.).).).).).).).).Q.Q.E.E.).J.J.J.S.S.J.H.H.J.S.S.~.~.).).).).~.~./.&Xe O > : u } H U T.}.C.Z.'.W.H.).).).E.E.E.E.J.).E.Q.Q.E.).J.).).).).).).).).).).).).).).).).J.Z.Z.J.J.C.}.PXK.K.K.K.K.K.K.F.G.J.J.~.~.).).J.B.).%Xu < j @ u.n M w e.MXK.rX3XJ.J.E.E.E.E.J.J.J.J.J.J.J.J.J.J.E.E.E.E.E.E.E.E.).).).).",
").).).).).).).).).).).).).).).).).).).).).).).).).).).).).).).).E.E.E.E.E.E.E.E.Q.E.E.E.).).H.H.H.H.H.H.).'.).E.}.C.XX+Xk.8 f a 7 cXBXuXyXK.H.J.).E.~.~.~.~.E.).E.).).J.J.J.J.J.E.E.E.).J.J.J.J.).).).).).).).).J.J.J.J.E.E.E.E.).).).).).).).).Q.E.E.E.).).J.J.S.S.J.H.H.J.S.S.~.~.).).).).~.~./.*XM o 2 : 0 [ G F V.).C.Z..X'.).).).).E.E.E.E.J.).E.Q.Q.E.).J.).).).).).).).).).).).).).).).).).J.Z.J.Z.C.).PXhXiXiXiXyXiXyXXXG.J.J.~.~.).).J.G.).%Xu < j + % i.f : 6.MXqX4XP.J.J.E.E.E.E.J.J.Z.Z.Z.Z.Z.Z.Z.Z.E.E.E.E.E.E.E.E.).).).).",
").).).).).).).).).).).).).).).).).).).).).).).).).).).).).).).).E.E.E.E.E.E.E.E.E.E.E.E.).).H.H.J.J.H.).).'.'.'.OXZ.:X+Xz.1 < < 7 cXVXNXiXG.K.}.).E.~.~.~.~.E.).E.E.E.E.).).J.J.E.E.E.).J.J.J.J.).).).).).).).).J.J.J.J.E.E.E.E.).).).).).).).).E.E.E.E.E.).J.J.~.~.J.H.H.J.S.S.~.~.).).).).~.~.~.%XM o 2 : z C G F &.).Z.Z.'.'.H.).).).E.E.E.E.).).E.E.E.E.).J.).).).).).).).).).).).).).).).).).).J.Z.C.N.).PXkXiXrXiXiXhXiXqXK.J.).~.~.).).J.I.).%XN < d X a y.a ; 4.BXiXhX7XJ.J.E.E.E.E.).J.E.E.E.E.E.E.E.E.E.E.E.E.E.E.Z.Z.).).).).",
").).).).).).).).).).).).).).).).).).).).).).).).).).).).).).).).).).).).).).).).E.E.E.E.).).).).J.J.).).'.'.'.'.OXR.&Xl.z.9 f a 6 cXMXyXwXG.K.|.).E.~.~.~.~.E.).Q.Q.E.E.E.E.E.).E.E.E.).J.J.J.J.).).).).).).).).J.J.J.).).E.E.E.).).).).).).).).E.E.E.E.E.E.).).~.~.J.H.H.J.S.S.~.~.).).).).~.~.~.%XM O 2 ; z V 0 7 1.'.Z.Z.).E.H.).).).E.E.E.E.).).).E.E.).).J.).).).).).).).).).).).).).).).).).).J.Z.Z.C.J.oXhXwXwXwXyXiXiXqXK.J.).~.~.).).).P.).%Xu < a X m s ; : %.tXiXwX4XJ.J.E.E.E.E.J.J.E.E.E.E.E.E.E.E.E.E.E.E.E.Z.Z.J.).).).).",
").).).).).).).).).).).).).).).).).).).).).).).).).).).).).).).).).).).).).).).).E.E.E.E.).E.E.E.).).).).'.'.E.E.R.E ! T } 1 f a 6 *XXX|.U.B.J.}.).E.~.~.~.~.E.).Q.Q.E.E.E.E.E.).E.E.E.).J.J.J.J.).).).).).).).).J.J.J.J.).E.E.E.).).).).).).).).).).E.E.E.E.E.E.~.~.).).).).~.~.~.~.).).).).~.~.~.-XM X < < f k 1 6  .'.).Z.}.).H.).).).E.E.E.E.).).J.J.J.J.).).).).).).).).).).).).).).).).).).E.).E.).}.Z.Z.OX|.U.U.U.U.|.|.J.K.J.).~.~.).).(.B.E.%Xu ; < f f.e.8.=.H._.XX}.OXJ.J.E.E.E.E.J.J.).).).'.'.).'.'.E.E.E.E.Z.J.J.J.).).).).",
").).).).).).).).).).).).).).).).).).).).).).).).).).).).).).).).).).).).).).).).E.E.E.E.).'.E.E.).).).'.'.E.E.Q.T.D D 4 0 ; a X 6 %X'.Z.I.B.J.).).E.~.~.~.~.E.).E.E.E.E.).).J.J.E.E.E.).J.J.J.J.).).).).).).).).J.J.J.J.).E.E.E.).).).).).).).).J.J.).E.E.E.E.E.~.~.E.).).E.~.~.~.~.).).).).~.~.Z.%XM < f < j $ 1 : ] [.).Z.}.E.H.).).).E.E.E.E.E.).J.J.J.J.).E.).).).).).).).).).).).).).).).).E.E.E.).}.).E.).H.N.N.H.H.H.H.C.J.J.).~.~.E.).(.B.Z.%XI : < f j.AXuXiX2XK.I.C.}.J.J.E.E.E.E.J.J.).).).).).).).).E.E.E.Z.J.J.J.J.).).).).",
").).).).).).).).).).).).).).).).).).).).).).).).).).).).).).).).).).).).).).).).J.Z.E.).'.'.'.'.).).).'.E.E.E.E.@XQ U 0 C < f d , l.W.Z.}.Z.Z.R.).E.~.~.~.~.E.).E.).).J.J.J.J.J.E.E.E.).Z.J.Z.Z.).).).).).).).).J.J.J.J.).E.E.E.).).).).).).).).J.).).).E.).E.Q.~.~.E.).).E.~.~.~.~.).).).).~.~.C.`.M < d a j & 2 ; ;.[.'.Z.).E.).).).).E.E.E.E.E.).J.J.J.J.).E.).).).).).).).).).).).).).).E.E.E.E.E.E.}.E.E.).}.Z.H.).'.[.'.).J.).).~.^.Q.).'.B.E.&X_ : < 2 j.VXtXyXK.N.J.A.E.J.J.E.E.E.E.Z.J.H.H.H.).H.H.H.H.E.E.Z.Z.J.J.J.J.).).E.E.",
").).).).).).).).).).).).).).).).).).).).).).).).).).).).).).).).).).).).).).).).J.J.Z.).'.E.'.'.).).'.'.E.Q.E.E.!.U U u Z < f @ : l.W.~.OXZ.E.E.).E.~.~.~.~.E.).J.J.J.J.J.J.J.J.E.E.E.).Z.Z.Z.Z.).).).).).).).).J.J.J.J.).E.E.E.).).).).).).).).J.J.).).E.E.Q.Q.~.~.E.).).E.~.~.~.~.).).).).~.~.J.&XM X a a g & X ; ' `.(.Z.}.~.).).).).E.E.E.E.E.).J.G.G.J.).E.).).).).).).).).).).).).).).).E.E.).).E.E.E.E.}.}.C.C.E.).'.).E.J.).).^.^.Q.).'.S.).&X' : ; 2 f.UXCXUX}.H.|.A.}.J.J.E.E.E.E.J.J.H.H.H.H.H.H.H.H.E.E.Z.J.J.J.J.J.).E.E.E.",
"E.E.E.E.E.E.E.E.~.~.~.~.E.E.E.E.).).).).).).).).Z.Z.Z.Z.E.E.E.Z.J.F.H.).).).).).S.Z.~.OXQ.~ Q Q W '.E.OXE.E E ! P F H _ x 1 < < 4 6.&XR.S.~.~.Z.).E.).'.E.).I.B.).).).).).).).)..X~ E Q ..X.....P C.'.'.R.).).E.J.).).Z.).).).E.E.).J.G.G.J.).~.I.S.}.Z.~.Q.W ! ! ! R.E.Z.Z.}.J.H.J.S.}.}.Z.Z.).P.R.N X @ a $ & o > Y '.Z.A.S..XS.}.&.L R ! ~ ^.Z.J.C.C.J.).Z.}.).).}.}.}.}.}.).).).).).}.}.E.E.).).).).).).).).I.C.Z.}.Z.E.}.}.}.}.oXV.E W W R.OXV.-X0 : 3 ; :._.XX|.).I.I.S.I.}.Z.C.Z.C.C.I.}.I. X|.J.H.).E.Q.J.I.S.~.E.E.).(.~.~.~.~.",
").).).).).).).).}.}.}.}.).).).).).).).).).).).).E.E.E.E.E.E.E.E.).C.H.).).E.).E.Z.A.E.Q.&.F D F R W.E..XA.F F F P F I [ x 1 < < 6 7.=XZ.Z.S.~.}.H.C.H.).Z.J.J.B.).).).).'.'.).'.Q.E S S G J J D D &.'.'.R.E.'.'.J.J.C.C.Z.).).E.E.).J.G.J.J.).~.}.S.OXZ.~.R.D D L P T..XE.Z.}.H.H.J.I.}.}.Z.C.(.J.W.C a g k j % o > ' '.}.Z.~.~.D.E.W 7 t L W Q.}.OXH.H.}.}.}.OX).).}.).}.}.).).).).).).).}.E.).).).).).).).).).Z.B.}.}.Z.E.}.}.Z.R.Q.E D D D &.}.T.-Xu : 3 : g.F.K.H.H.).~.~..X}.E.E.).Z.Z.).OXjXgXrXqXK.J.).).J.J.S.~.~.E.).(.Z.Z.Z.Z.",
"}.}.).).E.).).).).).}.}.E.J.).).}.}.).).).).).).E.E.E.E.E.E.E.E.).C.C.E.E.R.Q.Q.}.~..X'...F D D ! &X.X.X!.F S F F G / [ b 1 < a 6 6.=XR.C.J.J.}.J.H.(.(.(.(.I.P.E.E.E.E.E.E.E.E.&X! D D H H G 7 5 ! W.`.W.W.'.'.}.}.J.C.Z.J.J.C.~.}.J.G.G.J.).E.I.Z.}.Z.).R.D 7 7 L 2..XE.Z.Z.N.C.Z.Z.E.E.E.'.[.'.7.V @ a a @ + X ; ' '..XZ.Z.R.S.E.! 7 t L ! ^.Z.).Z.C.(.).R.E.).).).).E.E.).E.).).).).}.}.}.).).).).).).).).).Z.Z.}.}.Z.E.E.E.E.Q.&X! D D 7 1.:XW.<XN ; 1 ; { L.K._.'.[.Q.Q.$XE.E.'.).R.R.)..XrXiXiXtX{.F.F.C.J.).}.S.E.).(.(.H.H.H.H.",
"J.J.J.J.J.J.J.J.J.).).).J.J.J.J.).).).).E.E.).).).).).).).).).).:XE.Q.Q.Q.Q.Q.Q..XQ.&X&X1.I G G T @X!.Q.!.F F H G 0 x v c a < f y k.;Xw.`.'.'.'.[.`.`.].].[..X}.).).).).).).).).&X .H / [ [ [ N L 1.%X%XW.W.'.'.C.).}.J.J.I.J.C.Q.).J.J.J.J.).Q.}.Z.}.C.).`.I _ 0 I 5.&X!.E.).Z.C.H.Z.R.E.'.'.&X&Xb.p.g a d # & d 3 } -X:XE.E.).}..X1.u u I ! .XZ.}.'.W.'.E.R.E.).).).).E.E.E.E.).).).E.).).).).).).).).).).).).Z.Z.).).E.E.E.V.W.Q.&X] G I u >.-X%Xb.C s f 2 Z e.].(.`.[.Q.!.Q.).E.).).E.E.).).NXVXVXbX*X].(.'.).).}.}.Z.).(.(.].].].].",
").).).).).).).).).).).).).).).).).).).).).).).).).).).).).).).).!.~ ~ ..........T.~ ..X._ 0 9 9 G X.Q ....J H J / 0 l z k a a d f p.s.C } X. .2.X.' ' ' { } ....~ ~ ~ ~ ~ ~ ~ ~ ] 0 q x z z z 3 0 ' 4. . .! ~ ~ E V.).}.).}.}.J.'.).).J.J.).).'.OX~.}.C.'.W.0 9 : 9 ] ..~ ~ E.).).).Z.R.Q.W.1.T ] j.a.$ j f d j @ < [ l...~ T.'.E.'.] 8 3 6 T '.Z.).R.&.%.! &.E.).).).).).).).).).).).).).).).).).).).).).).).).).).).E.'.[.E.^ E Q  .0 8 x 3 M ] ' Z f a d < n N B I 1.`.).C.B.K.G.H.H.H.H.H.C.;.;.>.>.' ' Y T '.'.).J.J.).(.`.{ { { ' ",
").).).).).).).).).).).).).).).).).).).).).).).).).).).'.'.'.'.)...F S D J J J H Q F G I 9 1 1 1 4 _ 7 G ` G / x N l 1 h k j # # X j a X 1 9 0 H / 8 1 < 1 z / J D D D D D D D D 0 4 1 s s s a < : 9 0 7 5 D D D S ^ E.'.E.).J.Z.'.).).J.J.).).'.~.~.}.Z.(.7.: < < 1 0 H D P V.E.).'.E.W.&X5.t : : f & & a < o # @ X 8 ( S D ~ '.).`.' ; ; : I &XC.R.! D 5 D E Q.).).).).).).).).).).).).).).).).).).).).).).).).).).).E.)..XE.W D D I : 1 f < < : 1 < + $ # X < a < 1 ' `.).N.G.K.G.H.H.H.).).C.    < < X ; : 4 &X'.).).J.).(.`.< < < < ",
").).'.'.'.'.'.'.'.'.'.'.'.'.'.'.).'.'.'.'.'.'.'.).).).'.).'.).).5.U D G H H H H H G G 0 1 < < a 1 N 0 G | / [ v x s s h g g # % a j g + a z 0 ` [ l < f f M [ ( G G G G G G G G x 8 s s a a d @ 1 z N x G G F U S ..^..XQ.E.E.C.'.).).H.H.).'.'.~.E.}.C.'.7.3 X f z [ ` F E R.'.Z.).E.Q.&X6.u : < j % & d f < j k s b | H F 2.=X.X%X' < X : Y -X.X[.2.F D D ~ .X'.'.'.'.'.'.'.'.'.'.'.'.'.'.'.'.).).).).).).).).).'.'.E.'..XW.P G I | 1 1 k @ a ; f # % u.j j d a < 1 { %X'.E.}.(.H.(.'.'.'.W.2.2 2 j u.j a f x &X&X).).J.).(.`.d d d d ",
"'.'.'.'.Q.'.'.'.'.Q.'.'.'.'.'.'.).).'.'.'.'.'.'.'.'.'.'.'.'.'.'.z.I 7 G H G H _ U H _ N 1 < a j ; C x _ | x C v b s s g g $ % % X d j # k 9 7 L / 1 ; X 2 M N G _ _ _ _ _ _ _ [ [ l s a a # @ . ; s x N G G U Q F !.:X:X:X.X.XE.'.).).H.H.).).'.:XE.}.C.`.c.3 a < 1 x _ D E R.'.'..X[.&X-Xl.u : a j & + a 2 2 j a < l ) H F ~ (.(.%X{ < X ; I %X.X:X5.I G U ~ .X'.'.'.'.'.'.'.'.'.'.'.'.'.'.'.'.).).).).).).).).).'.[.E.E..XW.P I _ | 1 < j + # < f + $ = $ j j 2   3 >.<X-X'.,X'.'.&X&X@X@X+X5.O o @ % $ a < 3 -X&X'.J.J.(.(.`.d d d d ",
"{ { { { { { { { { s.s.s.s.{ s.{ O.O.O.:.O.O.O.O.Z V Z :.B B :.:.a.c l z M 3 3 3 k V f d i.y.$ # a k < n M 3 M f k a j g + $ j + # d o o m d k d j j j j d f d d f f f f f f f f d d d d d d d d j j f f f f f s , M s.s.:.+.B B :.<.+.i -.Z B B s.:.:.B i n d a   X < 3 f M A Z j.j.Z Z V M f < # # # # % % % % X X a f f M A Z p.A n 2 2 f A f.s.A M 3 3 M A j.s.s.s.Z O.O.O.O.M Z B B :.-.B -.@.i :.:.B B -.@.' { s.p.p.Z Z i d d d d j j j j # # # # # % % % 2 2 3 n A Z f.f.Z Z Z Z Z Z Z Z + j % @ d d o m s.s.s.{ Z ' O.i # # # # ",
"< < < < < < < < < < < < < < < < < < < < < < < < s < < 1 ; ; < ; s a < < <       g a < @ y.y.$ d j k X f f < a X a a g g $ = u.$ @ # + @ d a d d g g g a a a a a a a a a a a a a # # # # $ $ $ $ g g g a a s s s ; < h a < ; ; < X >     2 f < 3 1 1 ; ; 2 < a g a a a < a < < < < < < < < a a a # # # $ $ $ $ $ # a a a a a < < a < < < < < < a f a < < < < a f < < < < 2 2 > > < < < ; <     ; : ; < < < < 3 ; 1 1 1 s a < <   a a a a # $ $ $ a a a g g g g g f f < < < < < < < < < < < < < < a j d @ d # . o s s 1 < < ; > ; a a a a ",
"d d d d d d d d d d d d d d # # a a a a a a a a < X < a a g k a a a d a a @ @ d g k 2 X j y.a d d k X a j a k a h k k k j k j g g $ g g a g a a g g g a a a a a g g g g g g h h a a a a a a a a g g g a h h s s ; s h g a < a j $ $ X @ g g a < < < < < < a k i.k j a a a a < X < < a < a a k k a a a g g g g g k j g a a a s < @ @ a d j d a X a a a f f a a a s s a s < < < < < h a a k a X a a a g y.g g a X 1 s h s a a a < h h a a a g g g a a a g g g g g f d f f < < X < a a a a s s a a f f d d d j d @ a a a a a f d < a a a a ",
"  X   X                         ; ; ; ; ; ; ; ; ; ; < f a # j @ d d j j g $ # % X >     >       > 3   < a X j a ; 3 3 : : ; ; > j X a a < f < ; < ; ; ; ; ; ; ; < < < < < < < < ; ; ; ; ; ; ; ; ; ; ; ; ; ; : : > ; a g j j j u.= = j j $ g a 2 : : : ; ; ; < < < < < ; ; ; ; ; ; ; ; 1 < < < 1 ; ; ; ; ; ; ; ; < 2 2 > < < ; ; ; ; ; ; 2 > ;   ; ; ; 1 1 ; ; ; : : : : ; ; ;   ; f f d j g $ = $ u.u.y.i.y.a d ; ; ; ; ; ; ; ; : : : ; ; ; ; < ; ; ; ; ; ; ; ; ; > > > > ; > > ; ; ; : ; ; ; ; : : 3 < X a g @ g j j j j j j j ; ; ; ; ",
";.;.;.;.;.;.;.;.#.#.#.#.#.#.#.#.-.-.-.-.-.-.-.-.#.@.,.:.e X X . # # # $ $ % # @ e +.@.$.@.@.$.$.$.$.@.:.A   < < : Y <.@.$.@.@.<.j.; 2 ; : :.<.-.-.-.@.@.@.@.@.@.-.-.-.-.-.-.-.-.#.#.#.#.#.#.#.#.$.$.#.-.-.@.@.$.t.r ; @ d d # # = + # j $ k O.-.$.@.#.<.<.;.#.@.;.;.;.;.#.#.#.#.@.@.@.;.<.;.-.-.#.#.#.#.#.#.#.#.-.-.<.<.@.-.;.;.@.@.-.-.@.@.@.-.@.-.-.;.;.-.-.@.#.#.@.$.@.@.@.@.' :.Z 3 2 @ + & . % $ $ y.a f Z ;.-.@.#.#.@.@.#.#.#.#.#.#.#.-.-.$.$.#.#.#.;.;.;.#.@.@.@.@.@.@.@.#.#.@.@.#.#.#.#.;.-.:.M   X j $ $ @ $ $ $ $ $ $ #.#.#.#.",
"VXVXVXVXVXVXVXDXVXVXVXVXVXVXVXVXDXDXDXDXDXDXDXDXDXZXSXGX:.3 2 d d d % $ g j d < k.vXZXpXZXZXZXAX2XuXbXHXb.9 , , t zXSXuXAXDXMXJXGXr r : 6 xXHXSXZXZXZXZXZXZXZXZXMXMXMXMXMXMXMXMXMXMXMXMXMXNXNXNXsXiXMXVXVXMXZXpXDXr., < < 2 # d % . d m < Z xXKXuXuXBXMXMXMXuXuXMXVXVXMXMXMXMXNXMXMXMXMXMXMXMXMXZXZXMXMXMXpXpXpXdXZXZXZXMXMXMXVXdXMXDXDXDXMXMXMXMXMXMXDXDXMXMXMXAXAXAXAXAXZXZXZXBXHXv.i 2 # # m . j # # k < M b.SXSXZXAXAXZXVXVXNXNXNXVXVXZXZXZXuXuXMXMXMXMXMXMXZXZXMXMXZXZXZXMXZXZXZXZXZXAXZXZXVXCXGXv.3 < a.y.% % % j j d d d MXNXNXMX",
"rXrXrXrXrXrXrXrXrXrXrXrXrXrXrXrXeXeXeXeXeXeXeXeXsXeXZXvX-.    a X @ $ $ $ a <   4.cXZXeXeXiXiXrX8XrXuXUX<X8 : : 6 bXDX9XuXaXtXNXHX> , ; : cXJXDXyXiXiXiXuXuXeXiXrXrXrXrXrXrXrXrXuXuXuXuXuXuXiXiX6X6XrXyXNXuXeXeXIX8.: < < a # j j . 2 f ; B vXAXsXeXuXuXyXrXrX6XwXyXwXiXrXrXrXrXiXiXrXeXuXuXuXiXuXuXeXeXeXeX5XeX5X5XeXeXeXeXiXiXeXeXiXaXaXiXeXeXuXiXiXiXiXiXiXuX6X6X6XeXeXeXeXeXCXVXe.,   o # % o d @ X a   , xXuX2X5X5X5X3XqXwXrXrXiXiXiXuXuXuXeXeXeXeXeXeXeXeXeXeXeXiXiXaXaXaXeXeXeXeXeXeXeXeXaXuXVXc.: ; k g % # # # d o > 2 eXeXuXuX",
"6X6X6X6X6X6X6X6XrXrXrXiXiXiXiXiXrXrXrXrXrXrXrXrX5X2XuXBX;.; X k X # g $ $ < ; ; g.cXMX2XqXiXiXrX8X6XtXUX<X8 1 1 t HXDXL.eXiXtXmXGX: , : : cXBXdXiXiXiXiXrXrXrXrXrXrXrXrXrXrXrXrXiXiXiXrXrXrXiXiXlX6XwXyXmXyXeX5XuX#.1 s h a $ $ u.. < f ; u bXeX5XrXrXiXiXrX6XlXgXrXwXrXrXfXrXrXrXrXrXrXrXwXrXiXuXuXuXeXeXeX5XeX6X6X5XrXiXrXrXrXrXrXwXwXwXrXrXwXwXwXrXrXrXrXwXwX6X6X6XrXrXiXrXrXnXVX].6   @ % % o m # a f   : v.uXeX5X5X6X4XqXwXrXrXrXrXiXiXuXiXrXrXrXrXrXrXrXiXrXrXrXiXrXeXeXrXrXrXrXrXrXrXrXrXrXqXVXe.: ; k a % # # d 2 > > > iXiXiXiX",
"9X9X9X9XtXtXtXtX9X9XtXtXtXtX9X_.XXXXXXXX XoXoXoXoXoXoX}.C.$.$.$.M   g < M ,.L R _._.XX X|.XX>X>XoXXXtXtX{.*.$.R *.H.XXXX|.|.oXoX%X7.W R *.(.[.>XXXXXXXXXXXXX>XXX|.|.|.|.|.|.|.|. X X X X X X X X,X,XoXoXoXoX,X,X].3.! L { C X j a 2 <.p R %.>XVX X X X X XoXoXoXK.K.qXqXK.K.3XeX3X3X3X2X2X2XK.qXgXyXwXwXY.Y.7XfX4X6X4XY.U.|.XXwXqXqX9X9X9X9X9X9X2XL.2XeXrXiXrX3X XoXoX,X,XoXoX X,XXXW.R 7 ' Z < # o O :.@.@.%.8.XXXXXXXXoXoXXXXXU.|.|.qXwXqX3XrX3XiXrX3XK.Y.qXwXXXXXXXXXXXXXXXXXXXXXXXoXyXXXXXyX7XeXeX{.R U | N a d j < ] L R Y  X X X X",
"F.F.F.F.F.F.F.F.F.F.F.F.F.F.F.F.F.H.H.C.B.B.B.B.A.A.B.}.XXtXMXFXO.2 k 3 <.SX0XDX|.J.H.B.A.Z.).'.N.N.F._.tXMXVXDX_._._.).J.J.J.Z.nXCXtXtXtX_.(.(.G.H.H.C.C.Z.Z.E.H.H.H.H.H.H.H.H.C.C.B.B.C.C.C.C.E.E.Z.C.Z.Z.E.E._.{.(.3.%Xh.< d a i SXdXNXXXXX).G.B.B.C.Z.Z.Z.Z.F.F.L.L.F.G.qXiXwXqXK.F.G.F.F.K.}.I.I.G.G.G.Y.fXwXwXY.G.G.H.H.).F.F.F.F.F.F.F.F.K.G.K.qXiXiXqXL.B.Z.E.E.E.E.Z.C.I.}.'.(.3.;Xk.y # 2 e GXvXMXnX9X(.(.Z.Z.Z.Z.Z.E.N.H.H.K.G.F.F.K.qXrXwXU.F.G.H.J.H.H.H.H.H.H.H.H.H.C.C.H.H.H.H.H.rXiXaX0X(.&X<Xk.a d j 3 c.W.`.%XC.C.C.C.",
"H.H.H.H.).).).).H.H.H.H.).).).H.H.J.J.J.J.I.I.I. XI.I.I.|.qXuXZX:.; 2 ; @.ZXeXaXoXZ.A.B.B.Z.}..X).H.F.F.J.9XtXtXmXXXH.C.H.J.Z.C.H.tXiXkXiXK.N.*.J.J.J.J.J.J.J.J.J.J.J.J.J.J.J.J.J.J.J.J.J.J.J.J.).).J.J.J.J.).).N.N.J.H.[.4.;   < p SXsXaXqXI.B.J.J.J.J.J.).).).H.H.J.H.N.K.yXIXLXiXU.G.H.H.H.H.C.C.Z.C.N.B.|.hXhXhX|.H.C.C.Z.).J.J.H.H.H.H.J.J.G.G.U.wXhXiX|.F.J.).).).).).).J.B.B.J.J.(.=X6.4     , vXDXAXtXL.).).).).).~.~.~.C.).}.).J.F.K.XXiXiXiXXXH.N.C.H.).).).).).).).).).J.J.).).).).).gXiXuX9XH.(.%X6.s @ a : 7.(.(.`.).).).).",
"J.J.J.J.J.J.J.J.J.J.J.J.J.J.J.J.H.H.J.J.J.J.J.J.OXI.S.}.oXmXVXJXj.2 < ; $.pX2X7XXXC.A.S.S.Z.E.).H.J.H.F.K.qXyXtXyX}.Z.H.}.}.).).F.qXiXiXyXU.G.G.G.G.H.J.J.J.H.H.).).).).).).).).).).).).).).).).).J.J.J.J.J.J.).P.B.I.C.(.4.: < 1 i bX2XwX|.OX}.J.J.J.J.J.J.J.J.}.).}.}.Z.OXPXIXPXPX|.J.J.).)..XZ.E.E.J.Z.).XXPXLXPXoX).).).E.).).).).).).).).).J.J.|.yXgXgX|.B.J.J.E.E.E.E.).J.I.I.I.H.W.-X5.4 a ; : bXMXNXqXK.).E.E.~.~.~.~.~.R.).).).).H.H._.NXNXmXXX).Z.E.}.H.H.H.H.H.H.H.H.J.J.J.J.J.J.J.).PXNXiXqXK.H.(.%.h a d : W.Z.J.H.E.E.E.E.",
"Z.Z.Z.Z.Z.Z.Z.Z.Z.Z.Z.Z.Z.Z.Z.Z.Z.Z.Z.Z.Z.Z.Z.Z.E.E.~.^.Q.&X-X<Xp.a k < ;.DX5XrXoXZ.B.OX}.Z.Z.E.C.Z.).J.J.qXyXwXOX}.).}.}.).).)._.XXXXXXXX).H.J.C.C.C.C.H.H.H.H.E.E.E.E.E.E.E.E.E.E.E.E.E.E.E.E.Z.Z.C.B.B.C.Z.Z.OX~.S.C.`.4.1 d s N VXiXhX|.E.A.Z.Z.Z.Z.Z.Z.Z.Z..XE.E.).Z.}.oXoXoXoX}.E.E.E.E..XZ.E.E.).).).}.|.|.XX}.).).).E.).E.E.E.E.E.E.E.E.J.J.OXoXoX XOXB.C.Z.E.E.E.E.Z.C.}.}.}.E.W.-X#X/ k s , cXNXVXyX|.Z.Z.Z.Z.Z.~.S.S.R.).E.E.).Z.H.(.tXXX|.'.).E.E.E.Z.Z.Z.Z.Z.Z.Z.Z.Z.Z.Z.Z.Z.J.J.J.oXXXtX_.H.).(.3.a a f 8 `.J.I.}.E.E.E.E.",
").).).).).).).).).).).).).).).).}.).).).).).).).'..X^.!.~ D 5 7 c X h ; @.SXeXiXyX).S.OX}.Z.E.'.).'.).H.C.N.N.N.E.~.~.).E.Z.E.).H.).).E..XE.R.Z.).).).).).).J.J.).).).).).).).).).}.).).).).).).).).).J.J.).).)./.~.Z.C.`.g.< $ h N BXeXiX}.E.!.).).).).).).).).).E.E.).Z.Z.).C.C.).).E.E.E.E..XZ.E.).).).).).Z.Z.).E.).).).Z.).}.}.).).).).).).Z.Z.).}.).).).Z.J.).).).).).).J.Z.Z.).E.W.-Xz.q g s , cXNXNXoX}.).).).).}.}.}.}.E..X.XE.).).).'.).).Z.Z.E.E.E.}.}.}.}.}.}.}.}.}.J.}.}.}.}.}.}.}.S.C.F.H.B.Z.'.3.< @ f : W.Z.}.).).).).).",
"Z.Z.Z.Z.Z.Z.Z.Z.Z.Z.Z.Z.Z.Z.Z.Z.Z.Z.Z.Z.Z.Z.Z.H.C.R.E.Q...D 5 u M < k ; @.SXqXrXXXC.N.B.B.C.E.W.R.Q.E.).).}.I.}.Z.E.~.E.E.E.).).G.H.E.E..X.X}.}.E.E.E.E.Z.Z.Z.Z.Z.Z.Z.Z.Z.Z.Z.Z.Z.Z.Z.Z.Z.Z.Z.Z.E.E.Z.Z.Z.Z.E.E./.~.}.H.].6.< # h B ZX5XrX|.XX:XE.E.E.Z.Z.Z.Z.C.).).'.}.).H.H.C.C.J.H.).}.).).).J.}.}.).H.).).).E.).Z.).).).Z.).Z.Z.Z.Z.Z.Z.H.Z.).C.E.).Z.E.).Z.C.Z.E.E.E.E.Z.C.J.I.|.(.'.-X5.4 g 1 6 MXiXiXqXK.C.C.Z.Z.Z.Z.Z.Z.R.).}.E.Z.Z.C.H.).H.H.J.E.Z.)..XE.E.E.E.E.E.E.E.Z.E.E.Z.Z.).).E.OXC.H.J.Z..X[.3.f d d 3 %X)..XQ.Z.Z.Z.Z.",
").).).).).).).).).).).).).).).).~.~.~.).).).).).F.C.H.'.&.D 7 I ,   f : @.DXeX3XNX_.C.J.}.).).R.Q.Q.Q..XOX~.B.Z.~.~.}.}.}..X).C.Y.K.J.Z.E.E.Z.I.Q.'.E.E.'.).).H.J.H.H.H.H.H.H.H.J.J.J.J.J.J.J.J.Q.E.E.).).E.E.Q.}.B.G.N.0.<.  # X r pX8X8X3X}.).E.E.E.E.).J.J.J.C.Z.).'.H.H.H.C.N.H.H.H.'.).Z.Z.C.J.J.Z.C.H.).).).).Z.H.).Z.C.J.H.H.H.H.H.H.H.H.'.).).'.).).'.E.J.J.E.E.E.).J.J.G.G.F.N.H.=X7.4 d 2 , 0XeX6X4XY.(.(.(.).).).).).Z..XOXE.Z.Z.Z.).J.J.H.J.Z.C.Z.}.E.E.E.E.E.E.E.E.E.}.}.E.E.}.}.).OXC.N.Z.E..X&X7.2 o o ; %X:X:X@XJ.J.J.J.",
").).).).).).).).).).).).).).).).).).).).).).).).J.C.}.E.~ D F G f a a ; ;.MXeXrX9XH.C.).E.E.).).).).).).).).).).).).).).).).).).).).).).).).).).).).).).).).).).).).).).).).).).).).).).).).).).).).).).).).).).E.E..XE.(.;.; g . i NXrXfX|.J.J.J.J.E.E.E.E.J.J.).).).).).).).).).).).).).).).).).).).).).).).).).).).).).).).).).).).).).).).).E.E.E.E.E.E.E.E.).).E.E.E.E.).).E.}.B.I.J.`.l.4 o < r bXuXiXwXG.E.E.E.E.E.E.E.E.).).).).).).).).).).).).).).).).).).).).).).).).).).).).).).).).E.H.J.J.J.'.(.3.< a d 3 c.E.}.).).).).).",
").).).).).).).).).).).).).).).).).).).).).).).).J.C.}.Q.~ F G G f a a ; ;.MXeXrX9XH.C.).E.E.).).).).).).).).).).).).).).).).).).).).).).).).).).).).).).).).).).).).).).).).).).).).).).).).).).).).).).).).).).E.E..XE.(.;.; g . i NXrXfXqXJ.J.J.J.E.E.E.E.J.J.).).).).).).).).).).).).).).).).).).).).).).).).).).).).).).).).).).).).).).).).E.E.E.E.E.E.E.E.).).E.~.E.E.).).E.}.C.I.J.`.l.4 o 2 w bXuXiXwXG.E.E.E.E.E.E.E.E.).).).).).).).).).).).).).).).).).).).).).).).).).).).).).).).).E.Z.J.J.J.'.(.3.< a d 3 c.E.}.).).).).).",
").).).).).).).).).).).).).).).).).).).).).).).).}.Z..XQ.~ F H G f a a ; ;.MXeXrX9XH.C.).E.E.).H.).).).).).).).).).).).).).).).).).).).).).).).).).).).).).).).).).).).).).).).).).).).).).).).).).).).).).).).).E.E..XE.'.1.; g . i VXrXhXqX(.J.J.J.E.E.E.E.J.J.).).).).).).).).).).).).).).).).).).).).).).).).).).).).).).).).).).).).).).).).E.E.E.E.E.E.E.E.).).E.~.~.E.).).E.}.B.I.J.`.l.4 @ 2 w cXuXiXwXG.E.E.E.E.E.E.E.E.).).).).).).).).).).).).).).).).).).).).).).).).).).).).).).).).E.E.J.J.Z.'.(.&.< a d 3 c.E.}.).).).).).",
").).).).).).).).).).).).).).).).).).).).).).).).}.R.^.@X..G / / f a a ; ;.MXeXrX9XH.C.).E.E.).).).).).).).).).).).).).).).).).).).).).).).).).).).).).).).).).).).).).).).).).).).).).).).).).).).).).).).).).).E.E..XE.'.1.; g . i VXrXhXqX(.J.J.J.E.E.E.E.J.J.).).).).).).).).).).).).).).).).).).).).).).).).).).).).).).).).).).).).).).).).E.E.E.E.E.E.E.E.).).E.~.~.E.).).E.}.B.I.J.`.l.4 @ 2 6 cXMXiXwXG.E.E.E.E.E.E.E.E.).).).).).).).).).).).).).).).).).).).).).).).).).).).).).).).).E.E.J.J.Z.'.(.&.< a d 3 c.E.}.J.).).).).",
").).).).).).).).).).).).).).).).).).).).).).).).}.Q.^.@X..H / / f a a ; ;.MXeXrX9XH.C.).E.E.).H.).).).).).).).).).).).).).).).).).).).).).).).).).).).).).).).).).).).).).).).).).).).).).).).).).).).).).).).).E.E..XE.'.1.; g . i VXrXhXqXJ.J.J.J.E.E.E.E.J.J.).).).).).).).).).).).).).).).).).).).).).).).).).).).).).).).).).).).).).).).).E.E.E.E.E.E.E.E.).).E.~.~.E.).(.E.).C.I.J.`.l.4 @ < 6 cXMXiXyXG.E.E.E.E.E.E.E.E.).).).).).).).).).).).).).).).).).).).).).).).).).).).).).).).).E.E.J.J.Z.'.(.&.< a d 3 c.E.}.J.).).).).",
").).).).).).).).).).).).).).).).).).).).).).).).).R.^.@X..H / / f a a ; ;.MXeXrX9XH.C.).E.E.).H.).).).).).).).).).).).).).).).).).).).).).).).).).).).).).).).).).).).).).).).).).).).).).).).).).).).).).).).).E.E..XE.'.1.; g . p VXrXhXqX(.J.J.J.E.E.E.E.J.J.).).).).).).).).).).).).).).).).).).).).).).).).).).).).).).).).).).).).).).).).E.E.E.E.E.E.E.E.).).E.~.~.E.).(.E.).B.I.J.`.l.4 @ < 6 cXMXiXyXG.E.E.E.E.E.E.E.E.).).).).).).).).).).).).).).).).).).).).).).).).).).).).).).).).E.E.J.J.Z.'.(.&.< a d 3 c.E.}.Z.).).).).",
").).).).).).).).).).).).).).).).).).).).).).).).).R.^.Q...G H / f a a ; ;.MXeXiX9XF.C.).E.E.).H.).).).).).).).).).).).).).).).).).).).).).).).).).).).).).).).).).).).).).).).).).).).).).).).).).).).).).).).).E.E..XE.(.;.; g . i VXrXhXqX(.J.J.J.E.E.E.E.J.J.).).).).).).).).).).).).).).).).).).).).).).).).).).).).).).E.E.).).).).).).).).E.E.E.E.E.E.E.E.).).E.~.~.E.).(.E.).C.I.J.`.l.4 # < , cXMXNXyXJ.E.E.E.E.E.E.E.E.).).).).).).).).).).).).).).).).).).).).).).).).).).).).).).).).E.E.J.J.Z.'.(.&.< a d 3 l.E.}.E.).).).).",
").).).).).).).).).).).).).).).).).).).).).).).).).Z..XQ.~ J H G f f a ; ;.MXeXiX9XF.C.).E.E.).H.).).).).).).).).).).).).).).).).).).).).).).).).).).).).).).).).).).).).).).).).).).).).).).).).).).).).).).).).E.E..XE.(.;.; g . i VXrXhXqX(.J.J.J.E.E.E.E.J.J.).).).).).).).).).).).).).).).).).).).).).).).).).).).).).).E.E.).).).).).).).).E.E.E.E.E.E.E.E.).).E.~.~.E.).).E.).C.I.J.`.l.4 # < , cXnXNXyXJ.E.E.E.E.E.E.E.E.).).).).).).).).).).).).).).).).).).).).).).).).).).).).).).).).E.E.J.J.Z.'.(.&.< a d 3 l.E.}.E.).).).).",
").).).).).).).).).).).).).).).).E.E.E.E.Z.J.J.J.B.B.}..X~ D J G V k a ; #.MXyXiXyXJ.Z.}.}.Z.C.H.).).).).).).).).).).).).).).).).).).).).).).).).).).).).).).).).Q.E.).J.J.J.J.).).E..XoXE.Z.Z.A.).).).).).).).).).E..XE.(.1.; g X u NXfXhXqX_.H.J.J.E.E.E.E.J.J.).).).).).).).).).).).).).).).).).).).).).).).).Z.).}.).E.E.).).}.J.).}.).J.J.Z.).).).).).).).).).).E.E.E.E.).(.Q.E.C.OX).`.l.8 f f 6 *X].XXtX}.).).).).).).).).).).).).).).).).).).).).).).).).).).).).).).).).).).).).).).).).'.).).J.J.'.'.3.3 a # 2 %XE.}.Z.).).).).",
").).).).).).).).).).).).).).).).E.E.E.E.Z.J.J.J.B.Z.}..X~ F H / V d a ; #.MXqXwXtXJ.Z.}.}.Z.H.H.).).).).).).).).).).).).).).).).).).).).).).).).).).).).).).).).Q.E.).J.J.J.J.).}.).oXXX).).}.Z.).).).).).).).).).E..XE.(.1.; g X u NXwXrX_.(.E.J.J.E.E.E.E.J.J.).).).).).).).).).).).).).).).).).).).).).).).).Z.E.).).E.E.E.R.Z.Z.E.}.).J.J.Z.).).).).).).).).).).E.E.E.E.).(.Q.E.C.}.).`.l.8 a 3 , e.H.(.|.}.).).).).).).).).).).).).).).).).).).).).).).).).).).).).).).).).).).).).).).).).'.).).J.J.'.'.3.3 a d 3 %X).}.Z.).).).).",
").).).).).).).).).).).).).).).).E.~.E.E.Z.E.J.J.Z.A.E.Q.! D G 0 k a a ; ;.MXqXyXtXH.Z.~.~.Z.H.H.).).).).).).).).).).).).).).).).).).).).).).).).).).).).).).).).Q.E.).J.J.J.J.).E.R.)..XE.E.).N.).).).).).).).).).E..XE.(.1.; g @ u NXwXrX_.(.E.J.J.E.E.E.E.J.J.).).).).).).).).).).).).).).).).).).).).).).).).Z.).).E.E.E.E.E.E.R.E.).).Z.).J.).).).).).).).).(.).E.E.E.E.).).Q.E.C.}.).`.l.4 X < : w.=.C.).).).).).).).).).).).).).).).).).).).).).).).).).).).).).).).).).).).).).).).).).).'.).).J.J.'.'.3.3 a d 3 %X).}.Z.).).).).",
").).).).).).).).).).).).).).).).).).).).).).).).XX)..X&XX._ / x f a a ; <.VXyXhXXXH.Z.~.~.E.H.H.).).).).).).).).).).).).).).).).).).).).).).).).).).).).).).).).Q.E.).J.J.J.J.).).R.Q.:X.X.X}.Z.).).).).).).).).).E..XE.(.1.; g @ u VXgXhXtX'.E.J.J.E.E.E.E.J.J.).).).).).).).).).).).).).).).).).).).).).).).).).).E.Z.E..XoX.X:XQ.E.).E.Z.).}.).).).).).).).).(.).E.E.E.E.).).Q.E.C.}.).`.l.4 X 1 , c.(.(.).Z.).).).).).).).).).).).).).).).).).).).).).).).).).).).).).).).).).).).).).).).).'.).).J.J.'.'.3.3 a d 3 %XE.}.Z.).).).).",
").).).).).).).).).).).).).).).).H.H.H.).).).).).'.T.W.W.` x x l d a g < <.MXtXyXXXZ.R.~.~.E.).H.).).).).).).).).).).).).).).).).).).).).).).).).).).).).).).).).Q.E.).J.J.J.J.).Q.V.T.T.T.E..XZ.).).).).).).).).).E..XE.'.1.; j @ u VXwXiX_.'.).J.J.E.E.E.E.J.J.).).).).).).).).).).).).).).).).).).).).).).).).}.}.Z.R.E.:X:X!.Q.T.Q.Q.E.E.).}.).).).).).).).).(.).E.~.E.E.).).Q.~.C.}.).`.l.4 a f , *X(.(.'.E.).).).).).).).).).).).).).).).).).).).).).).).).).).).).).).).).).).).).).).).).).).).J.J.'.(.3.3 a d 3 %X).}.Z.).).).).",
").).).).).).).).).).).).).).).).H.H.H.J.).).).E.! P P I 0 1 1 < a a g < -.0XJ.J.|.E.R.~.E.E.).H.).).).).).).).).).).).).).).).).).).).).).).).).).).).).).).).).Q.E.).J.J.J.J.).Q.~ F F E ~ E.Z.).).).).).).).).).E..XE.(.1.; j $ u nXK.U.H.'.).J.J.E.E.E.E.J.J.).).).).).).).).).).).).).).).).).).).).).).).).J.).E.R.E.Q.T.E ~ Q ~ Q.E.E.).).).).).).).).).).).).E.~.E.E.).).Q.~.C.}.).`.l.4 a f : c.(.(.'.E.).).).).).).).).).).).).).).).).).).).).).).).).).).).).).).).).).).).).).).).).).).).J.J.'.(.3.1 a a 3 %X).}.Z.).).).).",
").).).).).).).).).).).).).).).).H.H.H.H.).).'.'.! D D I 9 1 s s a g g ; Y ].F.C._.E.R.E.E.E.).H.).).).).).).).).).).).).).).).).).).).).).).).).).).).).).).).).Q.E.).J.J.J.J.).:X~ F F F T..X).).).).).).).).).).E..XE.'.1.; j a 9 [.N.G.C.'.'.J.J.E.E.E.E.J.J.).).).).).).).).).).).).).).).).).).).).).).).).J.).).R.Q.Q.~ S F F ~ Q..XE.E.J.).).).).).).).).).).E.~.E.E.).).Q.~.B.OX).`.l.4 g f , c.3.(.).E.).).).).).).).).).).).).).).).).).).).).).).).).).).).).).).).).).).).).).).).).'.).).J.J.'.(.2.3 a d 3 %X).}.Z.).).).).",
").).).).).).).).).).).).).).).).H.H.H.H.).E.'.'.! D 7 G 8 s s a a g g < Y ].F.H._.E.R.E.E.E.).H.).).).).).).).).).).).).).).).).).).).).).).).).).).).).).).).).Q.E.).J.J.J.J.).'.~ F F E T.'.E.).).).).).).).).).E..XE.(.1.; j g y [.B.G.F.'.'.J.J.E.E.E.E.J.J.).).).).).).).).).).).).).).).).).).).).).).).).J.}.).R.Q.Q...S F F ~ Q..XE.E.).).).).).).).).).).).E.~.~.E.).).Q.~.B.OX).`.l.4 a f 6 ;X(.(.).E.).).).).).).).).).).).).).).).).).).).).).).).).).).).).).).).).).).).).).).).).'.).).J.J.'.(.2.1 a d 3 %X).}.Z.).).).).",
"E.E.Z.Z.J.J.J.J.J.Z.).'.R.!.@X@XJ.J.'..X'.W.W.W.U I I x z < a @ d d < f B 6.`.'.!..X~.A.S.~.E.'.).).H.H.).'.Q.Q.).R.W.@X@XQ.'.'.!.^.}.Z.Z.).R.R.`.).H.G.G.S.^.^.D.A.E.Q.+X+Xl.k.x.s.C v [ X.Q.).Q.Q.Q.Q.Q.Q.Q.Q.-X#X#Xb.b.j.f X < V b.;X`.'..XC.~.~.~.~.~.S.G.G.).).).).).).).).I.oX!.#X@XT..XI.S.S.S.S.S.I.S.S.J.).).'.[.7.' q c v } z.+X!.E.~.C.B.~.}.~..X^.!.Q.Q.Q.Q.Q.Q.R..XH.|.'.7.k.n.j.f X < k j.b.l.3.'.W.Q.'.J.J.I.S.S.S.S.S.S.S.S.S.S.Z.Z.).).Z.}.).N.R.R.A.Z.}.S.S.}.E.'.[.`.7.c.c.k.Q.!.W.+Xl.b.b.j.d a s C z.z.l.c.E.E.E.E.",
"E.).).J.J.J.J.J.J.Z.).R.W P E P Z.Z.'.R.! P P F U D 0 x 8 < a a X @ @ < 1 8 6 4 %.'.'.Z.~.}.E..X).).H.H.H.'.Q.Q.V.E F P F F F F ^ R.}.Z.J.}.).'.Q.E.J.G.G.S.~.^.A.E F F G 7 4 : 2 2 < 1 8 0 L F F F F F F F F F G 7 4 8 z f X . X < 3 : : L R.'.S.S.~.E.E.J.J.H.E.).).).).).).).Z.E.E H Q E C.C.S.S.S.S.S.I.S.~.}.).).'.[.%X] 4 s 1 0 I U E 1X~.S.S.}.}.^.^.!.E D F D P P F E T.R.'.3.t 6 M f X a o X f M 4 7 %.W.Q.'.J.J.S.S.S.S.S.S.S.S.S.S.S.).).).E.E.}.).V.P F F ^ E.Z.Z.I.E.'.`.%.7 6 8 : F F F 7 8 9 f < d a < < 9 9 4 6 E.E.E.E.",
"E.E.E.E.E.Z.Z.Z.).E.'.T.P S D D V.R.Q.T.P D D D H G 0 x z s h a X # j j d < ; : L 7.'.R.R.R.R.Q.E.E.Z.Z.Z.E.Q.Q.Q.Q S J H J D D F V.E.Z.Z.Z.E.~.E.E.B.B.B.Z.E.Q.'.Q D G 0 8 : ; X X a k l 9 7 7 D D D D D D D D 0 8 : ; < d # j o < a < : u w.].C.Z.E.R.W.R.R.H.Z.Z.Z.Z.Z.Z.Z.Z.).R.D 5 5 D &.).Z.Z.E.E.E.E.R.E.C.C.C.T.`.+X` : l 8 8 7 S D ^ .XC.Z.R.Q.Q.Q.~ S 7 7 D F D D Q @XW.&X1.: ; < f a k d a f 3 : 6 7.W.W.R.Z.C.C.Z.E.E.E.R.R.E.E.E.E.E.E.E.C.C.).R.W F D D ~ Q.).Z.Z.R.`.`.T : ; ; ; 7 7 0 9 : < < < # d d a f < 1 8 E.E.E.R.",
"&X&X&X&X[.[.[.[.=X[.=XW.T F U U W.W.&X+X .I I _ ` / x x z s k a . @ # % % g a s -.v.cX&X&X:X&X&X:X.X.X.X.X.X:X:X+X` G H ( H H U P W.>X.X}.oX.X.X:X:XoX.X}.[.[.&X<X] 0 C C f f f # # j k h z z 0 N N N N N N N N V V f a d j % % o # j g a Z v.e._.[.[.&X-X=X=X=X[.[.[.[.[.[.[.[.[.%XI 7 G I 7.[.&X[.&X&X&X&X&X&XW.'.'.`.=X;X} : z 9 0 _ I F 2.,X'.&X&X&X-X,XW.F N x / _ G G ] #X%X<Xz.8 ; f k k a a @ d 3 : 0 %X-X-X&X[.[.[.[.&X&X&X&X&X&X&X&X&X&X>X&X'.'.=X'.&.| G I 5.-X[.W.(.w.=X;X>.: 1 c c u u N M f d j d + @ # a d a f V &X&X&X&X",
"l.l.l.l.7.7.7.7.%Xl.c.6.I 0 u 7 5.l.l.z.' I 0 0 x x x z f f k a d # % % % $ $ $ A h.v.6.+X%X+X+X+X+XW.W.W.W.W.+X4._ 0 / x x x x I 6.7.3.3.W.W.W.+X+XW.W.W.7.7.7.k.N z V k < X 2 j # a d a f z 9 z z z z z z z z z f f a j j @ $ m # $ @ + V h.k.0.7.7.l.l.l.l.v.7.7.7.7.7.7.7.7.4.6.u x N u 4.4.7.7.7.7.7.7.7.l.7.7.7.7.6.k.C 1 < < 1 M I I ] 7.l.l.%Xl.l.l.4.I z z z x N 0 [ z.z.b.g.3 < d d # # # @ j k < 8 g.l.l.7.7.7.7.7.l.l.l.l.l.l.l.l.l.7.l.%X7.6.l.6.] z 9 0 >.l.7.8.7.6.v.v.Z < < k k N z z f d a # @ & % % # a a a f l.l.l.l.",
"9 9 9 r r r r r N 9 M M 3 1 3 1 0 0 u M 9 3 1 1 1 1 s s a a j # k d j % = $ $ @   n e , u u 9 9 z 9 9 6 6 6 9 9 9 1 1 z z s z z 1 9 9 , 6 6 6 9 x x z 9 9 9 r r N 3 3 k a @ o d $ @ d j d f f < f 3 f f f f f f f f a a j j j j m d j g @ f M y 6 6 9 9 9 9 r r 9 9 9 9 9 9 9 9 9 N 1 f z 1 z 9 9 9 9 9 9 9 9 9 6 7 6 6 , 3 f < < < < 3 3 3 8 u 9 9 M y 9 y 9 : f 1 1 9 z 9 8 x M V f < < d d d j j % j j 2 1 N 0 0 6 6 6 r 9 9 9 9 9 9 9 9 9 9 9 9 y 9 8 9 9 : ; 1 : 9 M 9 8 0 y M M f X a j j c f s f a a # @ % j j a j d a a 9 9 9 9 ",
"X X X X               < X < f < ;   ; < < 2 2 2 < < < < X # # @ < X @ # @ + @ # @ f < ; 1 <   < a a < < ; ; < <     < a a a a < a a X       X X $ $ @ @ X < > ; ; ; < < X @ d o + + a a X X < < < < < < < < < < a f < X < a @ d X X d d a < < O ; < < < < < ; ; < < < < < < < < < f X a a X < X > > > > > > > > ; ; ; ; > < d j d d o < < < < < < X < < < 2 < 2 < < < < 1 ; ; ; < < X   < d d d a g @ @ j <   ; ; : : ; ; > X 2 < < < < < < < < <   X < < < <   ; < 2 ; < ; ; ; X X < a @ a j j < < < a a a a a + a @ @ @ a < a < < < < ",
"@ # @ @ @ o o o @ X @ d @ # j @ < < f k f f 2 X 2 2 d @ X @ # + 1 < f # @ . # m j j a < f < X d $ $ # @ @ @ @ # 2 d j j j j d X g g + X # # * - & & & $ $ # @ o < 3 f a X a d X j j j f X < f k < < < < < < < < a f a X < a a a j X X 2 < f k h s s a a a < 2 > g g g g g g g g a k @ g g @ j a o @ o o o o o o a < < 2 d # # % # # # @ @ d d d j # d d o X o X   < 2 < 3 3 1 3 < < < X o X X o a j $ $ j d X ; < 2 2 2 X o o @ # # # # # # # # a X X d k k d a > 2 < 2 < s h h j a a j a @ @ + s < s k a a j k @ k d a a a a a a a a a ",
": : : : : : : : : : : : , : : > : : : : ; ; ; ; , , : : : : : 4 : : : : : : : : 3 3 < V j + % + & $ $ u.g # j   X 2 e , ; : 9 : , : : > 3 X X a . m e > , , : : ; , > : : , : : , > : ; > > , 3 : : : : : : : > : : : : : : : : 1 1 : : : : : : < < f < k m . # $ + j % j m a a @ h 1 : 4 4 : 6 : : : : : > > > : : : : > > : : : : : : : : : : : : : , : , , : : , : ; : > , , > ; > > > > > > : > ; ; ; ; ; ; ; : : 3 > < f   g g $ @ @ d d o d o d X f k   k > > > : ; ; < < a a < < 2 > > > , , , , , , , , : : : : : : : : : : : : ",
"zXzXzXzXzXzXzXzXzXzX*X*XzXzX*XzXxXxXxXxXxXxXxXxXzXzXzX*X*X*X;XcXzXzXzXzXzXzXzXzX*X;Xv.m.j.d j # # # $ j $ a f X B v.xXv.e.zXcXcXzX].*X<Xb.V a k n x.m.v.zXzX*X<X;XxXzXv.zXzX*X*XzXzX*X].zXxX;X;XzXzXzXzXzXzXzXzXzXzXzXzXzXzXzXzX<X;X*XzXzXzXzXzXxXxXGXm.m.n.n d a @ @ + @ j $ a X M k.*X=X=X*X*XzXzXzXzXzXzXzXzXzXzXzXzXzXzXzXzXzXzXzXzXzXzXzXzX*X*XzXcXzXzXzX].*X;XxXzXzXxXzXzX*Xv.v.zXzXv.*XzXzXzXxXxXxXxXxXxX;XcXv.xXv.b.b.A g g + + @ # # # # X m o a f X p.zXzXxXxXxXxXxXxXxXxX;XxXxXzXzXzXzXzXzXzXzXzXzXzXzXzXzXzXzXzXzXzXzXzXzXzX",
"NXNXNXNXNXNXNXNXiXaXuXuXAXAXpXaXMXMXMXMXMXMXNXNXpXaXaXuXuXuXiXNXiXiXiXiXiXiXiXiXuXMXBXJXx.> o o d # j k j k V f t zXJXdXuXaXuXaXiXyXVXJXxXN ; s > v.SXpXsXaXNXVXBXZXpXuXaXaXuXVXNXAXuXuXpXaXMXVXMXMXNXNXMXMXMXMXNXNXNXNXMXMXNXNXVXMXiXiXiXiXiXiXZXuXpXpXFXxXw   f d % % = u.j g < 9 e.AXeXeXAXAXNXNXMXMXMXMXZXZXiXiXiXiXpXuXpXpXNXNXNXNXNXNXNXNXNXMXMXNXiXNXaXuXuXMXNXNXAXaXaXuXNXMXuXMXuXuXuXuXpXpXpXuXuXuXuXMXNXDXuXMXZXBXcXp g a a a # # # # # % m d d < f n.MXMXMXMXMXuXuXuXuXuXuXuXpXaXpXuXuXiXuXuXiXuXiXiXNXNXNXNXNXNXNXNXNXNXNXNX",
"wXwXwXrXwXwXwXwXrXrX3X3XrXrX5X5XeXeXeXeXeXeXeXeX7X7X5X5X3X3X4XrX6X6X6X6X6X6X6X6X7X6XeXDXr.;   2 o O d < X f < ; 6 bXAX2XrXrX2X6X4X4XgXIX=Xt ; 1 : e.AX5X7X7XrXrX2X5X5X5XrXrXqXwXeXeX3X2X3X3XqXuXeXeXeXeXeXeXeXeXrXwXwXwXwXrXwXwXwXrXrX6X6X6XrXrX5X7X8X8XsX0X,     2 X % = + # X 1 8 ].kX7X7XaXeXwXwXwXrXeXeXeXeXwXwXwXrXrXrXeXeXwXwXwXwXwXwXwXwXrXqX3X3X3XeXrX5XwXwXwXwX4X4X4X3XrXwXwXwXwXrXrXrX6X6X6X6X6X6XrXrXrXkX3XqXeXNXzXt X < f d j % & & & @ # o   O : h.wXwXwXwXrX6X6X6X7X7X7X7X6X6X3X7X3X3X3X3X3X3X3X3XwXwXwXwXrXwXwXwXwXwXwXwX",
"iXiXiXgXgXgXiXiXhXgXwXwXiXrXrX5XrXrXrXrXrXrXrXrX7X5XrXrX4XwXrXgXfXfXfXfXrXrXrXrXlXwXqXVX7.: 3 z n   f ; ; M , : L CXVXqXhXhX4XfXlX4XjXiX[.L : 6 I *XNX3X7X6XfXhX3X6X6XrXfXfXyXyXrXrXrX4XrXwXqXiXiXiXiXiXiXiXiXiXiXiXiXiXgXgXgXgXiXiXrXfXfXfXiXiXfX6X8X7XeX].t 8 > e X $ $ . n 3 9 7 ].IXrX6XiXK.gXgXiXiXiXiXiXiXgXgXgXgXiXiXiXiXgXgXgXgXiXiXiXiXiXqXqXwXwXiXhXwXyXwXgXfXfXwX4X4XgXgXwXwXwXyXhXhXfXfXfXfXfXfXjXfXwXhXwXwXqXmXmXR : 1 f f a % % - % @ X 2 e > r <.gXgXgXgXfXfXfXfXlX6X7X7X6X6X4X4XyXyXyXyXyXyXyXyXgXgXgXgXiXiXiXiXgXgXgXgX",
"}.}.}.}.OXOX}.}.|.|.J.U.yXiXrXrX|.|.|.|.}.|.|.|.3XwXiXwX|.U.U.|.OXOXOXOX}.}.}.}.U.U.).>X`.T 4.4.f.2 M 1 y b.c.c.3.nXtXJ.|.|.J.OXY.Y.I.|.(.&.T 1.1.`._.F.L.qXwXiXqXrXrXrXwXXX}.}.U.wXwXwXrXqXJ._.|.}.|.|.|.|.|.|.}.}.}.}.}.}.OXOX}.|.I.U.I.OX}..X|.I.U.G.|.[. .z.1.h.1 j k f x.r.c.7.[.tXK.U.tXH.OX}.}.}.|._._._.OXOXOXOX}.}.|.|.OXOXOXOX}.}.}.}.XX_.|.tXyXiXwXK.K.K.|.yXgXiXwXwXLXgX X|.J.J.|.|.U.U.U.|.|.}.}.}.}. XJ.I.J.}.>X&.;.4.>.M < @ $ $ j j < j.<Xw.].].}.}.|.|.|.U.U.U.Y.U.G.Y.wXfXjXwX}.}.}.}.}.}.}.}.OXOXOXOX}.}.}.}.}.}.OXOX",
"C.C.C.C.C.C.C.C.C.C.N.H.qXiXrXrXC.C.C.C.C.C.C.C.wXiXiXyX_.H.C.C.C.C.C.C.C.C.C.C.Z.J.C.XX.XQ.,X,Xj.< z : N HXBXDX[.[._.H.H.C.C.V.*.C.H.).'.[.'.XX(.[.(.C._.qX3XwXwXrXrXrXwXU.C.Z.G.U.wXrXiX|.H.C.C.C.C.C.C.C.C.C.C.C.C.C.C.C.C.C.Z.C.C.B.C.Z.R.Q.Z.C.J.C.).>XW.,X`.c.1 h f 3 xXdXIXNX_.C.C.).).).C.C.C.C.C.C.C.C.C.C.C.C.C.C.C.C.C.C.C.C.C.C.C.C.(.H._.yXyXiXqXK.*.F.K.wXiXiXrXrXLXyXXXH.N.N.N.N.C.C.C.C.C.R.R.R.Z.Z.N.J.B.C.XXC.=XCX%X_ ; < g $ a d ; k.JXBXNXwXC.C.C.C.C.C.C.C.H.C.C.J.wXhXhXgXC.C.C.C.C.C.C.C.C.C.C.C.C.C.C.C.C.C.C.C.",
"H.H.H.H.H.H.H.H.H.H.N.K.qXrXeX3XH.H.H.H.H.H.H.H.qXtXiXyX|.J.H.).H.H.H.H.H.H.H.H.C.).C.J.Z.C.OXC.n.< z : u HX0XuXtXH.F.K.H.C.).E.3.`.'.R.E.).Z.J.K.K.*.C._.tX3X3X3XrX6XrXwXU.J.J.G.U.rXfXfXU.G.H.H.H.H.H.H.H.H.H.H.H.H.H.H.H.H.H.H.H.H.H.H.E.E.Q./.~..XV.R.).C.}.`.+X1 h f 6 bXpX2X3XL.C.}.OXZ.N.Z.Z.H.H.H.H.H.H.B.B.J.J.H.H.H.H.H.H.H.H.H.H.H.H.J.J._.tXiXiXqXG.F.F.K.eXiXeXeXeXLXiXqXK.F.F.K.H.(.(.(.(.W.(.(.W.~.}.C.U.G.N.|.H.R.=X%XI : s k g d f : 6.JXnXiXY.F.F.H.H.H.(.(.(.'.(.H._.tXiXiXrXJ.J.J.J.J.H.J.J.H.H.H.H.H.H.H.H.H.H.H.H.",
").).).).).).).).C.C.J.}.oXgXPXPXJ.J.J.J.J.J.J.J.PXPXPXoX}.J.Z.C.E.E.E.).J.J.J.J.).).).).).).).).4.: d X y bXrXrXqXK.H.'.E.E.).C.).).).).).).).).C.Z.).}.XXmXPXPXPXPXyXoX|.).Z.J.Z.OXPXPXPXoX}.Z.).).).).).).).).).).).).).).).).).).).).).).).).).).).).).).).).I.Q.8 h $ 3 zXdX2XsXF.J.OXE.~.Z.).).).).).).).).).).).).).).).).).).).).).).).).B.J.oXPXPXgX|.J.J.Z.).|.yXyXgXLXgXgXyX|.I.J.C.N.E.E.).).).).).).).).).).).).).).'.).[.t 2 j O e : : 7 W.,XLXyX3X).).).).).).).).J.B.J.OXyXPXPXPX).).).).).).).).).).).).).).).).).).).).",
").).).).).).).).J.J.J.J.I.I.I.I.J.J.J.J.J.J.J.J.}.}.}.}.}.}.).).E.E.E.).J.J.J.J.).).).).).).).).4.: d X y bXrXrXqXK.H.'.E.E.).C.).).).).).).).).E.).}.).}.}.OX}.|.}.}.}.}.J.J.).J.}.OX|.|.}.J.Z.).).).).).).).).).).).).).).).).).).).).).).).).).).).).).).).).I.W.8 h $ 3 zXuX8XsXF.C.}.E..X}.).).).).).).).).).).).).).).).).).).).).).).).).B.C.}.|.|.|.}.J.).J.J.}.OXI.OX|.I.}.I.J.J.}.}.).).E.).).).).).).).).).).).).).).).E.[.7   d O O.v.w.7.[.XX|.K.F.).).).).).).).).}.I.I.I.}.|.}.}.).).).).).).).).).).).).).).).).).).).).",
").).).).).).).).Z.J.J.Z.C.C.C.C.J.J.J.J.J.J.J.J.Z.C.C.Z.).}.).J.E.E.E.).J.).J.J.}.}.).).).).).).4.: d X y bXrXrXqXK.H.'.E.E.).C.).).).).).).).).).}.).E.Z.Z.Z.Z.Z.C.Z.J.).).).}.).J.Z.Z.J.).Z.Z.).).).).).).).).).).).).).).).).).).).).).).).).).).).).).).).).J.`.1 h a 3 zXeX6XrXG.Z.Q.R.).).).).).).).).).).).).).).).).).).).).).).).).).).C.C.Z.Z.Z.C.J.}.}.).).J.J.C.B.B.B.B.C.C.Z.).}.).).).).).).).).).).).).).).).).).'.E.'.7   # o v.JXBXCXtX).H.H.N.).).).).).).).).}.}.}.J.Z.C.C.C.).).).).).).).).).).).).).).).).).).).).",
").).).).).).).).Z.Z.J.J.Z.Z.Z.J.Z.J.J.J.J.J.J.J.).J.Z.J.).).J.Z.).).).).).).).).).).).).).).).).4.: d X y bXrXfXwXK.H.'.E.E.).Z.).).).).).).).).E.E.E.Z.Z.Z.Z.Z.Z.Z.Z.).).).).).).).J.J.).).J.Z.).).).).).).).).).).).).).).).).).).).).).).).).).).).).).).).).{.w.3 g a 8 zXrX6XgXJ.'.:XE.(.H.).).).).).).).).).).).).).).).).).).).).).).).).Z.Z.J.J.J.J.J.).).).).).J.J.J.J.B.C.C.C.Z.Z.Z.Z.).).).).).).).).).).).).).).).).).E.&Xu 2 d 2 b.MXuXuX|.J.J.}.).).).).).).).).).J.J.J.J.J.J.J.J.).).).).).).).).).).).).).).).).).).).).",
").).).).).).).).).J.J.J.).).).J.E.).).).).).).).).).}.}.).).).}.J.J.J.).).).).).).).).).).).).).4.: d X p bXrXfXwXK.H.'.E.E.).Z.).).).).).).).).Z.Z.Z.E.).).).).}.}.}.).).).).E.).).}.}.}.).).).).).).).).).).).).).).).).).).).).).).).).).).).).).).).).).).).{.w.3 g a 8 nXrXfXhXE.!.@XR.(.H.).).).).).).).).).).).).).).).).).).).).).).).).).).).).}.}.}.J.E.).).).).}.}.I.J.J.Z.J.J.E.E.E.).).).).).).).).).).).).).).).).'.E.-X_ < d ; v.0XeXqXY.G.J.}.E.).).).).).).).).).).).).).).).).).).).).).).).).).).).).).).).).).).).).",
").).).).).).).).J.Z.Z.Z.).).).Z.E.E.E.E.E.E.E.E.E.).}.).E.E.E.).J.J.J.J.).E.E.E.).).).).).).).).4.: d X p bXrXfXwXK.H.'.E.E.).Z.).).).).).).).).).E.E.).).).).}.E.).).E.E.E.E.E.E.).).).E.E.E.).).).).).).).).).).).).).).).).).).).).).).).).).).).).).).).).).{.w.1 g a 8 tXrXfXyX^ Q ..~ (.K.).).).).).).).).).).).).).).).).).).).).).).).).}.J.Z.Z.).).).Z.E.E.).E.Z.J.).J.}.J.J.}.).E.E.).).).).).).).).).).).).).).).).).[.'.&Xx < 2 ; r.uXeX3XY.G.Z.).Q.).).).).).).).).Z.Z.Z.Z.J.).).J.).).).).).).).).).).).).).).).).).).).).",
").).).).).).).).Z.Z.Z.Z.).).).).E.E.E.E.E.E.E.E.).).).).E.E.E.E.J.J.J.J.).E.E.E.).).'.'.'.'.).'.4.: d X p bXrXfXqXH.H.'.E.E.).Z.).).).).).).).).).E.E.).).E.).).E.).E.E.E.E.E.E.E.E.E.E.E.E.E.E.).).).).).).).).).).).).).).).).).).).).).).).).).).).).).).).).(.c.1 h a , 0XrXrXtXE S F K V.K.).).).).).).).).).).).).).).).).).).).).).).).).).).).).).).E.E.E.E.E.Z.Z.J.J.Z.}.J.J.}.).E.E.E.).).).).).).).).).).).).).).).).[.'.&X0 < < : r.uXeXqXY.G.Z..X@X).).).).).).).).Z.Z.E.E.E.E.).}.).).).).).).).).).).).).).).).).).).).).",
").).).).).).).).Z.).).).E.E.).).E.E.E.E.E.E.E.E.}.).E.).).}.).E.J.J.J.).).E.E.E.).).'.'.'.'.).'.4.: d X p bXrXfXqXH.H.'.E.E.).Z.).).).).).).).).Z.Z.Z.).).Z.E.).).}.}.E.E.E.E.E.E.E.E.).}.).E.Z.).).).).).).).).).).).).).).).).).).).).).).).).).).).).).).).).'.+Xs h a , 0X5XiXtXE F H K C.K.).).).).).).).).).).).).).).).).).).).).).).).).E.).}.}.).).E.E.E.E.E.E.E.}.}.J.J.Z.Z.).E.E.E.E.).).).).).).).).).).).).).).).).R.W.-Xx < f : 8.MXuXrX4XG.C.E.Q.).).).).).).).).Z.).}.).Z.Z.).}.).).).).).).).).).).).).).).).).).).).).",
").).).).).).).).).).).).).).).).E.E.E.E.E.E.E.E.E.E.E.E.E.E.E.E.(.).).).'.'.E.E.E.E.I.I.I.S.S.~.>.< k X i BXrXfXwXK.H.}.E.E.}.Z.).).).).).).).).).).).).).).).).).).).).).).).).).).).).).).).).).).).).).).).).).).).).).).).).).).).).).).).).).).).).).).).).}.W.9 . & m x.KXFXcX4./ 5 D T.H.).Z.).).)..X.XE.J.J.J.J.).E.E.E.).).).).).).).).E.E.E.E.E.E.E.E.).).).).).).).).).).).).).).).).G.J.Z.E.E.E.R.E.E.E.J.J.J.J.E.E.H.R.+XN   o n x.KXJX=X>X}.N.).'.).).).).).).).).).).).).).).).).).).).).).).).).).).).).).).).).).).).).",
").).).).).).).).).).).).).).).).E.E.E.E.E.E.E.E.E.E.E.E.E.E.E.E.(.(.).).).).E.E.E.).}.I.I.}.}.~.g.1 k o B BXqX4XwXH.H.}.E.E.}.Z.).).).).).).).).).).).).).).).).).).).).).).).).).).).).).).).).).).).).).).).).).).).).).).).).).).).).).).).).).).).).).).).).).W.9 X # # O.-.@.#.4.z.....).).Z.Z.).).E.}.).C.J.J.J.J.).E.E.E.).).).).).).).).E.E.E.E.E.E.E.E.).).).).).).).).).).).).).).).).G.J.Z.R.Q.'.'..XE.E.J.J.J.J.E.E.H.(.-X[ X o 2 B i -.Y 3.).N.).Q.).).).).).).).).).).).).).).).).).).).).).).).).).).).).).).).).).).).).",
").).).).).).).).).).).).).).).).E.E.E.E.E.E.E.E.E.E.E.E.E.E.E.E.).).).).).E.E.E.J.).I.I.J.Z.E.E.h.< j o i bXqXjXwXH.C.}.E.E.}.Z.).).).).).).).).).).).).).).).).).).).).).).).).).).).).).).).).).).).).).).).).).).).).).).).).).).).).).).).).).).).).).).).).E.3., o d o 2 > ; 8 4.-X'.E.}.}.E.E.E.E.E.}.}.E.J.J.J.J.).E.E.E.).).).).).).).).E.E.E.E.E.E.E.E.).).).).).).).).).).).).).).).).J.J.E.R.Q.Q.E.).E.E.Z.J.J.J.E.E.K.).-X[ < #   ;   : :  .(.C.J.R.).).).).).).).).).).).).).).).).).).).).).).).).).).).).).).).).).).).).",
").).).).).).).).).).).).).).).).E.E.E.E.E.E.E.E.E.E.E.E.E.E.E.E.).).).).E.E.E.E.Z.J.J.C.C.R.'.&Xk.< g X y bXwXfXwXH.C.}.E.E.}.Z.).).).).).).).).).).).).).).).).).).).).).).).).).).).).).).).).).).).).).).).).).).).).).).).).).).).).).).).).).).).).).).).).E.3., o d # f < < 1 4.[.).S.Z.~..X'.E.E.E.)..X}.J.J.J.J.).E.E.E.).).).).).).).).E.E.E.E.E.E.E.E.).).).).).).).).).).).).).).).).J.).E.Q..XQ.Q.E.E.E.Z.J.J.J.E.E.H.).&XN X d     < < 1 X.[.H.).E.).).).).).).).).).).).).).).).).).).).).).).).).).).).).).).).).).).).).",
").).).).).).).).).).).).).).).).E.E.E.E.E.E.E.E.E.E.E.E.E.E.E.E.).).).E.E.E.~.~.C.Z.H.H.(.R.%X<Xg.< j X y bXwXjXwXK.C.).E.E.}.Z.).).).).).).).).).).).).).).).).).).).).).).).).).).).).).).).).).).).).).).).).).).).).).).).).).).).).).).).).).).).).).).).).[.7.6   d a k h h 1 4.R.C.}.Z.^..XQ.Q.).E.E.}.).J.J.J.J.).E.E.E.).).).).).).).).E.E.E.E.E.E.E.E.).).).).).).).).).).).).).).).).J.}.E.Q.Q.!.Q..XE.E.).J.J.J.E.E.N.E.@Xx X # X 2 j a 1 4.=XZ.).E.).).).).).).).).).).).).).).).).).).).).).).).).).).).).).).).).).).).).",
").).).).).).).).).).).).).).).).E.E.E.E.E.E.E.E.E.E.E.E.E.E.E.E.).).E.E.E.~.~.~.E.E.'.(.3.Y u ' N < a.@ y vXwXjXwXK.C.).E.E.}.Z.).).).).).).).).).).).).).).).).).).).).).).).).).).).).).).).).).).).).).).).).).).).).).).).).).).).).).).).).).).).).).).).).).7., X d a k l b 4 W.E.C..X~ ..~ ~ T.Q.E.E.).).J.J.J.J.).E.E.E.).).).).).).).).E.E.E.E.E.E.E.E.).).).).).).).).).).).).).).).).).).R.~ ~ ~ ~ Q.E.E.J.J.J.J.E.E.N.E.@X[ X % # d # g 1 g.&XZ.Z.E.).).).).).).).).).).).).).).).).).).).).).).).).).).).).).).).).).).).).",
").).).).).).).).).).).).).).).).E.E.E.E.E.E.E.E.E.E.E.E.E.E.E.E.).E.E.E.~.~.~.~..XE.'.'.1.4 ; ; :   a.# A BXiXjXwXK.H.'.E.E.}.Z.).).).).).).).).).).).).).).).).).).).).).).).).).).).).).).).).).).).).).).).).).).).).).).).).).).).).).).).).).).).).).).).).(.7.3 @ g a c 0 I D &XE.Z.:XH G F E &.Q.).E.).).Z.Z.J.J.).E.E.E.).).).).).).).).E.E.E.E.E.E.E.E.).).).).).).).).).).).).).).).).)..XT.E S S E T.E.E.J.J.J.J.E.E.B.E.-X[ a % # d # d 1 4.&XZ.E.E.).).).).).).).).).).).).).).).).).).).).).).).).).).).).).).).).).).).).",
").).).).).).).).).).).).).).).).E.E.E.E.E.E.E.E.E.E.E.E.E.E.E.E.E.E.E.E.~.~.~.~.~.T.W.%X4.8 < f : X a.@ e BXiXjXwXK.H.'.E.E.}.Z.).).).).).).).).).).).).).).).).).).).).).).).).).).).).).).).).).).).).).).).).).).).).).).).).).).).).).).).).).).).).).).).).|.`.3 $ y.g N u P D .XC.V.-X` ` E E T.Q.).E.E.Z.J.Z.J.J.).E.E.E.).).).).).).).).E.E.E.E.E.E.E.E.).).).).).).).).).).).).).).).).)..XQ.Q S S E !.E.E.J.J.J.J.E.E.I.}.-X[ a % # j # d < } '.C.E.E.).).).).).).).).).).).).).).).).).).).).).).).).).).).).).).).).).).).).",
").).).).).).).).).).).).).).).).).).).).).).).).).).).).).).).).J.J.J.J.).).J.J.J.).XX-X} 8 < s d X d   y xXMXwX,XoXE.C.J.).'.E.).).).).).).).).E.E.E.E.E.E.E.E.).).).).).).).).).).).).).).).).J.J.J.J.J.J.J.J.C.oX.XE.,X}.A.}.%XR.E.}.S.S.}.}.I.I.H.(.`.(.C.A.}.W.l a j d p.p.F P 2.,X:XQ...S 5 ! &.'.XXC.R.E.E.E.).{.(.(.}.}.Q..X.XE.E.E.Z.N.'.Q.E.R.E.).).).).).Z.).}.E.).,XJ.J.J.).E.E.Q.Q.'.>XR.P D 5 F R.`.`.=X`.[.[.*._.R.&X;XN ; 3 ; 2 < ; 4 1.[.).H.J.).).Z.).OX}.Z.E.S.S.E.H.).'.(.(.).).).).).).).).).).).).).).).).).).).).",
").).).).).).).).).).).).).).).).).).).).).).).).).).).).).).).).).).).).).).).).G.N.E.W. .0 8 c k < f   y *XtXK.OXXX}.).}.).R.R.).).).).).).).).E.E.E.E.E.E.E.E.).).).).).).).).).).).).).).).).E.E.E.E.E.E.E.Z.).R.^ E ~ V.E.oX[.E.Z.S.B.B.C.Z.S.J.).'.[.'.J.S.OX+Xx a j a h s 4 7 U 2.&.&.T.....W.! ^ &.W R..XE.).Z.C.C.C.Z.Z.R.E.}.).).}.J.C.E.E.E.E.Z.Z.Z.J.}.).Z.J.}.E.Z.}.J.).).).E.E.E.Q.(.'.'.V.T.T.2.2.%.! 2.! %.&.W _.C.`.%Xu : 3 ; M s.' ] R.'.H.C.J.Z.Z.C.Z.).E.V.Z.S.J.E.J.).).).).).).).).).).).).).).).).).).).).).).).).",
").).).).).).).).).).).).).).).).).).).).).).).).).).).).).).).).).).).).).).).).Y.B.Z.'.2.I [ | V s s ; 6 `.J.N.C.J.U.U.}.).R.Q.).).).).).).).).J.J.J.J.).J.J.J.).).).).).).).).).).).).).).).).Q.Q.Q.Q.E.E.E.E.).~ F F D E C.C.}.Z.I.I.B.C.H.).Z.E.E.E.).E.Z.S.H.3.1 X d X a a 1 : 0 I L P 2.Q.@X&XE D D D V.:X).}.S.Z.S.I.J.C.E.).}.).).J.}.J.E.~.~.~.}.I.I.Z.J.).H.J.).).Z.H.).).).E.E.E.E.E.R.C._.tXyXPX>X! F S F S S D S V.C.'.%XI : 3 z j.;X%X`.'.).C.C.}.Z.S.Z.Z.}.}.).OXJ.J.Z.S.~.~.~.~.).).).).).).).).).).).).).).).).).).).).",
").).).).).).).).).).).).).).).).).).).).).).).).).).).).).).).).E.E.E.E.E.E.E.E.Y.D.S..X2.U G / p.s s ; 6 `.(.G.N.H.K.J.J.E.E..X).).).).).).).).J.J.J.J.J.J.J.J.).).).).).).).).).).).).).).).).Q.Q.Q.E.E.E.J.J.'.E H ( J Q R.C.Z.Z.}.}.Z.C.H.R.E.).E.E.E.~.~.}.(.7.: X d o k h s s M B t L &.'.Q.$XU S D D !.,XZ.Z.~.S./.}.J.N.}.}.).Z.Z.Z.).}.E.~.~.}.~.S.Z.Z.C.Z.C.C.J.H.N.B.).).E.E.E.E.E.E.'.V.K.rXrXIXmXP S S H H H F D W.J.).`.I : 1 l j.*X%X'.E.C.C.E.'.E.~.Z.Z.).).).}.J.J.Z.~.~.~././.).).).).).).).).).).).).).).).).).).).).",
").).).).).).).).).).).).).).).).).).).).).).).).).).).).).).).).E.E.E.E.E.E.E.E.OXD.E.Q...G 0 x z < s < M %X=X[.*.F.H.N.C.Z.E.'.).).).).).).).).J.J.J.J.J.J.J.J.).).).).).).).E.).).).).).).).).E.E.Z.J.J.J.J.G.:X! H H J ` &X[.[.[.[.[.3.3.(.(.R.E.E.Q..X.X'.'.].c.3 a d @ k g g g V A y t %.R.R.'.U / _ _ +X-X'.[..XQ.E.E.).J.J.H.H.Z.H.).).).'.'.).).).Q.Q.E.'.'.).'.).Z.C.).E.E.E.E.E.E.).).'.C.K.3X3XhXtXP S S H G ( ` H +X(.`.%Xu ; 1 1 s.c.%X`.'.W.'.-X,X&X:X'.'.[.).Z.J.J.J.Z.S.~.~././.).).).).).).).).).).).).).).).).).).).).",
").).).).).).).).).).).).).).).).).).).).).).E.E.).).).).).).).).E.E.E.E.E.E.E.E.E.V.~ 2.T 0 0 x f < k a f g.' Y W R.(.C.Z.).E.E.).).).).).).).).J.J.J.J.J.J.J.J.).).).).).).).).).).).).).).).).J.J.J.J.J.J.J.J..X2.2.5. .] ] ] ;.;.;.' Y 1.`.=XR.E.E.~..XW.] I -.g.a a d o d g g $ j m 3 6 %.E.).&X` z b 8 ' 1.&.2.1.] T ! T.[.H.).E.E.).[.R.^ 2.1.%.! !  . .1.2.2.2.T.&.&.V.[.E.E.E.E.E.).J.J.'.C.J.U.K.qXXX*.3.2.5.G q 0 : N 1.;.g.M < a a p.:.:.;.;. .} >.g.4.4.1.7.[.'.J.I.J.J.Z.S.~.~.~.~.).).).).).).).).E.E.E.E.E.E.E.E.).).).).",
").).).).).).).).).).).).).).).).).).).).).).).).).).).).).).).).E.E.E.E.E.E.E.E.! D D G 9 1 < 1 2 X j # + k < : L 3.[.R.C.}.}.E.).).).).).).).).E.E.E.E.E.E.E.E.).).).).).).).).).).).).).).).).J.J.J.J.E.E.E.E.E.E.(.=X=X1.4 : ; ; ;   : u 7.&X~.~.~.Q.'.4.9   ; f X $ d o d g y.$ $ j > 6 1.:X).[._ s s ; 9 7 D 6 , >   : Y W.).'.'.E.'.[.2.F t 6 : : : : 4 9 S D J F D D P Q.Q.E.E.E.).).J.J.(.(.H.J.J.J._.qXVXJXHX' 3 f   s : < k X . % X j a < < 1 1 ; < < < ; : ] `.).A.B.S.J.Z.J.).).).).).).).).).).).).E.E.E.E.E.E.E.E.).).E.E.",
").).).).).).).).).).).).).).).).).).).).).).).E.).).).).).).).).E.E.E.E.E.E.E.E...G 7 _ N f h a O O j $ + j @ a 7 l.=XW.V.).}.E.).).).).).).).).E.E.E.E.E.E.E.E.).).).).).).).).).).).).).).).).J.J.Z.E.E.Q.@X@XE.).C.(.=X4.8 l d d d @ 2 N 7.&X~.~.~..X-Xk.V X < i.$ g j o d g i.$ $ j   : 2.,XN.`.N k g a 9 6 G 0 n d o > ' -X'.).E.R.'.:X2.D B y , : : : z M ( ( ( ( G S Q -XQ.Q.E.E.).J.J.J.(.[.R.V.R.C.K.hX9XBXvXi ; 2 X a a a u.$ = a.$ % u.g a a a X @ j @ O < >.*X(.A.B.S.S.Z.H.).).(.(.).).).).).).).).E.E.E.E.E.E.E.E.).).).E.",
"&X&X&X&X&X&X&X'.&X&X&X&X&X&X&X&X&X&X&X&X&X&X&X&X&X&X&X&X&X&X&X&X(.(.(.(.'.'.[.[. .I I _ z < < a > 2 d k y.g a a 8 z.<X&X'.[..X.X].].].].`.[.`.`.[.[.[.[.[.[.[.[.[.'.'.[.[.).E..X[.[.[.'.[.[.[.[.).).'.[.[.'.&X&XXX[.[.=X*X} z h a g % # 2 B l.-XOX}.E.'.-Xk.n . i.y.j = = = j 2 + u.+ $ a 8 5.-X&Xl.C a a k M M H z j = & f >.-X'.'.'.&X-X-X .5 C z 1 1 1 s c a./ ( H G 5 5  .-X'.'.[.'.'.(.(.(.&X&X&X&X&X[.[.XXMXJXcXi ; < j g $ $ $ $ # @ @ o $ $ $ $ @ o o o m 2 2 ' l.-X:X:X.X.XoX[.'.[.[.0.[.=X-X%X-X&X`.`.[.[.'.(.(.`.`.`.&X&X&X&X",
"} ] ] ] ] ] ] ] ] ] ] ] ] } } } ] ] ] ] ] ] } ] } ] } ] ] ] ] ] #.#.#.;.] ] ] ] _ 0 9 M f a a a 2 < a g y.g g g 1 { g.;.T 1. . .Y ;.;.;.;.4.4.>. . . . . . . . .;.#.T #.%.T ! ! T T T T T T T T ] ] ] ] ] ] ] ] #.#.#.;.{ M f k d % j % d M ' ' ..! ! T >.Z m # g # # % % $ @   # m @ j a 1 _ 1.X.} M a d k f z 9 f j % % d B >.T T T ] ] } I 4 z f 3 1 < s k k b b b x 8 4 u } ] ] ] ] ] ;.#.#.} } ] ;.;.1.1.1.;.v.,.y < d j $ $ g a a d d d d j j d d d d d d m o 2 M ' ]  ...`  .X.X.] 4.4.;.T 1.1.] } >.] ;.] ] ;.#.#.;.;.} ] ] ] ] ",
"; ; < < ; ; ; ; ; ; ; ; ; ; ; ; ; ; ; ; ; ; ; ; < < ; ; ; ; ; ; ; ; ; ; ; ; ; ; s 1 s a a # j $ j j j g g y.$ $ X f f > ; 1 1 1 : 1 1 ; 1 1 1 1 1 1 1 1 1 1 1 1 ; ; ; ; : 1 1 1 : : : : : : : : s s 1 1 1 1 1 1 : , < < a @ + # # @ # # @ # 2 > : 1 1 1 1 f # % + X # % % % d 2 o m @ # a   : : 1 s a X @ d a a < < @ @ @ o < > > : : : ; 2 < < < < < < a a a a g a a a a < 2 2 < < < ; ; ; ; ; < ; ; ; ; ; ; ; < s f a @ $ $ $ @ @ @ @ @ # # # o # # # # # # # X o o X ; : : : h s s 1 ; ; ; : : , : 1 1 1 1 : ; ; ; ; ; < < < ; ; ; ; ",
"# # # # # # # # # # # # # # # # # # # # # # # # # # # # # # # # d d # # d a a a s a h a a j j d j j # $ g j j j # j # + @ @ @ $ < < a a a a a a a a a a a a a a @ @ @ @ # @ a a a a a a a a a a g g g a a a d d X d $ $ $ % # # j # % % # # # @ @ a a a g g g j j # o # & % j 2 o m # u.i.a f < g h j # d d a @ % j d < < a # + @ o @ d d # d j a a j k j j g a j u.j a # d d o g g g g $ # # a d d d d d d d d g g g g j j j j d d d j j j u.u.d d d d d j j j @ d d @ a d d a u.$ $ # + X a <   2 < @ g g a a a a a a a g g y.d d d d ",
"o o o o o o o o o o o o o o o o o o o o o o o o o o o o o o o o o o o o o o o o < < < <   < 2         X X X a j o # d # a # $ g < < < f d d d j % j j j j j j j % % j j j j j j j j j j j j j j j d d d d d 2 2 X j g = u.u.# o d a a d @ @ d # a g g g j g a a g < o o . .   O   d @ = i.y.i.j y.i.j # # o X X + a < ; ; < a @ @ X + # d @ X @ X @ a a a a X X X o o     X X X @ o @ @ @ @ @ @ o o o o o o d d g a a a <   > 2 < < < < < a a a       X X X @ @ X < X X X # a X o . o . . # d d # # % $ y.u.g y.o o X 2 < a a h o o o X ",
"i i i i i i i i i i i i i i i i i i i i i i i i i i i i i i i i B B B i i i i i ' ' ' i i i i p i i Y -.u , 1 z ; 3 f h f s s f 9 1 1 3 2 < < < o o o X @ o @ @ a a f a f f f f s s s s s s s s 3 3 3 3 3 3 3 3 s f h a k c f 3 f s f 9 1 1 f f s s a a k f 1 8 l 9 B -.Z Z ' Y B Z d $ = $ y.$ $ $ $ + < 2 M j.i B ' ' I ' { Z j.Z A Z :.B B B B Z { { { B B u y i +.i i i -.-.i i i B B B B B i i i i B B B B ' ' ' ' Y i i @.B B N N B B B B ' ' Y ' ' ' ' ' ' ' B B B -.B B +.+.A >   X @ @ + @ @ $ g g a d A A i i i i N [ i i i i ",
"VXVXVXVXVXVXVXVXVXVXVXVXVXVXVXVXVXVXVXVXVXVXVXVXVXVXVXVXVXVXVXVXVXVXVXVXAXAXAXAXVXMXVXVXMXVXDXMXVXMXVXVX].Y 0 | 0 | | / [ _ I I | [ x x z 1 < < d d d d d d d d 9 9 0 9 0 x _ 0 / / / / / / / / I I I I I / / / / [ _ G _ _ _ | d.x / ` U H _ x _ _ x N [ [ G H / 1.zXVXVXBXVXVXBXxXB k j $ j $ * & % j k M k.JXuXNXDXDXVXVXBXMXVXVXMXMXVXAXMXMXBXBXBXVXVXMXMXMXnXNXVXVXNXNXVXVXAXAXAXVXVXVXVXVXDXDXVXVXVXVXVXVXuXMXAXMXMXMXVXVXVXVXVXVXVXNXNXNXVXVXVXVXVXVXVXVXVXNXMXMXVXAXAXuXZXSXvX,.M k a.y.# # # j k f 3 9 JXHXSXZXAXNXVXVXVXVXVXVX",
"wXwXwXwXwXwXwXwXwXwXwXwXwXwXwXwXwXwXwXwXwXwXwXwXwXwXwXwXwXwXwXwXrXwXwXrX6X6X6X7X6XeXrXiXiXiXiXiXiXrXkXLX(.L 5 ` F Q ( G H F D D | [ / v b s 1 s d d d d d a a a 7 7 7 7 D F F F D J J J D D D D J J J G H J ( ) J G F F F F J ( [ q 5 S F F H G F U H I _ H D D 5 W qXaXeX3XrXlXAXzXt ;   X d o * # % g < > t.FX7X7X8XsXeX5X3X7X3X3X6X6X6X8X8X7XeXeXeX5X5X5X7X7XwXwXwXwXwXwXwXiX6X6X6XrXrXrXwXwX6XrXrXrXwXwXwXyX7X8X6X7X3XrXiXrXrXrXrXrXrX6X6X6XwXwXrX6X6X6X6X6XrX6X6X6X6X6X8X8X5XaXMX,., s i.y.@ # @ a f 1 : 6 bXuXeX5X6X6X6X6XrXrXrXrX",
"iXiXiXwXrXrX5X5X5X5XrXrXwXiXiXiXiXiXyXyXyXiXiXiXiXiXiXiXiXiXyXyXyXwXiXhXkXrX5X5XrXrXfXrXrXgXhXwX4XwXhXIX[.P D P J J J J D D J J ( H J 0 9 1 1 1 >   j m . d   ; 4 5 G H J J F S D D D J D D G G G G G G J G G G G G G G G G J J J G G G G G G G J J J J J J D D 5 W _.iXrX3X6XrXZX=XR : : : X + o o 2 f ; : `.iX6X6XrXiXyXiXrXrXqXiXiXiXrXrXwX3X5X5X5X5X5X5X5X5XgXhXgXrXrXrXrXrX3XrXrXrXhXhXgXhXrXrXrXrXrXrXrXrXrXrXrXrX4XrXrXrXiXiXiXhXhXhXiXiXyXyXyXyXiXiXiXiXrXrXrXrXrXrXrXrXNXDXBX8.: : 1 1 o j $ X f   4 0 iXiXiXrXrXiXiXNXiXiXiXiX",
"|.qX|.qXrXiXeXrXrXeXiXrXqX|.qX|.qXqXqXqXqXqXqXqXqXqXqXqXqXqXqXqX|.U.U.qXwXrX4X3X3X3XqXqX3XwXwX|.3XU.qXmX'.W P ..Q Q U U U U U U Q Q U U I u t i A   o j . p.O.' U P U Q U Q Q E P E U U U U U U Q Q Q Q Q Q Q Q Q Q Q Q Q Q Q Q Q Q Q Q Q Q Q Q Q Q Q Q Q Q Q Q P &.(.qX3X3X4XwX9X].%.L Y N f + o o i g.{ T `.|.7X3XqXqXtXqXqXqXqXqXwXqXqXqXwXwX5XrX5X3X5XrX3X3X|.wXqXqXqX3X3XrXeXrXwX3X3XqX|.|.qXqXqXqXqXqXqXqXqX3X3XwXwXrXrX3XqXqXqXqXqXqXqXqXqXqXqXqXqXqXqXqXqXqX3X4XqXqXqXqX9X9X].8.t u N z o j $ a g.u ;.1.tXqXqX3X3XqXqXtXqXqXqXqX",
"J.J.G.K.qXrX3X3X3X3XrXqXK.K.J.J.G.G.G.G.G.G.G.G.G.G.G.G.G.G.G.G.I.K.G.K.qXrXrXwXL.F.F.G.G.G.G.G.U.G.H.|.).T.T.W.Q.Q.Q.Q.Q.Q.Q.Q.).E.E.'.(.(.0.w.b.z < d 2 b.cXbX>X`.T.W.'.Q.'.Q.E.E.E.E.Q.Q.Q.Q.Q.Q.Q.Q.Q.Q.Q.Q.Q.Q.Q.Q.Q.Q.Q.Q.Q.Q.Q.Q.Q.Q.Q.Q.Q.Q.Q.Q.Q.Q.Q.Q.W.R.(.K.G.G.Y.G.H.[.`.W.-Xv.V # # e x.HXcX=XXX|.F.F.F.H.H.H.F.F.J.J.K.G.N.G.U.wXrXiXrXrXrXiXqXL.B.B.N.G.F.N.F.qXqXiXqXG.G.I.J.K.G.G.G.G.G.G.G.G.K.G.K.3XqXrX3XK.F.F.F.F.G.F.F.G.G.G.G.G.G.G.G.G.G.G.B.B.G.G.G.G.L.J._.{.3.c.c.>.o # a Z GXzXBXnX(.H.F.F.F.F.F.F.F.F.F.F.",
"H.H.B.K.wXiXrXqXqXrXiXwXK.F.H.H.H.H.J.J.H.H.H.H.H.H.H.H.H.H.H.H.I.J.H.H.|.hXhXiXK.G.G.K.K.H.J.J.K.H.H.H.).E.E.'.'.).).).'.'.'.'.S.I.}.}.'.'.[.[.b.z < f > xXMXuXIX_.F.).).).}.}.J.J.).).).'.'.'.).).).).).).).).).).).).).).).).).).).).).).).).).).).).).).).).'.'.).J.H.F.F.N.*.(.W.'.=Xl.M + $ 3 r.ZXiXmX|.H.H.).).).'.).).).).J.J.J.G.G.|.LXqXrXrXqXwXiX3XN.J.B.B.H.H.N.K.iXiXhXqXG.B.J.J.J.H.H.H.H.H.H.H.H.K.F.K.qXwXiXwXK.H.H.H.H.H.H.H.H.H.J.H.H.H.H.H.J.).).).).).).).).F.N.F.{.`.=X*X1.X X X B JXMXAXtX`.(.(.H.H.G.G.G.H.H.H.H.",
"H.H.C.J.yXhXiXiXiXiXhXyXJ.C.H.H.).).).).).).).).).).).).).).).).}.J.C.H.XXLXLXiX|.J.J.|.).).}.}.).).).H.Z.E.E.E.C.C.C.C.C.C.C.C.Z.Z.Z.E.E.).'.'.c.x 1 f ; *XuX6XiXK.N.H.H.C.C.Z.N.N.C.C.C.C.C.C.C.C.C.C.C.C.C.C.C.C.C.C.C.C.C.C.C.C.C.C.C.C.C.C.C.C.C.C.C.C.C.C.E.C.).).C.C.H.B.N.H.C.R.'.7.z X g > q.sX5XiXJ.I.'.'.'.).).).'.'.J.J.).).H.H.|.LXyXiXiXyXiXNXqXF.}.J.Z.J.J.N._.LXiXLXyXH.N.J.Z.C.).).).).).).).).).H._.yXyXhXwXU.J.J.J.J.J.J.J.J.).).).).).).).).}.}.}.}.}.}.}.}.I.H.J.(.(.`.`.#.# @   i BXeXrXK.'.'.'.).).J.I.P.).).).).",
"Z.Z.C.H.XXqXqXqXqXqXqXXXH.C.Z.Z.H.H.H.H.Z.Z.H.H.H.H.H.H.H.H.H.H.E.Z.Z.Z.|.yXyXXXJ.H.H.).Z.Z.E.E.Z.).).).E.Z.E.).H.J.H.H.).H.).H.~.}..X).).'..X'.c.N f f : zXaXsXhXU.G.I.I.Z.Z.).J.H.H.H.H.).).).J.J.J.J.Z.Z.J.J.J.J.J.J.J.J.J.J.J.J.J.J.Z.Z.J.J.Z.Z.Z.E.Z.Z.Z.Z.Z.Z.E.E.R.Z.).}.K.|.).Z.}.7.M a i., 0XsX5XhXI.I.Q.Q.E.E.E.E.E.E.C.C.Z.Z.C.C.J.|.yXyXyXtXyXyXXXH.E.Z.Z.Z.H.C.H.yXXXyX|.C.C.E.Z.E.E.E.E.E.E.E.).).H.C.H.|.XXyXXXJ.Z.Z.Z.Z.Z.Z.Z.Z.H.H.H.H.H.H.H.H.E.E.E.E.E.E.E.E.|.}.}.'.(.'.(.3.d f ; p MXeXrX3XE.E.E.E.E.Z.B.B.Z.Z.Z.Z.",
"E.E.Z.C.H.J.F.G.G.F.J.J.C.Z.E.E.).).).}.).).).}.}.}.}.}.).).).).E.R.E.).}.).).).'.).}.}.).}..X~.C.E.).).).Z.J.}.Z.Z.Z.Z.Z.Z.Z.Z.E.).).E.E.).).E.l.9 < <   v.uX7XyXJ.H.J.J.E.E.E.Z.Z.E.E.E.E.E.E.E.Z.E.E.E.E.E.E.E.E.Z.E.E.E.E.E.E.Z.E.E.E.E.E.E.E.E.E.E.E.E.E.E.I.).}.E.!.R.~.}.B.I.B.A.J.3.0 < $   {.5X7XfXB.B.$X^.}.}.}.}.}.}.E.).).J.Z.J.}.}.H.J.H.H.H.(.H.N.}..X}.}.}.).).XXH.).).Z.E.).E.~.).).).}.'.).).).E.C.C.).H.).).C.}.}.}.}.}.}.}.}.).).).}.).}.}.}.}.}.}.}.}.}.}.}.Z.A.E.E.C.R.W.&.X X   r uX3XrXqXI.}.}..X.X}.}.I.}.}.}.}.",
"E.}.).H.).J.F.K.K.G.J.).H.).).E.E.E.E.E.E.E.E.E.E.E.E.E.E.E.E.E.E.E.E..X.XE.C.C.H.).).E.R.E.^.R.'.).).).J.C.C.H.J.).).).).).J.J.J.).).H.H.).).C.c.y < < > xXuX7XyXI.C.J.E.E.^.^.E.E.E.E.E.Q.Q.Q.E.E.E.E.E.E.E.E.E.E.E.E.E.E.E.E.E.E.E.E.E.E.E.E.E.E.E.E.E.E.E.E.I.Z.~.^.Q.^..X}.G.I.B.B.OX(.[ h h   0XeX6XkXB.B.Q.Q.E.Z.B.Z.Z.E.E.E.Z.Z.C.Z.Z.Z.H.H.H.Z.Z.).).H.E.~.E.E.).E.C.H.Z.).).E..X}.~.^.E.E.E.E.E.E.E.E.).E.).).E.).).J.E.E.E.E.E.E.E.E.E.E.E.E.E.E.E.E.Z.Z.Z.Z.Z.Z.Z.Z..X~..X.XE.'.'.&.f < : t NXeXhXqXG.J.Z.~.~.~.S.S.E.E.E.E.",
").).).).).).).).).).).).).).).).).).).).).).).).).).).).).).).).).).).).).).).).).).).).).).).).).).).).).).).).J.J.J.J.J.).E.E.Q.'.Q.E.'.).C.).7.7 ; 1 ; xXMX5XgXK.B.G.J.J.}.Z.).).).).).).).).).).).).).).).).).).).).).).).).).).).).).).).).).).).).).).).).J.J.J.J.).E.E.E.(.E..XZ.).`.9 a g : 0.sXeXyX|.B.Q.Q.E.J.J.J.J.J.E.E.E.E.E.E.E.E.).).).).).).).).).).E.).).).).).).).).).).).).).).).).).).).).).).).).).).).).).).).).).).).).).).).).).).).).).J.J.J.J.J.J.J.J.).).).Z.E.'.W.2.2 a a M SXeXgXoXJ.J.).E.E.E.).J.).).).).",
").).).).).).).).).).).).).).).).).).).).).).).).).).).).).).).).).).).).).).).).).).).).).).).).).).).).).).).).J.J.J.).E.E.E.E.T.Q.R.E.).).Z.).%X0 1 s 1 *XuX6XgXU.B.G.J.).}.Z.).).).).).).).).).).).).).).).).).).).).).).).).).).).).).).).).).).).).).).).).J.J.J.J.).E.E.E.(.E..XZ.'.`.9 a g : 0.pXeXyX|.B.Q.E.).J.J.J.J.E.E.E.E.E.E.E.E.E.).).).).).).).).).).E.).).).).).).).).).).).).).).).).).).).).).).).).).).).).).).).).).).).).).).).).).).).).).J.J.J.J.J.).).E.).).).Z.E.'.W.2.> a a M SXeXgXoXJ.J.).E.E.E.).J.).).).).",
").).).).).).).).).).).).).).).).).).).).).).).).).).).).).).).).E.E.).).).).).).).).).).).).).).).).).).).).).).).).E.E.E.E.E.Q.^..X.X).}.).Z.H.%X0 1 f : *XuXrXiXK.B.H.J.J.}.E.).).).).).).).).).).).).).).).).).).).).).).).).).).).).).).).).).).).).).).).).J.J.).J.).E.E.E.(.E..XZ.'.`.9 a g ; 0.pXeXyX|.B.E.J.J.J.J.).E.Q.E.E.E.E.E.E.E.E.).).).).).).).).).).).).).).).).).).).).).).).).).).).).).).).).).).).).).).).).).).).).).).).).).).).).).).).).Z.Z.E.).E.E.E.E.).).).Z.E.'.W.2.> a a M SXeXgXoXJ.J.).E.E.E.).J.).).).).",
").).).).).).).).).).).).).).).).).).).).).).).).).).).).).).).).).E.).E.).).).).).).).).).).).).).).).).).).).).E.E.E.E.E.Q.Q.Q.~.~.E.Z.Z.C.C.C.#Xx 1 s : *XNXfXiXK.B.H.J.).}.E.).).).).).).).).).).).).).).).).).).).).).).).).).).).).).).).).).).).).).).).).J.J.J.J.).E.E.E.(.E..XZ.'.`.9 a g ; 0.pXeXyX|.B.J.J.J.J.J.E.Q.Q.E.E.E.E.E.E.E.E.).).).).).).).).).).).).).).).).).).).).).).).).).).).).).).).).).).).).).).).).).).).).).).).).).).).).).).).).E.E.E.E.E.E.Q.Q.).).).Z.E.'.W.2.> a a M SX5XfXoXJ.J.).E.E.E.).J.).).).).",
").).).).).).).).).).).).).).).).).).).).).).).).).).).).).).).).).).).).).).).).).).).).).).).).).).).).).).).).Q.Q.Q.E.E.E.E.E.Z.E.E.E.).'.(.[.b.N 1 < : *XNXrXiXK.B.H.J.}.}.E.).).).).).).).).).).).).).).).).).).).).).).).).).).).).).).).).).).).).).).).).J.J.J.J.).E.E.E.).E..XZ.).`.y a g > 0.pXeXyX|.B.J.J.J.J.J.E.Q.Q.E.E.E.E.E.E.E.E.).).).).).).).).).).).).).).).).).).).).).).).).).).).).).).).).).).).).).).).).).).).).).).).).).).).).).).).).).E.E.E.E.E.Q.Q.).).).Z.E.'.`.2.; a < y SX5XfXoXJ.J.).E.E.E.).J.).).).).",
").).).).).).).).).).).).).).).).).).).).).).).).).).).).).).).).).).).).).).).).).).).).).).).).).).).).).).).).Q.E.E.E.E.E.).).}.}.E.'.[.7.4.l.j.f < 2   *XNXrXiXK.B.H.).}.}.E.).).).).).).).).).).).).).).).).).).).).).).).).).).).).).).).).).).).).).).).).J.J.J.J.).E.E.E.).E..XZ.'.].y a g > 0.sXeXyX|.B.E.J.J.J.J.).E.Q.).).).).).).).).).).).).).).).).).).).).).).).).).).).).).).).).).).).).).).).).).).).).).).).).).).).).).).).).).).).).).).).).J.J.).).E.E.E.E.).).).Z.E.'.W.2.; < < y ZX5XfX XJ.J.).E.E.E.).J.).).).).",
").).).).).).).).).).).).).).).).).).).).).).).).).).).).).).).).).).).).).).).).).).).).).).).).).).).).).).).).E.E.E.E.).).J.J.K.B.C.`.7.u : 8 V < d 2   m.MXeXiXJ.C.H.).}.}.E.).).).).).).).).).).).).).).).).).).).).).).).).).).).).).).).).).).).).).).).).J.J.J.J.).E.E.E.).E..XZ.'.`.9 a g > 0.sXeXyX|.B.Q.E.).J.J.J.J.E.).).).).).).).).).).).).).).).).).).).).).).).).).).).).).).).).).).).).).).).).).).).).).).).).).).).).).).).).).).).).).).).).J.J.J.J.J.).).E.).).).Z.E.'.W.2.; < < y ZX5XfX XJ.J.).E.E.E.).).).).).).",
").).).).).).).).).).).).).).).).).).).).).).).).).).).).).).).).).).).).).).).).).).).).).).).).).).).).).).).).E.E.).J.J.J.J.J.K.F.H.=Xl.M ; 1 < o m 2 O v.MXqXyXJ.C.H.).}.}.E.).).).).).).).).).).).).).).).).).).).).).).).).).).).).).).).).).).).).).).).).J.J.J.J.).E.E.E.).E..XZ.'.`.9 a g > 0.pXeXyX|.B.Q.Q.E.J.J.J.J.J.J.J.J.J.J.J.J.J.).).).).).).).).).).).).).).).).).).).).).).).).).).).).).).).).).).).).).).).).).).).).).).).).).).).).).).).).J.J.J.J.J.J.J.J.).).).Z.E.'.`.2.  < < y ZX5XfX XJ.J.).E.E.E.).).).).).).",
"J.J.J.J.J.J.J.J.J.J.J.J.J.J.J.J.J.J.J.J.J.J.J.J.J.J.J.J.J.J.J.J.J.J.J.J.J.J.J.J.J.J.J.J.J.J.J.J.H.H.'.'.'.'.).H..X).I.I.G.J.}.}.J.B.J.[.7.7 : < d X d 2 : ].uXiXaXY.F.G.J.E.'.'.E..X}.~.OX}.}.}.Z.|.|.).).).Z.E.'.'.R.R.Z.J.J.C.E.E.E.E.E.E.E.E.E.E.E.E.E.E.E.E.).).J.J.J.J.J.J.[.).}.A.~.%XM d o > *XmXyXgXG.K.Q.Q.Q.'.).H.H.H.J.J.J.J.J.J.J.J.J.J.J.J.J.J.J.J.J.J.J.J.J.J.J.J.J.J.J.J.J.J.J.J.H.H.H.(.H.H.H.J.~.~.~.~.E.).).).J.J.J.J.J.J.J.J.J.J.J.J.J.J.J.J.).).).).).).).).E.Z.}.}.}.[.[.%.h < : @.bXIXyXoXK.H.Q.^.^.Q.H.K.J.J.J.J.",
"J.J.J.J.J.J.J.J.J.J.J.J.).J.).J.J.J.J.J.J.J.J.J.J.J.J.J.).J.).J.J.J.J.J.J.J.J.J.J.J.J.J.).J.).J.H.).'.Q.Q.'.).H.).C.C.B.B.C.E.E.}.}.).'.3.u 1 f j X o 2 : zXuXrXiXK.F.J.J.Z.'.'.C.E.E.E.~.~.Z.Z.V.C.Z.E.}.'.E..XR.W.'.).).}.}.J.E.E.E.E.E.E.E.E.E.E.E.E.E.E.E.E.).).).).).).).).(.Z.S.A.E.7.3 o   3 v.HXCXtX(.H.Q.Q.E.E.).J.J.J.J.J.J.J.J.J.J.J.J.).J.J.J.J.).).J.J.J.J.J.J.J.J.J.J.J.J.J.J.J.J.).).).).E.E.E.~.E.E.E.E.E.E.E.E.J.J.J.J.J.J.J.J.J.).J.J.J.J.).).).).).).).).).).C.C.Z.).Z.'.`.%.X X ; B v.CXnXCXH.).E.^.^.E.).H.).J.J.J.",
"E.E.E.E.E.E.E.E.E.E.E.E.E.E.E.E.E.E.E.E.E.E.E.E.E.E.E.E.E.E.E.E.E.E.E.E.E.E.E.E.E.E.E.E.E.E.E.E.).'.Q.Q.Q.Q.).).}.J.J.J.J.}.oX.X}.).E.Q.2.I 9 N V d < 2 : *XtX3XrXL.B.J.J.E.'.'.).OXOXS.}.}.Z.C.}.).).E.R.~ F F F ..Q.Q.E.Z.B.A.J.J.J.J.J.J.J.J.E.E.E.E.E.E.E.E.).).).).).).).).'.).OXB.}.%XM 2 d d X 3 : 6 3.'.Q.Q.E.E.).J.J.J.E.E.E.E.E.E.E.E.E.E.E.E.E.E.E.E.E.E.E.E.E.E.E.E.E.E.E.E.E.E.E.E.~.~.~.~.~.~.~.~.).).).).E.~.~.~.E.E.E.E.E.E.E.E.E.E.E.E.E.E.E.E.).).).).).).).).}.).OXOXJ.'.(.%.j j a f M 9 , t '.'.E.S.S.E.'.'.E.E.E.E.",
"E.E.E.E.E.E.E.E.E.E.E.E.E.E.E.E.E.E.E.E.E.E.E.E.E.E.E.E.E.E.E.E.E.E.E.E.E.E.E.E.E.E.E.E.E.E.E.E.E.E.Q.Q.Q.Q.E.E.J.C.Z.).E.)..XQ.'.).E.E.T.U 0 [ V a a < : *XtX3XwXK.B.I.S.Z.E.'.H.}.J.C.Z.Z.C.C.E.C.C.Q.Q...F F 5 ..&X'.E.).I.B.J.J.J.J.J.J.J.J.E.E.E.E.E.E.E.E.E.E.E.E.E.E.E.E.H.C.I.Z.'.%X9   # j + j X ; 6.W.E.E.E.E.E.E.Z.Z.E.E.E.E.E.E.E.E.E.E.E.E.E.E.E.E.E.E.E.E.E.E.E.E.E.E.E.E.E.E.E.E./.~.~.~.E.E.).).(.(.).).E.~.~.~.E.E.E.E.E.E.E.E.E.E.E.E.E.E.E.E.).).).).).).).).}.J.I.I.C.(.R.%.< a $ $ g X   , Q.'.J.P.D.J.E.Q.E.E.E.E.",
"E.E.E.E.E.E.E.E.E.E.E.E.E.E.E.E.E.E.E.E.E.E.E.E.E.E.E.E.E.E.E.E.E.E.E.E.E.E.E.E.E.E.E.E.E.E.E.E.E.E.E.E.E.E.E.Q.}.J.).}.E.E.E.R.'.[..XE.T.E D G M < < < : *XMXiXtXK.J.}.~.E.E.E.C.H.Z.C.Z.).).'.'.'.Q.&X&X2.H F 5 ..&X.XE.}.}.Z.J.J.J.J.J.J.J.J.E.E.E.E.E.E.E.E.E.E.E.E.E.E.E.E.Z.Z.}.Z.'.c.9   g u.+ u.a : l.W.E.E.E.E.E.E.E.E.E.E.E.E.E.E.E.E.E.E.E.E.E.E.E.E.E.E.E.E.E.E.E.E.E.E.E.E.E.E.E.E.E.E.E.).).(.(.(.(.(.(.).).~.~.~.E.E.E.E.E.E.E.E.E.E.E.E.E.E.E.E.).).).).).).).).Z.C.Z.Z.Z.'.&X8.< d $ = y.g a N Q.E.J.P.P.J.E.Q.E.E.E.E.",
"E.E.E.E.E.E.E.E.E.E.E.E.E.E.E.E.E.E.E.E.E.E.E.E.E.E.E.E.E.E.E.E.E.E.E.E.E.E.E.E.E.E.E.E.E.E.E.E.E.E.E.Z.Z.E.E.E.}.E.R.Q.E.Q.).E.R.'.}.E.A.^ P P B 1 < s : c.0XeX|.H.Z.}.~.~.E.E.J.).).)..XE.R.W.'.'.Q.W.!.~ F F F ~ Q.E.R.E.Z.C.J.).J.J.J.J.J.J.E.E.E.E.E.E.E.E.E.E.E.E.E.E.E.E.}.E.E.V.W.c.z 1 j g @ f ; 6 7.&X~.~.~.~.~.~.~.~.E.E.E.E.E.E.E.E.E.E.E.E.E.E.E.E.E.E.E.E.E.E.E.E.E.E.E.E.E.E.E.E.'.'.'.(.(.(.(.(.(.(.(.).).E.~.~.E.E.E.E.E.E.E.E.E.E.E.E.E.E.E.E.).).).).).).).).).E.}.E.V.W.+X5.n k g g y.s ; 9 '.).J.P.P.J.).'.E.E.E.E.",
").).J.J.J.J.J.J.).).J.J.J.J.J.J.).).J.J.J.J.J.J.).).J.J.J.J.J.J.).).J.J.J.J.J.J.).).J.J.J.J.J.J.E.E.J.J.B.Z.E.E.T.E E E ~ R.J.B.C.).).B.B.C.V.C.k.9 1 s : r.{.2X'.H.).}.~.~.~.E.H.H.E.E.E.~ P P D P P P W 2.R.W.C.E.).).}..X.X~.E.E.E.E.E.E.E.E.E.E.E.E.E.E.E.E.E.E.E.E.E.E.E.E.~.V.~ F U } 1 < . X g.;X%X`.3.3.~.~.~.~.~.~.~.~.J.J.).J.).J.J.J.J.J.J.J.J.J.J.J.J.J.J.J.J.J.J.J.J.J.).J.J.J.J.J.'.'.'.'.'.E.E.E.).).).).).).).).J.J.).J.).J.J.J.J.J.J.J.J.J.J.J.).).).).).).).).R.R.E.V.E U ` / > < < s C x / X.'.).J.I.I.J.).(.J.J.J.J.",
"J.J.J.J.J.J.J.J.J.J.J.J.J.J.J.J.J.J.J.J.J.J.J.J.J.J.J.J.J.J.J.J.J.J.J.J.J.J.J.J.J.J.J.J.J.J.J.J.E.J.J.G.G.J.J.E.T.E S F ~ E.}.G.C.(.I.I.S.S.}.}.c.z 1 s ; 6.=.L.(.E.}.}.~.~.~.E.H.(.)..X'.~ D D D U P 5 D &.R.(.}.J.Z.Z.~.~.~.E.E.E.E.E.E.E.E.E.E.E.E.E.E.E.E.E.E.E.E.E.E.E.E.E..X!.Q 5 G | 1 s o   >.W.E.XXV.(.~.~.~.~.~.~.~.~.J.J.J.J.J.J.J.J.J.J.J.J.J.J.J.J.J.J.J.J.J.J.J.J.J.J.J.J.J.J.J.J.E.E.E.~.~./././.).).).).).).(.).J.J.J.J.J.J.J.J.J.J.J.J.J.J.J.J.).).).).).).).).R.E..XT.F S H / < < ; 3 N G J Q H.H.J.S.S.J.H.H.J.J.J.J.",
"J.J.I.I.I.J.J.J.J.J.J.J.J.J.I.I.J.J.I.I.I.J.J.J.J.J.J.J.J.J.I.I.J.J.I.I.I.J.J.J.J.J.J.J.J.J.I.I.}.}.}.).J.).J.).#XX.S S E Z.I.G.'.}.}.D.Z.J.).(.r.p     f 4.[.U.}.B.B.P.D.D.OXOXJ.C.B.J.Z.W 7 u 8 x [ x I 1.`.(.[.[.'.E.'..X.XE.I.}.).).).).}.I.Z.C.].e.q.].H.Z.I.}.'.Q.'.E.Z.S.'.R.R 6 y M < < . 3 ;.=X[.'.F.F.).).).'.'.).).).J.J.J.J.J.J.I.I.J.J.I.I.I.J.J.J.J.J.J.J.J.J.J.J.J.J.I.I.J.J.J.J.S.B.B.I.}.I.I.I.N.G.J.J.J.I.I.B.J.J.J.J.J.J.I.I.J.J.I.I.I.I.J.J.K.H.H.H.C.Z.}.~.Z..X.XT.F G H 0 $ $ g f N / H Q `.'.&X'.'.'.`.[.J.J.J.J.",
"H.H.H.H.H.H.H.H.H.H.H.H.H.H.H.H.H.H.H.H.H.H.H.H.H.H.H.H.H.H.H.H.H.H.H.H.H.H.H.H.H.H.H.H.H.H.H.H.).).).).).).).).X.H D F W &.'.'.&X&XQ.!.W.W.w.w.h.M d g c g.%X(.3.(.).U.I.Z.R.Q.Q.E.E.[.'. ._ C 8 x / / H ..W.3.V.R.E.E.E.E.~.Z.Z.H.).(.(.).H.Z.'.`.7.k.6.7.[.[.I.}.E.W.Q.Q.R.Z.Q.W.T u M M f a g k :.c.+XW.(.K.).).).).).).E.).H.H.H.H.H.H.H.H.H.H.H.H.H.H.H.H.H.H.H.H.H.H.H.H.H.H.H.H.H.H.H.H.}.}.).E.W.W.W.W.[.`.'.[..XS.C.A.H.H.H.H.H.H.H.H.H.H.H.H.H.H.H.H.I.}.}.Z.C.Z.E.E.T.W.W.1.I u N 9 @ @ # f z x H ` 3.R.T.!.E.~.E.).H.H.H.H.",
").).).).).).).).).).).).).).).).).).).).).).).).).).).).).).).).).).).).).).).).).).).).).).).).'.'.'.'.'.'.'.'.=XW.R.W.%.P P P | ` ` | _ y r e V j y.y.y.h M 7 r 6.].(.'.&.L T U U U !  .0 1 h q x / G 5 H ` H E V.Q.}.~.~.I.B.J.J.).'.'.).J.J.W.7.u V M u %XW.}.R.~ U ! ! E E U I 6 : 1 f a a a a k V z 0 ! C.}.}.}.}.}.}.}.}.).).).).).).).).).).).).).).).).).).).).).).).).).).).).).).).).).'.W.! U ' _ N 9 4 G 5.'..X}.OX).).).).).).).).).).).).).).).).S.}.E.V.E E W P t Y Y 9 : 2 2 X a d d d k f 8 x ! ! E 1X~.OXOXOX).).).).",
"Z.Z.Z.Z.Z.Z.Z.Z.Z.Z.Z.Z.Z.Z.Z.Z.Z.Z.Z.Z.Z.Z.Z.Z.Z.Z.Z.Z.Z.Z.Z.Z.Z.Z.Z.Z.Z.Z.Z.Z.Z.Z.Z.Z.Z.Z.Z.Z.E.E.E.E.E.W.W.W.H.N.H.[.2.D D U / / b x z <     j g y.i.y.h s : ; 4.%X`.[.! 4 7 0 J G I I 8 < a 8 b H G 5 G ( J 5 ~ Q.E.Z.Z.S.B.B.B.Z.Z.Z.Z.B.B.R.W.: s < : %XR..XT.U 5 D J D F G 0 1 < f j g j s < o a X 1 T '.C.Z.C.C.C.Z.Z.C.Z.Z.Z.Z.Z.Z.Z.Z.Z.Z.Z.Z.Z.Z.Z.Z.Z.Z.Z.Z.Z.Z.Z.Z.Z.Z.Z.Z.Z.Z.Z.Z.}.}.T.L 5 0 l < 1 ; 4 4.'.E.A.B.Z.Z.Z.Z.Z.Z.Z.Z.Z.Z.Z.Z.Z.Z.Z.Z.E.^.Q.! D 7 7 4 9 u M 3 2 < d o a d d # d d < a G D S K A././.D.Z.Z.Z.Z.",
"}.}.}.}.}.}.}.}.}.}.}.}.}.}.}.}.}.}.}.}.}.}.}.}.}.}.}.}.}.}.}.}.}.}.}.}.}.}.}.}.}.}.}.}.}.}.}.}..X.X.X.X.X.X.X.XG.N.).XXR.P F U ( ( / [ C f < < a $ y.i.g j k < : k.-X&X>X..5 H | _ _ I _ 9 < a 8 x _ _ G _ | d.5 ..-X&X'.[.'.H.I.I.}.}.}.}.I.I..X&X4 s s 4 -X.X=X+X| 0 / _ U U [ C f d k j g g 2 > o @ X 1 1.XXJ.).).).).).).).}.}.}.}.}.}.}.}.}.}.}.}.}.}.}.}.}.}.}.}.}.}.}.}.}.}.}.}.}.}.}.}.OXOXE.U G / v l f 1 M k.*X'.C.J.}.}.}.}.}.}.}.}.}.}.}.}.}.}.}.}.Q.:X&X .I I _ u [ [ [ c s a a $ a d @ @ # # # a _ I G Q !..X~.~.}.}.}.}.",
"W.W.W.W.W.W.W.W.W.W.W.W.W.W.W.W.W.W.W.W.W.W.W.W.W.W.W.W.W.W.W.W.W.W.W.W.W.W.W.W.W.W.W.W.W.W.W.W.W.W.W.W.W.W.W.W.[.(.'.&X5.U 5 q H G 0 M z f 1 s @ X a a a @ # . : g.l.7.W.] 0 / x N 0 u u 3 X @ 1 s N N x x C v I g.c.c.l.%X`.7.E.E.W.`.`.W.E.E.W.4.8 h s 8 l.W.l.g.[ z v C [ _ c k a a j a + @ 2   o o X < ' w.`.`.`.`.`.`.`.`.W.W.W.W.W.W.W.W.W.W.W.W.W.W.W.W.W.W.W.W.W.W.W.W.W.W.W.W.W.W.W.W.T.W.2.I 0 N v l 2 ; 3 :.c.w.`.`.W.W.W.W.W.W.W.W.W.W.W.W.W.W.W.W.5.l.l.} u M N z b v v c s a a $ a j a @ # # @ # Z C N ' z.+XW.7.W.W.W.W.",
"y y y y y y y y y y y y y y y y y y y y y y y y y y y y y y y y y y y y y y y y y y y y y y y y u 0 u u u u u u 6 8 M N z b z z 9 9 3 2 d d d d u.g j k a # % & a f M B 0 9 l c s z 8 8 9 f a % X < f k a 1 3 3 3 z M M M M M y u y M M M M y u 0 3 2 # # d M 0 u M f h f s 1 1 h g a # j # @ d - # f f a h V M N N N N N N N N y y y y y y y y y y y y y y y y y y y y y y y y y y y y y y y y M M z 3 1 s s < f f f M N M 9 9 y y y y y y y y y y y y y y y y B u M 8 ; 1 1 1 s s f f a j j j h y.j @ % a a a o d < 3 z M M M M y y M ",
"@ @ @ @ @ @ @ @ @ @ @ @ @ @ @ @ @ @ @ @ @ @ @ @ @ @ @ @ @ @ @ @ @ @ @ @ @ @ @ @ @ @ @ @ @ @ @ @ X X X X X X X X + @ a $ X + $ + 2 2 o . . # j g y.$ j j @ @ & & - + o f < < k i.a s 1 1 s a $ = o X % j @ o 2 > 2 2 ;   < < < < @ @ $ & & $ @ @ X . % * * * . X ; ; < a j a < ; s a # # # @ X a = & @ a h i.g . $ $ $ $ $ $ $ $ @ @ @ @ @ @ @ @ @ @ @ @ @ @ @ @ @ @ @ @ @ @ @ @ @ @ @ @ @ @ @ @ + X + d d d d d X < a a h f s s @ @ @ @ @ @ @ @ @ @ @ @ @ @ @ @ > ; > ;   < s s < < < @ @ # % * $ y.$ $ j j d f + # # < < o . o @ @ @ @ ",
"d d d d d d d d d d j j j d d j h h g @ d d O O g a < a g $ @ # i.a.k k g + % . o X # j j @ o X j + + j g j i.g a a a a a a a a j j # # j j @ @ % % % j j j j j g g g g g g g g a.y.g a X @ j % - % u.j $ o o o o o   X a a g h g g g j j j j j $ $ $ g j j j j k k j g g g g g $ j j j j j j $ g h h h g g @ j # # @ . + g h g . # X . j k s s i.i.u.$ $ g j j j j j g g $ j a.$ a j k a a j k j j j j j j j j g g g j j j j j @ k a h c 1 h g y.u.# # d d @ @ @ d f < f f h h a k a.j g $ g g j g $ g y.i.i.g d d k + p.# # + d d d d ",
"> > > > > > > > > > > > > > > > : : ; 2 o o o d X 2 > : 1 1 > > ; ; : e f + m # d @ j u.u.j d @   > > > > > > ; > > > > > > > > ; ; ; ; > > ; ; > > > > > > > > , > > > > > > > : ; ; > 2 2 d m % % j u.j d f 2 O O > 3 > , , : : : : > > > > > ; > > > > > > : : : : , : : ; ; ; ; ; ; ; ; ; ; ; : : : , 2 X . # j # X # g g y.d # d f 1 : ;   ; > >   ; : > > > : ; : ; ; ; 3 ; ; > > : : : : > > > > > > > > : : : > > > > >   3 ; 3 6 > f X $ j j d d d # g j d 2 > , : ; : ; : : ; ; ; > ; > ; ; ; ; ; ; ;     > > 2 o j j ; ; ; ; ",
"e.e.e.e.e.e.e.e.e.e.e.e.e.e.e.e.nX0.v.v.y   o X :.v.e.w.c.;Xe.0.e.q.0.v.:.X @ . d @ $ g g g g $ +.r.e.r.e.e.t.q.q.q.q.q.q.q.q.q.r.e.e.e.e.e.e.e.q.q.q.q.q.q.q.q.e.e.q.q.q.q.q.q.0X0Xq.r.9.y   2 + + @ # # # g g o O.v.e.0.q.0.t.q.q.q.q.q.q.q.q.0.0.e.].e.q.0.=.0.0.q.e.].e.e.0.q.q.q.q.q.q.q.q.r.e.q.=.e.v.O.d $ % @ . . @ $ y.a X Z b.v.e.0X].q.q.0.0.0.q.e.e.q.0.0.0.0.0.e.e.e.0.q.e.q.q.q.8.q.q.q.q.q.q.q.q.q.q.q.q.q.q.q.q.q.e.w.*X0.e.v.M X o o # # @ @ $ % X   A 9.e.q.].0.0.0.0.q.q.q.q.q.q.q.q.0.0.0.0.e.e.e.x.> > d @ e.e.e.e.",
"iXiXiXiXNXNXNXNXiXiXiXiXiXiXiXiXkX3XDXHXi   f k r.MXDXuXNXLXiXrXeX5X2XZXk.< a j d a j g g g j j p bXSX0XZXpX2XsXpXpXpXpXpXpXpXpXuXiXiXiXiXiXiXLXiXiXiXaXiXiXiXiXaXaXaXaXaXaXaXaX8XsXeXpXHX<.; f $ # d d # a y.y.X j.HXSXeXsXaXpXaXaXaXaXaXaXaXaXiXiXiXaXaXiXeX3XqXeXiXAXAXNXiXuXiXiXrXsXrXrXiXiXdXAXsXeXpXvX:.X g j # o # # g y.a.1 k.JXVXuXkXsXsXaXrXiXiXiXiXiXaXuXuXuXuXuXuXuXAXiXaXaXuXuXiXuXaXaXaXaXiXaXaXaXaXaXaXaXaXaXaXaXsXpXuXAX9XuXSXp > 3 2 o # # $ y.i.# 2 <.vXBXeXuXaXaXiXuXsXsXsXsXsXsXaXaXiXiXiXiXuXdXbXcX: 2 f k NXNXNXNX",
"rXrX6X6X6X6XrXrX4X6X4X4X4X4X4X4XsX2XAXSXp   : 1 =.0XaXrXwXfXlX7X3X7X2XMX6.< a h f f k k X X < ; t 0XAX0XaXiX2XrXuXuXuXuXuXuXuXuX7X6X7X7X6X6X7X6XwXwXwXwXwXwXwXwXeXeXeXeXeXeXeXeX7X5X2XuXBX'   s X a d d @ @ a h   g.HXAX3X5XeXeXrXrXrXrXrXrXrXrXqXwXrXrXrX4X3X3X3XqXwXrXiXiXwXwX4X4X4X4X4X4X4X4XtXuX5X3XiXbX'   s a # # * # < a 1 : >.VXwX3X6X7XrXrXrXrXwXwX3X3X3X5XrXeXqXqXqXqXrXwXrXwXqXqXwXqXrXrXrXrXrXwXrXrXrXrXrXrXrXrXrXrX6X5X3XrX2XeXAXt > >   o # # % j y.+   <.vXMXqXqXrXrXrX5X3X3X3X7X3X3X3X3XeXrXrXrXtXtXnXcX: ; < f wXwXwXwX",
"rXrXrXrXrXfXrXfXrXrXrXrXrXrXrXrXDXbXBXxXY : : 4 {.uXkXrXjXgXfX6XhXfXrXVXl.1 h h < < s < ; : > ; %.tXVXNXLXLXyXhXNXNXNXNXNXNXiXiX6X6X6X6XfX6X7X4XgXgXgXgXgXgXgXgXyXgXyXyXmXyXyXyXfXkXrXNXCX] : 8 ; ; 2 d o 2 3 8 3 4.cXVXyXwXwXqXiXiXiXiXiXiXiXiXyXyXyXiXiXgXgXhXhXgXiXiXiXyXyXyXrXrXrXwXwXrXrXrXtXiXiXrXLXnX1.4 : 1 d # # o ; 6 : : #.0XqXrXfXrXiXyXhXhXhXiXwXwXrXrXfXrXiXiXwXwXyXwXiXiXyXiXiXyXiXiXiXiXiXiXgXgXiXiXiXiXiXiXiXiX6XgXwXwXwXiXAX%.: , ; X o @ a d < ; : ;.CXIXLXLXyXyXiXiXrXrX6XrXrXrXrXrXiXyXyXyXIXLXVX=X7 : : : rXrXrXrX",
"_._._._.K.K.K.K.|.|.|.|.|.|.|.|.:.i i i <.w.`.W.H.K.Y.U.}.).K.K.J.Y.G.tX%X} z.z.V f < 3 i <.r.t.C.J.).|.|.|.|.OX|.|.|.|.|.|.|.|.K.wXiXiXiX|.L.L.|.|.|.|.|.|.|.|.OXOXOXOXOXOXOXOXI.H.J.tXXXW.8.6.-.M f d m Z ,.w.8.0.[.XX|.|.U.U._._._._._._._._.XX_.K.K.K.qXwXiXwXwX|.U.I.I.U.|.K.U.wXwXwXwXU.K.).|.|.|.XX(.%.R 1.} V j # 2 i e.w.w.{.L.K.K.J.J._._.XXyXiXrXrXrX4XrXrXwXrXrXqXU.K.K.|.yXiXyXwXU._._._._._._._._._._._._._._._._.J.oX}.OXU.K.[.%.;.>.:.M f 2 f Z 7.7.3.H._._.J.).|.}.|.|.wXwXrXrXwXiXyXqX|.|.|.|.K.K._.H.0.t.r.9._._._._.",
"H.H.H.H.H.H.H.H.(.{.(.(.(.(.(.(.d X O ; v.JXUXIX(.K.N.B.).R.C.H.J.G.N.|.[.+X;X%Xg.3   : -.vXFXZXyXJ.N.J.C.Z.S.A.B.B.B.B.B.B.B.B.J.tXNXVXNX_.F.N.N.N.B.B.B.G.G.G.Z.Z.Z.Z.Z.Z.Z.Z.).V.C.).H.H.[.[.*X-.2 O 2 :.vXDXaX2XF.N.C.C.G.G.F.F.F.F.F.F.F.F.H.F.N.*.F.L.qXwXwXU.G.N.N.N.B.G.F.L.wXiXiXwXL.F.N.C.J.}.}.H.H._.[.%Xp.# . > t.DXvXMX9X=.L._.E.'.R.(.[.tXiXiX6XsX6X6X4X4XrXrX3XY.F.F.K.rXhXiXqXG.F.F.F.F.F.F.F.F.F.F.F.F.F.F.F.F.V.:XQ.E.}.Z.[.%X<X<Xb.p.<   f j.NXIXiXqXK.K.H.).J.C.N.U.wXrXrXrXiXiXiXqXK.H.H.H.G.B.G.F.AXpXZXdXH.H.H.H.",
").).).).).).).).).).).).).).).).a.d   , w.IXkX7XJ.B.B.K.H.H.(.(.F.).J.E..X'.`.`.;.: s < B BXtXyXtXH.H.).H.H.}.E.).).).).).).).).{.tXVXNXtX_.F.H.).).).).(.).).).E.E.E.E.E.E.E.E.^.^.~.~.S.S.J.J._.R ; j o +.AX7XrXU.J.).).E.E.}.).).).).).).).)..X).R.C.H.XXmXIXNXtX_.{.H.H.{.[.H._.tXtXtXtX_.H.).).).).H.H.G.G.F.].B X . ; 8.AXrXqX_.H.).H.H.U.F.H.K.eXiXrX5X5XwXuXuXwXuXuX9XL.F.F._.tXVXVXtX{.).E.E.E.).).).).).).).).).).).).J.J.J.J.J.J.J.J.(.0.*Xu 1 s ; <.iXwXyX XD.Z.}.E.'.W.(.|.wXrX6X6X6XrXrXqX|.}.E.~.~.~.I.OXwXrXrXrX).).).).",
").).).).).).).).).).).).).).).)., : ; 6 3.NXiX4XJ.Z.J.J.J.H.E.'.H.).).E.}.).(.`.;.: h s B BXtXyXtXH.H.).H.H.}.E.).).).).).).).).J.tXyXyXtXJ.F.J.).).).).).).).).E.E.E.E.E.E.E.E.^.~.~.~.S.J.J.J.[.Y < u.# O.DX6XrXU.J.).).E.E.}.).).).).).).).).'.).R.C.H.|.yXPXyXtXXXJ.H.H.(.(.H._.tXyXyXtX_.H.).).H.H.H.H.H.H.H.=XV $ $ 1 8.IXrXwX_.H.R.C.Z.Z.F.K.|.iXiXiXrXiXiXiXiXiXiXiXwX|.J.F.J.tXyXyXtXJ.).).E.E.).).).).).).).).).).).).J.J.J.J.J.J.J.J.(.(.*Xu 1 s ; <.iXwXwX XD.B.}.E.W.W.R._.qXwXrX6XeXrXwXXX}.Z.E.E.~.S.S.I.|.wXwXqX).).).).",
").).).).).).).).).).).).).).).).8.8.8.3.].tXtXqX).E.Z.J.E.~.E.^.E.).E.E.}.).(.(.>.; h s B HXtXiXtXH.H.).H.H.}.E.).).).).).).).).H.|.XXXX|.J.H.).E.E.E.E.E.E.E.E.J.J.J.J.J.J.J.J.~.~.~.~.S.J.J.J.&X' a y.$ Z VXrXrXU.J.).).E.E.}.).).).).).).).).).).E.Z.J.).|.XXXX|.J.H.C.).).'.H.).|.XXXX|.).H.H.J.J.J.J.).).).E.-XC h g 3 8.IXrXiXtX}..X.X~.~.G.K.U.XXXXXX|.|.|.|.|.|.|.|.J.G.).H.H.|.XXXX|.H.).).).).).).).).).).).).).).).).Z.Z.J.J.J.J.J.J.).W.&XI 1 s : ,.iXeXwXwXG.C.).E.'.E.'.'.|.U.U.Y._.XXXX|.).).~.~.}.~.}.I.|.|.U.K.).).).).",
").).).).).).).).).).).).).).).).iXiXNXyXXXH.*.N.'.E.E.E.~.~.~.^.Q.'.E.E.}.).H.J.;.: f < B BXwXrXtXH.H.).H.H.}.E.).).).).).).).).C.}.}.).).H.J.OX~.~.~.~.E.E.E.E.J.J.J.J.J.J.J.J.~.~.~.~.Z.J.J.J.[.Y s u.# O.DXrXrXU.J.).).E.E.}.).).).).).).).).).).).).J.J.H.H.J.J.B.C.Z.).}..X}.).J.J.J.J.).}.J.J.H.H.H.).E.Q.Z.&X[ a f > 8.VX3XwX|.J.}.}.~.E.B.B.J.).).E.R.C.I.I.J.J.J.J.C.C.OXJ.Z.J.).}.).Z.).).).).).).).).).).).).).).).).Z.J.J.J.J.J.J.J.E.E.&XH 1 s : ,.pXeXeXqXG.C.(.(.'.'.'.).).).H.H.'.'.).).).}.}.}.}.}.}.J.J.J.H.K.).).).).",
").).).).).).).).).).).).).).).).4XfXhXhXXXC.*.H.Q.E.E.E.~.~./.^.Q..X~.~.}.).H.J.-.; 3 > i MX5X6XyXH.H.).H.H.).E.).).).).).).).).C.).Z.Z.Z.Z.Z.OXE.E.~.~.~.E.~.~.J.J.J.J.J.J.J.J.~.~.~.E.).Z.H.H._.R < j @ -.AX6XrXU.J.).).E.E.}.).).).).).).).).E.E.E.).).J.Z.Z.J.Z.Z.Z.Z.E.E.}.}.).Z.Z.Z.Z.}.}.J.J.J.J.J.E.Q.Q.D..XI 2 2 > 8.DXeXiXqXK.K.I.S.D.C.B.J.Z.E.E.E.Q.}.).J.J.Z.B.Z.J.OXZ.Z.Z.Z.Z.).C.).).).).).).).).).).).).).).).).).).).).).).).).Z.E.&XH 8 s ; h.pXeXeXqXG.C.(.(.E.).).'.E.).H.H.Q.E.E.E.E.).Z.Z.E.E.).J.J.H.H.H.).).).).",
").).).).).).).).).).).).).).).).3XrXgXyXXXH.C.).Q.).).Z.Z.}.~.E.E.}.~.~.}.}.).(.-.; f > p dX5X6XyXH.H.).H.H.).E.).).).).).).).).Z.).J.Z.Z.Z.Z.}.E.E.E.E.E.E.E.E.J.J.J.).J.J.J.J.~.~.E.E.).).).)._.R ; d o -.AX7XrXU.J.).).E.E.}.).).).).).).).).E.E.E.).Z.Z.Z.Z.Z.Z.Z.E.E.E.).).Z.Z.J.J.J.J.Z.Z.Q.E.J.J.J.E.Q.Q.P.XXi   o > ,.BXVXMXtXK.U.I.B.S.J.).).).).).).E.J.Z.Z.Z.C.C.Z.).}.Z.Z.Z.Z.J.).Z.).).).).).).).).).).).).).).).).E.E.E.E.E.E.E.E.Z.Z.[.G 1 s   x.pXeXeXqXG.C.(.(.).).).).Z.E.E.E.E.R.E.E.).}.).Z.E.E.).).E.Z.E.E.).).).).",
").).).).).).).).).).).).).).).).K.|.XX}.).Z.N.B.E.).).H.H.H.).H.Z.}.~.~.}.}.'.'.:.< j < B vXeX6XtXH.H.).H.H.).E.).).).).).).).).E.).).).).Z.C.Z.).).).).).).).).E.E.E.E.E.E.E.E.Z.Z.Z.).).).).)._.Y < j @ -.AX6XrXU.J.).).E.E.}.).).).).).).).).}.}.).E.Z.Z.J.J.Z.E.).).).).'.'.Z.E.).).).).E.Z.Q.Q.E.J.J.J.E.Q.P.[.i o * X A ,.>.>.8.(.(.Z.V.E.).).).E.H.J.J.Z.'.).).).E.Z.).XXE.C.E.).).).).E.).).).).).).).).).).).).).).).).E.E.E.E.E.E.E.E.B.Z.[.I 1 k   x.uXeXwXwXG.C.).E.J.}.}.).Z.Z.E.E.B.B.Z.Z.}.}.}.).'.).).).E.E.E.E.).).).).",
").).).).).).).).).).).).).).).).H.{.(.'.'.}.J.I.E.).J.H.F.H.H.F.B.}.~.~..XQ.Q.'.j.a y.g Z HXuXiXtXH.H.).H.H.).E.).).).).).).).).).'.'.).'.).C.C.(.(.).).).).).).E.E.E.E.E.E.E.E.J.E.J.J.).).).).[.' s y.$ Z VXrXrXU.J.).).E.E.}.).).).).).).).).).E.E.E.Z.}.}.OX'.'.'.'.).'.'.E.).).).).).).).).@XQ.E.J.J.J.E.Q.C.=XB @ & + @ <   1 N l.>X&XQ.^.E.).).H.H.J.U.K.'.).).).E.C.).XXC.C.).'.).'.'.).).).).).).).).).).).).).).).).).E.E.E.E.E.E.E.E.H.H.[.u 1 j O x.iXwXwXwXG.B.}.E.B.J.I.J.Z.).).).I.I.B.B.}.}.).E.R.E.).).E.E..XoX).).).).",
").).).).).).).).).).).).).).).).).).).).).).).).).).).).).).).).Z.).).E.}.).E..X} ; d   i NXrXrXyXJ.Z.}.}.E.Q.Q.).).).).E.E.~.~.E.E.E.E.E.E.E.E.).).).).).).).).).).).).).).).).).).).).).).).).`.T < d < -.VXwXhX|.C.C.E.).}.}.).).).).).).).).).).).).).).).).).).).).).).).).).).).).).).).).E.E.E.).J.J.J.J.C.=XB + = % f > d   ' <X:XE..X).E.E.H.H.J.J.E.E.).).).).).).).).).).).).).).).).).).).).).).).).).).).).).).).).E.E.E.).).).).).E.R.-XN o j > ,.NXtXtXqXG.B.).E.).).).).).).).).).).).).).).).).).).).).).).).).).).).).",
").).).).).).).).).).).).).).).).).).).).).).).).).).).).).).).).Z.).).E.}.).E..X} ; d   i VXiXrXwXJ.B.}.}.E.E.E.).).).).E.E.~.~.E.E.E.E.E.E.E.E.).).).).).).).).).).).).).).).).).).).).).).).).[.] 1 d < -.VXwXiXXXH.Z.E.Z.J.}.).).).).).).).).).).).).).).).).).).).).).).).).).).).).).).).).E.E.E.).J.J.J.J.).=XM X $ + 2 > ; ; t R.E.Z.E.).'.).H.H.J.Z.~.~.).).).).).).).).).).).).).).).).).).).).).).).).).).).).).).).).E.E.E.).).).).).E.R.-XN < j   ,.NXtXyXqXG.C.).E.).).).).).).).).).).).).).).).).).).).).).).).).).).).).",
").).).).).).).).).).).).).).).).).).).).).).).).).).).).).).).).Z.).).E.}.'.E..X>.; d   i NXiXrXwXJ.C.I.).Z.E.E.).).).).E.E.E.E.E.E.E.E.E.E.E.E.).).).).).).).).).).).).).).).).).).).).).).).).&X] 3 d f -.VXwXiXXX).).E.C.Z.}.).).).).).).).).).).).).).).).).).).).).).).).).).).).).).).).).E.E.E.).J.J.J.J.~.&X0 < j < y <.t.8.R.E.}.E.E.[.(.(.H.H.J.S.~./.).).).).).).).).).).).).).).).).).).).).).).).).).).).).).).).).E.E.E.).).).).).E.R.-XN < d   ,.NXtXuXqXG.C.).E.).).).).).).).).).).).).).).).).).).).).).).).).).).).).",
").).).).).).).).).).).).).).).).).).).).).).).).).).).).).).).).Z.).).E.}.'.E..X>.; d X i CXtXuX XJ.B.J.J.Z.Z.Z.).).).).).).).).E.E.E.).E.E.E.E.).).).).).).).).).).).).).).).).).).).).).).).).[.] 1 d f -.VXwXiXXX).).E.C.C.J.).).).).).).).).).).).).).).).).).).).).).).).).).).).).).).).).E.E.E.).J.J.J.J.~.&Xx < f > <.HXMXVXXXB.I.S.C.'.(.(.H.H.J.S.~./.).).).).).).).).).).).).).).).).).).).).).).).).).).).).).).).).E.E.E.).).).).).).Z.-Xu < d   ,.iXwXrXqXG.C.).E.).).).).).).).).).).).).).).).).).).).).).).).).).).).).",
").).).).).).).).).).).).).).).).).).).).).).).).).).).).).).).).Z.).).E.}.).E..X>.  d X Y VXyXiX XJ.C.J.Z.Z.J.Z.).).J.J.J.H.H.H.E.E.E.E.E.E.E.E.).).).).).).).).).).).).).).).).).).).).).).).).`.I < d f :.UXgXiXXXH.).).Z.C.C.).).).).).).).).).).).).).).).).).).).).).).).).).).).).).).).).E.E.E.).J.J.J.J.OX:X_ 1 X   <.JXMXVX|.B.S.S.E.XX(.(.H.H.J.S.~.~.).).).).).).).).).).).).).).).).).).).).).).).).).).).).).).).).E.E.E.).).).).).J.Z.&Xu 2 d ; ,.iXeXwXqXG.C.).E.).).).).).).).).).).).).).).).).).).).).).).).).).).).).",
").).).).).).).).).).).).).).).).).).).).).).).).).).).).).).).).Z.).).E.}.).E..X>.  d o ' VXNXLXXXE.Z.E.E.E.).E.~.E.E.J.H.H.H.H.E.E.E.E.E.E.E.E.).).).).).).).).).).).).).).).).).).).).).).).).`.I ; d f ' VXwXyX_.H.).).).Z.C.).).).).).).).).).).).).).).).).).).).).).).).).).).).).).).).).E.E.E.).J.J.J.J.~.,X_ < <   ,.JXBXBXXX}.}.}.}.XX'.).H.H.J.Z.E.E.).).).).).).).).).).).).).).).).).).).).).).).).).).).).).).).).E.E.E.).).).).).J.Z.&Xu X d ; ,.iXeXwXqXG.Z.'.Q.).).).).).).).).).).).).).).).).).).).).).).).).).).).).",
").).).).).).).).).).).).).).).).).).).).).).).).).).).).).).).).Z.).).E.}.).E..X>.; # X B CXXXtXoXE.R.E.E.E.).E.S.S.I.J.J.H.H.H.E.E.E.E.E.E.E.E.).).).).).).).).).).).).).).).).).).).).).).).).[.Y ; d < i nXU.qXJ.H.).).).Z.J.).).).).).).).).).).).).).).).).).).).).).).).).).).).).).).).).E.E.E.).J.).J.J.S.&X0 < j 2 B r.v.,.W..XE.Z.S.C.~.~.Z.J.J.H.).'.).).).).).).).).).).).).).).).).).).).).).).).).).).).).).).).).E.E.E.).).).).).J.Z.&Xu X d ; ,.iXeXrXqXG.Z.'.Q.).).).).).).).).).).).).).).).).).).).).).).).).).).).).",
").).).).).).).).).).).).).).).).).).).).).).).).).).).).).).).).Z.).).E.}.).E..X4.> #   r `.C.H.:X!.Q.E.E.E.'.E.S.S.S.J.J.H.H.H.E.E.E.E.E.E.E.E.).).).).).).).).).).).).).).).).).).).).).).).).>XT ; d X y [.G.K.K.H.).).).).}.).).).).).).).).).).).).).).).).).).).).).).).).).).).).).).).).E.E.E.).J.J.J.J.S.&X0 < j o : : 3 ; I '.R.Z.OXB./.~.S.J.J.H.(.(.).).).).).).).).).).).).).).).).).).).).).).).).).).).).).).).).E.E.E.).).).).).J.C.&Xu 2 d ; ,.iXeXrXqXG.Z.'.Q.).).).).).).).).).).).).).).).).).).).).).).).).).).).).",
").).).).).).).).).).).).).).).).).).).).).).).).).).).).).).).).E.}.Z.Z.).).'.'.g.; d < u &XE.).E.E.E.E.).).).'.C.}.}.E.R.'.`.`.[.E..XXXZ.I.oXS.}.}.S.S.S.}.S.S.).).).).).).).).).).).).).).).).'.T ; a < N [.B.}.}..X.XR.Z.}.}.).).).).).).).).).).).).).).).).N.Z.}.}.).Z.E.).E.E.).).).J.C.C.J.).E.E.Q.E.E.).B.[.u < $ $ a ; > ; t [..XZ.Z.S.E.E./.S.A.~.OXR.).).).).).).).).).).).).).).).).).).).).).).).).).).).).).).).).Z.).}.}.E.Z.).'.C.J.'.' 2 o > ,.wXwXwXXXH.E..X'.J.).).E.E.E.E.E.).).).).).).).).).).).).).).).).).).).).",
").).).).).).).).).).).).).).).).).).).).).).).).).).).).).).).).E.}.Z.Z.).).'.'.g.; d < u &XE.).E.E.E.E.).).).).C.E.).'.'.&X-X%XW.'.[.).Z.Z.S.B.}.S.Z.Z.Z.S.}.OX).).).).).).).).).).).).).).).).'.T ; a < _ &XB.S.~..X'.E.E.~.S.).).).).).).).).).).).).).).).).J.J.}.).).E.E.).E.E.).).J.J.).).J.J.E.E.Q.E.E.).H.[.N o $ $ j < 2 ; B %X-X&X,X,X&XQ..XOX~.~.}.V.).).).).).).).).).).).).).).).).).).).).).).).).).).).).).).).).Z.E.).).).E.).'.Z.Z.`.I 2 o > ,.hXiXyX|.Z.E..XE.J.).).E.E.E.E.E.).).).).).).).).).).).).).).).).).).).).",
").).).).).).).).).).).).).).).).).).).).).).).).).).).).).).).).E.}.Z.Z.).).'.'.g.; d < u &XE.).Z.Z.Z.J.H.H.H.H.Z.Z.E.'.W. .` ' R `.'.R.E.}.Z.S.}.Z.Z.Z.S.Z.}.OX).).).).).).).).).).).).).).).).[.T ; a a N &XB.}.E.E.'.E.E.}.~.).).).).).).).).).).).).).).).).J.J.Z.E.).).).E.E.).).).E.Z.Z.).J.J.E.E.Q.E.E.).F.[.B @ % $ j a j a V s.{ { g.{ ;.Y 1.'.E.Z.).Z.).).).).).).).).).).).).).).).).).).).).).).).).).).).).).).).).}.Z.Z.}.).).).).Z.E.W.u < X > >.yXqX|.).Z.E.).E.J.).).E.E.E.E.E.).).).).).).).).).).).).).).).).).).).).",
").).).).).).).).).).).).).).).).).).).).).).).).).).).).).).).).E.}.Z.Z.).).'.'.g.; d < u &XE.).J.J.J.J.H.H.H.H.~.E.Q.&X5.0 : : 5 W.&X3.'.'.C.}.OXZ.C.Z.).Z.Z.).).).).).).).).).).).).).).).).).[.T ; a a N &XB.}.E.W.W.R.E.).).).).).).).).).).).).).).).).).).Z.Z.E.E.E.E.E.E.E.E.E.).E.Z.Z.Z.J.J.E.E.Q.E.E.).G.].B @ = = y.g u.j k f < a d + , : p 3.'.C.H.).).).).).).).).).).).).).).).).).).).).).).).).).).).).).).).).).}.Z.Z.).).Z.Z.).Z.E.`.N < @ > >.H.H.).).E.).E.R.J.).).E.E.E.E.E.).).).).).).).).).).).).).).).).).).).).",
").).).).).).).).).).).).).).).).).).).).).).).).).).).).).).).).E.}.E.Z.).).'.'.g.; a < u &XR.).J.J.J.J.J.J.H.H.Z.E..X,Xl.5 : : 4 7.=X`.&XW.&.E.oX}.Z.Z.E.Z.Z.Z.).).).).).).).).).).).).).).).).[.T ; a a [ &XB.R.R.W.`.W.W.E.E.).).).).).).).).).).).).).).).).).).).).E.E.E.E.E.E.E.E.).}.).).J.J.E.E.Q.E.E.).N.[.B @ = = y.a i.g g a X d m # > > i ].[.H.Z.H.).).).).).).).).).).).).).).).).).).).).).).).).).).).).).).).).}.E.E.).).Z.C.).E..X&X[ a # 2 g.'.(.'..X).).).Z.J.).).E.E.E.E.E.).).).).).).).).).).).).).).).).).).).).",
").).).).).).).).).).).).).).).).).).).).).).).).).).).).).).).).E.}.E.Z.).).'.'.g.; a < u &XE.).Z.Z.Z.J.J.).H.H.S.E..X&X8.6 : : 6 6.;X;X-X&XW.'.OX}.E.Z.Z.E.E.E.).).).).).).).).).).).).).).).).[.' ; a a [ &XB.E.W.'.-X%X'.[.E.).).).).).).).).).).).).).).).).).).).).).'..X.X.X.X).).}.}.).E.J.J.E.E.Q.E.E.).C.[.N < % $ k 1 a < < : ; ; 2 o ; ; t (.(.).).Z.).).).).).).).).).).).).).).).).).).).).).).).).).).).).).).).).).).).).Z.Z.C.C..X.X&XN a # < { ,X&X:X>X'.'.).).J.).).E.E.E.E.E.).).).).).).).).).).).).).).).).).).).).",
").).).).).).).).).).).).).).).).).).).).).).).).).).).).).).).).E.}.Z.Z.).).'.'.g.; a < u &XE.).E.E.E.E.).).).).~.~.E.W.3.R p i >.' ] ;.1.5.W.W.V.E.}.E.E.).).E.).).).).).).).).).).).).).).).).&X' < g a [ -XB.'.T.2.1.1.3.'.[.).).).).).).).).).).).).).).).).E.E.E.)..XE.T.V.V.T.E.'..X).E.Z.J.J.E.E.Q.E.E.).Z.&X_ < d d f : 9 : 0 Y Y t p p p t %.R.C.Z.).).).).).).).).).).).).).).).).).).).).).).).).).).).).).).).).).).).}.).Z.Z.).C.C.V.T.5.z a %   9 !.2.T.Q.E.).).J.J.).).E.E.E.E.E.).).).).).).).).).).).).).).).).).).).).",
").).).).).).).).).).).).).).).).).).).).).).).).).).).).).).).).E.}.Z.Z.).).'.'.g.; a < u &XE.).E.E.E.E.).).'.'.S.Z.Z.'.].vXHXJX<X_ : : : 7 L D P V..X.X'..X.X).).).).).).).).).).).).).).).).).&X' < g a [ -XB.[.! 7 : 4 L R.'.).).).).).).).).).).).).).).).).E.E.)..X'.T.E S S E V.)..X.XE.Z.J.J.E.E.Q.E.E.).Z.:XI < f f 3 , ' I 7.CXVXVXDXDXJXCXnX|.C.Z.}.E.).).).).).).).).).).).).).).).).).).).).).).).).).).).).).).).).}.}.E.C.Z.'.).*.D F P 1 g j   : D 5 F &.R.).).C.J.).).E.E.E.E.E.).).).).).).).).).).).).).).).).).).E.).",
"B.B.D.S.Z.Z.Z.E.E.E.E.E.Z.B.B.B.E.E.E.E.E.Z.Z.Z.D.D.S.S.~.~.E.E.).Z.G.N.N.F.{.3.j.; 1 : 0 &XN.P.'.E.C.C.I.B.B. XS.S.B.B.J.XXiXiXGX> 3 3 : _ I 7 L 5.-X'.T.R.).).C.C.C.Z.).).E..X^.$XQ.R.R.(.(.{.`.Y ;   2 :.%X'.*XY > X < _ T.B.B.B.S.S.B.B.B.B.I.S.S.I.S.S.I.S.R.W.&XE.}.E.F H H U 2.Q.Z.C.Z.Z.E.E.Q.^.Q.R.C.=.{.3.B < < s x / 7 L (.VXNXqX3X3XeXeX2XF.F.K.J.J.E.E.E.Z.Z.B.B.B.E.E.Z.E.E.E.Z.Z.OXJ.Z.J.B.A.G.J.B.}.~.E.'.'.R.(.E.R.).).R.'.R.P L L u 9 1 a f V u u 7 &..XQ..XQ.C.H.'.W.'.'.E.E..XE.E.}.~.S.S.S.B.B.Z.Z.E.E.Q.Q.H.H.H.H.",
").}.}.}.).).).).'.).).).).).).).).).).).'.'.'.'.).).).).).).'.).^.Z.C.H.H.[.=X<Xj.< f ; N ;XR.|.&X=X(.C.).H.Z.'.E.E.Z.Z._.tXVXIXGX> : ; ; 0 _ ] T 7.-X&XW.'.[.'.).).).H.).).E.).E.E.R.E.'.'.`.[.-X' 3 X d :.%X&X<X:.f @ a ' W.OX'..X.X.X'.'.'.'.oX.X.X.X}.}.}.J.(.E.:X.XoX'.P ` _ U !..X~.Z.E.J.).~.~.}.OX.X[.'.].c.{ < a s b [ 7 L `.VXIXiXrXfXNXLXtXJ.J.).).).'.'.'.).).).).).).).).).).).).).}.E.).).Z.).OXOX}.OX.X'.:X[.'.[.E.E.}.).R.[.&X! 7 0 x z < < d m N N 7 ..Q.C.E.R.H.(.'.'.'.E.C.Z.).E.).'.).}.}.}.'.'.[.[.[.'.'.&X).).).).",
"E.E.E.).'.).E.E.H.).).'.).'.E.E.H.H.(.(.(.`.`.`.'.'.'.).).).H.H.$X~.E.E.R.4.z.z.p.X d @ f k.] 8.7.%X(.*.H.(.R.(.E.E.R.C.(.].0XtX*XR Y ' _ u : 0 u ] 4.1.! 2.2.2.V.E.E.C.Z.J.B.B.I.I.J.).'.2.! 1.g.M f @ a M >. .g.M a @ a N 5.R.2.2.2.2.2.2.2.2.2.2.W.W.R.R.).C.B.B.}.Z.}.R.7 q 9 7  .W.A.A.~.~.).I.S.B.J.).R.! ;.-.M @ a a l x x q  .-X[.H.|.wXXXoX}.Z.Z.E.E.}.'.'.'.).).).H.H.).).).).'.).).).Z.Z.E.R.R.E.Q.T.&.T.2.2.5.1.1.w.~.}.}.C.^ 2.5.U 8 b b s s < d d z x 4 ! '.).}.Z.&.&.V.E..X~.B.I.).).).R.V.V.&.~ 2.2.2.2.2.2.&.&.E.E.E.E.",
"Q.Q.~.}.).).J.J.J.J.J.).).).E.E.G.G.K.J.).'.'.'.'.'.).H.H.K.G.K./.~.E.W.! 7 1 s m . % & # V 1 1 R `.'.*.H.).).)..X'.).H.H.H.(.{._.tXCXHXxX'   : 1 9 9 4 4 D R R E R.'.E.J.J.G.G.P.P.J.).R.U 4 4 1 < a d @ < 1 : 3 < @ $ a z _ U F F F F F F F F P Q 2.W.(.H.J.H.P.S.}.C.).3.6 1 ; : 7 U P E A.^.).}.G.B.J.'. .4 > 3 a $ g g s 1 l 1 q ' L D %.J.).).Z.C.S.}.}.OX).).).).).J.).J.J.J.J.J.J.J.J.J.J.J.).E.E.Q.Q.E D F G 0 7 4 6 >.}.}.).W D L I 4 h h k h a @ o d h s : ! &X[.'.N.F D F ~ E.Z.B.Y.Z.Z.Z.V.E F F S H H H F F F F F I.I.I.S.",
"~.~.~.~.S.S.S.S.G.G.G.B.Z.Z.E.E.G.G.G.J.Z.E.E.E.H.H.H.H.H.G.G.G.S.Z.'.'.] : ; < # . & & & j a a D R.[.C.C.J.Z.Z.}.E.Z.Z.C.C.C.H.Y.hXNXVXcXr   e f f < : : 6 0 G D 5.&X'.'.(.F.F.N.N.C.[.+X_ 4 1 a X d j @ < < ; a @ g g g f x 0 J D D D D D D D S E W..X).H.J.J.I.C.E.C.(.w.6 < < ; 9 G S F T.:XT.E.Z.H.[.&X| :   < a j y.g @ < h < s N 7 7 ! [.Z.H.C.C.Z.Z.Z.}.B.B.B.B.Z.Z.Z.Z.B.B.B.B.B.B.B.B.F.F.H.H.(.'.2.D 7 G x 8 1   1 k.'.'.`.! 7 0 [ 8 h g y.g $ $ @ o g h : ' -X[.(.W D 5 S ! Q.E.C.G.Z.E..XT.K S J J ) ( ( J J F F F H.H.H.J.",
"'.'.'.'.).).).).'.'.'.'.'.'.'.'.).).).'.'.'.'.'.'.'.'.'.).).).).'.'.=X;X>.3 2 < j # % % % % j j F W.&X(.'.[.'.[.'.E.E.).).'.).).H.VXMXBXxXe   2 j j d a 3 z x x G z.<X-X-X&X`.`.'.'.%X<Xb.{ z f y.g j j X @ a s i.g g j a c C v H H H H H H H H D Q W.,X[.'.[.[.'.(.'.W.*Xv.3 a a a z [ 7 I l.<X`.`.`.'.-X;X[ ; # j % $ j # @ # a @ k Z M I 5.-X`.`.`.`.'.(.R.).'.'.'.'.'.'.'.'.'.'.'.'.'.'.'.'.`.`.`.`.%X=X7.L N [ C c s < z n.-X;X%X;.u N C l $ g y.u.g $ @ @ j j < { <X;X%X1._ u I 4.-X=X`.[.'.&X-X+XX.H ( | ) ) ) ) ( ( H H `.`.(.(.",
"6.6.6.6.6.k.k.k.k.k.k.k.k.6.6.6.6.6.6.6.6.6.6.6.6.6.6.6.6.6.6.6.8.1.4.g.A f a a h g a d X o d a N g.k.4.6.6.4.l.l.4.4.7.6.5.5.7.8.;X%XxXb.n j $ & % % a f z b z x s.z.z.l.l.l.6.l.l.z.z.g.V a a y.$ # d o @ j g i.y.g a a f c l x x x x x x x x 0 _ 4.l.6.6.6.6.3.4.l.1.4.h.k u.y.g k C 9 u :.h.k.l.z.z.z.j.p.< # # @ # % # X # # X d V 9 9 ' 4.z.z.k.k.l.4.4.6.6.6.6.k.k.z.z.z.k.k.k.k.k.k.k.k.z.z.z.z.k.z.>.u z N z f f < f f.z.g.g.' 9 z c a @ # j u.= % @ @ & u.o V h.g.h.:.y 9 z { h.k.>.4.4.>.g.>.N 9 z b v v v v x x x x k.k.k.k.",
"; ; ; > 2 2 < < a a < < 2 2 > > 1 1 1 1 1 1 : : : : : ; ; < < < : ; ; f a a g j h s < f o X f X X a < ; : : ; 1 1 1 1 1 1 : : : : 9 ; 1 < . i.= & & $ $ a s s l ; 1 8 : : : : : 1 1 1 1 < X X @ = @ # d o d j $ y.$ j j d k h < a a a a a a a a ; ; ; 3 ; ; ; ; : : 4 : , 3 X y.i.$ a s ; ; 2 3 : : 1 1 s h a X + # % m m # . o * o o 2   : 4 4 1 1 1 1 8 : : : > > 2 2 < < < a < < < < < < < < < 1 1 1 < 1 1 : 1 1 < < a a X k 1 1 1 1 ; < f a X # % u.u.% $ @ = - . < 3 ; 3 ; > > ; < 3 : ; : >   ; 2 2 < < < a a a a < < < < 1 1 1 1 ",
"a a a g g g g g h a k d X d o O h a.$ k + j m # # # # a a a a a j d @ @ # . . # a a a a a a a a O   f k a < f < X f f a f k h s h s a < a g g y.g g g g a a a a # # # # # # # # j a a d j a $ @ # a a a a a d j # a # # a o < < 2 k k a X   o d k o > f a a f < a a a a a a $ & % % # a a a a a f a a a a a a f < a # % % $ # a d d d d d d a a < f d a j j # % o # # # d a @ a j j j d j j j g d d d d # # d d % % % % % % % % h h h h f f d 2 # j a X a f f h a a a a a a a a s a a a a g g g a a a < a a a a n o o d # # d + a a a a ",
"> > 2 2 < < < < ;   2 2 o d m X < f < a @ . j @ d d d d d d d d < f 2 o f o o d 2 < < < < < < < 2   @ d + X a < X a @ X a j a a a f <   ; >   X < < < < < < < < > > > > > > > > < ; ; ; <   X < 2 2 1 1 1 3 2 2 < < 2 2 > > > > O   a j j o X @ g X f V g a     < < 1 1 1 < 2 2 2 2 3 3 3 3 ; > ; > 2 < < < > ; ;     o d d d h 2 2 2 2 < < < < < f a a d j # % # # X @ a a a a @ @ < < a a a a 2 < < < o X o < < < < < < o < < s s < a < < < o j k a X ; ; ; : < < < < < < < < : : < < < < 2 < 2 < < < < 2 < 2 >     2 < d j j a a a a ",
"w w w w 6 6 6 6 t r y y 2 < @ . w r i n m . a.u.# d d d d d d d ; r r , w r w r 6 , 6 6 , , 6 6 V d d a.j $ j j @ d # # d a a a   e y , , t t r 6 6 6 6 6 6 6 6 , , , , 6 6 6 6 r r r r 6 , r r 6 6 6 6 7 t 6 , , , , , w w , w p e a $ g # # j $ . # g $ a y p , 6 6 6 6 6 6 6 , 6 t t 6 6 w w r r r r r r r r 6 r w w r r 1 ; 9 8 8 8 8 9 9 9 1 f a < a j j j m % # d d a a f f f f f f z z z 9 9 3 z f z z z 9 9 9 9 9 9 9 9 z f f f f f k k s < ; 3 y r r Y 6 6 6 6 6 6 6 6 6 6 6 6 , , , , 6 6 6 6 , , 6 6 p w y e 2 X $ @ a a a d ",
"KXBXBXBXBXBXMXMX0X0XxXv.Z s g g q.zXxXv.O.O d $ # # # # $ a a a 8.HXJXvXvXBXVXVXMXvXMXMXMXMXMXMXj.k a j j $ $ @ @ # @ # j d a a +.m.JXvXbXZXDXZXMXMXMXBXBXBXHXHXVXVXVXVXVXVXVXBXMXMXMXMXVXBXBXBXVXVXMXMXBXBXVXVXBXvXMXBXBXBXMXbXKXx.k g y.$ # m # + $ g g V v.bXGXHXBXBXmXmXNXyXBXBXVXVXMXBXKXKXZXBXBXvXvXbXMXMXcXBXMXdXBXHXb.[ x x x x x / / / z M f < a d j j % @ @ a a < f V M M M M x x x x x x x x x x x x / / / / / / / / M M M M c c c c N x u k.xXzX0XMXMXMXMXMXMXMXMXMXMXMXMXBXBXvXvXvXBXBXBXvXvXvXBXBXzXzXxXv.M < g g a a a d ",
"0XeX0XeXeXeXqXqXaXAXDXcX' 1 s h M.ZXSXJX+.  < d j j j j j j j j $.0XDXuXqXeXqXrXuXuXuXuXuXuXuXeXb.n X j j # $ $ j j # @ d k 2 < , e.JXbX9XeXeX3XeXeXuXtXuXnXnXnXtXtXtXtXtXtXtXtXqXqXqXeXuXuXuXtXiXiXiXuXwXwXyXiXuXuXuXuXuXuXuXuXFXw.M k a.j + + # @ j i.g Z zXpXbXMXtXyXwXwXwXrXyXyXyXyXyXuXuXpXeXeX0X0XuXuXeXeX9XtXqXqXiXCX5.5 / / / / / / / ( x N z < a a $ $ j # # a < 1 9 { u u I I I G G H H G G G H H H H ( ( ( ( ( ( ( ( u u u N / / v v ` G T %XVXVXuXaXtXtXyXyXyXyXyXyXuXuXuXuXuXuXeXuXeXeXeXeXeXeXeXeXMXDXJXxXB ; h k a d d d ",
"uXiXrXrXrXrXrXrXeXeXVX].t ; ; ; =.uXdXBXp : : 3 X 2 < < < < < < t.bXFXAXiXhXwXwXrXrXrXrXrXrXrXrXk.6 ; 1 a a d j o f 2     ; ;   t ].DXAXeXiXrXrXrXrXrXiXyXiXiXiXiXiXiXiXiXiXiXiXrXrXrXrXrXkXaXiXwXgXhXiXrXwXwXwXrXrXrXiXiXiXyXyXAX0.8 ; < < X # @ o X     u ].aXuXyXiXyXwXrXrXrXiXyXwXiXhXhXiXeXrXrXiXiXLXkXkXkXyXiXiXgXLXmXT.D G G G H H H J J 4 0 9 1 a j j $ j # o < ; : 6 I G G G G J J J J D D D D J J D D J J J J J J J J D D G G J J G G S S F V.mXiX3X6XrXrXrXrXrXrXrXrXiXiXiXrXiXiXeXeXrXrXrXrXrXrXrXrXwXyXVX].6     ; a a d d ",
"yXyXyXyXwXwXwXwXqXqXyX[.#.t u 9 tXIXNXzX#.6 6 : w w 6 r r 6 6 6 r.v.].].nXmXoX XwXwXwXwXwXwXwXwX#.6 6 M 3 < < 2 ; M i r r r r , ! '.oXXXqXwXrXwXyXyXyXwXwXwXwXwXwXwXyXyXwXwXyXwX7X4X4X3XqXrXiXiXwXyXiXuXwXwXwX XwXwXwXwXyXyXyXyXNX(.L 6 6 3 2 k @ 2 y y 6 R _.eXwXwXwXwXwXwXwXwX9XqXwXwXyXrXrXrX4XwXwXwXwXqX3X3XwXwXwX XoX|.*.P P P P P P P P F _ | N 1 s k j $ @ . < M i t 7 L P P P P P K K K P P P P P P P P P P P P P P P P P P P P K K K K E E ^ Z.yXwX4X6XqXqXwXwXwXwXwXwXyXwXwXwXwXqXqX5XqXqXwXwXwXwXwXwXwXtXtX].Y r y 9 a a a a ",
"(.(.(.J.J.K.K.G.F.F.K.[.0.w.%Xl.C.(.[.[.nX%XJXcXvXvXcXcXcXcXcXcXB i : 4 ! Q.E.~.K.K.K.K.K.K.K.K.`.8.7.b.g.3 ;   B b.GXGXGXHXGXxX:XoX).C.K.U.K.H.}.}.}.I.I.I.Y.Y.K.K.J.J.J.K.K.K.Y.4XwXqXqXrXiXeX XU.L.L.L.K.K.G.K.Y.I.I.I.}.}.}.J.(.W.c.c.-.3 a o A m.HXcX=X_.F.G.Y.I.I.K.K.{.{.=.{.L.K.K.K.U.|.rXwXqXU.K.G.F.F.L.K.}.~.}.).J.=.'.'.'.'.'.'.'.).#X#Xs.z s a $ $ # d Z b.GXxX*X`.@X@X@X@X@X@X^.^.@X@X@X@X@X@X@X@X'.'.'.'.'.'.'.'.@X@XQ.^.^./.~.~.^.~.E.Z.I.G.G.G.K.K.K.K.K.K.K.K.J.J.J.K.K.G.L.L.).).).).).).).).G.F.H.(.3.c.v.k.a a a a ",
").).).).).).).).).).).).).).).).C.J.B.K.wXhXiXwXiXrXrXhXiXiXiXiXx.> , : _ -XT.V.E.E.E.).).).).).Q.'.C.[.4.1 a 2 r vXuX3XiXyXNXNXPX}.Z.Z.Z.).).).).).).).).).).).J.J.J.J.J.J.J.Z.G.qXiXiXyXwXyXyXPX|.Z.Z.).).E.E.).).).).).).).).'.E.I.C.[.6.< g a w VX3XrXyXJ.J.).).).).).).).).C.J.}.J.C.J. XgXgXgX|.J.J.J.Z.J.).).).).).).).).).).).).J.J.H.H.{.;X4.8 8 1 X $ y.X i JXtXNXXX).H.H.J.J.J.E.E.Q.).).).).).).).).).).).).).).).).).).).).).).).).).).).).).).).).).).).).).).).).).).).).).).).).E.E.E.).).).).).'.E.~.~.E.E.'.W.2 a a g ",
").).).).).).).).).).).).).).).).C.J.C.J.wXLXiXyXrXwXwXiXiXyXyXyXO.  ; : I -X'.}.E.E.E.).).).).).E.'.C.[.4.1 a 2 r vXuX3XiXyXNXNXmX}.Z.Z.Z.).).).).).).).).).).).J.J.J.J.J.J.J.J.F.|.iXiXyXwXwXwXPX|.Z.C.Z.E.E.).).).).).).).).).'.E.I.C.'.6.< g a w VX3XrXyXH.J.).).).).).).).).J.}.}.B.C.J. XgXgXgX|.C.C.Z.Z.).).).).).).).).).(.).).E.E.J.H.H.[.<XX.4 : 1 X % j X i JXtXiXXXJ.H.H.J.J.J.E.E.Q.).).).).).).).).).).).).).).).).).).).).).).).).).).).).).).).).).).).).).).).).).).).).).).).).E.E.E.).).).).).'.E.~.~.E.E.'.W.2 a a g ",
").).).).).).).).).).).).).).).).J.).Z.H.XXyXqXqXrXwXwXiXiXyXyXiX<.r t 7 T W.R.E.E.E.E.).).).).).E.'.C.[.4.1 < o r vXuX3XrXqXtXtX>X}.Z.Z.Z.).).E.).).).).).).).).J.J.J.J.J.J.Z.J.K.wXhXLXiXyXyXyXyXOXZ.C.E.E.).).).).).).).).).).'.E.I.C.'.6.< g a w VX3XwXyXJ.J.).).).).).).).).J.).}.Z.C.J.|.gXoXoX}.C.C.Z.).}.).).).).).).).).(.).E.E.E.).H.H.(.&X .5 6 9 2 $ j   i SXeXiX XK.).H.J.J.J.E.E.Q.).).).).).).).).).).).).).).).).).).).).).).).).).).).).).).).).).).).).).).).).).).).).).).).).E.E.E.).).).).).'.E.~.}.Z.E.'.W.2 a a g ",
").).).).).).).).).).).).).).).).}.}.Z.Z.).).H.H.K.K.K.K.K.J.)._.xX*X=X*X'.[.).E.E.E.E.).).).).).E.'.C.[.4.1 < o i BXuX2XqXK.J.K.oX).Z.Z.Z.).).Z.).).).).).).).).J.J.J.J.J.J.J.J.C.J.|.|.).).|.|.|.}.Z.Z.).).E.E.).).).).).).).).'.E.J.C.'.6.< g # w VX3XjXyXJ.J.).).).).).).).).Z.).}.).J.J.}. XI.}.J.Z.).}.}.OX).).).).).).).).).).E.~.~.).H.H.E.'.+X5.6.k.Z k d   p ZXeXrXU.Y.).).J.J.J.Z.E.E.).).).).).).).).).).).).).).).).).).).).).).).).).).).).).).).).).).).).).).).).).).).).).).).).E.E.E.).).).).).).E.}.}.Z.E.'.W.2 a a g ",
").).).).).).).).).).).).).).).).}.}.Z.Z.).H.C.N.F.F.B.B.C.C.F.F.cXBXVXVXoX'..X).E.E.E.).).).).).E.).H.'.4.1 < o i vXuX3XqXH.N.N.OX).E.E.Z.).}.Z.).).).).).).).).).).).).).).).).C.C.H.H.Z.C.H.J.}.J.Z.Z.).}.E.E.).).).).).).).).Q.E.J.C.[.6.< g # w VX3XwXyXH.J.).).).).).).).).E.).).).J.J.I.}.B.J.Z.Z.}.}.)..X).).).).).).).).).).E.E.~.Z.J.H.E.Q.&X&X=X*Xh.f d   p SXeXrX3XG.'.).H.H.J.J.E.E.).).).).).).).).).).).).).).).).).).).).).).).).).).).).).).).).).).).).).).).).).).).).).).).).E.E.E.).).).).).).Z.I.I.Z.E.'.W.2 a a g ",
").).).).).).).).).).).).).).).).}.~.E.E.}.).H.).H.H.J.H.H.).).)._.mXyXiX|.C..X'.E.E.E.).).).).).E.).H.'.4.1 < o t BXuX4XrXJ.H.H.}.).).).Z.).}.Z.).).).).).).).).E.E.E.E.E.E.E.E.H.H.).}.).J.H.).J.J.Z.C.Z.).).E.).).).).).).).).Q.E.I.C.[.6.< g # w VX3XwXyXH.J.).).).).).).).).).).).E.Z.Z.).}.}.I.Z.Z.).Z.E.}.).).).).).).).).).E.E.~.S.S.J.H.~.E.Q.E.R.].>.; d   p SXeXrXU.G.'.'.).J.J.J.Z.E.).).).).).).).).).).).).).).).).).).).).).).).).).).).).).).).).).).).).).).).).).).).).).).).).E.E.E.).).).).).).Z.I.I.Z.E.'.W.2 a a g ",
").).).).).).).).).).).).).).).).~.~.E.~..X).).'.C.H.H.C.C.E.E.C.XXgX|.wXU.N.XX).E.E.E.).).).).).E.).H.[.4.: < o r CXiX4XgXI.H.H.).E.).).Z.).}.Z.).).).).).).).).E.E.E.E.E.E.E.E.Z.Z.Z.).E.Z.Z.Z.C.Z.Z.C.Z.).).E.).).).).).).).).'.E.J.C.[.6.< g # w BX3XwXyXH.J.).).).).).).).).).).).).Z.Z.Z.J.).).Z.Z.).Z.C.E.).).).).).).).).).E.E.~.S.S.Z.H.OXE..X}.F.(.<.: d   p SXeXiXU.K.Q.'.).J.J.J.J.Z.).).).).).).).).).).).).).).).).).).).).).).).).).).).).).).).).).).).).).).).).).).).).).).).).E.E.E.).).).).).).Z.I.I.Z.E.'.W.2 a a g ",
").).).).).).).).).).).).).).).).^.~.E.E.}.E.Z.).H.).).H.).).).).G.U.B.Y.G.N.XXR.E.E.E.).).).).).E.).H.'.4.1 < o t cXuX4XwXK.N.N.Z.E.).).Z.).}.Z.).).).).).).).).E.E.E.E.E.E.E.E..X).E.E.E.E.E.}.N.C.Z.Z.).}.).E.).).).).).).).).'.E.J.C.[.6.< g # w VX3XwXyXH.J.).).).).).).).).E.E.).}.).Z.Z.C.C.Z.Z.).}.E.C.E.).).).).).).).).).E.~.~.S.S.Z.H.Z.A..X|.G.H.8.: j   i SXuXiX|.J.Q.'.).J.J.J.J.Z.).).).).).).).).).).).).).).).).).).).).).).).).).).).).).).).).).).).).).).).).).).).).).).).).E.E.E.).).).).).).Z.I.I.B.Z.'.W.2 a a g ",
").).).).).).).).).).).).).).).).).).).).).).).).).).).).).).).).G.G.G.J.J.J.J.Z.).).).).).).).).E.).C.'.4.1 2 2 r cXuXqXwXH.Z.).E.E.E.E.E.E.E.E.).).).).).).).).).).).).).).).).E.E.E.E.E.E.E.E.).).).).).).).).).).).).).).).).'.Z.I.B.'.6.1 g @ > BX3XwXwXH.C.E.E.E.E.E.E.E.E.).).).).).).).).).).).).).).).).).).).).).).).).(.).).).).).).(.'.E.~.S.B.(.>.a f   i vXbXuXqX*.E.E.E.).J.J.J.J.).).).).).).).).).).).).).).).).).).).).).).).).).).).).).).).).).).).).).).).).).).).).).).).).S.Z.Z.J.).).).).}.Z.E.).R.R.`.7.a a d d ",
").).).).).).).).).).).).).).).).).).).).).).).).).).).).).).).).J.J.J.Z.J.Z.E.E.).).).).).).).).E.).C.'.4.1 2 2 r cXuXrXhX).).).E.E.E.E.E.E.E.E.).).).).).).).).).).).).).).).).E.E.E.E.E.E.E.E.).).).).).).).).).).).).).).).).'.Z.I.B.'.6.1 g a r DXrXgXyX).H.E.E.E.E.E.E.E.E.).).).).).).).).).).).).).).).).).).).).).).).).(.).).E.E.).).(.'.E.~.S.B.(.>.s <   O.GXJXZXtXN.E.E.E.).J.J.J.J.).).).).).).).).).).).).).).).).).).).).).).).).).).).).).).).).).).).).).).).).).).).).).).).).S.Z.Z.J.).).).).E.Z.).(.R.`.-X%Xa a d d ",
").).).).).).).).).).).).).).).).).).).).).).).).).).).).).).).).J.J.Z.Z.E.E.E.E.).).).).).).).).E.).C.'.4.1 2 2 t cXtXwXhX}.).Z.E.E.E.E.E.E.E.E.).).).).).).).).).).).).).).).).E.E.E.E.E.E.E.E.).).).).).).).).).).).).).).).).'.Z.I.B.'.6.1 g @ > BX3XwXwXH.C.E.E.E.E.E.E.E.E.).).).).).).).).).).).).).).).).).).).).).).).).(.).).E.E.).).(.'.E.~.B.B.(.>.s a X Z b.cXzX0X(.E.E.E.).J.).J.J.).).).).).).).).).).).).).).).).).).).).).).).).).).).).).).).).).).).).).).).).).).).).).).).).S.J.Z.J.).).).).OX)..X[.3.7.l.z.a a a a ",
").).).).).).).).).).).).).).).).).).).).).).).).).).).).).).).).E.E.E.E.E.E.E.E.).).).).).).).).E.).C.'.4.1 2 2 t cXtX3XyX).).).E.E.E.E.E.E.E.E.).).).).).).).).).).).).).).).).).).).).).).).).).).).).).).).).).).).).).).).).'.Z.I.B.'.6.1 g a , SXqXwXyXJ.H.E.E.E.E.E.E.E.E.).).).).).).).).).).).).).).).).).).).).).).).).).).).~.~.).).).'.E.~.B.B.(.>.s g X 2 B i L %.3.).).).).).).).).).).).).).).).).).).).).).).).).).).).).).).).).).).).).).).).).).).).).).).).).).).).).).).).).J.J.).).).).).).}.E.).R.L 7 0 9 a a a a ",
").).).).).).).).).).).).).).).).).).).).).).).).).).).).).).).).E.E.E.'.'.'.'.E.).).).).).).).).E.).F.[.4.1 2 2 i cXuXwXyX).).'.E.E.E.E.E.E.E.E.).).).).).).).).).).).).).).).).).).).).).).).).).).).).).).).).).).).).).).).).).Z.I.B.'.6.1 g a , SXrXfXyXJ.H.E.E.E.E.E.E.E.E.).).).).).).).).).).).).).).).).).).).).).).).).).).E.~.~.E.).).'.E.~.B.B.(.>.s j a a 2 ; : L R.J.J.J.).).).).).).).).).).).).).).).).).).).).).).).).).).).).).).).).).).).).).).).).).).).).).).).).).).).).).H.H.).).).E.E.E.E.).[.3.7 : 1 1 d d a a ",
").).).).).).).).).).).).).).).).).).).).).).).).).).).).).).).).E.E.E.'.E.).).).).).).).).).).).E.).F.[.4.1 2 2 t vXNXrXhX}.).'.E.E.E.E.E.E.E.E.).).).).).).).).).).).).).).).).).).).).).).).).).).).).).).).).).).).).).).).).).Z.I.B.'.6.1 g # , SXqXfXyXH.F.E.E.E.E.E.E.E.E.).).).).).).).).).).).).).).).).).).).).).).).).).).~.~.~.E.).).'.E.~.B.B.(.>.s j j j f < : L %XJ.J.J.J.).E.E.E.).).).).).).).).).).).).).).).).).).).).).).).).).).).).).).).).).).).).).).).).).).).).).).).).H.H.J.).).E.E.~.).).[.3.7 : < a d d a a ",
").).).).).).).).).).).).).).).).).).).).).).).).).).).).).).).).'.'.'.).).H.H.H.).).).).).).).).E.).F.[.4.1 2 2 6 cXuXrXiX).C.).E.E.E.E.E.E.E.E.).).).).).).).).).).).).).).).).).).).).).).).).).).).).).).).).).).).).).).).).).Z.I.B.'.6.1 g j r SX3XwXyX).(.E.E.E.E.E.E.E.E.).).).).).).).).).).).).).).).).).).).).).).).).).).~.~.~.~.).).'.E.~.B.B.(.>.s X a a a 1 : 7 W.J.J.J.J.).E.E.E.).).).).).).).).).).).).).).).).).).).).).).).).).).).).).).).).).).).).).).).).).).).).).).).).H.H.H.J.).E.~.~.Z.C.W.%.6 : a g d d a a ",
").).).).).).).).).).).).).).).).).).).).).).).).).).).).).).).).'.'.).).H.H.H.H.).).).).).).).).E.).C.'.4.1 2 2 6 *X9XK.qXZ.C.C.E.E.E.E.E.E.E.E.).).).).).).).).).).).).).).).).).).).).).).).).).).).).).).).).).).).).).).).).).Z.I.B.'.6.1 g j > 0XF.G.K.H.J.E.E.E.E.E.E.E.E.).).).).).).).).).).).).).).).).).).).).).).E.E.).E.~.~.~.~.E.).'.E.~.B.N.(.>.s a j j k V 8 I -XJ.J.J.).).E.E.E.).).).).).).).).).).).).).).).).).).).).).).).).).).).).).).).).).).).).).).).).).).).).).).).).H.H.H.H.).~.~.~.).).'.7.I M a.a.a a a a ",
").).).(.(.).).).).).).).).).(.(.(.).).).).).).).).).).).).).(.(.).(.(.(.).).).).C.(.(.H.C.H.H.H.P.N.(.*X4.9 1 : 9 k.%XR.R.(.(.(.'.).E.E.E.E.E.'.'.'.'.'.).).H.H.).(.(.(.).).).).).(.(.(.).).).).W.'.(.(._.).C.E.R..X).E.).Z.Z.}.).C.'.Z.E.2.< = $ f r.H.N.).).'.).).).).).).).).).).).).).).).).).).).).).).).).).).).).E.Z.E.E..XE.).}.I.B.P.P.B.G.H.V.(.%X] 4 f < 3 u 7 D ! Q.E.E.E.E.E.).).J.).).).(.(.).).).).).).).).).(.(.).).).).).).).).).).).).).).).).H.H.H.H.H.H.H.H.).C.C.).R.R.R.R.N.(.).C.H.J.Z.}.B.A.Z.V.P G [ v a a a a ",
").).).).).).).).).).).).).).).).).).).).).).).).).).).).).).).).).).).).).).).).).).).E.E.).).Z.I.Z.[.<Xk.9 ; 1 u c.-X'.'.).).C.).E.).}..X}.).}.E.E.'.).).H.H.H.).).).).).).).).).).).).).).).).Q.'.).H.|.'.E..X.XoXE.Z.).).E.oX}.E.).Z.OXW.f $ $ M ]._.H.OX).).).).).).).).).).).).).).).).).).).).).).).).).).}.J.J.J.).E.E.E.).).}.}.J.I.I.I.J.).(.(.%X%X>.4 k s z N 7 S Q Q.E.E.E.E.E.).).J.).).).).).).).).).).).).).).'.'.).).).).).).).).).).).).).).).).).).).).).).).E.).H.H.).).E.E.E.).>X:XE.).J.Z.Q.}.}..XR.P 5 x b a a a a ",
"E.E.E.E.E.E.E.E.E.E.E.E.E.E.E.E.E.E.E.E.E.E.E.E.E.E.E.E.E.E.E.E.E.E.E.E.E.E.E.E.E.E.Z.Z.E.).E.Z.J.C.`.%X>.3 ; ; 0 l.&XR.E.}.).}.Z.Z.Z.}.}.Z.Z.Z.E.E.E.Z.J.J.J.J.E.E.E.E.E.E.E.E.E.E.E.E.E.E.E.E.Z.Z.A.N.Z.Z.V.Q.Q..X~.Z.}.~.R.Q.E.R.E.Z.}.R.1 + $ 9 w.H.A.}.Z.J.).).).).).).).).).).).).).).).).~.~.~.E.~.~.~.~.Z.Z.Z.E.}..X.X}.Z.E.}.).C.Z.Z.N.'.'.`.W.c.c.>.9 f < 9 [ G F ~ Q.E.E.E.E.E.).).J.E.E.E.E.E.E.E.E.E.E.E.E.E.E.E.E.).).).).).).).).).).).).).).).).E.E.E.E.E.E.E.E.).C.Z.).Z.Z.E.E.E.:X@X!..X).E.'.^.E.Q.T.E F ( ( a a d d ",
"~.~.~.~.~.E.~.~.~.~.E.~.~.~.E.E.~.~.~.~.E.E.E.E.~.~.E.E.~.~.E.E.~.~.~.~.~.~.E.E.}.}.~.~.}.}.}.~.V.W T ] M ; ; < 4 ' ! P ^ A.E.}.}.}.}.}.S.S.I.I.Z.S.S.S.B.Z.S.S.~.~.~.~.~.~.~.E.~.~.~.~.~.~.E.E.S.I.Z.S.~.V.E E E V.Z.Z.~.A.^ ~ &.&.E.Z.}.T.1 @ g M w.H.N.~.~.I.).).).).).).).).).).).).).).).).~.~.~.~.~.~.~.~.C.Z.Z.~.}..X}.E.Z.E..X).R.E.V.W T T T u 0 N z 1 f 1 N 4.W.T.E.}.E.E.E.E.E.).).J.~.~.~.~.~.E.~.~.~.~.E.E.~.~.E.E.).).).).).).).).).).).).).).).).~.~.~.~.~.~.E.E.}.Z.J.}.Z.Z.E.E.E ~ ~ ~ R.J.Z.'..XE..X.XT.T.!.!.d d d d ",
"E.E.E.~.E.E.E.~.E.E.E.E.~.~.~.~.E.E.~.~.E.E.~.~.E.E.E.E.~.~.~.~.~.~.~.~.~.~.~.E.E.E.~.~.E.E.E.~.&.P 7 y 3 < < f : u 7 5 P V.R.}.}.~.~.Z.Z.Z.S.S.Z.Z.S.S.S.S.S.S.~.~.~.~.E.E.E.E.~.~.~.~.~.~.~.E.Z.S.D.S.~.~ S 5 5 W V.S.~.^ F D D P R.R.E.2.1 + a 9 w.).A.~.Z.B.).).).).).).).).).).).).).).).).E.E.E.~.~.~.~.~.~.~.~.~.E.E.E.E.Z.E.~.E.Q.R.! 5 7 0 6 : : < a a : : i %X=X).I.P.E.E.E.E.E.).).J.E.E.E.~.E.E.E.~.~.E.E.E.E.E.E.E.).).).).).).).).).).).).).).).).~.~.~.~.~.E.~.~.Z.C.Z.Z.C.R.R.C.F F S P N.G.N.C..XE.).).Z.).'.W.a a a d ",
"E.E.E.E.E.E.E.E.E.E.E.E.E.E.E.E.E.E.E.E.E.E.E.E.E.E.E.E.E.E.E.E.E.E.E.E.E.E.E.E.E.E.}.}.E.R.E..XW.U 0 N f f < < f N 0 D ! !.Q.:XQ.'.'.E.Z.Z.C.N.J.J.J.J.Z.E.E.E.E.E.E.E.E.E.E.E.E.E.E.E.E.E.E.E.Z.S.S./..X..D 5 7 ..'..X.X2.H / 5 ' ;X&X'.5.1 + @ f c.[.E..XE.C.).).).).).).).).).).).).).).).).).).).).).).).).).).E.E.Z.R.)..X}.}..X'.'.&X2.7 _ N N z < < a j     u c.=X).J.B.E.E.E.E.E.).).).E.E.E.E.E.E.E.E.E.E.E.E.E.E.E.E.).).).).).).).).).).).).).).).).E.E.E.E.E.E.E.E.).'.).'.E.'.'.Q.L G D P R.J.H.'.H.N.C.H.C.'.[.W.a a a a ",
").).).).).).).).).).).).).).).).).).).).).).).).).).).).).).).).).).).).).).).).).'.).'.'.'.'.).5.U 0 C V d @ X d V x 7 ! !.!.@XW.'.'.'.'.(.(.H.H.H.H.).).'.E.E.).).).).).).).).).).).).).).).).}.}.Z.~.:X!._ N 0 1.W.'.Q.../ v N s.<X%X&X6.f = u.V v.%X!.:X'.}.).).).).).).).).).).).).).).).).).).).).).).(.).'.).).R.R.R.W.'.}.}.E.'.&X-Xl.I x z 9 f < < @ # d a V k.c.R.).}.E.E.E.E.E.).).).'.'.).).).).).).).).).).).).).).).).).).).).).).).).).).).).).).'.'.'.'.'.'.'.'.'.'.[.'.W.'.&XW.z x x | W.(.R.'.).E.).(.3.7.c.l.a a a a ",
"(.(.).).).).).).).).).(.).).).).(.(.).).).).).).).).).(.).).).).).).).).).).).).W W R W W W W W U 5 8 f k d a a @ k 1 4 D U Q ..U ! ! ! &.R.(.(.H.H.).).'.'.'.'.).).).).(.(.).).).).).).).).).).C.&.E ^ 1XU 8 z : I ! &.2.U 8 h ; 1 [ L R I X & = a { U D ~ T.(.).).).).).).).).).).).).).).).).(.(.(.(.(.(.(.(.[.[.'.'.'.R.&.%.E E E E Q  .U 5 z 3 1 3 f d # # = $ k C _ L ! R.E.E.E.E.E.).).J.(.(.).).).).).).).).).).(.).'.'.).).).).).).).).).).).).).).).).'.'.'.'.'.'.'.'.R R W R R T T R s h h x ] ! ! !.'.Q.'.3.R t B M a a a a ",
").).C.C.).).H.C.E.E.E.E.).).).E.).).).).).).).).H.C.C.H.H.C.C.H.G.H.Z.Z.E.E.Q.W.2.L 5 D D G H / z l s f k g $ g X < 1 1 8 0 0 G 5 J H D P 2.'.R.E.E.E.E.E.E.E.E.).).).).'.'.).).).).).).).).).).'.! F F H q 1 s 3 , 7 7 7 5 s h g a X X X < < a d a s 1 : t 8.`.E.E.E.E.E.E.E.E.Z.Z.Z.Z.Z.Z.Z.Z.Z.Z.Z.Z.Z.Z.C.H.E.'.'.W.'.'.T.P F F F F G G 0 4 h h h g g j % % @ @ g i.h 1 q z.`.'.).H.J.E.~.^.).).).).).).).).Z.Z.Z.Z.Z.Z.Z.Z.Z.Z.Z.Z.Z.Z.Z.Z.E.E.E.E.E.E.E.E.F.F.(.(.(.'.R.%.D D D G G G / / k h h b x J S F $XQ.'.1.9 < a X # # # # ",
").E.Z.Z.Z.Z.Z.C.E.E.E.E.E.E.E.E.).).).).'.'.).).).Z.Z.E.).Z.Z.).H.H.E.E.E.Q.Q.Q.2.D 5 D J G H ( 1 1 < s a @ @ $ a a < < 1 9 0 0 S F F D F T.&X'.).).).'.Q.Q.Q.).).).).).).).).).E.E.E.E.E.E.E.E.`.! D H ( 8 1 a 2 : 7 D G 0 s g a a a a a f d d # # a < : 6 4.%XE.E.E.E.E.E.E.E.E.E.E.E.E.E.E.E.E.E.E.E.E.E.E.E.E.Q.Q.E.Q.Q.! S J G G G x x 8 1 s s a a @ @ @ @ # # $ g s 1 u %X`.`.(.'.'.E.Q.Q.).).).Z.Z.).).'.E.E.E.E.E.E.E.E.E.E.E.E.E.E.E.E.E.E.E.E.E.E.E.E.C.C.).'.'.Q.R.~ D D D D G G G / X < < s x G D P '.'.'.8.9 < a X @ @ @ @ ",
"'.'.'.'.'.'.[.[.'.'.'.'.&X&X&X&X'.'.'.'.'.'.'.'.:X.X.X:X:X.X.X:X[.[.[.&X-X-X-X-X5.U G U ` / ` | f f f k j j $ % j j a < f v C [ G H ` H U W.-X&X'.'.'.'.'.'.'.'.'.&X&X&X&X&X&X&X'.'.'.'.'.'.'.'.v.;.I / [ b h a a 3 9 u N z h g g j j j j j j k % j j j < M h.v.&X&X&X&X&X&X&X&X&X&X&X&X&X&X&X&X&X&X&X&X&X&X&X&X-X-X-X&X-X-X..D / / [ v C v c k d d d d d d # # # # # j k 1 B v.%X%X`.`.`.`.+X+X&X&X[.W.W.'.'.'..X.X[.[..X.X[..X&X&X&X&X&X&X&X&X&X&X&X&X&X&X&X&X'.'.[.-X-X-X&XW.I I _ _ _ [ [ [ X o f f C _ U ! &X`.].8.y a d @ j j j j ",
"Y Y Y Y I I I _ ' _ _ _ ' ' _ _ _ _ _ _ _ _ _ _ I I I I I I I I I I I I _ _ _ [ [ 8 1 8 l l b b a a a a # # @ @ j d @ a < s z z 8 8 x 9 9 [ } [ I I I I I I I I I I I I I I I I _ _ _ _ _ _ _ _ O.9 1 1 z h a $ @ < 1 3 3 < a $ # $ g g $ # @ a + + g a < < M B u u u u u u u u u u u u u u u u I I I I I I I I _ _ _ x _ _ 0 : s s s h s h a a a a # # # # # # @ # $ j j a < V _ _ I I I I _ _ I _ I u u I I I I I I I I I I I u u u u u u u u u u u u u u u u I I _ ' _ [ _ 0 8 8 l l l l l l . X X a s 8 4 5 I t p y < + $ @ @ @ @ @ ",
"3 2 ; 2 < < X   f < < < < a X X X X X X @ @ @ X < < < < < < < < 2 2 < < < < < < V a a d j g g g k k d d d d d d j j d a a a < s a a a a X a a X ; ; ; ; ; ; ; ; < < < < < < < < < < < < < < < < 2 X X < a a g u.d d < < < a a g a a g y.y.j d X d d j j d < ; ; 2 2 2 2 2 2 2 2 < < < < < < < < < < < < < < < < < < 2 X X a a a f f h h a a a a j j j j j j j j j u.y.u.u.g $ j < ; : : : : ; < < < < X < < 3 3 < < < < < < < < < < < < < < o o 2 2 2 2 2 2 X X 2 < < f < < < < a a a a a g g g # j % a h s 1 1 1 ; : 3 a y.i.y.d d d d ",
"X X X o # d d j X X + @ % j u.% % % % % % % % % a a a a @ a a a o o o o o o o o d X X # o X @ X 2 2 2 2 2 2 2 2 a a a a a s a f j g g $ @ $ g $ j j j j d d d d g g g g g g g g j j j j j j j j a a d j j j k a.j d f f f f d a < a g i.i.j 2   3 X < f < 2 >   o o o o o o o o # # # # # # # # @ @ @ @ @ @ o o o d d o X # d d f < < < 2 < < f d d d d d d d d < a X X @ # # # a a < < 2 2 a a u.j j # @ @ o 2 < < < < 2 2 < < # # # # # # # o o o o o o o o o o X 2 d o o < < @ @ @ # @ @ @ @ < f d a a s < 1 h < ; 2 a g g $ 2 2 2 < ",
"; > > 2 X X < a O X 2 d @ @ # j # # # # # # # # > 2 2 > > 2 2 > > > ; ; ; > > > >     > > ; >     > > ; ; ; ; : < < < < < < < h < X < a < a d a a a a a a a a a a a a a a a a a @ @ @ # @ @ @ @ a a d a @ @ a a a a < < < < < < ; < a a a < ; : >     ;   ; > : ; ; ; ; ; ; ; ; > > > > > > > > > > > > > > > > > > >       > 2 > ; ; ;     ; 3 > > ; ; ; : : : : : ;   2 2 o o g g a # # % % % a a a d f 2   > ; ; > ; ; ; ; > > > > > > > > > ; ; ; ; ; ; ; ; ;   ; > ;   > > > > > ; ; ; ; ; ; > : ; > 2 > > k < : , ; < ; ; ; ; ; ; ",
",.,.,.Z y 1 < < :.j.j.p.n < < a < < < < < < < < h.k.k.h.h.h.h.h.,.,.,.,.,.,.,.,.9.,.9.9.9.9.r.9.j.x.x.h.h.h.v.h.s.C z z c z c c 8 3 9 M z z z 3 z z z z z z z z z z z z z z z z a a a a a a < < a j j d d j f h c c f f f f f z 9 z c c a.p.g.k.9.,.h.h.j.h.x.,.,.,.,.,.,.,.,.,.h.h.,.h.h.h.h.h.h.h.h.h.h.h.,.h.9.9.,.<.<.,.x.v.x.x.h.h.,.<.,.v.9.9.,.,.,.,.,.,.,.9.9.<.x.x.O.e = $ $ $ & & & = < < V j.n.h.j.h.,.,.,.,.,.,.,.,.h.h.h.h.h.h.h.h.,.,.,.,.,.,.,.,.k.,.k.v.6.,.9.v.k.6.6.9.9.r.6.6.8.r.6.,.x.x.x.9.n.j.,.k.h.h.k.r.h.h.h.h.",
"fX3XaXbXw   c s *XuXIXbX[ g y.j g # j @ = i.$ d 0.BXDXiXiXhXLXNXiXiXiXiXiXiXiXiXiXiXiXiXiXiXiXiXiXiXiXiXiXiXNXNX=XR D U H 0 G _ ( ( ( ( ( ( ( ( ( ( ( ( ( ( ( ( U ` I 0 0 0 7 7 v l < a j j @ # % # o   f c x I G G H H H / / / | ) ( G S &.mXUXuXuXNXaXeXeXaXaXaXiXeXeXiXNXuXtXiXiXiXiXiXiXiXiXiXiXiXiXiXiXiXiXiXiXiXiXiXiXiXiXtXiXNXiXiXaXaXaXiXaXaXiXAXAXiXNX6XrXaXeXpXFXv.: s X j # @ j @ a a < 9 GXBXAXeXkXuXaXaXAXAXuXuXAXiXiXaXIXiXiXiXIXsXsXiXiXiXiXiXiXiXiXiXiXiXiXiXiXiXiXiXiXiXiXiXiXiXiXiXiXiXiXiXiXNXNXyXuXiXiXuXeXiXiXiXiX",
"gX3XaXzXw   s 1 ].uXaX0X[ a a 2 g j m @ % j X 2 t.0XiXwX3XwXwXtXwXwXtXtXwXwXwXwXeXeXeXeXeXeXeXeXwXeXeX5XeXwXtXtX=XW 7 G G 0 I ` H H H H H H H H H H H H H H H H F I G G _ _ I T C z < < g # + # u.j o   s v x _ F F G G H H H H ) ( H D S W nXUXeXeXiXiXqXqXeXeXqXeXqXqXiXiXwXwXwXwXwXwXeXwXeXeXwXwXwXwXwXwXwXwXwXwXeXeXeXeXeXeXqXuXuXeXeXeXeXeXqXeXeXqXuXuXuXuX3XrXiXeXpXDXw.; z < k j j m @ a < ; 9 xXBXAX3XsXeXuXeXuXiXuXqXuXrX3XrXiXqXqXrXiXeXeXeXeXeXeXeXeXwXwXwXwXwXwXwXwXeXeXeXeXeXeXeXeXwXwXwXwXwXwXwXwXiXiXyXwXiXwX3XqXwXwXwXwX",
"LXwXiX0Xr : 1 : nXiXkX9XY 1 < > a a d . X 2   : =.uXIXiXwXwXyXiXiXiXiXiXiXiXiXiXiXiXiXiXiXiXiXiXyXiXrXrXiXiXyXNX[.W D 7 5 5 D D S S S S S S S S S S S S S S S S D D S D G D 7 L [ z 1 < f d # % @ @ ; ; 1 8 q 5 D D D D S S S S G J F D S W |.PXiXiXiXaXiXrXrXeXrXiXrXrXkXiXiXiXiXiXiXiXiXiXiXiXiXiXiXiXiXiXiXiXiXyXyXyXiXyXiXiXiXiXiXiXiXaXiXeXrXsXiXeXiXiXiXiXrXiXNXiXuXVXe.6 8 ; a X @ @   < > : t *XtXiXwXrXiXiXiXiXhXiXiXhXrX3XrXiXqX3XrXrXrXiXiXiXiXiXiXiXiXiXiXiXiXiXiXiXiXiXiXiXiXiXiXiXiXiXiXiXiXiXiXiXwXiXrXwXrXeX3XrXiXiXiXiX",
"yX|.wX].;._ } I _.qXrXtX1.' ' ' f f k 2 A <.@.;.=.9XwX|.U.|.U.|.U.U.U.U.U.U.U.U.|.|.|.|.|.|.|.|.XX|.U.U.U.|.XXXX>XT.&...! ..~ W ~ ~ ~ ~ ~ ~ ~ ~ ~ ! ! ! ~ ~ ~ ~ &.~ ! ..X.U D U 0 0 4 3 z f @ # a A ,.8.8.5. ...! ! ~ ~ ..........! 2.&.^ C.|.XX|.2XqXqXK.K.3X3X3X3XY.Y.qXqXU.|.U.U.U.U.U.U.U.U.U.U.U.U.U.U.U.U.|.|.|.|.|.|.|.|.|.qXqX3X3X3X3X3X5XrXqXK.K.K.K.K.Y.K.XX_.L._.`.T } _ Z a o 2 2 g.8.#.8.{._.|.qX3X|.|.U.U.|.U.U.wXrX6XrXrXrXrXrXqXU.U.|.|.|.XXXXXX|.|.|.|.|.|.|.|.|.|.|.|.|.|.|.|.|.|.|.|.|.|.|.|.U.qX3X3XrXiXrXrXU.U.U.U.",
"E.C.H.(.`.-X-X`.F.F.K.|.'.%X;X%X3 < d 3 9.SXbXMXN.K.J.J.J.J.H.F.G.G.G.G.G.G.G.G.H.H.H.H.H.H.H.H.H.H.H.G.G.G.H.H..XE.'.&XQ.'.:X'.'.'.'.'.'.'.'.'.'.'.'.'.'.'.Q.'.'.E.Q.&X@X..F U _ G 7 u B z a j < :.bXAXNX>X'.E.'.'.'.'.Q.Q.Q.Q.'.Q.'..XE.H.).H.F.F.G.F.N.G.U.3XwXU.G.N.G.G.N.F.G.G.H.G.G.G.G.G.G.G.G.G.G.G.G.G.H.H.H.H.H.H.H.H.F.F.G.F.F.F.Y.4XwXrX3XF.F.F.F.N.F.N.).H.N.K.[.W.+X#Xz.f 2 2 y GXSXMXnX{.F.N.H.B.C.J.J.G.G.N.G. XrX6X3X3XwXrXwXU.G.H.G.H.H.H.Z.Z.H.H.H.H.H.H.H.H.H.H.H.H.H.H.H.H.H.H.H.H.H.H.H.H.F.F.F.L.wXiXrXrXG.G.G.G.",
"Q.E.C.C.'.,X[.'.F.N.H.}.).'.=X`.3 < a ; t.aXeXtXK.J.J.E.}.).H.H.J.J.J.J.J.J.J.J.).).).).).).).).).).).J.K.J.J.).C.C.E.'.R.E..X).).).).).).).).).).).).'.).).).E.).).'.,X@X .D 5 G G 7 7 u 9 f k   ,.ZXaXaX|.C.A.E.E.E.E.E.E.Q.Q.'.R.E.).E.).).C.H.H.J.H.F.K.yXLXLXyXJ.B.H.J.H.H.).).).).).).).).J.J.J.J.J.J.J.J.).).).).).).).).H.H.J.H.G.G.wXhXhXLXyXK.H.J.H.H.B.C.'.).N.H.}.'.W.&Xz.3 > ; r GXaXuXNXK.F.V.).E.).}.).}.J.B.I.gXhXrXwXwXwXiXyXU.J.J.).).).).).).).).).).).).).).).).).).).).).).).).).).).).).).F.F.N.G.wXhXiXrXJ.J.J.J.",
"Q..XZ.C.Q.Q.Z.N.).H.}.}.A.C.'.R.M h h 3 =.sX7X3XK.}.E.E.^.E.R.C.).).).).).).).).).).).).).).).).E.E.J.J.J.J.J.J.).Z..X.XE.E.).J.J.J.J.J.J.J.J.J.J.).).).J.J.J.J.H.).E.'.W...L P H D 7 7 7 : < s k k.bXsXeX|.).E.J.J.).).).).}.E.}.Z.E.}.).}.OX.XE.Z.).H.C.).yXPXPXyX}.C.Z.).Z.E.E.E.E.E.E.E.E.E.).).).).).).).).J.J.J.J.J.J.J.J.).).).H.C.C.|.PXyXmXXXC.C.).).).H.E..X).N.A.Z.V.E.&Xl.9 3 > w HX3X3XiXH.).V.,X$XE.E.E.E.Z.N.J.yXiXiXiXwXqXyXyXXXZ.Z.Z.E.E.E.E.E.J.J.J.J.J.J.J.J.).).).).).).).).'.'.'.'.'.'.'.'.J.H.F.J.yXiXyXwX).).).).",
"!.^.Z.A.^..XZ.I.C.C.~.}.B.C..X&XM h g 1 =.kX8XrX|.OX^.^.$XQ.E.'.E.E.E.E.E.E.E.E.E.E.E.E.E.E.E.E.Q.E.E.Z.B.B.Z.Z.}.Z.}.oX}.).}.G.J.J.J.J.J.J.J.J.J.J.J.J.J.J.J.J.N.C.&.&.2.1.! 2.+XW.3.3.;.u 1 h $ A t.=.*.C.E.Q.I.I.I.I.}.~.~.~.E.V.Z.E.R.R.E.E.'.'.).).E.'.XXoXoXoX}.E.).E.E..XE.E.E.Q.E.E.E.E.E.E.E.E.E.E.E.E.Z.Z.Z.Z.Z.Z.Z.Z.[.).).).Z.Z.}.oX|.oX}.C.C.)..X[.}.E.:XoXZ.I.OX~.~.&X5.: 3 , , xXsXeXhXH.}.!.:X$X'.Q.R.R.E.C.H.yXwXwXyXqX|.|.XX|.Z.Z.Z.E.E.E.E.E.Z.Z.Z.Z.Z.Z.Z.Z.E.E.E.E.E.E.E.E.E.E.E.E.E.E.E.E.H.H.C.H.XXXX|.|.E.E.E.E.",
"H.H.E.E.~.~.S.S.H.).).).E.E.E.E.e 2 d ; 0.eXrXiXOXZ.Z.}.).).).(.).).).).).).).).).).).).).).).).E.E.E.E.E.E.E.E.E.E.E.E.E.E.E.E.).).).).).).).).).).).).).).).).W.U G G G &XUXmXhXkXrXkXDX<.> # $ @ f 1 : _ `.N.J.J.J.J.J.J.Z.Z.E.E.E.E.E.E.E.E.E.E.E.J.J.J.G.G.).).).).).).).).E.E.E.E.E.E.E.E.).).).).).).).).).).).).).).).).E.E.E.E.E.E.E.E.S.}.Z.Z.).E.E.'.J.).E.E.E.E.J.G.B.[.6.3 a < 6 bXqXiXyX|.H.E.E.E.H.H.H.H.H.).).).H.H.H.H.H.H.H.H.).).).).).).).).).).).).).).).).).).).).).).).).E.E.E.E.E.E.E.E.).).).).).).).).).).).).",
"J.H.E.E.~.~.S.S.H.).).E.E.E.E.E.e < j ; 0.eXrXyXOXZ.Z.}.).).).(.).).).).).).).).).).).).).).).).E.E.E.E.E.E.E.E.E.E.E.E.E.E.E.E.).).).).).).).).).).).).).).).).&XU D 7 7 `.UXyXwXwX3XrXMX;.  # i.y.k 1 1 } =X[.J.J.J.J.J.J.Z.J.E.E.E.E.E.E.E.E.E.E.E.J.J.J.J.G.).).).).).).).).E.E.E.E.E.E.E.E.).).).).).).).).).).).).).).).).E.E.E.E.E.E.E.E.Z.).Z.R..XE.R.Q.J.).)..X.X).J.G.Z.[.6.3 a < 6 bXqXiXyX|.H.E.E.E.H.H.H.H.H.).).).).).).).).).).).).).).).).).).).).).).).).).).).).).).).).).).).E.E.E.E.E.E.E.E.).).).).).).).).).).).).",
"J.J.E.E.E.~.S.S.J.).).E.E.E.E.E.e < j ; e.uXyXmXOXZ.Z.}.).).).).).).).).).).).).).).).).).).).).E.E.E.E.E.E.E.E.E.E.E.E.E.E.E.E.).).).).).).).).).).).).).).).).Q.P 7 5 L (.mX|.yXhXwXrXVX,.< j = $ < 1 : | %X'.J.J.J.J.J.J.J.J.E.E.E.E.E.E.E.E.E.E.E.J.J.J.J.J.).).).).).).).).E.E.E.E.E.E.E.E.).).).).).).).).).).).).).).).).E.E.E.E.E.E.E.E.).OX}.)..X'.W.'.C.Z.Z.E.E.Z.B.N.Z.[.6.3 a < 6 vXwXiXyX|.H.E.E.E.J.H.J.J.J.).).).'.'.E.'.).'.'.'.).).).).).).).).).).).).).).).).).).).).).).).).E.E.E.E.E.E.E.E.).).).).).).).).).).).).",
"J.J.).).).).E.E.Z.E.).E.E.'.).E.n a j ; e.uXyXmXOXZ.Z.}.}.).).E.).).).).).).).).).).).).).).).).).).).).).).).).).).).).).).).).).).).).).).).).).).).).).).).).).C.*.*.*.XXyX|.oXyXU.qXtX;.  $ + m :.;.;.7.`.(.J.J.J.J.J.J.J.J.E.E.E.E.E.E.E.E.E.E.E.).).J.J.J.).).).).).).).).).).).).).).).).).).).).).).).).).).).).).).).).E.E.E.E.E.E.E.E.R.).R.&.&.&.2.&X).).).H.H.J.J.J.Z.[.7.3 a < 6 vXwXiXyX|.H.E.E.E.J.J.J.).).).).).E.E.E.E.E.E.E.E.).).).).).).).).).).).).).).).).).).).).).).).).E.E.E.E.E.E.E.E.).).).).).).).).).).).).",
").).J.J.H.H.).).Z.~.E.E.).'.'.'.n a j ; e.uXyXmX.XZ.Z.}.}.).).E.).).).).).).).).).).).).).).).).).).).).).).).).).).).).).).).).).).).).).).).).).).).).).).).).}.XXyXtXtX|.I.C.E.}.B.K.[.Y   $ a h.vXMXtX0X(.F.).).).).).).).).E.E.E.E.E.E.E.E.E.E.E.).).J.J.J.).).).).).).).).J.J.J.J.J.J.E.).).).).).).).).).).).).).).).).).E.E.E.E.E.E.E.E.E.E.&.P F F ! &X'.).).Z.H.H.H.H.Z.[.6.3 a < 6 vXwXiXyX|.H.Z.E.~.E.E.).).).).).).E.E.E.E.E.E.E.E.).).).).).).).).).).).).).).).).).).).).).).).).E.E.E.E.E.E.E.E.).).).).).).).).).).).).",
"E.E.J.H.H.H.).'.S.~.~.E.).'.'.(.e a j ; e.uXiXmXXXC.Z.).}.).E.E.).).).).).).).).).).).).).).).).).).).).).).).).).).).).).).).).).).).).).).).).).).).).).).).).B.yXiXiXwXK.N.A.E.OXC.H.[.' ; g ; 9.dXsXeXK.N.N.E.E.E.E.E.E.E.E.E.E.E.E.E.E.E.E.E.E.E.E.E.E.E.E.).).).).).).).).J.J.J.J.J.J.).E.).).).).).).).).).).).).).).).).E.E.E.E.E.E.E.E.'.'.&.F D D ..-XW.E.E.).).).E.R.Z.[.6.3 a < 6 vXyXiXyX|.H.Z.Z.S.E.E.E.E.E.E.Z.E.E.E.E.E.E.E.E.E.).).).).).).).).).).).).).).).).).).).).).).).).E.E.E.E.E.E.E.E.).).).).).).).).).).).).",
"E.E.J.H.H.H.(.(.S.~.~.E.).'.(.(.e < j ; 0.eXrXyX[.C.C.).}.).~.E.).).).).).).).).).).).).).).).).).).).).).).).).).).).).).).).).).).).).).).).).).).).).).).).).B.yXiXwXrX|.J.}.Q..XB.C.(.Y < a ; 9.uX5XrXU.B.I.E.E.E.E.E.E.E.E.E.E.E.E.E.E.E.E.).).E.E.E.E.E.E.).).).).).).).).J.J.J.J.J.J.J.Z.).).).).).).).).).).).).).).).).E.E.E.E.E.E.E.E.E.Q.&.P D D ! 7.@X&X'.'.(.'.'.`.Z.[.6.3 a < 6 bXtXNXyX|.H.Z.J.S.Q.E.E.E.E.E.Z.Z.E.E.E.E.E.E.E.E.).).).).).).).).).).).).).).).).).).).).).).).).E.E.E.E.E.E.E.E.).).).).).).).).).).).).",
"E.E.J.J.H.H.(.(.S.~.~.E.).'.(.(.e 2 d ; 0.eXrXiX[.C.C.).}.~.~.~.).).).).).).).).).).).).).).).).).).).).).).).).).).).).).).).).).).).).).).).).).).).).).).).).B. XU.K.qXU.C.}.Q..XZ.H.[.;.s k < c.MXrXhX XZ.~.E.E.E.E.E.E.E.E.E.E.E.E.E.E.E.E.).).E.E.E.E.E.E.).).).).).).).).J.J.J.J.J.J.J.J.).).).).).).).).).).).).).).).).E.E.E.E.E.E.E.E.'.[.R.~ 2.....5.5.5.2.&.&.&.2.2.Z.[.6.3 a < 6 bXtXNXyX|.H.J.J.S.Q.Q.E.E.E.E.Z.J.Z.Z.E.E.E.E.E.E.).).).).).).).).).).).).).).).).).).).).).).).).E.E.E.E.E.E.E.E.).).).).).).).).).).).).",
"H.H.).).E.~.^.^.E.Z.B.G.G.F.H.=.e X a : 0.eXiXiX_.C.W.).}.I.~.~.).).).).).).).).J.J.J.J.J.J.J.J.J.J.J.J.).E.E.E.Q.Q.Q.E.E.).J.J.(.(.(.).E.E.E.E.E.E.E.E.E.E.E.E.G.J.J.J.H.H.).).C.J.Z.}.'._ ; d 1 r.dX5X6XqXI.OXE.Z.J.J.J.).'.Q.).).).).).).).).E.E.E.E.E.E.E.E.).).).).).).).).).).).).).).).).).).).).).).).).).).).).).).).).E.E.J.J.J.J.E.E.E.E.|.iXNXNX`.L H 0 > o o ; 7 +XT.Q.6., 2 < w xXwXiXyX|.E.E.).E.D.S.S.~.E.).H.H.G.J.J.I.}.}.}.}.).}.}.).).).).).H.H.H.H.).).H.).J.J.J.J.).E.E.E.).).).).).).).).H.H.H.H.).).).'.).).).).",
"H.H.).).E.E.~.^.Q.E.~.I.J.).(.(.e X a : 0.eXiXiX_.R.W.).}.I.S.~.).).).).).).).).J.J.J.J.J.J.J.J.J.J.J.J.).E.E.E.E.E.E.E.).J.J.J.).).'.}.OXOXOXOXJ.J.J.J.J.J.J.J.J.J.J.J.H.).).).Z.J.Z.}.'.' ; d   >.bXsXeX|.C.Z.E.Z.J.J.J.).'.Q.).).).).).).).).E.E.E.E.E.E.E.E.).).).).).).).).).).).).).).).).).).).).).).).).).).).).).).).).E.E.J.J.J.J.E.E.'.).|.iXLXNXW.D H I e 2 o ; u +X@X&X6., < > r vX3XwXyX.X'.)..X).D.S.S.~.E.).H.H.I.I.I.J.Z.Z.E.E.E.E.).).).).).}.).).).).).).).).J.J.J.).).E.E.E.).).).).).).).).H.H.H.H.).).'.'.).).).).",
"H.H.).).E.E.E.~.Q.Q.E.E.E.E.Q.Q.n X k : 0.eXiXiX_.C.W.).I.I.S.~.).).).).).).).).E.E.J.J.J.J.J.J.J.J.J.J.).E.E.E.E.).).).J.J.J.J.~.~.~.~.E.E.E.E.J.J.J.J.J.J.J.J.Z.Z.E.).E.).'.'.Z.).Z.}.'._ ; d s b.JXFXMXnX}.~.E.Z.J.J.H.).'.'.).).).).).).).).E.E.E.E.E.E.E.E.).).).).).).).).).).).).).).).).).).).).).).).).).).).).).).).).E.E.J.J.J.J.E.E..X).|.yXiXmX(.P S F 9 > O   y k.-X;Xk.3 < 2 r vXwXiXyX}.E.E.).E.J.I.S.E.E.E.H.H.E.E.E.Z.J.J.J.J.).).).).).).).).'.'.'.'.'.'.).).J.J.J.).).E.E.E.).).).).).).).).H.H.H.J.).).).'.).).).).",
").).).E.E.E.E.E.'.'.}.}.~.^.^.^.n X k : 0.eXiXiX_.C.W.).I.J.S.E.).).).).).).).).E.E.J.J.J.J.J.J.J.J.J.).).).).).J.J.J.J.J.J.J.J.~.~.~.~.~.E.E.E.J.J.J.J.J.J.J.J.E.E.E.E.'.'.'.'.Z.).E..X&X_ < d h j.v.e.0.3.Q.E.E.E.Z.J.H.).).).).).).).).).).).E.E.E.E.E.E.E.E.).).).).).).).).).).).).).).).).).).).).).).).).).).).).).).).).).).J.J.J.J.).).OX).}.|.XXXX[.&.~ T.] , , 3 B >.X.4.:.2 f < 6 cXwXiXyX}.E.E.E.Z.J.J.J.E.E.E.).H.E.E.E.E.Z.J.I.I.).).).).).E.E.Z.E.E.E.E.E.E.E.E.J.J.J.).).).).).).).).).).).).).H.H.J.).).).).).).).).).",
"E.E.E.E.E.'.).).(.J.J.I.I.}.E.Q.n X k : 0.eXiXiX|.E.E.}.J.J.Z.E.).).).).).).).).).).).).).).).).).).).).).J.J.J.J.J.J.J.J.J.J.J.~.~.~.E.E.E.).'.E.E.E.E.E.E.E.E.E.E.E.E.'.).'.).E.).E..X&X_ < d + a e w 6 T W.R.E.E.E.E.).).H.H.).).).).).).).).E.E.E.E.E.E.E.E.).).).).).).).).).).).).).).).).).).).).).).).).).).).).).).).).J.).).).E.E.Z.Z.OXC.J.J.H.).oXXX,XmXW.u y N 9 9 : 3 f X d f r vXqXyXyX'.E.E.).J.H.H.).).E.E.E.).Q.E.E.E.Z.Z.B.B.Z.Z.E.E.).).).).E.E.E.E.E.E.E.E.).).).).).).J.J.).).).).).).).).).).).).).Z.Z.Z.).).).).",
"~.E.E.E.).).H.H.J.K.J.J.J.).'.'.n X k : 0.eXiXiX|.E.Q..XI.J.J.E.).).).).).).).).E.E.E.E.E.E.E.E.E.E.E.).).).J.J.J.J.J.J.J.).).E.E.E.E.E.E.E.E.E.Q.Q.Q.Q.Q.Q.Q.Q.E.E.E.E.).).H.H.E.).E..X&X_ < d $ + 2 : : ' &X'.Z.E.E.E.).).H.H.).).).).).).).).E.E.E.E.E.E.E.E.).).).).).).).).).).).).).).).).).).).).).).).).).).).).).).).).J.J.E.E.E.E.Z.Z.I.B.J.J.N.H.yXPXNXIX`.L u [ 9 ; < < f X j f p BXqXyXyX'.E.Z.J.Z.H.H.).'.E.E.E.E.E.E.E.E.E.E.Z.Z.E.E.E.E.E.E.Z.Z.E.E.E.E.E.E.E.E.E.E.E.).).).J.J.).).).).).).).).E.E.E.E.Z.Z.J.Z.).).).).",
"^.~.E.E.).).).H.'.).).).'.'.%X%Xe X f : 0.eXiXiXOXZ.Q.}.I.J.H.E.).).).).).).).).E.E.E.E.E.E.E.E.E.E.E.).).J.J.J.J.J.J.).E.E.E.E.'.(.(.(.).'.).).E.E.E.E.E.E.E.E.E.E.E.J.H.H.H.H.R.).E..X&X_ < g y.+ f 2 ; ' *XH.E.E.E.E.).).H.G.).).).).).).).).E.E.E.E.E.E.E.E.).).).).).).).).).).).).).).).).).).).).).).).).).).).).).).).).J.J.E.E.E.E.Z.J.I.B.J.}.N.C.XXPXuXNX(.U ` | x 8 h f j # j f 6 cXyXmXyX[.E.Z.Z.B.H.H.).'.Q.E.E.E.Z.Z.Z.E.E.E.E.Q.).).).E.Z.Z.Z.Z.E.E.E.E.E.E.E.E.E.E.E.).J.J.J.J.).).).).).).).).E.E.E.E.Z.J.J.J.).).).).",
"^.^.~.E.).).H.H.V.V.V.V.3.3.6.4.e X k : 0.eXiXiX|.E.Q..XJ.J.H.E.).).).).).).).).E.E.E.E.E.E.E.E.E.E.E.).J.J.J.J.J.J.).E.E.Q.Q.Q.=.3.3.C.C.R.E.E.J.J.J.J.J.J.J.J.E.E.Z.J.H.H.H.G.R.).E..X&X_ < g = @ d f   ' =XH.Z.E.E.Q.E.H.H.G.).).).).).).).E.E.E.E.E.E.E.E.E.).).).).).).).).).).).).).).).).).).).).).).).).).).).).).).).).J.J.E.E.E.E.Z.J.I.B.I.|.C.C.|.yXL.9X3.D G / b 8 g d j @ j < : ].qXyXoX'.E.Z.J.J.H.H.(.'.Q.E.E.E.J.Z.Z.E.E.E.Q.Q.Z.Z.Z.Z.E.E.E.).E.Z.Z.Z.Z.Z.Z.Z.E.E.E.).).J.J.J.).).).).).).).).E.E.E.E.Z.J.J.J.).).).).",
"J.B.S.~.E.E.^.Q.K S J G 8 1 s a h h < : $.H.(.E.E..X.XE.E.E.Z.(.~.E.Z.Z.~.}.}.Z.E.E.E.E.E.E.E.E.E.E.E.E.E.E.E.E.I.C.Z.).V.E D D y ; 1 : q #X,X[.~.A.E.^.E.C.G.G.OX}.).E.C.Z.J.B.).^ D F / l s s y.g j a < { &XE.Z.E.E.Q.Q.E.E.Z.I.}.C.E.E.C.}.Z.E.E.Z.B.B.Z.E.E.E.E.E.E.E.E.E.E.E.E.E.E.E.E.E.E.E.E.E.E.E.E.E.E.E.E.E.E.E.E.E.E.}.}.Z.C.E.E.Q..XE.}.J.Z.).'.2.F F F D F G ( o.o.G / b a a < 1 0 7 D P E.}.C.I.B.E.E.(.H.H.H.Z.Z.S.~.R.Q J G G D G 5 F T.}.H.H.(.H.).H.C.J.I.I.I.E.E.E.E.E.E.E.E.Z.Z.Z.Z.Z.Z.Z.Z.~.S.~.~.Z.E.).Z.E.E.E.E.",
"G.B.J.J.C.R.E.Q.K J G x 9 s a a g g < : $.(.(.R.)..X.X~.~.}.J.(.E.E.E.E.}.}.J.J.}.}.}.}.}.}.}.}.}.}.}.}.}.}.}.}.).).}.'.R.Q F H V 1 s 1 4 7.`.H.G.B.Z.}.'.E.H.G.S.S.).E.C.Z.I.I.'.W D D x z s a g g d a < { &XZ.OXOX.X.X.X.XOXOXJ.}.Z..XE.R..XZ.OXOXOXI.I.}.}.}.}.}.}.}.}.}.OX}.OX}.}.}.}.}.}.}.}.}.}.}.OX}.}.}.}.}.}.}.}.}.OX}.J.}.Z.Z.E.E.E.Q.E.).).E.'.'.2.J F F F G G ( ) o.G / c k a < 3 M 7 G P E.}.C.OXJ.E.E.).(.(.).E.E.S.~.T.Q D G H G ( S F T.).E.C.H.R.(.(.Z.J.I.S.I.}.'.}.}.}.OX}.}.}.OXOXOX}.}.}.}.}.S.S.~.E.).).Z.}.}.}.}.",
"G.J.I.}.'.[.>X>X` H / M f a # @ a g a 3 ;.*X=X&XE.}.}.S.}.}.J.J.).).).).}.).Z.C.Z.Z.Z.Z.Z.Z.Z.Z.H.H.H.H.H.H.H.H.).'.'.Q.2.F S 5 c < s 1 9 7.(.{.P.G.J.[.[.[.[.(.}.S.}..XE.E.OXOX&X..G 0 N z s a g a f < < ' '.J.S.S.~.~.~.~.S.S.).'.R.'.'.E..XE.Z.Z.B.G.G.B.Z.Z.Z.Z.Z.Z.Z.Z.Z.Z.Z.Z.Z.Z.Z.Z.Z.Z.Z.Z.Z.Z.Z.Z.Z.Z.Z.Z.Z.Z.Z.Z.Z.Z.J.OX}.E..X.X.XoX'.'.'.'.&X-X5.I H I I I I / ) ) G [ c k a a f N u I U Q..XZ.XX)..X.X'.'.'.'.}..X}..XW. .G / / / / S F 2.'.[.'.[.[.].[.'.}.J.B.I.H.H.H.H.Z.Z.Z.Z.Z.B.Z.Z.B.B.B.B.}.Z.Z.}.).).'.E.Z.Z.Z.Z.",
"C.V.T.R.3.7.7.l./ / x z f o # + @ g $ f O.r.7.4.V.E.~.Z.S.S.Z.Z.R.V.V.V.C.E.Z.C.J.J.J.J.J.J.J.J.H.H.J.J.J.J.H.H.XX.X.X'.R.2.! ! } : 8 8 9 >.>.8.*.*.3.2.2.W.'.(.}.A.V.R.T.V.A.A.+X] 0 9 M f a a g d d o ; ' '.J.S.S.S.S.S.S.S.S.).E.&.T.T.T.'.R.J.J.J.G.G.J.J.J.J.J.J.J.J.J.J.J.J.J.J.J.J.J.J.J.J.J.J.J.J.J.J.J.J.J.J.J.J.J.J.J.B.}.E.V.T.Q.Q.Q.T.W.5.5.4.k.} u x x 0 x x x v v 9 z k j a a s c z 0 L R.'.R..XT.!.T.R.R.T.R.T.!.C.W.2.` 0 x x x / 0 F ..W.W.7.7.6.7.3.R.(.H.B.P.H.H.H.H.H.J.J.J.J.J.J.J.J.J.J.J.Z.C.Z.E.V.V.T.&.S.S.S.S.",
"P U U I 4 : 3 1 8 1 s f @ # * * a j g @ 3 r 8 4 %.W.}.Z.B.Z.Z.E.! P F P &.E.'.R.H.Z.Z.Z.Z.Z.Z.Z.H.H.H.H.H.H.H.H.).).H.H.'.XXtXtX=XY u z z V 3 3 9 z z 8 0  .R.C.R.W P P P F P E ` 0 1 < f d d j g # d o ; ' '.H.E.Z.Z.Z.Z.Z.Z.E.E.T.P P P Q Q.W.E.H.H.H.H.H.H.E.H.H.H.H.H.H.H.H.H.H.H.H.H.H.H.H.H.H.H.H.H.H.H.H.H.H.H.H.H.H.H.H.C.E.~ F F F F P P I I 0 9 9 3 < s s 1 1 s s h h 1 f d a a a a f < 1 6 1.W.R.W.E K F P P P P F K P P I 9 1 l b b _ G G U U U I I , : 6 R R.Z.C.I.H.H.H.H.H.H.Z.Z.H.H.H.H.H.H.H.Z.Z.Z.E.V.W P P P Z.Z.Z.Z.",
"H H / x 1 < X X s a a a @ # % # 2 j y.$ a ;     #.`.[.).Z.E.E.Q.! P S D &.'.'.W.E.E.E.E.E.E.E.E.E.E.E.E.E.E.E.E.H.C.N.N.K.tXNXiXmXR L x c k X @ $ g h s 8 } `.(.'.! 7 G G G D J x 8 < o # # j j j # d o < ' `.H.E.E.Z.Z.Z.Z.E.E.&XT.D D F Q @X@XE.E.Z.Z.Z.Z.E.E.E.E.E.E.E.E.E.E.E.E.E.E.E.E.E.E.E.E.E.E.E.E.E.E.E.E.E.E.E.E.E.E.).'.2.J S J D D G 0 0 1 < < < 2 a a a a a a $ $ < d a @ a @ @ a a < 6 8.[.W.W.U F J G G G G J F 7 7 9 1 < < s z N G G G D 7 0 0 <   : Y `.'.).}.(.(.R.R.E.E.E.E.E.E.E.E.E.E.E.E.E.'.'.R.P D D F E.E.E.E.",
"( / [ C f a j j g g j g @ d d X X j = = j d < a ;.c.=X'.).'.W.+XX.U D U 5.+X&X+X'.'.'.'.'.'.'.'.[.[.[.[.'.'.'.'..X[.'.H._.tXNXyX>XD 7 x V k @ d % j k s s g.*X`.-X] 0 _ [ x / / d.c a @ # % j j % % d # < { %XH.[.[.'.(.(.'.[.'.-X!.D J H X.-X@X'.'.'.'.'.'.'.'.'.'.'.'.'.'.'.'.'.'.'.'.'.'.'.'.'.'.'.'.'.'.'.'.'.'.'.'.'.'.'.'.`.&X5.( / ` U U I [ x s a a j j j j a a a % % = @ # a # d a # j j d 6 6.`.`.&X` ( / _ _ _ _ / ( I _ z s < < f z x x G G G / / x k a f g.;X&XE..X'.'.'.'.[.'.'.'.'.'.'.'.'.'.'.'.W.'.&XW.U G H _ '.'.'.'.",
"5 J x z < X o # = % u.j # a j a X % = = u.j a @ ' k.].(.(.`.W.+X` G 5 G X.+X+X5.W.W.W.W.W.W.W.W.W.R.W.W.W.W.W.W.R.W.R.&.C.[.tXtX,XF 0 C V k   2 O o 2 X 1 s.%X7.l.I 4 z z b b v d.h a + * % % j = % j # < { %X).7.W.3.H.H.R.W.W.W.2.S S G ` +XW.W.W.R.R.R.R.W.W.R.R.R.R.R.R.R.R.R.R.R.R.R.R.R.R.R.R.R.R.R.R.R.R.R.R.R.R.R.R.R.R.3.W.X./ b / G 7 0 z l a g # @ # $ $ $ a # & & = # % d d j j $ u.$ a , >.W.W.+X` x x x x x x x / x C c s < < 3 z [ [ G G G / x b g @ s s.c.W.T.E.R.R.R.R.W.R.R.R.W.W.W.W.W.W.W.W.W.W.+X5.U 0 x x R.R.R.R.",
"a a a a a a a g j j j j d d d d a d d d j j j j a a a a a a a a a a a a a a f f s s s s s s s a < < 1 1 1 1 1 1 < < < < < < < < g g g g g a a a d d a a a g g g a a d d d d a a d d a d d d d j g g g a a a a a a a a a a a a a a a a a f f a d a a a a a a a a 1 1 1 1 1 1 1 < a a a a 1 1 1 1 1 1 a a a s s 1 1 1 1 1 1 1 a a a a a a a a a a d d a a a a a g g g g j j j g g g g g g g g j j f f a a a a a a a a a a a a g g g g g g a d d d a a a g g g g g a a a a a a d d s s s s s s s s a s s s s s s s a a a a a a a a 1 1 1 1 ",
"a a a a a a g g j j j j d d d d a a j d j j j j a a a a a a a a a a a a a a a a s s s s s s a a 1 1 1 1 1 1 1 1 < < < < < < < < g g g g g g a a d d a a a g g g a a d d d f a a d d d d d d j j g g g g a a a a a a a a a a a a a a f a a f a f a a a a a a a a 1 1 1 1 1 1 1 1 a a 1 1 1 1 1 1 1 1 s 1 a a 1 1 1 1 1 1 < 1 a a a a a a a a a a d d d d a a g g g g g j j j g g g g g g g g j j a a a a a a a a a a a a a a g a g j g g a a d a a a a a g g g g a a a a a a d d s s s s s s s s s a s a s s s s a a a a a a a a 1 1 1 1 "
};
