/* XPM */
static char *wall_est_croco[] = {
"64 64 6 1",
"_ c #70ea84", // Fond orange doux
"G c #4CAF50", // Vert
"B c #1E88E5", // Bleu
"Y c #FBC02D", // Jaune
"R c #D32F2F", // Rouge
"O c #e65100", // Orange foncé (pour ressortir sur le fond)
"________________________________________________________________",
"_______GG_____________________________________________YY________", // 1. Vert (haut gauche) & 2. Jaune (haut droite)
"______GGGG____________________BB_____________________YYYY_______", // 3. Bleu (haut milieu)
"______GGGG___________________BBBB____________________YYYY_______",
"_______GG____________________BBBB_____________________YY________",
"____GGGGGGGG__________________BB___________________YYYYYYYY_____",
"___GGGGGGGGGG______________BBBBBBBB_______________YYYYYYYYYY____",
"____GGGGGGGG______________BBBBBBBBBB_______________YYYYYYYY_____",
"______GGGG__________________BBBBBBBB_________________YYYY_______",
"______GGGG____________________BBBB___________________YYYY_______",
"____GGGGGGGG__________________BBBB_________________YYYYYYYY_____",
"___GGGGGGGGGG_______________BBBBBBBB______________YYYYYYYYYY____",
"____GGGGGGGG_______________BBBBBBBBBB______________YYYYYYYY_____",
"______GGGG__________________BBBBBBBB_________________YYYY_______",
"_______GG_____________________BBBB____________________YY________",
"_______GG_____________________BBBB____________________YY________",
"______GG_______________________BB____________________YY_________",
"______GG_______________________BB____________________YY_________",
"_____GG_______________________BB____________________YY__________",
"_____G________________________B_____________________Y___________",
"________________________________________________________________",
"_________________RR_________________________OO__________________", // 4. Rouge (milieu gauche) & 5. Orange (milieu droite)
"________________RRRR_______________________OOOO_________________",
"________________RRRR_______________________OOOO_________________",
"_________________RR_________________________OO__________________",
"______________RRRRRRRR___________________OOOOOOOO_______________",
"_____________RRRRRRRRRR_________________OOOOOOOOOO______________",
"______________RRRRRRRR___________________OOOOOOOO_______________",
"________________RRRR_______________________OOOO_________________",
"________________RRRR_______________________OOOO_________________",
"______________RRRRRRRR___________________OOOOOOOO_______________",
"_____________RRRRRRRRRR_________________OOOOOOOOOO______________",
"______________RRRRRRRR___________________OOOOOOOO_______________",
"________________RRRR_______________________OOOO_________________",
"_________________RR_________________________OO__________________",
"_________________RR_________________________OO__________________",
"________________RR_________________________OO___________________",
"________________RR_________________________OO___________________",
"_______________RR_________________________OO____________________",
"_______________R__________________________O_____________________",
"________________________________________________________________",
"_______BB_____________________________________________GG________", 
"______BBBB____________________YY_____________________GGGG_______", // 8. Jaune (bas milieu)
"______BBBB___________________YYYY____________________GGGG_______",
"_______BB____________________YYYY_____________________GG________",
"____BBBBBBBB__________________YY___________________GGGGGGGG_____",
"___BBBBBBBBBB______________YYYYYYYY_______________GGGGGGGGGG____",
"____BBBBBBBB______________YYYYYYYYYY______________GGGGGGGG______",
"______BBBB_________________YYYYYYYY_________________GGGG________",
"______BBBB___________________YYYY___________________GGGG________",
"____BBBBBBBB_________________YYYY_________________GGGGGGGG______",
"___BBBBBBBBBB______________YYYYYYYY_______________GGGGGGGGGG____",
"____BBBBBBBB______________YYYYYYYYYY______________GGGGGGGG______",
"______BBBB_________________YYYYYYYY_________________GGGG________",
"_______BB____________________YYYY____________________GG_________",
"_______BB____________________YYYY____________________GG_________",
"______BB______________________YY____________________GG__________",
"______BB______________________YY____________________GG__________",
"_____BB______________________YY____________________GG___________",
"_____B_______________________Y_____________________G____________",
"________________________________________________________________",
"________________________________________________________________",
"________________________________________________________________",
"________________________________________________________________"
};