/* XPM */
static char *_6a5310bcbe74b8490bb253468bf5553SPtxLhgsx0qVdmDA[] = {
/* columns rows colors chars-per-pixel */
"217 213 255 2 ",
"   c #2B6808",
".  c #346D0D",
"X  c #326B0A",
"o  c #2D730A",
"O  c #34730D",
"+  c #36790C",
"@  c #2E6914",
"#  c #356D14",
"$  c #3A6D15",
"%  c #356D1B",
"&  c #3B6D1C",
"*  c #376617",
"=  c #357314",
"-  c #3A7415",
";  c #367B14",
":  c #3B7B15",
">  c #36731B",
",  c #3C731C",
"<  c #367A1A",
"1  c #3C7B1C",
"2  c #2F7610",
"3  c #3C6D23",
"4  c #3D6D2A",
"5  c #366922",
"6  c #367222",
"7  c #3D7323",
"8  c #3E7B23",
"9  c #3E732A",
"0  c #3E7A2A",
"q  c #367C25",
"w  c #3F7533",
"e  c #377029",
"r  c #355E18",
"t  c #416E1D",
"y  c #416E16",
"u  c #417D15",
"i  c #41741D",
"p  c #427C1D",
"a  c #447519",
"s  c #426E24",
"d  c #436E2B",
"f  c #4A6D2C",
"g  c #486E22",
"h  c #427424",
"j  c #497526",
"k  c #437B24",
"l  c #497D25",
"z  c #44742B",
"x  c #4A742C",
"c  c #457B2A",
"v  c #4A7C2C",
"b  c #517E2D",
"n  c #507C27",
"m  c #446E32",
"M  c #4A6F34",
"N  c #457432",
"B  c #4B7532",
"V  c #457B32",
"C  c #4B7C32",
"Z  c #4B7C3A",
"A  c #487939",
"S  c #517533",
"D  c #517C34",
"F  c #537C3A",
"G  c #506C30",
"H  c #587A41",
"J  c #3B840C",
"K  c #3D8415",
"L  c #3E8914",
"P  c #3E831B",
"I  c #3E8A1B",
"U  c #378315",
"Y  c #2D8107",
"T  c #3E8222",
"R  c #3D832B",
"E  c #3F8030",
"W  c #428415",
"Q  c #438A15",
"!  c #43841D",
"~  c #49841E",
"^  c #448A1D",
"/  c #4A8B1D",
"(  c #488A16",
")  c #45931D",
"_  c #4B931D",
"`  c #4C9B1D",
"'  c #4A9817",
"]  c #529B1D",
"[  c #51961D",
"{  c #458C0F",
"}  c #4FA11C",
"|  c #448423",
" . c #498425",
".. c #458A23",
"X. c #4A8B24",
"o. c #45832A",
"O. c #4B842C",
"+. c #468A2A",
"@. c #4C8B2B",
"#. c #518D26",
"$. c #51852D",
"%. c #518C2D",
"&. c #56852B",
"*. c #459224",
"=. c #4C9424",
"-. c #4D9B24",
";. c #4D932B",
":. c #4D9A2A",
">. c #469726",
",. c #529525",
"<. c #529B25",
"1. c #599C25",
"2. c #53942C",
"3. c #59962E",
"4. c #549B2C",
"5. c #599C2D",
"6. c #5C9427",
"7. c #468431",
"8. c #4D8432",
"9. c #458B32",
"0. c #4D8B33",
"q. c #4D843A",
"w. c #4E8C39",
"e. c #528534",
"r. c #528B34",
"t. c #598D36",
"y. c #53853A",
"u. c #548B3A",
"i. c #598D3B",
"p. c #598538",
"a. c #4E9232",
"s. c #4E9B31",
"d. c #4E9439",
"f. c #549433",
"g. c #5A9534",
"h. c #559B33",
"j. c #5A9C34",
"k. c #55933A",
"l. c #5B943B",
"z. c #569B3A",
"x. c #5C9C3B",
"c. c #659B2E",
"v. c #619D35",
"b. c #61953C",
"n. c #619D3D",
"m. c #669A38",
"M. c #618E39",
"N. c #4CA224",
"B. c #4EA22A",
"V. c #53A125",
"C. c #54A22C",
"Z. c #5AA32D",
"A. c #5CAA2E",
"S. c #59A526",
"D. c #55A233",
"F. c #5BA235",
"G. c #5DAA34",
"H. c #55A23B",
"J. c #5DA33B",
"K. c #5DAA3B",
"L. c #57AA36",
"P. c #5DB536",
"I. c #59AD33",
"U. c #64A92D",
"Y. c #62A435",
"T. c #62AB36",
"R. c #62A43C",
"E. c #69A53D",
"W. c #63AA3C",
"Q. c #69AC3D",
"!. c #6AAB36",
"~. c #64B335",
"^. c #65B33C",
"/. c #6AB43D",
"(. c #65BA3C",
"). c #6BBB3D",
"_. c #6AB835",
"`. c #71B53E",
"'. c #72BC3D",
"]. c #78BF3D",
"[. c #64B82F",
"{. c #6BC23C",
"}. c #68C23B",
"|. c #71C23C",
" X c #558B41",
".X c #5A8D42",
"XX c #558543",
"oX c #5C9442",
"OX c #5D9C42",
"+X c #589944",
"@X c #4D8641",
"#X c #629543",
"$X c #639D43",
"%X c #699D45",
"&X c #649D49",
"*X c #6A9D4B",
"=X c #649549",
"-X c #699C52",
";X c #699549",
":X c #5EA342",
">X c #5EAB42",
",X c #5BA448",
"<X c #63A443",
"1X c #69A445",
"2X c #64AB43",
"3X c #6AAC44",
"4X c #65A44A",
"5X c #6AA44B",
"6X c #65AB49",
"7X c #6BAB4B",
"8X c #72AD4C",
"9X c #72A949",
"0X c #66B343",
"qX c #6BB444",
"wX c #66BA42",
"eX c #6CBA44",
"rX c #6DB44A",
"tX c #6EBA4A",
"yX c #66B44B",
"uX c #71B545",
"iX c #72BB45",
"pX c #72B54C",
"aX c #73BB4C",
"sX c #79BB4C",
"dX c #7AB54B",
"fX c #6BA551",
"gX c #6CAB52",
"hX c #66AA52",
"jX c #71A553",
"kX c #72AC53",
"lX c #77AC59",
"zX c #6EB451",
"xX c #6EB852",
"cX c #74B552",
"vX c #7AB554",
"bX c #74BB52",
"nX c #7ABC53",
"mX c #7BB65A",
"MX c #7BBB5A",
"NX c #75B859",
"BX c #7CB961",
"VX c #6DC144",
"CX c #6EC149",
"ZX c #72C244",
"AX c #73C14B",
"SX c #7AC24C",
"DX c #78C549",
"FX c #75C251",
"GX c #7BC254",
"HX c #7BC359",
"JX c #6BC355",
"KX c #81BA58",
"LX c #82BA60",
"PX c #82C457",
"IX c #83C361",
/* pixels */
"j.x.J.J.J.j.5.4.=.<.5.5.f.+.c 9 x h , k 2.h.<.=.V.V.S.G.G.K.K.K.K.K.K.:X:X<X<X&Xl.O.v v x B F S h h 3 3 h c e.y.e.e.e.e.e.e.8.8.0.0.e.0.w.q.y.q. XXXq.C B f f G 7 e.$XOXx.x.z.x.tXeXeXeXeXeXeXeX_.).)./.rX2X@.a.O.e.u.e.O.c c v l l k g.<Xj.H.h.J.:XT c z A A Z e.8.u.#XoXy.8.e.D z 3 & c k &XkX{._.~.eXpXX.k v x v c c l k p ! |  . .o.o.o.v c k r.x.x.J.J.H.h.J.J.H.F.F.F.F.F.Y.Y.n.g.OXl.c c w N A A Z q.q.y.0.O.@.z.W.T.T.~.2XW.R.J.F.J.J.J.J.",
"R.R.R.<X<XJ.j.5.-.<.1.4.2.+.o.0 x h , k @.4.-.) ' ` <.C.G.K.K.K.J.J.H.H.x.OXOXOXt.k h v z x B f c c j j c v 8.e.r.r.r.r.e.e.e.e.0.0.0.0.0.u.u.u. XXXq.C B x f G 8 r.$X$Xx.x.x.z.tXeXeXeXeXeXeXeX).).iX/.rX2X+.o.8.e.u.r.O.c j j v v l l.1XJ.K.H.J.<Xo.c V V A A r.t.l.#XoX.Xy.y.z z 3 7 c k &XvX[.(.^.qXaX@. .k C C O.O.O. . . . .o.o.O. .k k k  .f.$X<X:X:XK.D.z.z.j.j.j.j.j.j.3.j.n.x.$XoX8 0 4 w N N V Z 8.8.8.O.@.j.R.T.G.T.R.J.F.j.h.j.j.F.j.",
"x.J.<X<X<XJ.j.5.C.Z.5.4.;.o.8 7 h & , k @.h.5.4.-.<.C.F.K.W.W.2XJ.K.K.J.J.OXOXOX#XO.v e.C v B B c j h z j c v C r.e.e.e.e.e.e.e.8.8.8.0.0.u.u.u.q.8.C z d g g g k r.<X:Xx.x.J.z.tXeXeXeXeXeXeXwX~.).eXqXrX2X+.| e.u.u.r.O.c h j v v v l.<Xz.J.z.x.OX| o.V Z A H 0.u.l.i.i.i.y.e.z z z 8 c 7 &XvX).ZXeXaXbXf.O.c v v v v  .| ! ! @.@.O.o.k k k k k f.$X<XJ.:XJ.h.z.x.z.z.j.j.j.j.n.n.R.g.OXk., 7 4 4 9 N Z q.y.u.u.8.0.x.2XW.W.W.W.R.J.F.j.F.F.J.F.",
"j.x.x.OXx.z.h.4.<.1.5.5.2.X.8 6 h h h  .2.j.j.5.1.5.F.R.R.<X<X<XR.R.<X:XOXOXOXOX$XO.k O.c h c c c h 7 7 h c 8.e.e.e.e.8.8.8.8.8.8.0.0.0.0.0.0.0.8.8.c c h h g g 1 r.OXx.x.z.z.j.rXeXeXeXeXeXeXwX~.^.eXrXaXyX;.@.8.e.u.r.8.v c c j c k l.$Xz.z.h.f.l.8 8.8.y.@XXXO.r.u.e.e.u.y.v B V c 8 7 % $XlXAXAXeXuXcX@.O.O.c v c k | | ! ^ O. . . .k k k v k e.x.OXl.x.x.z.x.x.x.x.x.x.x.x.1XR.<Xg.l.k.8 c 9 z c C 8.y.u.u.u.8.0.x.<XR.K.W.2XR.J.F.j.j.J.J.J.",
"x.x.OXOXOXx.h.h._ ,.1.Z.5.@.k , k k k  .@.2.2.2.;.2.j.x.<X<X<X<Xn.n.n.x.x.x.l.l.$XO.k k 1 8 o.o.c h 7 7 8 v u.i.y.y.y.e.e.e.e.e.r.e.e.0.0.8.8.o.0.0.o.c k k k l 1 @.x.x.h.h.h.h.rXeXeXeXeXeXeXwXeXeXaXtXbXyX;.@.O.8.e.e.8.v v O.j v l l.$Xx.x.z.k.OXo.8.q.y.y.XX8.u.u.e.e.u.y.C z z z & , % &XmXaXrX3XcXNXO.k c O.o.O. . .| ^ ^  . .k k k v O.8.k u.$XOXOX,XOXz.x.x.x.x.x.z.z.z.n.n.$Xx.&XOXc o.k c c v 8.8.e.y.0.O.O.k.J.H.D.H.R.R.J.j.j.j.F.F.F.",
"$XOX<X4X<X:Xz.h.<.1.Z.Z.4.X.1 > , , 1 k @.2.f.h.;.f.x.$X5XjXjXjX%X%X&X&X$X$X$XOXr. .k 1 1 | +.T h 8 7 , 7 c 8.e.u.u.u.u.u.u.u.u.e.e.e.8.0.+.+.+.+. .| k 1 p k k 1 @.J.J.j.z.j.h.rXeXeXeXeXeXeXwXSXSXbXqXrX2X+.+.8.0.u.e.8.v v v b b v #X%Xx.<Xx.&X5X8.u.y.y.B B e.u.u.e.e.y.y.e.s 9 3 & h 7 5XMXaXbXcXMXBX0.0 7 c c k | | ! ! ! O.O.k k k k O.O.v i.&X&X&X4X,XOXOXOXOXOXOXx.x.x.x.$X5X$X4XoX7 , , , h k O.8.y.u.k.e.r.OX<X:X:X:X2XW.R.J.F.J.J.R.J.",
"l.l.+X+X+Xz.f.a.<.<.<.,.=.X. . .k  .O.@.%.2.f.g.;.f.g.l.$X=X=X=X#Xb.b.l.l.g.g.k. . .@.+...;.a.P v C 8.8.8.O.v c y.y.8.8.8.8.8.8.v v O.8.0.0.a.a.@.+. .| | | |  .| k.1X<XJ.K.K.J.rXqXqXeXeXwXwXwXeXwXqXJ.2XR.@.;.u.k.l.u.8.c h h x j h t.$Xl.l.k.oX&X8.u.u.y.D F 0.O.O.8.8.C C e.z z 9 h v 7 l.4XR.7X7X<XfXk.u.8.8.8.+.@.X.X.....f.r.O.k i h k l z e.oXoXoXOX+Xk.oX+Xl.l.k.k.k.k.l.l.l.r.l.l.k c  . .O.O.O.e.e.e.u.0.r.+X<X:XJ.:XJ.J.j.h.5.h.h.j.j.",
"0.0.u.k.w.0.+.+.K K K W / 5.R.7X5X5X<Xx.f.@. . .@.+.O.O.v j s s v v v k k k k k R.7XcXcXrXHXHXH.oX&X4XfX&XoXu.8.c c c c c c z z h h c O.0.f.z.z.J.z.h.f.f.f.h.h. .z.7X2X2X2X2XW.rXqXqXeXeXwXwXwXL.D.F.4.K.2Xh.J.oXOXoXu.O.7 & & & t & $.u.@.0.@.0.oXc u.i..X.X.Xc 7 7 k c 7 9 j C Z B v 8., O.O.= @. .> 8.oXfX&XOXOX,X:XJ.J.J.F.n.g.@.k , , , i % v u.u.u.u.0.0.c o.o.k k k | | O.k 8 , O.oXl.fX9X1X$Xl.r.O.k h c 8 8 0.k.a.+.a.X...^ ! I I ! ! ! ",
"0.0.w.w.w.0.+.+.*./ ^ Q / 2.j.R.n.<X<Xx.k.a.a.a.r.@.O.c h j x B h l v v k p k O.a.cXtXrXtXtXtXW.4XOX<XOXOXOX8.o.0.c v c v 3 3 h % 3 7 , f.2.f.j.D.:.:.:.-.*.*.-.;.K.yXyX2XW.W.J.eXeX/.W.iXSXrXF.5.F.F.J.K.J.J.z.k.x.<X<Xr.7 > 8 j h h v e.u.u.r.l.l.t.u.u.y.y.q.e., 7 7 & h 9 j v j h c O.8.O.k O.c O.O.k OX4X6X2X6X2X:XK.h.D.J.v.v.#.a $ i h h h v e.u.r.0.O.O.O.c 8 8 c 8.8.c c c c O.o.O.1X<XR.3XR.1Xl.k k k c c c O.r.r.0.+.X.;.......! X.! | ",
"O.0.0.w.w.9.+.| I I K W / 5.R.7X7X7X7X<Xf.+.+.+.r.@.O.c h j z z , h v v k k k  .a.cXxXyXtXtXtXW.<Xl.<XOXOX+XO.o.8.k c c v & 3 z 3 7 h 1 k.f.h.j.>.=.:.:.4.h.h.j.;.K.3X2XR.W.W.F.iXiXqX0XaXSXqXZ.5.F.F.F.H.H.J.J.<X<X1X<X0.> @ % $ $ & k e.l.l.l.l.l.l.t.u.u.u.y.e., 7 7 & 9 9 h C c z c v O.c k v k v o.8 OX<X4X<X2X2XK.K.H.H.H.E.E.3., . , , $ h c e.r.e.8.+.+.O.c k k v O.v c c c 8 c k O.<X1XR.3XR.1Xl.k k k c k k O.r.r.0.+.@.;.| +.| ! X.| ! ",
"@.0.0.w.w.0.+.+.^ ! K K ^ 2.R.6X1X7X7X<Xf.+.@.a.f.r.@.O.c c j j & i k l k k k k ;.pXtXyXtXtXtXW.:Xx.:Xl.l.x.O.o.o.h k h v & 9 h h h k k j.h.j.j.:.4.5.5.h.j.j.j.h.K.2XR.J.W.R.F.iXiXiXiXaXaX/.Z.h.h.h.h.j.F.J.K.J.J.<XOX0., # , h , h k r.l.l.k.t.t.t.u.r.e.e.e.e.& 7 7 % 9 7 h C v c c v v c k l k k k 1 z.J.<XK.K.J.K.K.K.K.J.R.R.%.- . , k & , k O.r.0.@.@.@.O.k k c O.c c k O.c 8 c k @.7X7XR.3XR.1Xx.k k k k k k O.0.r.@.+.@.@.|  . .| @.@.f.",
"@.@.0.0.0.0.+.+...! K W ^ 2.x.<X$X7X7X<Xf.+.@.a.@.@.o. .k h h h & i k  . .| k p ;.pXtXyXtXtXeXW.J.h.J.z.x.x.O. . ., k k O., 7 h h h k 1 j.j.j.j.F.F.F.j.h.j.j.f.h.J.W.J.F.W.W.F.iXiXiXaXSXaX~.Z.F.F.h.h.h.F.J.J.J.j.z.x.@.1 > 8 k i p k O.t.t.r.r.r.%.r.8.O.O.O.e.& 7 7 % 9 7 h C C c c c c c c k k k | 1 z.J.K.K.F.F.W.F.2XK.x.j.R.2.- . p l , , k O.%.@.@.@.a.O.k c O.O.k h h 8.c 8 k 8  .1X7XR.3XR.1Xx. . .k k k k O.r.r.0.+.@.%.|  . .| %.@.%.",
"X.@.+.0.0.9.o.| P ! I ! X.f.x.4X<X1X7Xx.;.| | +.T | | 8 8 , , , k k k  . .| ! 1 2.pXtXyXtXtXeXK.J.h.J.j.x.J.@.@. .p O.l O., , i 7 , , , x.j.F.j.5.G.F.2.2.g.x.g.;.F.W.W.W.W.W.T.rXqXrXaXaXqXW.G.J.J.J.F.F.F.F.F.W.H.z.z.;.8 , 8 , , , k %.t.l.t.r.r.r.r.r.r.r.r.u., 7 7 7 h h j C C c c h k v O. .k  . .: F.J.T.K.G.L.2X4.J.J.h.n.<Xg.p : p l , p  .%.%.@.@.;.f.v k k O.v h h v O.v k k 1  .<X<XR.2XR.6Xn. .O.O.c k o.@.f.f.f.@.r.r.k  .k k %.%. .",
"j.j.x.OX+X+Xk.k.@.;.;.;.2.f.k.k.f.k.k.f.a.@.@.a.+.;.;.f.f.r.@.%.r.O. . . . .! 1 ;.aXtXqXtXtXeXK.J.h.J.J.J.R.2.@.@. .%.$.r.i , , , , - 1 R.R.W.W.!.Q.F.X.! @.r.O.^ D.qXqXW.W.0X/.0XW.^.qXqX^.W.W.2X2X2XW.W.F.Z.1.F.h.h.j.h.@.@.f.f.0.r.f.l.$Xn.n.l.l.x.x.x.x.x.x.k.7 k k 8 c j v v c c h h k O.e.%. .@.X.^ W.~./.^.^.W.rX*.h.f.2.f.k.r.O. .%.%.$.#.%.f.2.2.;.2.h.v i h v c , h y.l.l.u.g.%.f.7X6XR.<XR.7Xn.O.O.O.O.O.O.r.g.g.k.f.t.t.v v k k e.$.k ",
"E.2X6X7XhX4X4X,Xx.x.J.J.j.f.o.o.| | | @.f.z.z.z.z.z.J.<X1X1X<X<X$Xg.O. .| | ..! :.aXtXqXtXeXeXT.G.F.W.F.W.W.5.2.f.%.g.r.t.i , & h , , p 1XuXuXqXsXsXY.p O , k & ; h.aXaXrXqXiXiXW.G.G.W.W.T.W.rXqXrXtXrX0XT.1.-.-.*.*.h.J.x.:X2X7X4X<X<X1X1X$Xn.$X$X<X<X<X<X1XE.oXk c v c C v C j j c h 7 c 8.k.f.%.2.2.=./.).eXeXeXeXaXI X.X.@.| | @.k.x.x.n.n.g.g.j.3.2.-.4.5.l , & h h & c oX5X5X5X7Xn.n.pX3XR.<XR.7Xn.O.O.O.%.O.0.f.x.x.x.k.#X#XO.v h h O.v h ",
"Y.R.<X4X4X,XOX+Xz.x.<X<XJ.k.+.c  .1 1  .a.z.f.a.a.z.H.:X2X6X1X1X5Xn.@.| | | | ! ;.aXtXqXeXeXeX~.T.F.T.W.W.3Xj.5.g.%.g.g.g.p , $ k , p  .pXnXGXsXsXsXj.+   - h % o 4.bXGXiXqXiXSXT.F.Z.T.T.G.W.aXrXaXbXaXeXT.<._ <.=.-.h.J.J.<X7X<Xx.z.x.$X<Xn.n.$X$Xn.<XR.R.E.E.OXc O.v c C C e.h z z h 7 k e.l.l.f.j.5.,.eXiXZXVXVXaXGXK ! | |  .| @.n.<Xx.g.n.v.v.v.j.2.,.4.4.l & & h h & v *X&X5X4X5Xx.j.2XJ.R.<XR.7Xn.O.$.O.r.r.r.g.x.R.x.x.%X#Xe.v h h v v e.",
",X:X6X6XK.F.W.Y.Y.Y.3.x.5Xu.h c Z c c o.;.h.4.=.' ` V.G.W.2X2X2Xn.n.p X.! ^ / W ' iXiXeXSXAXCX^.H.H.K.W.C.T.-.A.-.:.;.2.g.$ t j p p - u pXGXiXiX!.sXj.= p c 9 j U K.bXbXFXtX0XtXW.F.F.W.Y.Z.T.iXeXAXeXeXAX^.V.] <.] =.:.D.:X,X,XW.W.W.K.J.H.F.F.R.R.R.R.R.<X2X<X-X9 C e.h F D f B B B N 9 7 o.z.2.h.4.>.V.~.eX).qXeXqXtXK ^ P ! < ..@.z.x.:XJ.x.J.h.4.4.1.C.C.1.k i i $ & & & =X5X1X6X2XQ.~.G.A.K.W.J.2Xx.@.r.r.i.l.l.l.l.l.x.:X%XlXe.v B F Z N z ",
"6X:X6X6XK.J.R.F.j.j.g.<X5Xl.c c z z 8  .;.5.4.<.` -.S.G.W.2X2X2X1XR.! ~ : ! ^ ! ^ qXqX^.eXeXeXK.>XK.>X0XL.~.` <.1.5.5.g.n.i h b p p - p pXnXaXeXqXnXj.O - , % 9 o h.rXaXaXqX0XtXW.Y.W.W.T.G.!.iX^.eX^.^.eXT.-._ Z.<.-.4.H.>X6X,X2X2XW.K.J.J.H.H.J.J.J.R.R.<X<X<X&X0 c O.h D C d x x N N 9 7 o.x.;.4.4.-.V.^.VXVXT.qXqXtXI ^ ^ ;...@.f.x.<X1X<X<XF.h.;.;.4.1.1.<.v i a i h & h kX1X<X<XR.R.G.C.C.K.W.J.2Xx.@.r.r.8.8.e.t.l.l.OX:X%XjXv j z C C B x ",
">X:X2X2XK.R.R.j.R.R.R.<X5Xu.h 7 z k k  .;.5.1.<.<.V.Z.G.W.2X1X4X1XR. .^ : P ^ ^ 5.aXaXrXtXtXtX^.6X6X6XyXW.W.<.-.-.4.2.f.n., i l p p : p uXaXrXeXiXsXh.O # , % 7 2 h.bXnXbXaXrXGXW.W.W.Q.W.T.!.uXeXtXeXeXaX0XC.<.5.4.2.h.J.2X6X6XW.W.W.W.J.J.H.H.J.<X<X<X<X<X<X<XoX8 c O.k v v h x x x z 9 7 O.x.;.2.4.:.C.^.eXVXeXSXaXtX^ K K ^ ! ..;.f.j.j.j.j.F.h.2.;.4.<.4.<.p $ $ & & # h jXkX8X7X6XR.J.T.T.K.W.J.2Xx.O.@.0.e.e.u.oX$X4X7XfX*X5X$.h s z z z 9 ",
"2XK.2X2XR.<XR.;.n.x.x.l.l.r.c k 8.8.@.@.2.4.<.<.<.<.C.D.F.J.:X:XR.j.;.X.^ X.=.;.R.rXrXqXrXrXrXW.4X4X1XR.J.F.F.G.-.4.2.j.n., , k k l 1 ! rXrX0X0XqXtXh.K 1 1 , h  .x.7XpXrXrXrXbXW.R.W.W.W.T.T.W.^.eX0X0XaX3Xj.h.2.2.;.f.z.:X2X2XF.F.F.F.j.h.h.h.<X<X<X<X<X1X1X1Xk.o.O.@. .O.e.k z z z z 9 7 O.n.2.5.4.4.C.G.^.^.aXSXiXqX*.^ P ^ ^ ..;.2.h.h.h.h.W.F.4.4.5.5.5.4.k , , , , , k t.5X7X<X1X<XR.rXrXW.2XJ.2Xx.O.O.8.u.u.i.oX&X5X5X8X%X%Xr.O.v c c z z ",
"K.K.W.W.J.2X<X@.O.O.O.O.O.r.l.l.oXx.x.j.5.4.<.-.-.-.:.:.f.f.k.k.2.2.j.j.j.j.h.F.5.h.j.5.2.j.5.2.u.k.f.@.X.X.R.rXW.2X3XrXpXX. .%.k  .p ! 3XqXW.0XK.0XF.;.@.@.O.O.f.@.@.@.%.2.2.f.F.F.F.F.F.F.Z.1.<.C.4.2.j.f. .| @.O. .@.f.j.J.F.5.5.5.5.f.f.a.a.g.x.x.x.x.x.x.x.k.a.;.2.%.%.f.O.9 3 9 z 9 , @.n.J.j.j.j.F.D.D.G.F.G.Z.F.F.J.F.F.F.F.W.W.W.W.W.W.0XW.F.Z.F.F.F.h.f.g.f.r.f.l.l.o.O.r.O.@.@.@.<X6XW.2XK.<Xl.o.O.O.8.8.8.8.e.e.e.r.O.O.u.l.l.l.l.l.oX",
"G.G.W.R.R.7XOX| k 8 k , , $.$X1X1X1X<XR.h.<.-.-.-.-.=.*.@.0.0.w.@.;.R.J.2XW.W.W.2.^ X.^ ! X.^ ! 7 c k , - : R.pXaXnXbXMXMX2.%.2.k O.| ..2X2XK.0XL.K.J.H.z.z.x.k.$XO., , - , p p 5.h.5.2.5.5.4./ Q ^ W ! @. ., , c c 8 k @.2.3.5.<.<.,.2.;.@.@.+.0.0.0.0.0.0.0.0.a.h.4.h.2.2.g.@.3 3 9 9 7 7 %.n.<XJ.j.J.F.<.-.V.=.-.*.4.0XaXuXuXrXiXiXiXaXaXaXaXqX^.G.F.F.F.F.j.<X7X1X<X1XkX5X8 % k > 8 8 k $X5X2X2X:X<Xx. .O.o.c c c j h h h h k 7 OX4X5X&X$X$XfX",
"G.T.W.R.R.7X$X8 0 8 c 7 , $.1X1X<X6X2XR.5.<.-.V.<.:.;.*.+.9.0.w.;.;.6XJ.W.W.K.2Xj.! X.^ p  .~ p 3 h 7 # , 1 <XpXaXnXbXnXnXX.! ^ k O. ...2X>XK.>XK.K.J.J.H.J.<X<X*XO., , $ $ a a 2.4.2.;.2.5.-.W Q / W P O.o.7 9 z 9 9 k  .2.2.4.<.<.,.2.;.@.+.+.O.O.O.O.8.8.8.8.*.D.4.<.4.2.j.@.3 5 7 9 7 i %.m.<Xx.j.R.F.4.-.V.-.:.-.<.qXaXrXuXeXiXeXeXeXeXeXeXqX~.G.F.F.J.F.h.<X7X<X1X1XfX7X8 > o.> 8 8 8 &XkX2X6X:X<Xk.k o.c Z C v v j j j j o., &X5X7X<X<X<X1X",
"A.T.W.R.R.7XOX7 5 6 c k , t.9X9Xn.R.W.R.5.-.-.S.D.4.:.;.+.9.0.w.f.;.3Xj.J.F.L.2XJ...X.| p  .~ p x x h , O. .7XcXaXnXaXbXaX^ : :  .@.o...2XK.H.K.K.K.J.J.H.H.<X1X%Xv h k $ $ a a ;.5.2.;.2.j.-.K Q ( W p O.o.0 0 N 9 7 k  .2.1.1.<.<.,.2.;.@.@.0.8.8.0.0.0.e.e.e.I D.:.<.<.,.j.X.3 % 7 8 7 i %.m.n.j.j.R.F.<.-.C.<.C.<.4.qXqX3XrXiXeXeX).).).).)./.W.G.F.F.F.h.4.J.<XJ.1X<X4XgXo.7 8., k 7 7 *XfX2X2X:X<Xk.k c c Z C C v v j j j k # $X<X5X<X7XkXR.",
"!.uXuXR.1XgXoX6 9 9 7 7 k r.n.9XR.R.R.J.h.2.4.h.;.2.;.0.0.0.q.y.;.h.R.2X2X2X2X6XF.! P X.! p | p d x s h h O.8XIXrXaXbXbXaX^ ) K +.+.T P 6X2X2XK.2X2XK.H.H.z.x.x.g.l k k , i k - 2.f.2.j.4.<.V.L ~ ~  .O.C C A m A C c 7 @.j._ [ 4.4.,.X.X.+.@.@.u.u.u.u.e.e.e.0.*.:.>.-.) *.F.X.3 7 9 3 & k %.n.g.g.n.R.R.j.4.;.4.5.*.4.rXaX0XrX^.eXeXeXeXaXaXaXpX8X1XR.n.n.R.<XK.2X:X:X:X6X6XT c o.7 7 k O.$X9X<X7XrX1Xf.| |  .u.u.e.v h g g j # > k.<X<X2XR.J.2X",
"Y.Q.E.n.<XfXoX7 z z 7 7 k %.n.1XE.1X3XR.j.h.h.j.h.h.k.k.u.u.u.u.@.f.J.<X<X<X<X<Xh.I P | ! p p p z C j c k O.7XMXrXaXGXGXaX) ^ J +.+.+.+.2X2X2XK.2XK.J.j.h.z.x.x.1X .- - - k  .- 2.h.5.j.4.4.5.L ~ ~  .O.C C N m N z 9 %  .j._ =.5.5.2.;.;.@.@.@.0.0.0.8.8.O.O.O.;.D.4.5.,.2.R.%.h z 9 3 & k %.g.1X1X1X<XR.j.4.;.-.4.*.4.rXaXrXaX^.eXeX0X0XaXuX0X7X1Xn.j.g.g.g.x.J.<X:X<X:X6X6XT 7 8 > , k  .n.1X<X7X7X<Xf. . .@.8.8.O.l t & t g > > x.1X1XrX7X3XJ.",
"v.E.R.n.<X5XOXo.c c k k k %.g.n.R.<X<XR.j.f.f.h.f.f.f.f.u.u.y.y.@.k.<X1X<X<X<X1Xh...^ X.| | X. .h v k k k  .x.1XGXGXGXaX0X_ ^ K ..+.;.;.J.J.W.2XyX2X2X<XJ.$X<X<Xx. .- . X = =   f.h.5.j.5.5.C.K p l  .v C C N N 4 9 7 > @.J.4.5.5.4.2.;.X.X.@.@.r.r.r.0.0.0.@.@.s.h.2.5.;.2.x.@.z z z 9 7 k  .%.&X$Xx.x.f.h.h.h.5.5.:.h.0XrX0XqXAXGXGXaXrXaXpXrX8X7X1X<Xn.n.<X1XJ.<XJ.J.:X1X4Xo.< | 8  . .O.n.$Xx.1X7X<Xk.@.@.2.%.r.O.c i t t g , 1 x.<XJ.2XR.K.2X",
" .@.@. .@.t.O.7 O.O.k k k O.r.l.g.g.g.f.@. .+.@.@.o.O.O.v v B x 8 k O.0.@.O.@.@.h.2.2.2.2.2.2.2.t.#Xl.$Xx.x.7X7XqXqXW.W.W.G.W.W.K.W.2XF.4.....;.+...P 1 1 1 , 1 | g.3X1XR.R.3X1Xj.j.5.j.j.h.h.K p k k c B B B N z c c k j.rXW./.qX0XW.W.R.K.:X<XOXOXx.x.x.x.g.g.d.+.+.X.!  .%.k B V z z 8 k k  .v O.k | ..h.J.R.W.K.F.F.W.W.F.F.h.F.h.X...@.X.| %.O. .k k k l  .x.<Xx.J.<X<X<X@.+.k.f.k.k.f.<X<Xx.R.<XR.j.f.f.f.k.g.g.$.l h j b k 8 f.k.@.;.X.....",
"7 k k h k O.k , O. . .k  .O.r.t.$.r.r.@. .k 8 | c k k h z z d d % 7 c c k 8 k k 2.h.h.2.h.5.5.5.n.5X&X5X1X<X7X6XW.J.F.F.F.qXiXaXeXaXeXT.*.K K !  .| p 1 , , , ,   2.aXnXpXuXpXaXF.F.h.F.j.F.j.: k k k j z N B B c v O. .J.bXrXiXaXaXrXqX2X2X6X6X<X4X<X<X<X<X<XR.k.8 k p p k l h C B V z c k p 1 # i $ - - j.R.3XqXW.W.J.J.J.F.h.z.z.k.X.|  . .1 O.O.v l l l v v j.R.j.x.R.J.<Xk.x.<X:X<Xx.g.R.R.v.n.R.R.j.j.h.h.j.x.j.r.O.v v e.k 1 @.@.P ..P P ^ ",
"Z C C v v O.O. . . . . .O.O.e.e.e.r.r.e.o.k c o.c c c c z x z d z V 8.8.c c O.O.| f.f.;.5.5.4.1.x.<Xx.<X<Xz.<XJ.2X2XW.W.W.aX/.W.~.).eX^./ ! ^ X.O. .k i i 7 h h + F.aXaXiXuXqXqXK.J.h.F.J.J.z.: z z h z z z B C k c  .| J.aXrXiXqX0X2XW.K.:X:X<X<X<X<X<XR.J.J.J.oXc k k k v c j C V N V V c p - & k $ , = x.<X3XW.F.J.W.F.J.K.F.J.:Xk.O.k o.o.k c c c c c c c c j.R.j.j.R.x.x.x.J.2X:X<Xj.f.R.v.v.v.R.R.R.F.h.h.h.h.f.@. .k v O.8 > @.+.1 ......! ",
"A V z z h p ~  .~ ~  . .O.8.e.u.r.u.u.e.O.c c o.C C C B x x x x 9 N V z 8 7 k k 1 f.h.;.4.5.<.C.1X1XR.2X2X2X6X2XF.J.W.W.W.GXrXrX).eXeX/.Q ! ! ^ O.l k h h h h h + Z./.W.qXaXiXiXW.J.h.H.J.<Xx.1 z 0 9 9 z j B C 8 k | P j.aX0XeXaXaXrXqX2X2X6X6X<X<X<XJ.J.J.F.j.-XV c c l D x x B N N V Z v p = & v , i = n.<X2XW.F.R.W.F.H.W.F.OXOXk.O.k v O.c c c v v v v v v 5.R.h.j.R.j.x.<Xz.:Xz.z.j.5.R.R.m.v.Y.R.R.F.h.4.4.4.2.X.k k k v o.1 +.+.1 ..+.*.^ ",
"@XZ C c k k  .#.~ ~ ~  .O.8.u.u.e.y.u.e.v c c c C B B x x x f f N A Z B j j v O.1 j.x.4.F.Z.C.A.R.E.j.R.<XK.6X>X2XW.W.F.G.GXrXiX(.(.).qXQ ^ / X.l k h i & t t s + T.iX/.iXaXqXqXW.K.h.H.J.<Xx., z 9 9 3 s j v C k k  .| z.aX0XeXrXqX0XW.K.:X:X:X<X<X<XR.R.J.J.J.-Xc c k h D x B B N N C 8.O.k = * c & , $ R.<X<XqXR.2X2Xh.h.H.4.l.oXr.c 8 c c c x v v C C C C v 3.R.j.j.R.j.x.<Xh.K.h.j.j.j.3XuXE.E.Y.R.R.F.D.4.4.4.2.X.| k k v 0.8 @.| ; P P ^ ^ ",
"E E 0 R T P P P ....! ....@.;.2.%.%.@.O.O.o.k c c c c V V z 9 0 5 C 7 c c c  .O.+.l.k.l.l.OX4Xl.l.%X*X&X&Xf.1X2X2XW.W.W.W.Q.qXuXaXeXqX2X..| |  .v v h 7 , & , , # g.vXcXrXaXGXaXW.J.<X<Xx.:Xl.o.4 z z V 8 7 O.k 1 1 1 | x.vXLXvXsXaXpXrX7X6X4X,X4X<X7XR.j.G.Z.~..XC e.v c c h e.h k O.k k 8.k h h c h , k l.5X7X1X7X7Xz.<Xh.z.z.n.n.g.O.l O.O.v V Z 8.k k o.0 > n.g.g.x.<X<X$Xx.x.x.x.n.n.n.R.R.c.c.c.c.c.5.3.3.,.3.j.#.! P ! | k k O.O. ...P P I ",
"7.7.o.o. .| ............^ ^ ^ ! f.2.%.%.@.@.O.O.7 8 k c c c c 0 c u.8 c k k k O.O.k.f.k.l.l.$Xk.b.%X*X$X$Xg.7XzXW.R.R.R.W.W.qXqXrXqX3XW.^ | |  .v v h h , , , , k $XvXkX6XrXrX2Xh.h.x.z.k.k.k.k d N z V 8 7 e.O.< !  .@.g.5XkX8XuXuX3X6X1X<X,X,Xg.k.<Xj.5.Z.<.A.l.O.8.v c c k e.O. .O.k k O., X * & & & h t.$X<XR.<X1Xz.7XJ.:X2Xx.l.r.l k c v j 5 z v  . .@. .1 n.n.n.n.&X5X&X$Xx.x.n.n.$X$X<X<Xm.m.m.m.v.v.g.g.3.3.g.%.| ! ! ! O.O.O. .....P P I ",
"NXcXcXbXpXpXaXrXrXtXaXuX0XW.F.5.3.j.3.2.2.2.2.%.x.x.<X1X5X5X4X4XoX&Xc c 8 8 8  .o.f.r.f.k.k.x.r.& h i , , # 0.f.J.J.J.J.F.W.W.Q.qXyX2XR.! ! k  .v v h h , & , 7 @ k O.8 1 T T < a.0.f.f.w.w.8.6 N z 9 c 7 k l.l.j.<X1Xx.@. .k k u u : 1 , > > > o.O.k.f.2.1._ <.f. . .| | | p @.NXcXcX7XcXcXf.! c c j & & i i , = - 1 = +.| | @.t.u.8.h 9 z z s Z =XkXvXpXuXaXrXk , , , k k h 7 c c c c o.o.o.O.a a a a - - - - - - 1  .f.z.J.<Xl.t.@. .| ......I ",
"bXaXaXaXuXuXrXeX/.qXeXiX/.G.<._ 5.5.5.4.5.2.2.2.2.2.j.J.R.<X1X<X4X5Xo.c 8 k k O.o.r.0.0.r.r.k.O.h h h , , , g.<XJ.z.j.j.F.R.W.W.2X2XK.J.1 1 k k v v h h , & , , 3 j c 7 7 0 8 > 9.o.0.0.7.q.q.5 N N 9 c 7 c &X&Xx.1X7Xn.O., $ $ , , , , h 7 8 8 , 8 f.f.2.4._ <.2.! ..! ! ! ! ;.nXrXrXyXbXcX;.2 h h h & & & & $ - , 1 , 0.@.0.f.u.u.8.9 3 z z d 9 oXlXvXuXuXiXeXO.c h h c c c z 8 8 z z c c c c c l l h h 7 , , > # = O.l.<X<X<X$Xx.%. .! ! ..X.T ",
"aXaXaXtXiXiXeXeX/.).iXiXeXT.V.` <.<.<.<.<.<.4.4.-.4.j.F.W.2X2X2X5X5Xk k k o.o.0.c r.8.0.0.0.u.o.& h , # , > l.<Xz.z.j.j.F.J.R.W.2XK.K.x.1 8 k c v c h 7 7 3 7 7 3 3 3 3 7 0 q > 7.7.0.w.8.u.q.9 C z 9 h 7  .1X1Xf.x.$Xx.r.k , 7 t t , , h h h h > , r.g.h.3._ <.;.I ^ I I ^ I ;.bXrXrXrXGXGX:.2 * $ & s h h h h , , , , e.0.0.0.u.u.8.z 9 N N z z oXmXKXiX'.'.).8.c h 9 z z z z z z z c B B B B x x z z 9 7 , , c > > 0.OXOXx.x.1Xn.2.| P ! +.@...",
"qXqXqXqXqXqX0X0X~./.).eX/.T.V.` <.<.<.<.-.<.<.<.=.-.1.F.J.W.W.W.5X<Xk k k O.o.8.o.r.0.0.0.8.e.c h h h , 7 , +X4Xz.z.z.j.F.R.W.W.:X:X:Xx.8 k c o.C v z 9 3 3 7 9 s d z z z c c 7 0.7.0.u.q. Xy.9 B z 9 c 7  .<X1Xx.x.$Xx.r.k , , j j j j j c c v 7 k f.g.j.j.,.<.:.I I L L ^ I :.aX2XqXqXaXbX;.2 h , i h j s s g k h h 7 u.u.e.0.u. Xq.z 9 N B z 7 l.cXsXqX/././.y.C j h z c z z 3 3 4 d d d z z B B N z z z 7 7 7 # > 0.<X:Xx.J.R.j.2.| P !  .@...",
"eXeXeXeXeXeXeXqXeXeXiXiXeXG.C.-.-.-.<.<.<.<.4.4.<.<.Z.F.W.W.W.W.1X1X1 | | o.c 0 O.u.e.e.e.8.e.c & h 7 % 7 > k.+XJ.x.z.x.J.R.W.2X:X:X:X:Xk c o.8.C v z 9 3 3 3 9 s g z z z z 7 7 O.o.e.u.q..Xu.z z z 9 k , k n.n.x.l.x.OXr.k 7 c x x x x z z z z k c l.g.g.j.,.4.;.I ^ ^ ^ ....4.nXpXaXyXaXaX;.; i & & h h s g S h , & & u.u.e.8.q.y.Z 9 9 c B z k l.pXaXuXeXiXtXe.v h & 7 h z z z z z z x x x x N N N z 3 3 & & k % , f.<Xz.5.j.F.h.;.^ ! !  .@...",
"eXeXeXeXeXtXtXtXAXAXAXeX^.G.V.-.<.<.<.<.<.5.5.C.<.5.F.F.W.W.W.K.6X1X| | | o.8 6 O.u.e.e.e.8.e.c 3 h h , 7 > f.z.J.J.J.J.J.R.2X3X2X>X:X:Xc c 8.8.C v z 9 3 3 3 9 d x C D v 9 7 7 o.o.0.e.8. Xu.z z z h c h k x.g.<XOX<X$Xe., , c x x x x z z h h c c l.g.2.3.=.4.;.I ^ ^ ^ ....h.HXbXbXrXrXrX;.; k & & g g s s S & & & & t.i.u.u.q.q.V 9 3 z c j 1 f.3XuXrXaXaXaXe.v h & 7 h h z z z z z z z x x N N N z 3 3 & & k % 1 k.R.h.2.F.5.2.X.^ ! |  . . .",
"rXqXaXtXyXzXrXz.NXzX6X2XJ.D.D.D.B.B.:.:.;.;.;.;.;.4.*.0XqXwX0XwX2X2XP P T | 8 k O.O.O.8.8.8.8.D 4 z 0 > 8 = z.J.2XJ.2X6XrXJ.:X:X7X7X<Xx.f.@.+.| 8.u.c 3 4 N B S r z D v k v O.O.@. . . .O.$.O.l v c h v k O.$Xn.x.x.n.OX0.8 9 c f f f x S S S S h x D r.t.t.r.r.@.! 1 .. .|  .f.7X4X5X7XfX&Xe.k & t s g f f f f x d g h l.f.f.f.2.@.@. .O.O.O.8.o.0.OXgXxXzX6X2X .@. .p k O.l i h 7 7 7 h z v C c c z 8 7 , > > : : ; ;.Y.Z.G.1.3X2X! |  .@.o.o.k ",
"W.W.2X2X:X2X>X;.9.+.+.+.+.;.;.;.B.B.:.:.;.;.;.@.;.2.*.yXyXwXwX0XqX3X......o.|  .O.O.O.O.8.C C C y. Xu.8.0.@.6XrXyX>XyXyXrXK.:X:XOXOXOXOX:X<X<X<X&X4Xu.z z B N N C .X*X*X%X%X5X1XX. .|  . .$. .l v c h v k O.$Xn.x.x.$XOX0.8 9 c x x x S S S D D C v v c k h p 1 ..1 1  . .k k O.8 k k c O.c h & i h h h x f x G f z h c &X<X1X<XR.R.n.x.x.n.$X$Xl.k.d.0.9.9.+.+.g.g.g.%.g.g.t.O.O.v v v v e.e.y.u.u.u.e.8.O. . .X.X.X.R.iXiXiX/.uXrX| ! 1 8 , , k ",
"J.H.<X<XJ.>XOX+.0.0.0.@.a.h.h.h.B.B.:.:.a.a.@.@.@.f.;.yXyXqXeXwXrXrX....+.@. . . .c c v v C B B  X.Xu.0.f.;.rXbXtXwXtXyXtXK.K.K.<X<X<X<X<X<X<X<X5XfXoXc z z d d h p.*X*X&X1X<Xn.X.X.^ !  . . .k c c k v k  .n.n.x.x.n.OX0.8 9 V d d x x x x B B v j h & & , , h 1 1 | @.%.O.k v c c c c c h z z & & & s g g f f s s h k $X1X2X2X3XW.R.R.R.n.$X&X7XOX0.| 7.0.w.w.2.j.j.g.g.v.g. . .k k k v O.e.e.u.u.r.r.@.O. . .^ ! ! F.uX`.iX/.aXrX! 1 , , > , z ",
"W.R.2X2X,X6X4X0.0.w.0.@.@.a.f.h.s.s.s.a.a.0.0.0.0.f.@.6XyXtXeXeXrXqX^ ....X.|  .k k c c c c V B 8.u.0.O.+.+.2XrXAXqXtXyXrXH.H.F.x.x.x.x.<X<X<X1X$X4Xu.h h z s d & e.%X%X$X<XR.x.X.^ ! ^ ~  .~ p c c k O.k  .n.n.x.x.$XOXe.8 9 V z z x x x x C C v c h h h h c v | | O.%.r.O.O.O.e.8.C v v x z d , , , i h h d f z h h k x.J.J.J.W.Y.F.j.j.j.g.j.x.f.o.o.d.+X+X@XX.2.2.2.2.g.X.p k k k k k v $.e.e.e.O.O. .| ! ! ! ! W Z.uX'.iX).aX3XP , , 7 z c x ",
"W.E.3X6X1X7X4Xu.o.o.o.o.@.@.f.f.s.s.:.a.a.0.0.0.+.f.@.7XrXeXeXeXqX/.^ ^ ^ X.| | k k c c c V V B 8.u.e.O.@.X.2XrXAXqXeX0XqXD.h.h.h.x.z.x.:X<X1X2X4X5Xl.k j j d x h t.5X5X1X1X<XJ./ ^ ! !  . .~ p c v k O.k  .n.n.x.x.<X$Xe.8 9 V c c c v v C C 8.v v v c j h j j | |  . .O.O.O.O.v k j v D D x 3 1 , i h h j j j j c c c <X<X2XW.W.R.F.F.j.j.j.j.n.f.+.0.k.+Xw.7.;.5.h.5.j.g.2.!  . . .O.O.O.e.r.r.r.%.%.@. .~ ^ ! ! W F.uXiXiX).bXrX! 1 7 c z C B ",
"Y.Y.Q.3XR.5X4Xe.u.r.r.@.%.2.2.j.:.:.:.;.;.@.@.@.@.@.@.3XrXeXeX)././.Q ^ ^ X.! ^ k k c c c B B B 8.t.r. .@.X.W.eXaX^.eX0XqXD.h.5.J.J.<X<X<X1X2X6X1X5Xl.k h h s s c i.5X5X&X<Xn.x.X.^ ! !  . .| p c v k O.p  .n.n.J.n.<X$Xe.8 0 V 7 h h h k c c c h h h h j x x x < ! ..P k  . .k 8.v k v e.e.h * = = - , , i h h 7 7 7 k :X2X6X2X2XW.J.F.F.j.F.F.<Xj.@.@.0.0.0.9.2.h.h.f.h.j.f. . . .k k c O.e.e.u.t.r.%.@. . . .| ^ ^ Y.uXuXiX/.GXcX+.k h z z m B ",
"U.U.!.E.R.1X$X0.t.r.%.@.X.X.#.#.<.:.:.;.;.@.@.@.O.%.X.3XqXiX).|.)././ / / X...X. .O.O.v v C C C 8.e.r. .X./ W.qXAX).eXeXeXL.F.F.h.j.z.J.<X2X6X7Xn.$Xr.i h h h j y.=XjX5X$X$X<XOX+.| ! |  . . .k v l k  .k  .n.n.J.x.<X$Xe.8 0 V 7 k k k c c o.o.c k h s s d x S U ..X.+.X.@.@.| O.k 8 7 k h , % = - - , , h h h 8 7 7 8 J.:XK.K.2X>XK.H.F.F.F.J.g.f.@. .| +.@.;.:.h.a.@.a.f.0. .o.c k c c v 8.e.e.e.e.O.O. .| ! @.@.X.R.aXuXaXqXrXrX .k z N d m B ",
"U.U.!.!.R.1X<Xr.@.@.@.%.2.3.j.Y.<.:.:.2.;.@.@.X. .@.X.Q.`.'.|.|.iXiX_ / =.;.X.X.O.O.O.O.8.C C C t.l.f.@.2.=.qXaXAXeXeXeXiXG.W.W.<X<XR.x.j.f.2.;.x.n.r.l O.e.p.M.F oX&XoXu.k.k.f.+.| | | o.O. .k v l k  .k  .n.n.R.n.<X$Xe.8 0 V 0.e.e.r.u.k.k.k.#Xt.v s 3 s f B K =.D.h.h.h.2...| 8 1 1 k O.8.r.| |  .O.O.$.e.e.e.0.0.+.2X2XK.K.yXyX6X>XK.K.W.W.5X5X<Xn.z.j.j.j.z.z.a.;.a.z.k.+.0.8.8.8.8.u. X.Xu.u.e.r.O.O. . .1 1 - 2.R.F.Y.h.J.J.< 8 c B N M f ",
"'.iXiX0X2XbX6X+.o.@.@.@.f.l.<X1Xv.R.R.j.X.! ..| ^ *...W.qXeXtXtX{.ZXV.C.F.J.z.:Xl.v c c z V Z .X$X<X1XR.J.K.^.wXVXeX).(.^.~.T.T.m.1X5X*Xz 3 d N & & l g.j.<._ ] m.%.l v v j j v V V c c c l l l #.X.! ! ^ @.h.J.J.J.z.j.j.5.4.4.;.>.4.^.aXZXeXeXrXuX: , 7 3 x x +.bXSX/.).aXbX2X0 9 z c k  .#.c.<.<.<.5.h.z.,X,X+X,X:X:X2XW././.>X>X0XVXVX{.(.}.VXtXtXtXtXiXiX'.&XO.0.u.u.w.8.&X:X:X:XJ.J.J.J.J.j.J.j.n.t.7 7 7 s s s s t t t t s s t t i h h h h ",
"iXeXiXrXqXMXrX;.0.@.+.@.f.k.OX<XR.R.v.g.@...! ! ^ *.*.0XeXeXeXeX_.{.V.Z.F.J.z.J.i.c c c z V V .Xn.n.R.J.F.G.^.eXeX(.(.).(.~.G.T.n.1X5X5Xc z N A h h O.g.5.<.] ] b.%.l l v k j v C C v v v O. . .X.~ ! ! | ;.x.R.J.J.z.j.h.5.4.<.:.-.C.^.iXeX).).rXrX, h z z x d T rXaX/.).iXrX:XV V V v O.$.#.6.<.<.<.4.h.z.OX,X+X,XJ.J.J.W.T.T.,XK.K.eXVX(.(.VXwXeXeXqX0X^./.`.l.o.0.0.w.w.7.oXOXx.x.J.x.F.F.F.F.J.j.n.t.7 , & s s s s s i i t t t & & & & t t h ",
"iX/.qXrXaXHXrX+.f.0.+.+.@.f.l.<XR.n.j.g.;.X.| ! I ....0XeXeXeXqX~.eXV.F.J.R.x.OXu.c v c c C V  Xn.n.x.j.h.L.0XtXeX^.(.eXeX~.G.T.g.n.$X$X7 3 3 z c c O.f.3.<.] ] b.$.l l v k c v C C v v O.O.O. . .! ! !  .;.z.<XJ.J.z.j.j.5.4.4.1.-.5.~.eXqX/./.uXrX1 k v B x g P yXaXqXiXrXrXJ.0 0 0 k k k ~ ~ <.<.2.2.f.z.x.:XH.H.J.H.H.J.F.F.,XK.K.0XeX(.(.VXCXAXFXtXqXqXiXDXk.+.0.0.0.w.w.k.OXx.x.x.z.F.F.F.J.R.z.n.r., & & z h h h h h i i h i h i , & & & & ",
"iX0XqXrXaXMX6X+.f.0.+.@.+.f.x.<Xn.n.n.g.;.X...X.; ^ ^ ^.eXeXeXqX^.eXD.R.R.<X<X<Xu.c v c c O.c u.n.x.x.j.h.K.wXAXCXeXeXSXaXT.G.T.Q.3X6X1Xk 8 z z 9 z O.f.3.1.] ] g.$.k l v k c v c c c v v v v l ! ! ! ! X.f.z.<X:X:XJ.J.j.j.j.5.1.<.1.W.eXqXqXqXMXpXk k c v z s P qXaXiXiXrXyXK.o.7.8.o. . .#.3.3.4.5.5.h.j.H.J.H.J.J.K.R.<X<X<XhX>X2XqXeX^.(.eX^.qXtXtXqX0XuXsXz.@.@.0.0.0.0.+XOXx.x.x.x.F.F.F.J.R.j.n.r., , & s s s h t i i i h h h h h i & & i ",
"GXuXuXaXbXbX2X+.@.+.@.@.@.k.x.<X$X<X<Xx.@.! ! ..+ K K T.eXeXeXeXqXaXD.K.<X<X$X&Xr.c O.c c O.k t.n.J.J.F.F.J.yXaXFXtXaXAXaXW.F.W.^.Q.W.R.1 1 , > % 8 O.2.5.5.<.[ g. .p k l c c O.c c c c c c c k | | | | +.f.z.OX<X:XJ.J.z.j.j.j.F.5.5.Q.aXaXaXnXKXpX .7 h v h s ^ qXaXaXaXrXqXW.o.o.o.c 8 | 2.v.j.j.j.j.j.F.J.R.F.J.K.<X2X4X7X7XgX6X6XtXtX/.^.eX2XyXbXNXbXpXsXsXx.X.P @.@.T +.x.OXx.x.J.J.J.F.F.F.R.j.n.r., , & 3 3 3 & , , - - & & , h i , & # , ",
"nXpXuXpXrX7X<X2.@.@.@.@.f.k.x.l.&X<X<Xx.2.X.....^ *.^ W.eXeXeXeXtXbXh.z.z.l.l.OXe.c O.O. .O.k %.j.F.J.J.F.J.W.yXqXtXqX0XW.W.W.W.G.Z.C.h.P < 1 > 8 o.@.;.2.5.4.=.g. .p k O.k c O.c c c v v v v v  . . .O.+.0.k.z.x.x.z.z.h.5.4.4.F.h.j.R.pXpXpXcX8X1XO.h 8 c , h ..0XrXrXrX2XqX2X| | o.8 1 | X.2.g.g.g.2.5.j.F.F.F.F.F.J.<X$X4X4XOXOX2XaXaXrXqXeXbXbXbXcXNXvXdXdXj.;.! ;.;...;.x.l.l.x.x.x.j.j.j.5.F.j.n.r., , , h h h i i i i y # $ , k k i , , - ",
"R.j.J.R.j.x.x.f.f.f.k.k.f.f.@.+.u.e.0.f.x.J.F.j.T.T.<./.eXeXeXeXzXzX;.+.O.0.0.u.e.k O.O. . .p %.2.j.F.J.j.h.h.j.D.J.J.4.h.2XrX3X).^.~.qXh.J.J.x.x.J.z.@.X.2.f.2.3. .p k  .k O.8.O.O.O.8.8.8.8.8.@.O.@.O.0.0.w.k.f.f.a.;.;.@.X.X.f.@.X.f.g.f.f.g.%.g.v v c v , v / W.W.W.2XJ.W.W.1X<XOXOX<X<Xj.2.f.f.2.2.2.4.5.5.Z.5.5.f.f.w.q.q.7.w.z.rXnXaXrXaXrX2Xk.%.2.2.#./ j.R.j.J.J.j.<Xz.k.f.f.k.f.2.5.5.4.j.5.x.f.p k h j j k k k k p p , k O.r.t.r.$.O.r.",
"X.! ..X...+.2.f.k.x.l.x.k.@.| 8 8 > > O.1XnXnXpXSXaXT.iXeX).eXeXzXzX+.T 8 k c 8.e.k O.O. . .p %.;.4.j.F.h.2.;.;.^ :.;.^ *.2XaXrX).).).AX0XtXbXcXbXpXR.@...@.f.f.2. .p k  . .o.8.r.r.e.e.r.r.u.u.%.%.@.@.0.w.0.w.@.@.+.+.....! !  .1 = 1 8 > % > -  .v 8.C 8.7 O.^ F.F.F.J.h.F.W.MXzX7XzXMXcXj.~ %.@.X.X.X.=.,.<.1.<.2.@.o.0 9 9 % 8 f.3XbXaXaXaXbXJ...= - : - X F.bXaXaXaXbXnXH.0.0.@.%.%.2.2.2.,.4.2.j.f.k k k v v v v l l l  .O.r.l.&X5X5X&X$X$X",
"0.r.r.r.@.r.k.x.j.j.j.f.;.X...P c u.8 1 <XaXuXaXiXiXeXeXeXeXeXeXcXIX< T 1 1 8 @.k  . .| ! ! X.2.1.<.<.4.h.h.f.;.@.@.@...X.cXbXbX|.ZXZXVXeXqXqXrXrXaXJ.|  .@. .O.+.| |  .@.@. .k e.e.r.r.e.r.e.e.u.u.u.u.u.0.8.8.o.0.0.@. .! ! ! ! | | k c c z z c 8 e.O.k  . .X.*.W.h.H.2Xz.R.2XpXuXrX0XuXpX<Xa.8.8.0.%.2.1.<.<.=.2.j.%.8 % 7 N k k g.PXQ.nXuXW.nXn. .k , - . . W.rXW.aXaXrXGX4. .@.2.%.X.X.%.g.5.4.j.j.%.1 , k k k k | |  .| ..^ ! j.J.j.R.R.R.x.",
"O.@.0.@.O.@.r.g.2.f.f.f.f.@.X.| c 8.7 1 <XbXuXsXiXeXeXeXeXeXeXeX2XbX< | |  .k O.k | | ! 1 P ^ ;.1.<.<.5.h.h.2.@.r.f.@. .+.rXyXyX~.~.(././.qXrXtXrXaXJ.X.@.f.r.f.@.+.|  .@.@.O.| 8.e.8.e.8.8.8.e.v 8.e.u.u.u.u.u.+.0.f.f.@.X...X...| | k k 0 z z z 7 8.O.p | ! ^ Q F.h.z.H.h.J.W.uXaXuXqXuXpX<X0.O.O.O.@.#.,.,.,.5.5.2.f.k c 0 9 % %  .pXR.nXGXsXpXj.p , , , : - Y.uX/.aXuXrXbX;.@.f.f.f.@.@.f.j.2.,.2.j.2.| p  .c o.o. . .+.X.X.! ! j.J.h.R.J.R.x.",
"O.8.0.8.O.O.r.g.2.f.h.j.f.;.+.! c 8., 1 <XaXuXuXiXiXiXiXeXeXeXeX2XrX; P 1 | 1 8  . . .| ! ! / =.<.<.<.4.h.h.;.@.f.k.f.@.a.cXzXcX/./.qXeXiXaXaXaXaXaXJ.X.@.@.0.f.+.| | |  . .| p 0.8.8.e.8.e.e.e.v 8.e.u.u.u.w.0.O.0.f.f.@.X.X.X.| | | k 8 8 0 8 c 8 0.@.! ^ ! ^ K F.H.z.h.h.J.W.rXiXeXqXrXrX:X9.8.8.e.%.%.2.,.1.5.5.2.j.1 k k 8 k 1 @.aXW.aXiXuXvXg.1 , , p : - Y.aXaXnXaXaXbX;.@.@.2.@.@.;.f.j.2.2.2.2.%. .|  .k  . . .| ..^ ..! ! j.x.h.J.J.J.x.",
"8.e.e.r.@.@.f.g.f.j.x.z.f.@.! : c c , | R.pXuXiX~./././.0X0X0X2XHXnX..P P ..| |  .| ..^ ^ ^ Q ^ V.-.<.4.h.f.@. .o.o.o.o.@.zX7XcXaXuXrXqXrXrX0X^.FXaXJ.;... . .@.f.;.@.@.@.@.@.@.r.r.t.r.r.y.u.y.e.e.u.u.w.8.8.o.o.+.0.@.+.! ! ^ |  .| k 8 8 0 9 z 7 0.+.! ^ L L Q F.2XJ.z.H.W.W.eXiXiXqXaXrXx.+.u.u.u.t.f.f.3.3./ X.2.x.- 7 k v , 1 2.MXaXGXsXaXMXx.1 , 1 , - . j.pXpXrX3X3X3XX.@.@.@.@.X.@.2.f.j.5.5.2.@.| k k k k P P P P P K ^ ! j.F.h.F.F.F.J.",
"8.8.8.8.O.O.%.g.f.h.j.j.f.@.| P k k 8 X.R.3XqXuX/./.iXaXAXbXxXtXqXW.K ; : P 1 1 ! ! ! I ^ L L J N.-.-.5.j.f.@.k r.e.r.k.l.NXcXNXMXcXpXpXGXGXFXaXaX0XJ.h.;.@.a.f.;.+.P P ! ! ! 1 %.%.r.e.e.y.y.y.8.8.8.8.8.8.8.8.+.0.f.2.X.^ ! ! +. . .| c c z z % # o.+.P L L J *.4.J.z.;.h.F.J.).iXiXeXtXyXz.R y.y.u.e.r.%.%.2.n.n.g.g., : , - o. .f.uXqXiXrXqXpXk.1 1 k 1 : O R.nXnXcXcXcXrXx.a.;.@.;.;.2.;.;.5.5.2.X.@.@.O. . . .| ..! ! ^ ^ ..^ F.J.h.J.F.F.J.",
"z z c k h p  .O.@.@.2.f.f.f.f.2.l.k.f.k.h.,.,.5.' _ <.F.G.K.J.H.K.K.F.W.2X2X2XR.uXrXqXqXeXeX^.~.` ` <.5.j.f.O.k c 7 7 8 8 0.o.+.O. . .@.j.W.W.F.0XL.K.2XK.<X6X7X2XR.h.h.h.j.j.j.|  . .v v v B C c c c c 8.u.oXOXl.x.R.z.2.X.^ ^ |  . .o.o.7.8.C oXk.gXpX0XeX(.(.<.*.;.;...+.*.4.).'.iXiXaXrXz.R c c c c c k k k , - ,  .n.8X8X8XgX7XR.j.=.=._ ) h.+.1 k o.| p ! X.j.j.k.k.k.f.k.z.z.z.J.J.j.2.X.X.X.X.^ @.g.l.f.f.f.2.;.-.-.=.=.;.*.J.W.F.J.J.J.J.",
"4 9 9 8 , , p l @.@.@.@.2.f.j.x.fX5X5XR.;.: J Q J { _ <.D.H.H.H.C.L.qXaXaXbXbXbXaXrXqXeXeXeX^.G.` ` -.5.j.f.O.7 z & % > % c > 8 7 & , | f.J.F.Z.F.<.K.tXrXrXbXbXbXyXK.H.J.J.R.J.p p k k c z N N c h 7 7 c u.&XfX1X7X6XR.2.X.^ ^ |  . .O.8.8.y.u.u.e.7XrXqXeX{.}.W.^ ....P P ^ -.).).iXeXtXyXd.q z z 9 9 7 7 , , k p a p vXvXdX8XNXcXW./ K Q Q L ..P 1 O.O.| |  .X.;.@.@.@.+.+.OX:X<X<X7X3XK.;.! ^ ^ ^ ! %.n.$Xx.x.J.j.j.5.1.<.<.4.;.W.2XL.W.K.K.K.",
"9 9 z 8 , , p  .2.2.@.@.@.2.j.x.$X$X1X<XX.+ J _ J J _ <.J.K.:X:XC.G.tXaXtXaXbXGXtXqX0XeXeXeX~.A.} ` V.C.j.f.o.7 7 % % > % o.> 8 v h 7  .j.R.F.Z.C.>.G.bXtXyXcXzXbXyXK.h.j.J.J.J.! | k k c c V C 8.c 7 7 8 8.OXfX1X7X6XR.2.^ W K |  .O.@.e.u. X.X8.8.6XrXqXVX{.}.aX/ ! ..P P I ;._.).ZXeXtXyXd.q z z z 9 9 7 7 , # - : O KXdXKXKXcXMX3X*.Q _ _ K ! T  .0.O.p 1 ! @.@.@.O.r.@.0.7X:X:X2X7XyXH.+.; / X.^ ! @.x.n.g.J.F.F.j.5.<.<.<.5.4.0X0XK.W.W.W.K.",
"> 7 7 3 % 3 B y.8.8.8.0.0.f.x.x.F.h.J.F.X.! ~ W ~ ! X.j.R.z.H.2X1.C.eXqXZXeX(.).(.eXeX(.eXaXqXG.N.-.-.D.J.x.O., h h * j & h & j V V V c &X$X<XR.j.F.W.qXiXiX'.|.eXT.j.n.&X$XOX&XC c O.8.c V F S B d N z 8 O.x.$X1XR.<X1Xg.| 1  .| P T 0.d.0.w.k.+.+.yXrXaXeXeX(.rX/ ! ^ ^ / ^ ,.eXaXtX0X0XW.:.U , , h h h h x x l k k : nXtXeXeX).AX~.K L ^ ^ K +. .....+.+.+.+.u.8.e.O.r.%.@.1XY.W.E.W.R.R.! ..^ ..X.X.;.h.z.J.:X:XJ.j.5.<.<.] 5.,.W.W.F.K.K.K.K.",
"7 7 7 7 3 9 C y.e.e.0.r.f.z.x.J.F.h.J.F.X.~ ~ W ~ ! X.f.j.h.h.J.5.F.aXeXAXeXeXeXwXVXeXeXeXaXeXK.N.-.-.4.j.f.| # j h & v i h & h N z z c OX$Xx.x.F.F.W./././.)._.eXT.F.$X&X$X$X4Xc 8 o.O.c c C N N d N c c 8.<X1XR.J.R.<Xk. .| @.+.....+.0.o.o.w.@.@.rXrXaXtXeXeX3X^ W ! ! ^ ^ X.rXaXtXtXaXtXh.K k k k j j x z x & , p 1 uXqXeXAX^.eXT.L / ..+.! | ..T ..........u.8.e.O.%.%.X.1XY.W.E.W.R.R.! ..! ! ^ X.2.h.x.<Xx.x.z.h.4.<.=._ 5.,.W.W.J.K.K.K.>X",
", , 7 , & 7 c 8.8.8.8.@.0.f.h.z.H.D.J.J.X.X.X.! ~ ~ X.g.J.J.<X7Xj.F.aXrXaXeXqXeXwXeXqX^.qXtXqXJ.N.-.-.:.5.;.! = & $ * h i i & h z z 0 8 OXx.x.z.j.F.W./.eXiXZXZXeXW.j.x.$XoXoX$Xv k O.O.c C D f m 4 N B c e.<X5XR.R.R.J.f. .|  .P P P o.+.0.0.k.0.@.zXrXaXaXtXeXpXX.!  .| X.X.2.bXaXpXpXbXyX;.2 k k h h h s 3 s v k k p cXbXaXqXtXaX2X^ ..! ! : P T ....P ..I ^ 0.O.0.O.@.@.X.R.Y.W.W.W.R.R.! +.! ! ! X.;.h.:X<X,X:Xx.z.j.5.4.<.2.,.W.2XJ.2XK.K.K.",
"1 > , > , 7 k c e.r.0.0.;.f.h.D.J.H.R.J.;.X.@.|  . .@.f.x.x.OX<Xj.J.nXaXGXaXtXaXtXeXqXwXrXrXqX2XB.-.-.4.4.2.X.! i , , l l k i k c k k k OXR.J.J.F.F.W.W.^.eXeXeXeXW.j.n.%X#X#X&Xc k o.o.k v B 5 N d N V k O.x.n.J.j.j.j.f.@.@.@.+.+.+.@.0.0.u.k.0.@.7X7XrXqXrX/.8X .!  .|  . .%.cXcXrXpXpX6Xf...k k k k h h h z h , , k cXbXbXbXrXcX2XX.@.+. .| ! | +.X.....^ *.@.O.@. .@.@.X.R.R.W.W.W.R.W...+.| | +.X.@.k.x.OXOXOXl.x.j.j.5.5.2.;.W.qXW.yX2X0XK.",
"2X1X<X<X<X5X5X5X$XOXx.z.z.K.W.2XK.J.2X<Xf.@.@. .%.%.$. . .o.o.c ! ! z.h.J.h.4.h.:.;.*.*.;.;.@.@.-.-.-.<.5.j.5.2.$Xl.l.x.g. .k k o. . . .<X<X<X<XW.K.F.D.C.:.-.-.-.^ 1 k k h h c $XOX<X<XOX5X=XD N d N z 7 k @.@.X.X.X.;.f.z.x.x.2XK.z.f.+.+.O.O.0.O.6X2X2XW.W.T.$X, - , - , , k | |  . . . .|  . .o.O.8.e.r.u.i.u.oXoX8.+.1 1 | 8 | 8   , = - : p X.2.2.*.>.-.>.@. .X.| X.X...R.W.W.W.W.W.2X..+.%.@.@.@.@.r.f.f.0.0.0.@.@.@.X.@.;.;.3XrX0XqXwXwXtX",
"2X<XR.<X1X5X1X<X<X$Xx.x.H.K.K.W.2XK.2X<Xf.0.e.O.r.r.r.k k c c 7  . .$Xx.<Xx.j.z.h.;.+.;.f.;.@.@.-.-.-.<.5.F.F.F.1Xn.<XR.n.X. .|  . . .+.2X2X2X2XW.W.L.C.:.>.>.>.<.^ 1 k c z z c l.l.J.x.l.&X#Xz N d N z & ,  .| ! ^ ^ ..2.J.2X<XqX3XR.f.@.0.0.O.0.o.1X<XR.R.W.W.$X, $ & $ , , k k k k k k k O.t.| o.O.0.r.i.l.oX8.u.i.e.o.8 c O.8 c k % k , i k p @.j.j.4.-.-.V.X.^ ..! ..X.^ J.W.W.W.2X2X2X..+.f.f.@.@.+.@.0.0.0.8.8.8.@.@.@.@.X.;.3XrXqXtXeXwXtX",
"2XR.J.R.<X1X<Xn.n.x.z.j.h.F.L.G.2XK.6X1Xk.r.u.8.e.u.r.c c 8.8.7. .o.$Xx.<Xx.x.z.j.@.+.@.0.@.O.0.<.<.-.-.<.1.F.F.j.2.j.j.R.X.X.^ | | | ..W.2X2X2XW.K.L.C.C.:.B.D.-.! 1 h h h 9 z x.x.:XJ.x.5X#Xh N d N c 7 ,  .| ^ / ^ ^ ;.J.<XJ.2X2XJ.;.@.f.f.r.u.O.1X<XR.R.W.W.*Xh , h i h h v O.c k v c h h O.| | o.O.0.e.u.u.oXoXu.u.8.8.c c V V c % k & $ , p  .3.j.<.` -.N.^ ! ^ ! ^ ..^ F.W.2XW.2X>X2X+.+.r.r.@.@.O.0.0.e.e.e.e.e.r.t.t.t.X.X.3XaXrXaXeXeXwX",
"3XW.R.R.6X1X<Xn.<X<XJ.J.F.L.G.K.2X:X6X6Xk.r.u.8.e.u.e.c 8 c V 0 O.O.$Xx.<Xx.x.x.z.@. .@.0.+.O.r.C.<.<.-.=.-.1.F.R.j.R.j.R.X.X.! ! ! ! ! R.W.W.W.T.K.D.:.:.:.>.>.-.! 1 h j h h c x.x.J.z.x.5XoX3 m 4 N V 8 k @.@.K ^ I I ;.W.2XK.2X3XJ.@.+.@.0.O.k.0.5X<X<XR.W.W.%Xh & & & , & h C h h 8.e.v v 8.+.+.0.0.r.r.u.u.q.u.u.u.c z c 8.V V z 3 v & & h :  .2.5.-.) ` N.^ ! ^ ! ^ ..! F.W.2X2X2X2X2X+.+.@.@.O.O.O.0.r.u.8.8.8.e.e.e.e.e.X.X.3XaXtXSXtXeXtX",
"<X7X7X7XpX6Xj.j.W.W.F.5.F.J.R.rX6X6X<X+XoXu.y.Z y.y.u.9 7 c O. .8 O.$X$Xl.k.&XfXoXe.8.e.r.@.@.x.5.4.2.2.2.5.5.Z.F.5.5.F.j.X.! ^ @.....@.R.3X3XR.K.H.h.h.4.4.4.4.f.$.h h s h 7 , k.x.j.J.F.R.x.$ 9 9 7 , 1 p ! ~ ^ ! P ..h.K.2X2X2X2X<Xx.k.e.8.8.+.@.7X<XR.F.R.E.g.1 @ , k , % h k O.8.c j v C B 8 o.@. .@.k.x.x.@.0.r.e.v v C C c C c 7 & h h t -  .3.j.<.-.V.S.X.^ ..X.| ..;.J.2XJ.6X2X2X2X@.+.@.@.@.@.@.@.@.@.r.t.t.r.$.e.p.l.0.@.rXaXtX~.(.eXeX",
"4X7X4X1X7X2Xj.R.D.J.h.h.J.R.R.3X6X4X4XOXoX Xy.y..X Xu.c k k k 1 > o.l.$X&X&X5XfXl.e.O.r.0.O.+.k.j.j.j.h.h.j.F.Y.F.j.j.F.j.X...X.@. ...@.x.2XR.J.R.K.H.h.4.4.5.5.f.O.h h h h 7 7 k.J.j.J.F.J.x.$ z 0 7 7 p ! ^ X.^ I I ..h.K.2X2X2X1X<Xx.l.u.y.8.+.+.7X2XR.R.W.Q.x.k = 1  .k , k k O.c h j 8.y.e.r.f.f.@.o.@.@.@.@.@.O.O.k k h h c c h & % , h & :  .3.3.,._ ` V.X.^ ^ | ..| @.x.rX<X6X<X:X:X+.+.@.@.@.@.@.@.@.@.r.t.t.r.O.O.e.p.+.+.rXpXtX^.).VXeX",
"l.OXg.f.x.z.j.<Xh.J.H.j.R.x.f.j.+X+Xk.k.u.u.y.y.8.Z 8.u.k.r.f.f.f.k.f.k.k.k.u.t.r.O.O.O.O. . .@.%.@.@.X.X.;.2.2.4.2.2.h.f.@.X.@.@. .| @.h.x.j.h.J.z.h.2.2.2.2.2.r.O.h g h h h 7 x.2XW.W.W.3XR.1 c k k k | | X.X.=.X...X.2.h.z.l.x.g.k.t.e.e.8.8.o.o.7X7X3XW.qXqXx.+.1 | @.| k O.r.t.r.8.u.oXu.v O.0.@. .o.f.f.;.f.f.f.r.g.t.t.t.0.r.O.k k k v h  .%.g.j.4.=.<.V. .! ! | | p O.f.,Xz.x.f.f.h.@.@.;.;.;.;.2.2.2.2.r.f.r.O.k k l O. .| 3XpXaX/.eXZX).",
"7 h , = 1 1 ! h.J.2X2XJ.<Xf.| | 7 8 7 9 9 3 4 3 9 h c 5XkX7XrXaXcX7X .1 , 8 , 7 O.O. . . .|  . .k k 1 1 1 1 P ! ..^ ..+.X.X.+.X.@.O.o.@.f.k.f.@.f.2.@.X.....^ X.%.O.h h z j h 7 7XpXrXtXeXaXuX~  . .| | ..X.;.-.F.j.4.;.@.+.o.o.O.O.O.v c c c c | o.7XrXrXqXeXeXPXaXrXpXbXpXpXvXcXcXvXmXLXmX%Xc h k k k o.k.x.J.f.h.j.j.8X8X8X8XcXcX7X<X$X5X5X&Xk.x.R.R.F.5.Z.Z. .p p k k k  .0.o.o.| |  .@.2.f.4.4.4.4.4.5.2.2.2.g.%. .p , i h 1 1 2XrXaXeXeXZX).",
"v v 7 7 k | @.6XJ.7X6X<X<X0., > c V V V B C C C j c k kXNXpXuXaXcX7X- = = , , , k k  . .| | | ! c h h 7 1 1 | ..P ! ..| ..@.@.@.0.0.O.+.@.%.@.@.%.@.X.| ! ! ^ ^ $.v j x x x h 7 rXbXaXaXiXaXuXX. .| ......*.-.4.F.F.j.2.@.o.k 8 h k j j c c c c | | rXrXtXeXVXVXAXeX/.qXrXrXrXrX7X7X7XcXMXvXf.# c v v k k @.h.h.;.2.5.2.pXuXpXsX2XrX2Xx.x.x.x.g.x.<X<XR.R.F.F.F.O.k p k c k k O.8 8 , , 1 | f.g.<.<.<.4.4.4.4.4.3.2.2. .p - , , 1 < <XrXaXeXeXZX).",
"h s % & , > | <Xz.<X1X<X4Xk.k 7 4 d d d z z z z h c , 8XaXuX/./.rXpX= 1 p k : , k  . .| |  ...1 B x j h k 8 ..| ..+.+.| | @.f.r.0.0.0.0.0.0.@.@.f.%.@. .| | ~  .v l x x x x z 7 6XrXtXeXeXiX/.( ^ ^ ^ ^ ^ *.-.-.-.4.5.f.@.O.c c x v B B B C C C T | rXtXtXwX{.}.).(.(.).eXqXqXqXaXpXrXpXMXMX<X@.C D v 7 8 @.f.a.4.1.1.=.iX/././.rXtXqXJ.F.R.J.x.z.z.x.x.j.j.j.j.O.k h v O.c j c 7.8.c k k | 3.j.<.<.<.<.<.4.4.4.4.4.2./ 1 - , , > ; <XrXaXqXeXeX).",
"x z 9 h k > o.6XOX4X4X4X4Xk.c c m N N N x N z z & k # 7XuXiXeX).pXnX= p p 1 # - p  . .| |  .| 1 M M d h 7 8 8 T +.@.+.| | 0.f.0.0.0.0.0.0.r.r.r.r.%.%. . .~  . .l h h x B x j 7 2XrXqXeX).)./.Q ^ ^ L L Q ) =.>.=.4.h.f.@.O.v C D D C C C Z Z Z 0 | rXtXeX(.(.P.(.).{.{.eX).eXeXrXrXrXrXcXcXR.X.x x j , 1 @.h.h.C.Z.C._ SX'.`.'.).eX^.F.h.F.j.h.z.z.z.x.z.x.x.x.e.c h C e.B z z C y.c O.k p g.j.-.-.<.<.<.<.<.<.1.<.,.X.p - , , > < 2XpXaX^.(.).).",
"x z h c c > o.6X4XgXhX4X&Xu.8 7 m m m f z z z z h O.$ 7XuXAXZX_.pXnXX O . = . : i O.O.| | X.| : M B x z h k | | T +.o.1 8 +.0.O.8.0.e.e.e.r.r.t.%.$. .l p p p ~ l h h x B x j 7 7XtXeXeX).'./.( Q L L L Q ) =.-.-.5.j.f.@.k z j S B B B B B V V 0 o.rXtXeXP.P.P.[.}.{.{.).).).eXqXaXaXbXnXpXj.1 x x h & 1 @.h.h.-.-.<.) DX'.'.].VXZXeXK.L.K.K.j.J.x.z.x.<X<X1X<Xe.v c C y.C z z 3 V 8 c k p g.v.-.-.-.<.<.<.<.<.<.1.,.X.p , , k > < 2XpXaX^.^.(.).",
"i $ $ p p - | <X<X5X7X7X&Xu.c , z 9 3 7 8 0 7 6 > 1 ;.2XcXzXrXbXrX3XP ; ; ; ; ; ! ! | ..........z h 9 9 8 8 | | Q W Q _ =.X. .+.@.@.+.T f.+.+.+.+.+.@.@.+...! I +.8 , k o.c 8 9 gXMXBXcXcXMX9X#.k O.8.8.| +.H.:.>.:.<.-...! P k p  .O.k 7 c v v o.o.gXxXAXeX_.[.~.).iXqXuXaXpXqX7XbXMXMXmXkXl.k & 8 h k  .%.j.g.<.,.-.-.eXeXeXeX/./.!.T.G.F.F.h.z.J.x.5X<Xl.%X*Xf.1 1 1 u  . .p z V V 8.o.: F.1.N.N.-.F.5.X.2.f.%.$Xg. .O   + o o + T.iXqXnXnXnXaX",
"l.g.g.g.x.g.g.g.g.l.l.l.l.e.O.v 8.8.C 8.8.e.0.8. .+.k.2XyX2X2XqXrX3XP : : P : P ! ! ............v v c c c o.+.@.*.^ / ,.,.X. .O.@.@.@.| z.z.z.z.z.x.z.J.F.j.5.5.k. .1 k O.v k k k.OX$Xl.x.$Xg.p k o.o.o.| ;.>XJ.G.G.~.G.5.2.a.r.@.f.r.o.k c c c 0 q <X2XW.G.A.S.T././.~./.rXrXW.x.<X2X1X<XOXO.> 3 8 h , k @.f.2.=._ _ *./.^.^.^.W.W.W.W.W.W.2X2X<Xj. .@.r.O.e.e.k.0.2.2.2.g.g.k 3 z 0 c k 1 Q.Y.G.G.Z.W.j.X.X.%. .f.%.2.2.2.F.5.4.,.W.W.F.R.J.R.J.",
"vXvXvX8XvXMX1X .O.O.o.c O.8.e.u.u.r.e.t.l.$XOXx.j.h.j.W.2XJ.J.W.3X2XP : < P P ! ! ! | ..^ ....| e.e.e.8.8.r.f.f.<._ =.<.,.X. .O.| X.X.+.R.K.2X2X<X2X3XrXrXqX/./.2X2.^ |  . . .O.o.o.o.o.O.O.k , i k k o.T s.tXtXwXeXeXqXW.J.x.OXx.<Xn.0.c c c c 8 7 l.h.D.V.V.} S.T.W.T.W.Q.W.J.@.a.f.0.r.0.k # 3 h h , 1  .@.X.^ ^ ^ ^ W.T.T.K.W.T.W.0XrXaXaXaXpXk.= = 1 , h & oXOX<X1X1X8X$Xk 5 7 6 8 8 1 uXuXZXZXqXqXJ.^  . .| | | x.pXpXnXuXaX3XJ.@.@.;. .;.@.",
"NXMXMXcXNXKX1X1 k 8 7 7 k O.y.i.$.$.$.r.l.n.R.n.R.J.j.R.R.F.F.W.<X<X1 1 P | ..| ! ! ....^ ....| u.u.u.u.u.k.k.h.Z.<.<.5.4.X. .O.! ..X.X.W.W.2XqXR.W.3XqXuXiXiX'.uX5.^ ! | |  . .c 8 7 c c c c v k o.k 0 T z.bXbXwXeXeXqXW.J.x.x.<X1X$Xr.v c c c o.k l.k.4.-.V.<.C.G.W.F.R.2X<Xx.+.@.@.@.O.0.c > 7 h 7 , - p | ! ^ ! ! ^ W.W.W.K.W.W.0XrXaXbXbXbXnXj.O O 1 , h # k.4X1X1X1X8X1X, & 7 % , 1 1 pXaXZXDXiXaXJ.! | ! | 1 1 <XnXpXaXrXMXcXf.1 @.@.| a.+.",
"aXuXcXpXpXcX<Xp k k k k v 8.e.y.O. . .%.g.n.n.x.R.v.j.R.R.F.Y.Q.<X<X1 P ..+. .+.! ! ^ ^ ^ ......r.r.e.e.0.f.2.h.F.<.<.5.4.X.| o.! ~ X./ R.J.W.W.F.Y.W./.uX'.'.'.iXZ.Q W ! ! |  .7.0 0 C C c B y.O.O.c c 8 a.bXtX^.).eX/.T.j.j.x.x.$Xx.r.c v v c 8.c x.f.2.<.1.<.C.G.W.J.R.2X<Xx.+.0.@.O.0.r.O.7 7 h 7 > = p ! p ^ ^ ^ ^ W.W.W.W.W.W.qXrXaXaXrXrXaXj.= : k p k & k.4X<Xn.n.1X1X- 7 7 > > , 1 pXaXiXSXiXaXJ.! p k 1 1 1 <XaX3XW.2XbXcX@.8 k.f.+.k.d.",
"tX0XrXbX7XcX1X .c c v v 8.e.e.e.O.O.O.%.x.n.R.n.R.x.j.R.R.R.W.qX<X<XP |  .@. . .! ! ^ ^ ^ ......%.%.8.0.@.;.2.4.Z.<.<.5.4.X.| o.! ~ X.^ R.F.J.W.R.W.Q.qXiXiX'.'.'.S.Q K ! ! |  .c c c 8.Z j B y.O.O.c c 8 a.rXyX(.eXeX).W.F.x.x.g.x.l.0.c v v c v k l.f.2.,.4.<.F.W.2XR.R.6X2XJ.@.@.0.O.0.0.o., 7 h 7 , - p ! p X.......2X2X2X2XR.2XqXrXrXrX0X2XqXh.; : p : i $ oXgX<X$Xn.1X5X, k k , , , : rXuX!.uXuXpXx.P k | 1 1 | 2XaX2XqXrXcXbXf.o.l.f.+.0.0.",
"eX^.tXbXrXcX7Xk v v v v C D e.y.r.%.%.f.x.<X<Xn.$Xx.x.1X6XR.R.3X1X1X|  .+.@.| | ! ! ^ ^ | | ....%.%.O.O.+.;.;.<.1.,.,.<.,.X.| O.! ^ X.X.R.R.W.3XW.W.qXuXiXiXiXiX_.<.( Q ^ | | O.k k O.8.v z z C k O.k c 8 a.rXwXeXeXZX).~.R.J.R.x.n.x.0.c v v c c h l.g.f.2.4.<.D.K.W.K.<X2X1XOX+.0.0.0.0.0.c % 3 8 7 , , !  .!  . .| ..2X2X2X2X:X2XyXrXaXrXqX0XrX5.O = 1 - , . OXkX<X1X<X<X5X, , , , , 1 1 pXuX!.uXsXsXJ.p k | 1 1 | <XaXrXaXaXcXbXf.@.k.+.o.o.+.",
"wX^.tXbXrXMX7X, O.v c c v D y.p.r.r.r.t.x.n.n.x.$Xx.$X7X7X<X<X6X1X1X . .O.@.| | ! ! ^ | | | | ..%.%.@.+.@.;.;.:.<._ =.<.,.X.| O.p !  .X.<X2X7XrX2X2X0XrXuXiX`./._.<.( ^ X.@.o.O.k o.8.8.v z z B , k 8 c T a.rXwXeXeXZX).~.R.J.R.n.1X$Xr.v v v c c h $Xn.x.j.j.5.h.J.R.J.J.1X<Xl.+.d.k.0.r.0.c % 3 8 7 , , | X. .| | | | <X<X<X<XJ.<XyXbXbXaXaXrXnXj.O O : - - X +XgX$X7X1X$X5X, # - = , 1 p uXuX!.sXsXnXR.p k | | P P J.rXrXaXrXpXcX2.@.a. .+.@.@.",
"G.G.W.0X2X<Xg., h h s s x C D F c c O.8.u.l.oXoXk.k.u.u.u.u.k.k.O.O.O.O. .k p 1 O.l.k.x.R.5.h.h.,.j.2.f.f.4.2X0X~././.Z.R.1 o.c v k k O.r.k.l.k.k.f.K.aXeXqXeXqXrXj.X.@.@.0.0.w.a.;.;.%.%.#.#.#.f.f.2.h.;.h.eXeX)././.iX5.u ~ p c c c v v v C C v v l k k k p p ..2X7X2X2X2X6X:X+Xz.z.+XOXl.0.o.O.k  .@.@.| p | k , = 1 @.k.f.@.f.f.x.2X2XW.J.W.4.2.;.@.@.@.@.%.$.p.e.e.8.k.O.x.x.J.J.J.F.R.X.%.3.X.X.| %.<Xn.x.s.h.h.H.R.2X3X7XR.F.F.F.j.j.j.j.x.",
"C.C.L.W.J.J.2.= % % % & 3 z x B c c c C 8.8.y.u.8.8.o.c c c c o.k k k k 8 1 , , 0.4X1X7XrXR.R.F.,.5.2.h.h.h.2X0X/.).iX/.uXp 7 7 k k k k 8.0.0.8.d.0.H.rXrXqXeXqXpXJ.@.@.f.0.0.0.h.h.k.f.2.3.3.6.j.g.f.x.h.h.tXeXZXZXiXiX<.: 1 $ , , , , h h s s h 7 , , , - - = P <X2XR.<XR.<XJ.<X,XOX<X<X$Xx.f.r.O.O.@. .1 = - = # # > k o.o. .| | @.z.H.h.h.F.J.J.j.j.k.j.x.x.$.h & 9 5 > > <XzXcXpXpXrX<X1 = = X = = X.1X1X1X>XK.K.K.J.H.x.x.W.W.W.W.W.W.W.W.W.",
"D.4.F.J.j.x.%.= 7 7 7 h j x C D c c c v C C 8.8. Xu.q.8.V V V V z z z 8 7 7 7 8 O.4X1X<X6XR.R.h.=.4.;.h.h.h.0XqX~.~.iXiXnX| 7 8 7 , 7 k O.e.e.0.d.0.J.pXaXaXaXtXgXl.+.+.0.+.o.+.z.z.h.h.5.5.1.1.2.2.2.h.2.h.tXeXAXZXiXiX2.= , $ k k k k j j j j h h h i i , : : P <X2X<X<X<X2XJ.OXl.k.k.g.g.r.O.k.r.0.r.O.1 = - 1 p k k 8 8 8 k 8 8 +.h.z.h.h.F.h.h.4.2.;.2.f.f.e.h 3 c 9 7 8 mXrXuXuXaXaXpX1 = p - 1 - @.1X<X<X>X>XK.K.J.H.z.z.F.F.F.Y.Y.W.W.W.R.",
"L.h.F.J.J.R.k.1 , , , 7 h h v C C C 8.8.8.8.8.8.u.q.8.V z 0 0 0 z z z z 8 9 7 7 0.7X2XJ.<XW.2XF._ 4.-.4.h.h.^.eXDXiXiXaXnX1 , 8 c h h v 8.u.u.u.0.+.z.rXaXaXaXtXlXOX0.0.u.0.0.0.k.f.f.4.4.<.] ] ,.2.;.5.;.4.eXeXeX).qXuX5.1 k , , , 7 7 h h h h h h h , , , - : ! 2X3X2X2X2X2XJ.x.z.z.x.n.x.r.O.@.O.O.O. .1 - - = , , 7 8 8 c c 8 8 @.x.J.J.H.W.F.F.j.h.5.f.j.j.l j c C 9 8 c lXbXaX3XqXrX3X1 # - # - - @.1X<X<XK.K.K.K.J.H.J.x.F.Y.Y.W.W.Q.3XqXW.",
"J.j.J.J.x.R.h.1 k 1 7 , h k v v c c v 8.8.e.u.u.u.q.8.V z z z z y.y.C C C c c z o.4X1XJ.<XR.R.4._ <.-.4.4.<.~.).iX/.iXiXnX1 7 z v c c v e.e.e.8.9.| z.qXqXqXtXeXlXoX8.8.0.0.O.@.k.f.a.:.-.-.] ` <.<.,.h.:.D.eXeX)././.uX2.1 c 9 , , , , 3 s s s j j h h h i p p P <X2XR.<XR.2XJ.h.h.z.<X1XR.g.@.k.r.r.f.%.| p | p , k k c C Z C 8 8 O.x.J.z.J.R.J.F.j.j.h.j.j.j.h h j c 9 8 c lXaXaX/.qXuX3X1 # i , a , @.7X7X6X2X2X2XK.H.h.h.h.F.F.F.R.W.W.Q.3XR.",
"x.f.j.j.j.x.f.1 1 1 , , , 7 k k k k k O.O.O.r.r.u.u.8.8.v v v v B x z z h 9 7 7  .1X1X7X7X2XR.4.<.Z.<.<.<.<.~.~././.iXaXnXk , 7 i , i k O.t.t.t.a.@.F.iXiXeXiXeXkXOX0.0.0.8.O.O.z.z.z.h.:.-.-.-.1.<.<.F.:.D.AXCXeXeXqXuXf., z 3 7 7 7 h h z z z z h h h h i , , : J.R.J.J.J.R.j.R.J.x.R.n.j.@.| l.r.0.r.O.1 = - - , , h c C Z Z o.o.0.x.<XJ.J.R.F.5.5.4.2.2.2.g.e.h 3 z 9 7 8 mXqXiXuXsXsXpX| > h , , , @.<XR.K.>X>XK.K.H.j.j.j.R.R.R.R.2X2X2X6X1X",
"n.j.x.x.j.R.j.! < 1 > , , , 7 k  . .O.O.O.O.O.O.8.O.O.c k k c v 3 3 3 h 7 7 h h f.7X1X2X7XW.W.W.V.A.<.V.<.-.G.P.).eXiXqXpX1 , % a a a l $.r.t.r.f.*.F.).)./.)./.vXR.f.r.f.t.r.u.f.f.a.:.:.:.:.:.] ] _ <.>.B.wXwX)././.rXk.7 c 9 7 7 7 h h h h h s s s & & & $ $ I 2X3XW.2XW.2XJ.6XR.j.j.g.g.g.2.0.O.O.O.| - = = X # , 7 9 9 V Z O.O.0.x.<Xz.j.J.F.F.5.5.2.2.5.j.e.j 3 z 9 0 8 fXeXiXiXiXuX3X1 , & * & $  .R.K.K.>X>XK.K.H.j.j.h.<X<X<X<X<X<X<X<X4X",
"1Xn.$X<XR.6XR.X.x.x.x.x.g.l.OX$Xf.f.r.%.%.%.%.%.l.l.t.r.r.t.t.l.=X=X*X-XfXkXlXlXO.f.P < ! P ;.h.S.A.V.C.-.-.A.A.<.C.Z.1.3X@.oXoXm.M.t.%.%.$. .p ! P _ A.S.S.S.V.Y.X.: 1 1 7 7 7 @.@.;.*.*.>.>.>.{ { Q ) I ) K.I.G.G.T.rXk.c q.Z e.e.e.e.e.y.p.p..X.Xi.i.i.t.t.t.X.uXpXrXrXrXuX3X..P : : ~ 2.v.R.5X5X5XkX8X1X<X1X5XkXkX&Xy.N A A 7 7 k r.f.@.@.;.) / ^ ! W ! ^ ^ i.=X=X.X.X-XoXfXZ.T.A.Y.Y.<X+.r.jX=X#Xg.x.cXyX2XxXrX2XK.h.2.@.X.| | | T T T 8 8 0 ",
"x.n.n.n.n.n.n.n.qX3XW.R.F.h.4.2.C._ -.4.@.f.l.0.l.@.@.2.5.1.<.V.;.D.rXeX/.eXuXHX:X8 8 o.c c k %.j.j.F.L.D.V.N.-.` -.V.:.h.H.J.x.j.j.j.x.+.+.+.o.R +.+.;.-.` ` ] 3.~ $ $ , , , , 8.8.8.@.@.O.O.o.^ L ..*.^ >.G.G.L.K.K.H.h.r.8.8.v t.oXu.8.w.u.q.7.o.z.h.C.Z.' ` } ).|.).0XpXbX2XO.O.k p i O.l.5Xz.>X6XK.K.).'._.~.eXaXcXo.z Z XXo.o.k k | | +.+...|  .O.e.b B x h.R.1Xz.f.z.OXOXx.x.x.R.R.R.R.J.<X<X<XJ.W.aXaXqXeXZXiXC.Q Q W Q K ^ 1 - k h g b x ",
"n.n.n.n.n.n.n.n.J.R.R.R.R.J.F.j.C.<.4.4.2.r.t.0.r.O. .2.j.5.C.Z.:.D.eXeX/.qXqXaX<X8 8 o.c k k t.z.J.J.J.L.C.V.V.` <.<.:.4.j.z.h.F.j.j.x. .o.o.| | +.;.;.<.<.] ] 3.~ $ & 7 , , , 8.8.0.%.@.8.O.8.^ P ^ / L =.G.K.K.0X2X<Xx.r.e.e.v u.l.u.8.u. Xu.0.+.z.h.4.C.' V.} ).iXeXqXpXbX<Xo.o.o.k h v t.%X>XyXyXK.G.~._.U./.qXuXcXk c Z Z 0.8.O.o.| T 8 P +. . .O.O.D v x k.J.<Xz.h.x.:XOXx.x.x.J.F.j.F.j.x.J.x.j.W.rXaXqXeXeXeX<.Q W K W ..;.! - i i & j F ",
"n.n.R.R.R.R.R.R.W.W.W.W.J.h.4.*.-.<.4.2.f.f.r.k.$Xk.r.f.h.-._ ' -.C.iXiX).).!.qX7X8 8 7.c 8 k g.x.z.H.F.F.C.<.:.<.Z.F.5.h.J.J.z.J.j.j.z... .| ! +.+.*.;.<.<.<.<.g.~ - & 7 7 7 7 8.0.r.r.r.0.8.8.! P ! ! I *.J.W.K.2X2X<Xg.r.8.8.e.t.i.e.8.8.0.0.o.+.h.4.-.<.-.S.V.).AXaXaXbXNX6X8 o.O.o.c O.oXfX>X6X6XK.W.iXAXZXaXaXuXcX, c z 9 k k o.o.o.o.+.+.+.T 1 , k c j g f.x.<Xz.x.J.<X:X<X<XR.R.R.R.R.R.x.z.j.j.W.eXaXqXeXeXqX4.W ! W ~ ! ! : . $ & & h z ",
"R.R.R.R.R.R.R.R.J.W.W.W.W.F.5.4.1.G.F.h.h.r.O.e.l.e.@.h.j.4.-.-.-.S.).'.'.iX/.uXgX8 8 7.c 8 k l.OX:X:XK.R.F.j.j.,.4.2.;.;.h.j.h.J.x.j.j.! ! ! P ^ ..*.;.4.<.4.<.g. ., & 9 9 7 9 8.0.r.%.%.%.8.8. .! ....P *.K.2X2X2X7X1Xx.u.e.e.8.8.8.O.O.r.f.k.@.2.h.h.-.=._ -.-.~.qXtXrX7XrX:X8 o.o.c 7 k e.%XK.K.J.J.J.W.rXuXrXrXrXMX1 c c c k c o.O.o. .| ..@. .k k O.O.v j f.x.J.x.x.<X<XOXx.x.x.j.f.h.j.j.j.j.j.h.W.tXaXeXqXqXuX5.^ ~ !  .+.| 1 , , h c C g ",
"F.F.F.F.F.J.J.J.K.W.W.W.F.F.4.4._ Z.F.h.x.f.e.oXu.8.@.j.F.5.-.<.-.V./.).'.ZX/.iX7Xo.c 7.c c v l.+XOXOXx.x.x.j.h.2.j.j.2.2.R.2XR.J.x.j.j.! ^ W W Q Q ) =.;.4.4.4.v. ., 7 z 9 9 9 8.0.%.%.%.@.O.O.@. . . .| @.J.<Xx.<X<X$Xl.e.8.8.u.y.8.8.@.+. .+.I X.;.5.<.<.V.V.C.wXtXbXbXrXzX6X1 T T 8 8 O.OXfXT.K.W.W.2XrXaXnXcXcXcXcX1 k 8 k k k  . . . .+.+.| 8 1 1 k l l k f.x.J.x.:X1X<Xx.1X<Xn.x.x.x.R.R.F.F.F.F.W.tXaXeXqXrXuXh. . . .$.X.| 1 , $ , 7 h h ",
"h.h.D.D.F.F.F.F.T.T.G.G.F.C.5.1.=.Z.G.J.z.f.e.l.r.8.0.x.J.h.-.-.V.V.~.~./.).!.qX4Xo.7.8.C 8.O.r.OXOX$X$X$Xn.x.g.#.2.2.%.2.R.6X6Xx.z.j.F.^ _ ( ( Q ( _ -.4.h.z.z.n.O., 9 z 9 9 z O.O.@.@.@.O.O.O.O.o.O.O.|  .k.h.OX$X5X&XoXi.t.i.u.8.0.k.k.2.X.X./ =.) -.<.-.V.-.C.^.0XtXyX2XrX6X< < 1 1 | @.z.<XZ.C.F.W.3X7X7XcX7X7X7X1X@. .|  . .k k k |  .X.@.1 1 | o.O.O.O.O.z.J.<XJ.<X2XOXf.<Xx.x.g.j.x.R.<XF.F.F.D.K.qXtX0X3XqXrXf. .O.v e.| 1 k k k k O.c O.",
"<.4.<.<.5.5.5.5.-.-.>.:.D.T.eXaXqXiXaXrX2.k , > 7 , k k.<XW.W.T.L.C.G.C.Z.G.5.F.OXO.q.q.8.y.8.O.6 6 7 , , - $ . - : : O 1 X.j.j.x.z.j.R._ [ ] [ ' ' -.1.F.H.x.OXn.O.7 9 N z 9 z o. . . . . . .k v k O.O.8 k o. .& 7 k h 7 & & 3 7 7 c l.7XrXqXqXiX/.=._ / K L + ) N.-.B.:.=.C.h.HXnXbXrXrX3XR.z.<.` =.5.2...8 8 c c o.o.x.x.J.R.$Xg.@.k : = ; :  .f.<X5X1X<X1X5XJ.<X<X<X<X1Xl.+. .| 8 1 !  .@.f.Z.Z.4.:.C.K.K.D.E.R.1X%.p c h v r.O.l.&X$X*XjX5X&X",
"4.-.<.4.<.4.4.4.>.=.>.>.C.^.aXGX/.qXaXrX2.k k , 8 7 o.k.<XW.K.T.K.D.Z.-.=.<.X.;.k.8.u.q.8.u.e.v 6 6 7 7 , - $ $ - a u : ! 2.R.R.x.z.x.R._ <.<.] ' ] V.Z.J.:X>X,Xn.O.7 9 N N 9 z k  . . . .| k k h h O.O., , 8 , & h c v j h h c z 0 0.4XNXaXuXuXSX/.^ K L K *.K -.N.-.V.-.=.D.L.tXyXrXbXGXaXW.2.V.<.<.F.h.| > 6 0 7 > = <XJ.j.j.5Xn.@.1 = O = ; , @.<X7X1X<X<X7X<X2X2X<X<X1Xz.o.o.| 8 1  .@.f.z.1.5.-.=.:.D.D.:.j.Y.R. ., h s x 0.O.l.&X$X&X5X#X$X",
"-.4.C.<.>.=.-.C.F.5.<.-.1.W.eXSXnXQ.pXdXf.p p # 1 8   1X1X1X2X<XK.G.Z.1.<.,.2.2.l.O.8.u.8.e.r.l > > % & & t g g t t t $ # n.1X<XOXx.h.R.<.Z.S.] V.] <.5.a.x.4X,Xm.$.7 8 z z z z O. . . . . .O.o.O.O.v v x z z z h z j j h 3 7 7 o.8 = 1XpXpXrXuXiXGX^ ^ *.P P P J <.A.<.-.<.V.A.eXeX).eXeX^.L.B.C.<.5.f.g.c z z d 4 x & $Xj.J.F.j.J.2.O p = - = > f.1X<XR.W.3XW.3XR.3X6Xn.8X7Xk O.k k k k O.t.l.j.h.5.4.4.h.D.D.x.<Xl.e.h v v D V V &X&XOX$Xx.x.x.",
"-.<.C.<.-.=.-.4.*.*.-.4.F.T.qXtXPXuXnXnXf.p 1 # 8 k   <X<X<X<XR.W.J.F.1.4.2.2.f.l.0.0.u.e.r.r.l > , , , t i j g g t i & - $X1X<X4X<Xx.R.,.5.<._ <._ <.h.h.J.6X,Xn.%.h z c z z z O. . . . . .o.o.v v v v x z z z z z j j z z z h 8 1 = 1XpXpXuXaXqXaXK ! X.....+.J <.Z._ ` <.<.Z.).).).).eX^.I.B.C.-.5.f.l.c j z m 4 z 7 $Xj.J.F.R.R.h.= 1 = = = > @.<X<XR.W.W.W.W.J.2X<Xx.7X5Xk  .k k k  .O.t.l.h.5.4.2.4.h.h.F.$X&X$XO.c j D D V c OX&XOX$Xx.x.J.",
"-.<.5.1.<.-.-.<.;.4.h.F.2XrXbXGXuXE.pXuXX.- , = 8 k # $X<X1X1X1X<XR.F.5.4.3.3.g.r.0.0.e.8.r.%. .= , , , i t t t g t h h , <X<XOX4X<XJ.R.,.4.<.,.1.-.5.J.h.x.:XOXn.$., h z z 9 z O. . .| |  .o.o.v v v v x z x x z j j h h h 7 7 8 8 P 1XpXrX3X3XrXaX! ! ....+.@.^ 5.5.,.<.<.<.A.iX).).eXeX^.G.V.1.=.5.f.l.c j z B z z 7 $Xj.J.j.j.j.@.= 1 - 1 p = @.<X2XW.W.W.W.W.R.2X<Xx.7X5XO.k k k k O.%.t.l.j.h.5.5.h.h.F.J.$X$X&XO.v j F D c c OX&Xx.<Xx.x.J.",
":.4.5.5.<.4.:.:.5.4.2.2.j.W.rXaXKXsXKXpX@.- - = , k > x.<X5X7X7X<Xx.j.3.2.2.2.f.O.0.e.8.O.%.@.! = = 1 , i i t t j h l k k 4X1Xl.x.x.x.<X2.j.j.5.F.4.F.W.J.j.H.h.v. ., 7 z 9 9 9 O. . .| |  .o.c v c v v x z x x C x z 9 9 7 7 , ; ; | <XpXcXpXcXcXcXX.| | P P | X.3.3.,.<.<.<.U.ZXiXiXiXiXeXG.D.4.;.2.f.l.c j z B x z h x.x.h.h.R.j.;.1 - = = = 1 @.x.2XW.K.F.L.R.R.R.<Xn.1X1Xr.k k k k O.r.u.l.j.j.g.h.j.x.J.<Xn.$X&Xe.v c D B c k l.$Xx.<Xx.x.F.",
"4.4.4.h.h.5.4.-.R.J.j.j.j.j.R.3XY.R.E.v. .1 1 - k k 1 r.k.l.l.l.$Xl.g.2.2.2.f.g.O.l.l.k.f.g.2.X.P ! |  . .l j h j j v v k 5X4XOXx.x.:X<X@.2.2.2.;.+.h.2X2XW.W.W.E.%.k c C V c c o. .| | |  .c c c c z z x B B B C z z h O.0.0.0.X...2.x.7X6X<X1X7X7X+.+.| | | +.%.f.X.X.X./ / 5.qXqX/.qXqX^.L.:.2.X.2.r.t.c j h B z h h l.k.f.;.j.2.@.@.|  . .@. .%.j.R.W.F.C.C.j.5.j.j.k.x.l.@.v v v O.O.e.e.u.%.%.%.%.f.k.z.x.g.$Xl.r.k v x x h h l.$Xx.R.J.H.F.",
":.:.4.h.F.h.4.*.X.@.@.X. .! 1 : X + : : - p | |  . .k c k k 8 8 h 7 , $ . O = - r.4X5X$X<X<XY.Z.;.2.2.g.g.t.e.b b v e.v c 4X4X,X2X6X1X<X| | 8 8 T < ;.yXrXqXiXiX8Xn.r.e.u.u.y.u.o. . .| k k c c z z z z B B B B B x z C l.5XrXzXuXW.3Xz.z.f.+.+.k.k.O.0.o.0.@.f.v O.k , p : : X.W.W.W.W.W.J.:.*.;...2.r.t.j j h x z 3 7 r.f.@.X...! X.x.x.1X7X8Xg.f.h.F.F.:.:.B.X.X.X.X.X.@.O.O.8.8.8.8.8.8.8.8.k k k k  .@.r.f.t.$Xl.u.h v h z i i l.n.j.R.H.F.D.",
"2.2.4.h.F.F.2.X.%.%.%.@. .p - = + u : = p @.O.|  . . .k 7 7 7 7 x j h a , p p k %.5XkX<X1X3XT.Z.<.4.j.x.b.g.e.e.p.e.e.v k 4XhX4X7X6X4X,X8 6 > > q > ;.rXaXqXiXiXdXn.r.r.i.u.u.u.c c  .| k c c z z z x z B B B B C x z O.OXzXbXnXaXQ.rX2.f.0.0.0.7.w.8.u.+.f.0.f.C B 7 , k , -  .R.R.J.K.:XJ.a.+.@. .%.%.t.j j h z z & , O.@.| ..X...;.7X<X6X1X5X1Xj.5.h.4.-.>.N.! ^ ! | | |  .O.e.e.e.8.8.O.O.c p i p k  .O.r.f.r.g.l.8.h h g s i i g.n.j.J.F.L.D.",
"4.2.2.j.J.F.2...f.%.@.| p 1 1 1 O + O O p %.@.k k k O.k k c c C d s & $ # - - ,  .5X5Xx.J.W.Z.V.=.,.5.j.g.r.$.v i.e.e.c 8 4XgX6X<X<X<XOX8 6 6 6 o.8 f.bXaX/././.8Xv.$.e.u.y.e.e.c k  . .k c c z z z z z B B B S F B z v l.2XyXyXGXqXuX;.@.+.0.w.8.8.u.l.0.k.@.0.XXZ 9 9 c k 1 @.7X2X2X6X6X>Xz.9.@. .%.r.t.h j j h h & ,  .@.1 P ..P X.7Xn.1X$Xn.pXR.5.4.:.) ) N...X...X.@. .O.r.u.u.u.e.8.O.c k l l l O.O.r.f.g.@.r.l.v c & h & i y g.n.j.J.L.L.D.",
";.s.h.j.j.2.,./ ^ ^ X.X. .k , , & , i p p ^ ..X.! ! | k k c z z d z h h i , : :  .1X1XJ.z.K.yXD.] -.<.4.h.f.o.q o.o.k 8 ..<XR.3X<X:X4X4X, 7 c c , , f.pXpXuXeX/.cXx.f.f.k.r.e.t.O.c c c z 8.y.z w 9 9 9 9 z B C x v c k z.xXwXCXtXtXtXh.@.f.@.r.y.8.8.8.u.u.0.0.O.& , h O.h @ O.4X4X<XJ.<X2Xj.X.t.e.8.u.8.z 0 V 6 7 7 k k  .~ ~ K P =.R.3XW.R.3XA.S.V.` ` ` ` } ..^ ! T ..+.+.+.e.0.0.8.8.8.0.0.v O.v v e.oXoXu.#XoXi.h & i $ y i i g.n.j.R.J.K.D.",
"z.z.J.R.R.j.2.,.^ ^ ....| p , > , , , p ! ! ^ ^ ! ! | k k c z z z z h h , , , : O.5X7X2X2X2XyXH.<.-.<.4.h.f.o.8 o.k 8 1 P J.z.R.2X:X4X<X, , c c , 1 g.pXaXiXiX/.rXz.@.O.O.o.O.0.c 8 k k 9 v Z 3 0 0 0 9 z z B C x v c k z.xXwXCXtXqXrXh.@.f.@.r.u.8.8.8.u.u.0.0.r.k k k O.k , t.4X2X<XJ.<X2Xj.X.t.e.8.e.8.c 0 z 7 7 8 8 k ! ~ ~ ^ ^ 2.R.3X3X3XrXT.G.Z.C.<.V.V.V...^ ^ ! .. .+.+.0.0.0.0.O.O.o.c c v v v e.oXoXu.k.u.t.h & i t t a a g.n.j.K.J.K.G.",
"z.l.x.J.x.j.2.,.^ ^ ^ | | p 1 , , , , p p ! ! ! ! ! ! k k 8 k z h h h h , , , : O.n.1X1X2XW.2Xh.V.<.<.h.j.f.0.o.o.o.| T ..R.J.W.2X<X6X1X, , k h k k g.pXpXuXiX/.rXJ.;.+. .o.@.r.O.o.o.c k 8.8.7 c 0 0 z z z B C z c c 8 z.tXeXtXeXqXqXh.X.f.@.%.u.e.8.8.0.0.0.+.k , = = , - # @.1X2X<X<X<X2Xh.^ u.e.8.8.O.c c c 8 8 8 | | |  . . . .r.x.<X<X<X5XJ.j.h.5.4.4.4.<...^ ! .... .+.+.0.0.e.e.8.O.k 8 k v c c 8.k.k.0.k.t.l.k & i t h i a g.x.f.H.D.D.D.",
"0.r.f.f.f.%.X.X.! ! ! .. . .@.+.@.@.@.@.@.@.;.;.@.@.@.@.0.0.0.0.e.r.r.%.@.@.@.@.X.f.f.f.h.4.4.;.F.F.F.F.J.x.k.0.f.f.f.;.2.rX0XqXqX2X7X1X, , k h h 7 r.1X3X3X/.W.rX2XK.z.x.z.x.<Xk.f.k.k.r.l.l.c k k k k c z x B z c c 8 z.tXqXtXtXeXrXh.;.f.f.f.l.r.8.O.@.@.@.+.2.k.f.f.k.f.f.R.1X2X<XR.<X<Xh.! 8.C c O.o.O.O.0.+.o.@.@.@.X.@.@.O.O.8.e.r.e.e.u.0.0.+.@.@.+.+.+...^ ^ | .. .+.+.0.0.0.0.0.@.@.O.r.r.r.r.l.<X<Xx.l.x.$XO., h & h , , %.f.@.2.;.;.=.",
"8.8.8.O.O. .| ! ! ! ! ..X.f.z.J.<X<X<X<XR.R.R.R.<X<X<X<X<X4X4X4X1X4X1X1X<X<X<X<X2.X.| | ..X.X.;.W.W.J.R.2X1XOXl.x.z.z.j.F.FXeXaXrX0XrX2X- > 7 7 , , O.R.R.Y.T.G.K.0XqXyXrXpXpXpXJ.x.x.x.g.$X$XO.! ! | k v v x B z z c 8 h.rXqXeXaXtXaXJ.5.x.j.x.x.f.@.@.@.@.+...z.pXbXbXbXpXrXpX<X<X<X<X<X<Xf.1 z z z k o.@.f.g.f.f.2.f.2.%.%.%.8.8.8.c c c z z c c c c c c c 8 ..^ ^ | .. .+.+.r.r.@.O.0.f.x.$X<X5X5X1X7XNXnXrX7X7X7Xr.7 8 3 j , $ O.+.| X.....^ ",
"8.8.8.O.O.o. .| | ..! ..@.h.2X6X2X2X2XR.R.R.R.R.R.<X<X<X<X4X6X6X2X2X6X2X2X1X1X1Xx.+.! ! ^ / ^ 5.yX2XR.2X2X7X1X:Xz.z.z.F.L.aXqXeXiXqXrX3X: = , , , % O.x.x.j.G.Z.C.K.eXtXaXbXbXaXJ.x.R.R.x.n.l. .W !  . .v v x x 9 z c 8 h.rX0XiXAXaXSXW.j.R.x.R.$Xg.@.+.....^ ! *.rXaXaXbXrXrX2XR.2X2X<X1X<Xa.1 4 9 z 7 k %.j.g.j.j.h.f.f.f.r.r..X.Xy.z 9 z z 9 z N V V C V c c X.^ ^ | |  .@.+.r.r.O.O.%.g.1X8X<X4X1X1XrXbXbXrXpXbXbXk.8 8 3 N , $ o. .1 ....! ^ ",
"y.e.C C v c k k @. .....+.h.K.2XK.K.J.J.j.j.j.g.x.x.x.x.J.:X:X:XK.K.K.:X<XR.<X<XR.| ! ^ X.X.! 3.2XW.J.K.<X2X1X<Xz.j.F.F.F.aX^./.iXeXrX3X: = , , 7 & O.x.j.j.F.Z.-.G.eXqXqXaXaXaXF.j.R.R.j.x.g.| ( W /  .O.v z z 9 0 0 1 h.uX0XeXtXeXaXJ.h.R.x.R.<Xj.@...^ ^ ^ I ^ tXaXtXtXtXtX0XR.W.2X<X1X<X@.> 9 V z 7 p %.j.2.5.h.5.2.f.@.0.0. X Xy.z 3 j z z N N C Z Z Z V c ..^ ^ ..|  .@.+.r.%.@.@.r.g.$X5Xl.J.J.J.W.rXrXW.rXaXbXz.8 0 9 V 8 , O.o.1 | ..| ^ ",
"D D C v c k k k 0.@...T ..;.D.K.yX2X2XW.R.J.x.x.n.<X<X<X2X2X6X6X0X0XyX2X2X2X6X6XJ.P ! X.X./ u ,.2XJ.H.H.<X<X<X:XJ.J.J.F.F.AX/.).ZXeXiX3X: = , & h , O.x.j.F.F.G.V.~.eX^.^.eXaXaXJ.F.R.R.x.n.j.| Q ( / X.O.v z z 0 0 0 1 k.rX0XeXeXeXiXF.5.J.j.R.<Xj.@.^ ! ! I K I eXeX0X0X0XtX^.R.W.W.<X1X<X@.= A Z c 7 1 X.2.,.1.1.4.;.@.@.o.o.y.y.C 3 3 j B z d z N C Z V c z X./ ^ | |  .O.@.%.@.@.%.r.g.x.n.<X<X<XR.qXaXaXqX0XrXbXk.8 0 9 Z c 8 0.+.8  .| X.^ ",
"v v v v v O.O.O.+. .T ..+.4.J.2XF.K.W.2XR.x.x.x.x.<Xk.1X<X6X2XK.F.qXF.2X1X<X4XfXl.r.O.| X.X.W ,.K.J.J.K.2X2XR.j.F.F.C.Z.G.~.).)./.~.eXrX: - i , & 7 o.l.<Xz.h.F.S.P.).eXeXeXaXaXJ.<XR.j.j.R.f.! W u ~ X.p 8 c 8 z c 8 , r.cXGXrXbXaXrX2XR.j.j.j.n.x.^ : / ^ K L >.^.eXwXeXCXFX0XK.K.K.J.2X2X@.= z C c , < *.1.<.-.-.-.j...@.r.0.p.&.n j g h h z z c c C 8.8.C v  .| k  .O.@.O.O.e.8.e.r.r.0.7X4X>X:XJ.H.W.rXaXsXqXGXpX;.< 8 0 q # k p  .r.O.O.%. .",
"v v v v v O.O.O.@.o.| ..+.;.F.W.G.T.2X2XJ.x.l.g.l.n.f.<X<X2X2XK.W.rXJ.<X<X<X<XfXt.O.O.k  . .W 6.2XK.K.W.2X2XR.j.F.F.C.C.Z.G.~.^.).~.qX3X: : a $ 8 h 8.x.<Xz.h.F.S.~.(.eXeXqXrXaXJ.R.J.j.x.R.g.X.W u ~  .p k 8.O.3 8 8 k k.cXMXpXbXbXrX3X<XR.R.R.x.n.@.^ *.^ K L >.0XqX0X0XeXAX^.L.K.K.J.W.<Xf.! z c k - : ^ *.) <.<.4.j.| @.@.O.&.&.n j h h h 7 , 7 h k c c k k  . .k  .O.8.O.O.8.8.8.8.0.@.7X4Xz.z.z.H.W.3XuXuXdXMXpXk.8 8 q 6 1 O.k k O.k O.O. .",
"v v v v O.O.O.O.0.+.+.| +.;.h.J.C.F.F.j.2.@.O.O.8.t.O.<X<X2X2XK.F.2XX.@.+.0.0.u.8.c k p  . .p 3.yXyXyXyXqX2XJ.j.F.h.5.C.C.C.G.G.G.Z.G.R.!  .O.k v O.e.$X<Xz.h.F.V.V.A.G.F.F.F.F...X.X. .@.%.O.k ^ p  . .k O.k.l.oXoXl.k.f.f.f.@.k.f.@.@. . . . . .%.2.2.2.;.=.<.:.0XwX0XW.0XtXK.D.D.J.F.H.R.J.h.$X&X<Xx.J.W.W.F.F.D.h.F.| O.O.O. . .$.%.r.r.r.t.f.l.l.x.OXOXx.l.O. .k k O.8.O.c O.c o.o.O.O.4X<XJ.:X:XK.J.j.2.2.%.2.f.f.f.k.+X+Xr.k.k k c h c v k ",
" . . .o.O.O.O.O.f.0.@.X.X.;.4.h.-.4.5.2. .p , 7 c O.k x.<X2X2XW.j.j.: = > , 7 c c z k h l  .p v.aXtXrXrXrX2XF.5.5.5.1.<.<.<.V.V.V.-.,.j.X.r.r.e.e.e.k.$X<Xz.h.F.-.<.<.<.4.;.2.2.O = = = , , , , O.k  . .k @.$X<X7X5X5X<Xk.k 1 8 | k 8 , , , i k - k g.x.j.F.h.W.h.yX2X2XK.J.2XF.4.D.F.F.h.J.2X3XpXpXcXpXuXrX0XW.J.J.J.J.|  .k k p p %.n.<X$X$X<Xn.R.<X1X6X6X1X<XO.O.k v O.O.v c c c k k c o.4X<X:X:X<X<Xx.X.p 1 k 1 | k.<X4X6X7X<X<X ., k , h j h ",
"^ | |  . .O.O.O.r.r.@.@.@.;.2.h.1.5.j.2.O.k 7 8 9 z 7 OX<X<XW.W.<X<X1 , , 8 8 z z z c h k l k n.aXaXaXaXaX0XF.4.<.<.<.<.<.:.:.>.C.<.-.h.@.r.e.O.u.r.l.<X<XF.h.F.Z.C.C.5.h.h.h.h.= = , , 7 7 c c 8.c o.O.k r.<X7X1X<X1X5Xl.c 8 c c c k h h h k c , k $X<Xx.J.h.J.j.2X2X2XJ.F.W.F.h.h.F.F.D.F.0XbXqXrXiXaXaXyXW.J.R.2X1X<X| k k k p p #.n.R.x.j.x.j.j.R.R.R.R.R.R.O.O.c c v v c z z 8 8 7 8 k 4X4XH.H.R.1Xx.| 8 k o.8 k g.2X1X<X2X7X2X ., h & h z z ",
"^ ! ^ .. .O.O.@.r.@.@.@.@.;.2.5.<.4.5.2. .h 9 9 9 z 7 $X1X<XR.W.7X5Xk k h c z z z N B z c l l $XiXeXiXiXiX/.A.<.-.<.<.4.<.:.:.;.<.<.-.h.@.t.e.e.u.e.f.n.R.F.F.F.G.C.4.4.h.h.h.f.1 1 1 k 8 9 z q.A V V O.k %.<X1X3XR.1X4Xl.c z V c c z 9 9 h j j & , &X<Xx.<Xj.R.J.2X<X2XR.z.2XR.z.j.z.H.F.L.0XaX'.).eXaXaXqXW.2X<X2X4X<Xk k k l k p @.x.1Xx.z.<XJ.R.W.2X2X2X2XW.e.O.v c C C c z c 9 7 7 7 k 4X4XR.J.<X7Xk.8 6 z V z c g.1X<XR.W.rX6X| , h 3 z z f ",
"Q ^ ^ ^ ..+.@.@.@.@.@.@.@.2.5.h._ ,.2.@. .h 9 3 9 z 9 &X5XR.J.W.1X$X, h h c z d N V Z V c c l $XeXeXeXiXiX/.A.<.=.-.<.5.D.h.:.:.=.4.;.f.@.t.e.u.r.%.r.x.J.j.F.F.D.4.*.*.2.f.f.f.1 > , 7 7 5 4 Z A w V 8.k %.R.E.Y.Y.R.n.l.8.Z q.q.8.B c z x x B & & $X$Xx.2Xx.<XJ.2X<X2X<Xx.2X2X<Xx.z.J.J.L.K.eX_.[.~.).qXK.K.2X<X4X7X4Xk k k v o.8 O.$X2XJ.K.rXh.F.J.R.W.R.R.J.e.C v c C V z 9 z 9 7 7 8 c 4XfXrX2X6X7Xl.7 6 V q.8.8.l.n.R.Y.Y.7X<XT , c z x x N ",
"L L Q ^ ..X.@.@.O.O.@.@.@.2.5.j.<.1.3.f.%.v c N z z 8 5X7XR.F.W.<X$Xh h c v z d A Z y.B v c c %X/./.eXiXiX/.A.<._ -.<.5.D.D.s.s.<.L.h.h.@.O.v 8.r.O.%.x.x.j.F.W.L.5.;.;.h.z.x.x.1 , , h 3 5 4 A A w A 8.c %.v.Y./.Q.R.x.u.8.C V q.Z V x d d z x v 7 &X$Xf.<Xf.h.R.1X<X6X1Xx.7X7X7XJ.J.R.K.L.G.0X|.[.[.).eX2X2XrX,X4XhX5Xk k k O.0.8 o.z.z.a.;.H.K.K.2X2X3X2X2X2Xe.C v v B B x 4 z 9 7 6 8 c fXhXW.R.1X7XoXz V  XV V 8.u.x.E.!./.2X:X8 , c z B B N ",
"J J Q ^ ^ ,.#.: %.%.X.X.X.2.j.J.4.:.;.+...1 1 > < 1 : h.F.F.G.G.f.f.: + : O : 1  .k c 8 c k 1 k.eXeXqXqXuXrXQ.R.g.g.g.g.h.h.5.5.2.2.2.2.;.@.@.@.k.z.z.z.x.F.F.F.`.v.2.g.oXoXl.k.; : : ; 1 8 6 @ z x j v 8.t.g.n.$Xn.$X%Xl.O.v e.z z z z z x x x , , 1XR.J.L.V.S.W.h.J.3XW.K.2XW.R.J.x.J.J.R.rXHX).).iXiXHX2Xn.R.5XkXkX$X$.k k l 8 < +.K.D.G.F.G.^.D.j.6XlXlX-X-Xc o.c O. . . .. k p , , k e.#X5XfX4XOXk.@.| P < : P | %.g.&X5XjX1Xn.e.c 9 4 9 A A ",
"1.<.F.F.j.R.R.%.%.%.@.@.@.2.j.J.J.J.F.z.z.k.f.f.f.h.2.rXaXaXiXiXrXrX5.,.3.2.f.f.0.8.0.7.8.0.O.R.eXeX/.qXeXqXW.Y.R.R.R.R.R.F.F.F.W.R.R.R.R.J.x.x.k.z.z.z.x.J.J.F.5./ : k o.c k k ;.2.;.X.;.k.w.V z x c v O.r.g.g.r.r.r.r.O., & h z z z z x x x x k k kX7X3X0XT.~.2Xh.j.W.R.J.R.j.;.....X.X.X.h.6XA.G.T.F.qX2.@.@.O.8.e.e.8.O.e.u.0.+.z.zXqXtXqXeX^.4.X.;.l.i.u.p.oXoXoX$Xl.l.n.|  .k p k k O.u.oXu.0.r.f.f.f.f.f.4.f.f.f.f.t.t.p.n.g.8.c 9 9 V Z A ",
"W.K.2X2X<X7X<Xr.r.r.@.@.@.f.x.J.D.F.F.H.J.:X<X<XOX<Xz.bXbXaXaXaXrXrX5.-.4.,.2.f.k.r.u.8.u.r.@.1XeX).(.eXeXeXW.G.W.W.W.W.T.T.T.T.W.W.R.R.R.J.J.x.z.z.x.z.J.F.F.R.2.! = , 7 7 , , h.j.j.2.h.l.k.8.B v v v O.e.r.t.r.%.r.r.v & % , z z z z x x x x c k vXpXpXaXeXeXrXh.4.J.J.j.j.;...! P ! ! ! 2.R.G.G.W.J.2X@.k  .h h k c O.e.e.e.0.@.z.bXyXtXeXeXaXJ.X.+.@.8.8.y.$X&X&X4X<X<X<XX.O. . . . .O.O.0.0.0.0.a.f.f.h.h.h.h.f.f.r.r.%.e.r.%.v c z V q.@XC ",
"W.K.2X2XOX<X$XO.r.e.0.0.0.k.l.:X4.h.h.z.z.x.OX,XOX<Xx.cXaXaXqX/.rXrX5.,.1.,.5.h.r.0.u.8.u.e.O.<XVX(.(.).eXeX~.G.K.K.K.K.G.G.G.G.F.F.F.F.j.z.z.z.x.x.x.x.J.J.F.J.j. ., , k 7 7 7 2.5.2.2.2.h.f.o.C v v v O.O.8.r.f.t.t.t.8.h 3 h z z z z z x x x h 7 8X7XrXaXeXeXuXj.h.J.j.h.h.;.X.^ ! ......2.W.0X2X2X<X6X0.k c C C C 8.8.y.q.8.+. .f.rX2XqXqX0XHX2X2.@.@.r.e.i.oXOXOX$Xx.x.R. . . . . .O.O.o.o.f.f.f.f.2.;.;.;.;.;.2.2.f.r.t.t.%.O.c k c V q.q.C ",
"2X2X6X6X<X4X$X8.u.e.0.0.0.k.l.,XJ.J.J.K.:X<X<X<X<X4Xx.bXbXaXrXqXrXtX5.<.Z.<.5.j.e.8.y.8.8.8.O.$XVXeX(.eXeXeX^.G.J.K.G.G.G.G.I.I.T.T.W.J.J.J.H.J.x.x.x.z.z.z.J.J.g. ., , 7 , > , f.j.5.2.2.x.f.o.8.v v c c O.8.8.e.r.e.e.v 3 % h z z z z z z x x , , 7X7XrXaXeXeXpXR.J.R.h.2.5.5.X.! ! ^ ^ ^ 2.R.>X>X2XJ.<Xo.7 7 c c 7.8.q.u.u.oX@.@.h.cXqXtXrXtXaXF.X.X.@.@.r.e.+XOXOX<Xx.J.R.X.! ! ..X.@.@.@.o.@.@.@.;.2.2.2.4.5.5.2.2.%.%.%.%.e.O.O.c c z V C V ",
"2X2X6X6X$X4X$X8.r.e.0.0.0.k.l.:XK.J.K.K.J.J.OXOXOX<Xl.cXbXaXrXqX0X^.-.' <._ =.2.u.u.u.q.u.r.e.1XeXeXeXeXeXeX0XK.W.W.W.K.K.K.G.K.W.T.W.W.J.J.J.H.J.J.J.J.z.z.z.z.<X@., > 7 , > , f.h.5.2.2.j.f. .v v c c c o.8.8.0.8.e.e.v & % 3 g g z z z z z z h k kXpXpXaXeXAXpXR.R.R.2.2.j.j.X.^ ! ^ ^ ..2.W.K.>X2XJ.<Xo.7 8 7 8 c o.8.0.u.k.@.@.j.bXrXaXpXaXrXj.X.X.@.@.@.0.+XOXOX<Xx.x.J.^ P I ! ..+.@.@.@. .X.@.;.2.4.4.5.j.5.5.2.%.%.O.O.t.r.O.c k c c c c ",
"K.K.2X<XOX&XOXO.r.r.@.@.@.f.z.:XD.D.F.H.z.z.l.l.+XOXk.zXrXrXqX0XeXeXV.` V.<.<.5.t.u.u.y.u.u.e.5XtXtXeXtXaXrX3XW.2X2XW.W.W.K.K.K.G.G.G.F.F.F.F.z.J.J.J.J.z.z.z.z.1Xr.7 7 7 7 , 1 2.f.2.;.2.5.2...c c k k c O.8.0.u.e.e.u.8.9 3 z g g g g d z z z k k vXpXpXaXeXAXpXj.2.j.2.2.h.2.;.^ ^ / / X.5.Q.2X2X2X<X7X0.c c o.c k o.8.0.0.O.@.X.f.pX3XpXrXrXpXJ.@.@.2.%.@.r.k.l.x.x.z.j.j.! I I P P ..+.+.@.@.X.X.;.2.,.<.4.4.5.2.2.%.%.%.$.r.8.O.c c c c c c ",
"W.K.2X6X<X5X<Xe.r.r.@.@.@.f.z.J.h.h.h.H.x.x.OXOX+X,Xl.cXbXbXaXtXeXeX<.` <.` <.4.u.y.y.8.y.e.8.%XaXaXrXrXaXpX7X<X<X<X<XK.K.K.J.K.T.T.T.K.J.J.J.H.R.J.J.J.x.z.z.z.<X@.> % % % % , h.j.h.2.5.j.f.X.k k k k c O.8.w.e.8.e.e.v 3 % 3 g g g g d d z z k k kXrXrXtXqXeXpX2.X.2.2.2.2.2./ ! ! ^ ^ ^ 2.R.K.K.2XK.6X0.c o.O.k 1 | r.k.r.O.@.X.j.cXrXcXpXpXnXR.X.X.X.X.O.@.l.OXx.<XJ.J.R.../ ^ ^ I I ^ +.+.| +.X.X.,.4.4.1.5.5.5.2.%.%. . .O.O.O.c c c c c c ",
"-.4.5.4.2.2.x.<XR.n.n.v.R.3XrXaXrXrXnXcXf.1 , 8 , k 1 x.x.j.5.2.C.T.eXZX)./.uXaX5X, z z z C * , , , = $ # % & & & & & - , g.2.f.:.>.>.:.tXaXaXaXbXMX2Xa.0.0.8.0.o.o.| | | ..! ! O.O.%. .X.X.X.3X1X6X7X5XfX&Xc h v c c h h 7 7 7 h h h c v v D D c k k ! W K K I ~ - : - = : = | 1XR.R.j.j.F.0XaXSXqXaXQ.sX^ P ! @.@.@.X.2X2X2XW.2X2Xx.O = 1 - - .  .g.j.f.5.h.:.o.k o.1 < = P rXuXbXbXnXaXqX^ I X.! X.^ 5.iXuXeXaXuXpX2.. # , , 1 , x.$X1X<X<X:X<X",
"-.<.C.5.2.2.g.n.R.v.j.j.R.W.qXuXuXrXpXpXf.p 7 7 , k 1 x.<XR.J.F.D.T.).)././.uXaX5X7 z 9 3 v , l , , , , , h h h & & $ $ , l.g.x.D.D.D.C.aXeXrXrXyXzXJ.@.+.0.o.0.+.+.o.o. .| ^ ! 0.0.r.@.%.%.#.1X:X<X7X4X5X%Xv c 8.8.v c c k 8 8 , , h h h x x C c k | ! ! ! ^ ^ l - : - - - = | n.J.j.5.5.F.3XaXiX/.sXuXGX,.^ !  . ...| R.J.J.J.2X<Xx.= - 1 - - -  .x.g.f.h.h.4.o.8 o. .| ; P rXbXnXbXaXrX2XI I  .! ^ ! 2.qX/./.aXqXpX2.- 1 k k , , g.x.OXOX:Xz.x.",
"<.<.C.5.4.2.3.j.R.R.Y.v.Y.W.rXiXaXrXaXpXf.1 , , , 7 , x.x.J.J.j.D.G./.).).iXsXGX$X7 h 7 3 v h k # $ & , h h h h s & & # - g.f.x.C.C.C.4.tXrXiXaXrXcX<X@.@.0.0.r.0.0.+.+.| ^ ! ! 8.0.r.@.@.@.@.1XJ.:X1X$X5X$Xv c v v v c h 7 7 7 & & , h h c v D c c  .^ ^ ^ ....l - : - - , -  .n.J.x.j.j.J.rXbXiXiXsX/.aX,.! W 1 ! ^ ! F.R.W.W.<X1Xx.= - p , , , O.g.g.f.f.h.4.O.8 c O.@.1 ! cXpXnXpXaXrX2X^ ..| 1 ! ! 5.aXaXiXnXuXpXf.- , , 7 , > g.x.x.x.J.x.x.",
"<.<.<.<.2.6.j.v.n.v.j.j.F.W.qXuXuXrXaXpX2.1 8 k 7 k , g.x.z.j.j.;.L.0XeX/.qXuXnX<X8 8 c c v , i & & , h h s s s v h i & , g.f.x.:.:.:.:.rXrXrXrXpXbX1X@.@.0.0.0.0.+.+...! ! ! P O.O.0.O.O.O. .E.K.R.<Xx.<Xl.k k v v c k h 7 7 7 & , , h k v C D v v  . ...X.X.X.l , , , , , , O.x.x.x.x.x.R.rXbXAXuXqXW././ K ~ ! ! ! ^ W.W.T.T.1X1Xx.# , k 7 7 7 8.l.k.2.2.4.4.e.h c O.O.k  .vX6X7XpXpXrX7X.... .P ^ ! 5.aXaXiXpXpXpXk.= $ % , , , x.x.R.J.R.x.F.",
"<.-.=.=.,.j.n.R.n.g.j.j.F.E.3XuXuXuXnXpX@.= 7 c 8 c 8 l.x.J.J.R.;.J.aXaXqXW.3XpX8Xk , c v k , , i i h i h t & t c h , , - j.f.z.C.:.:.:.aXaXaXrXcXbX1X@.@.O.o.O.o.o...^ W W P P O.8.u.8.8.O.X.3X2X2X2Xx.<Xg.k k O.O.v c k k 7 7 , , , h k c v v v v O. . .X.X...v & , , , 7 , O.x.x.x.x.z.J.3XrXaX/./.qXuXX.P X.X.^ ! ! W.T.F.Z.<X<Xx.$ , k h z c u.$Xl.k.h.h.h.u.c c c O.k O.vX1X7XpXcXpX3X! P @.| | ! 2.rXqX0XpXpXMXx., % , 8 , , x.x.J.J.J.j.F.",
"1.<.-.-.5.j.n.n.1X<X<XR.<X3XpXnXPXnXnXrX@.= % , 7 8 > f.x.x.J.R.h.W.uXsXaXpXbXMX1X1 # > > , , , 1 - - # # $ , , $ # # = ; h.;.4.>.>.:.4.aXFXGXGXbXMX6Xf.r.e.8.e.| | ! Q Q Q ^ ^ 0.0. Xq.u.0.%.1X0X2X2XJ.R.x.k k v v c k h 7 , , , , , h h k l k C v O. .! ! ! ! v 3 h 3 7 h 7 8.<X4X1X<X<X<X7XrXaXaXuXaXpXf.! X.! ! ! ^ K.K.K.K.<X<Xn.% 7 c z z q.oX&XOXf.h.h.h.y.C v h c k O.5XvXNXMXMXcXrX.... .|  ...j.bXaXaXNXcXMX$X8 7 7 3 , > l.x.x.j.F.5.Z.",
"C.4.4.j.x.x.f.@.l.l.f.f.k.x.<X7XuXR.R.R.f.@.0.O.u.u.o.OXOXx.z.z.K.J.F.F.R.W.1X1Xf.@.@.O.c O.r. .: : O O = p  .%.|  .+.....L.:.-.>.C.D.C.^.W.0XrX2X7Xx.O.O.r.8.e.o. .^ ( _ _ ;.2.o.8.q.q.q.O. .R.T.W.W.J.2X<X@.r.e.$.O.O.v k k k O.O.O.O.O.v v v C C v l p u 1 < C s h 3 9 z 9 8.$X$X<XOXl.z.x.:XK.3XR.x.J.x.f.g.@.f.h.2.W.J.K.yX<X<Xn.& h c N N N y.oXe.o.+.;.;.Z C D j v v k t.<X1X<X<XR.<X..X.O.| | P 2.3XW.W.<Xx.<Xr.k V c 9 c k <X<X3XW.Q.Y.T.",
"D.D.H.<X<Xx.O., , > % # > 8  .+.W + : 2.<XkXBXmXBXBX4XmXgX6X<XJ.7Xh.P + + : =   ;.7XMXmX7XvXmXR.;.X.^ ^ X.g.1X8XpXpXpXqX^.aXG.A.G.0XqXC.4.K K *...@.! . = 7 7 k +.@.X._ ] <.4.j., 8 V 9 9 8 1 j.L.F.W.F.6X6Xg.x.%X%X%X$Xl.l.l.k.g.g.l.t.r.r.r.e.y.C v k p : : = D s h h 9 z 9 8.0.0.0.+.| T | +.< @.T = | 4XNXMX7XMXHX2X2Xs.h.K.$X$Xl.& h B N B 5 N 8.0 > < P P x D y.v v 8., k - 1 = = 1 X.= | @.| 1 o = ^ : o 1 = 1 1 c oX.Xq.0.0.kXcXpXuXaXuXeX",
"D.h.J.J.k.x.l.k & & 3 3 s j B C v C v O.$XvXpXrXrXaXrXK.K.K.2XK.K.H.= > 6 9 9 z ! uXiX/.iXaXqXh.< +.+.^ *.W !._.|._.iX).AXG.W.K.z.2X2X2X@.0.0.k.c c j h z z x x 0 @.2.] ] S.<._ ! , 7 7 9 , p 1XY.E.Q.Q.W.R.F.j.R.J.J.j.h.h.f.f.5.4.2.;.@.r.r.u.e.u.h & h y a a x x x x g g x D y.y.u.u.y.y.8.C H H D v = 2X^.^.(.VXVXtXh.j.h.<Xn.l.*Xh & p.D p.B B N B B B B B C v c c O.C z d S N f B x z O.1 v v 8.C x x B B x z x C y.i.e.e.X.X.uXuXaXiXiXiX).",
"D.D.J.J.x.$Xl., h h 7 h h v C C j v h k $XcXpXrXtXaXrXK.K.W.2XK.K.H.= > 6 9 9 8 ( uXiX/.iXaXqXD.T +.T ; P J !.iX).~.)./.iXF.J.J.2X2X<X1X@.0.@.@.o.c k h h z z x q +.5.<.] S.1.,.p , 7 3 9 , p 1XE.W.Q.W.W.R.F.h.J.F.F.j.h.f.2.2.4.2.;.X.@.@.0.e.e.r.i & a y i y f x x g s s z C e.e.u.u.u.e.8.8.G S x v , rXtXAX(.wXeXaXF.J.<X7XkX5X5Xk h p.x x f f f x x j j z C v c c O.v z d B B f B x h O.1 k v v x z d x B d z z C y.t.y.e.X.X.3XuXaXaXaXiX).",
"D.J.J.j.j.<Xg.$ h h h h h c v 8.O.O.k  .<XbXuX0XeXaXrXW.J.W.2XJ.W.J.> > 6 7 3 7 / uXiX/.iXiXqXD...+.+.I P W T.iXiXqXiXaXaX2X2X2X7X1X<X<X@.+.+...O.O.o.k c j x B 7 +.j.5.1.1.1.1.p , 7 3 9 , , $XQ.3X3XW.R.J.F.j.J.J.L.F.h.h.4.4.5.5.2.;.@.@.r.e.e.r.7 & h & t t h j j h h h c C 8.e.e.e.e.8.O.O.S D v v 1 3XtXFX^.^.eXtXD.H.<X<X7X$X$Xk h y.z h d d z z z j z z B x c c v v j s x B M S x 9 o.1 k v v v j z z B d s z C e.u.r.e.@.X.rXpXaXaXaXrXeX",
"j.J.J.h.j.<Xf.= - - - - , , h k k k 1 P R.bXaXqXeXiXqXW.K.W.2XJ.2X<X1 7 7 7 & , X.uXuXqXiXeXeXG.K ^ ..I P ^ R.aXuXrXpXpXcX6X2X7X7X7XgX2X..< ! P +. .| k h h z j 7 O.g.j.5.6.2.2.p , 7 7 9 & , $X3X3X2XR.R.J.F.F.F.F.F.D.5.5.4.4.5.4.;.;.@.@.@.0.e.u.7 & h & & & t h h h 7 7 k c O.0.0.r.0.O.O.o.e.v v k 1 <XrXbXaXrXbXaXH.j.K.z.R.j.f.p , v 7 & s s h 9 7 7 7 7 B c k c o.c z s d f f D z 7 O.1 p k O.v k h h j h h h v e.u.e.8.@.@.rXrXaXtXaXeXeX",
"j.R.F.2.j.R.2.! : ; = = = 1 1 1 1 P : I F.aXZXeXeXeXqXW.J.W.2XR.<X<X8 8 8 c 7 , 2.uXuXqXiXeXeXK.L L K K : @.R.bXcXpXpXmXcXkX7XkXgXfXgX<X@.P I K ..^ P 1 , , 7 9 c O.r.g.2.#.#.2.h , 7 7 h 7 7 %X1X<XR.R.R.R.R.J.h.h.D.5.1.<.<.<.1.<.,.X.X. .o.o.u.u.8 7 j 3 h s $ , k k , , 1 k O.@.@.@.+.O. .| k , k | k <X7XcXcX7XcXrX<XJ.2XJ.R.J.x. .1 8 , , 7 9 8 7 7 7 8 8 C v c o.O.O.c z s d f S z 7 r.@.p |  .O.k 7 , 7 j h c O.r.r.0.O.@.+.7XyXtXtXtXeXeX",
"5.F.5.2.j.F.5.4.j.h.5.2.f.h.j.z.j.R.h.4.^.ZX).(.).eX).T.Y.W.3XR.1X1Xk c c O.k k f.uXrXeXiX).eXK.A.S.Z.F.4.J.h.OX5X&X$XkX5X&XoX&X=Xu.r.0.J.J.F.-.C.5.4.;.@.O.8.8.e.O.O.8.%. . .@.h 7 h h c h h &X<X<XR.J.R.W.W.W.2X2XW.W.~.~.~.~.~.W.F.F.h.k.k.k.u.l.c z v z z z |  .%.@.@.@.@.@. .@.@.@.@. .| | | :  . .| g.x.$Xl.l.x.k.J.j.J.J.J.J.J.f.@.@.@.r.u.r.u.r.r.0.f.a.8.C o.O.@.8.v j g x f B h k x.x.f.g.n.n.f.O.O.v v v c O.@.0.O.| +.+.yXyXtXeXeXwXeX",
"3.j.2.,.5.4.1.Q.aXaXrXrXrXrXpXbXaXGXaX^.eXVX}.}.).).).T.Y.W.1XR.1X5Xv 8.8.e.O.O.h.pXrXeXZX).(.^.|.).iXaXuXcX0.o.v c h e.v v h v 8.c 8 | cXbXeXqXeX^.W.K.J.OXOXOXoX8.h k v k k k c h c v O.c c -XOXx.x.J.R.2XrXrXtXtXtXiXiXiXZX|.AXiXqX2X<XR.<X<XoXoXc z Z N V B %.f.x.x.h.k.h.h.+.+.X.X.+.| ..! *.K @.X.| O.O.O.h O.O.k x.f.:.D.D.D.h.h.j.z.<X<X4X4X4X4X1X1X<X1Xy.8.O.+.0.r.8.v g x d x s v 5XpX3XpXcXpX<Xg.t.r.r.O.O.O.@.@.| 1 ....yXwXeXeXeXwXeX",
"5.3.,.,.4.=.1.aXaXaXeXrXrXrXtXaXK.eXqXP.(.).}.{._.).).T.Y.Q.1XR.%X5XO.8.u.u.r.%.z.pXrXeXZX).(.(._.U.T.qXrXMX0.o.C C c i.8.8.c 8.Z y.o.| bXaX/.eX).(.^.K.J.OX+X+X*X8.3 9 c h h k B j v v e.v v -Xl.l.x.z.R.3XuXaXyXqXqXeX).).).).iXqX^.W.J.z.z.z.oXoXC V q.C A A  .@.f.f.f.;.;.;.....+.+.+...! P I + +.X. .O.v c C i.r.k <Xh.:.L.I.D.:.h.H.J.J.x.<X<X<X<X<X<X<X<Xu.e.0.0.f.r.8.v z x d x s v kXMX3XuXpX7X<Xf.O.O.r.0.O.+.+. .P ; ....0X0XeXeXeX(.eX",
"=.=.<.1.<.-.F.aXaXiXeXrXeXeXiXiXeXeXeXeX).).(.(.AXiXqX3X2X<X1X1X#X5Xk 8.r.%.X./ 4.bXrXyXtXeXeX).).).iXaXrXBXu.c y.y.q.Z Z Z C Z A q.o.| cXtX/.).(.(.P.G.D.D.H.H.=Xe.z z N x z z C v h i k k O.=XR.R.J.J.R.2XqXyXeXeXeXeXeXeXeXeXAXiXqXW.J.F.j.j.x.n.8 c C Z c c P J.F.<.<.4.h.;.K ^ *.;.X...! P I I !  .O.D D F D e.v  .z.h.:.4.:.>.:.F.J.j.x.<X1X1X2X2X6X6X6X6Xu.e.r.0.+.r.u.c s 3 d s h o.cXbX^.qXaXaXW.X.X.f.@.@.@.| | @.@.| ..K tXaXG.eXqXiXeX",
"-.=.<.1.<.-.F.aXrXrXrXqXqXqXqXqXtXtXeXeXeX).)._.eXqX^.W.R.R.n.$X5X5Xk O.r.g.2.,.;.rXrXrXbXqX).~.~./.iXbXcXMXk.o.y.y.8.8.C C C C 8.8.c | cXaXqXeXVXeX^.K.D.D.z.z.%Xe.z z N N z z e.e.l k O.O.8.&Xz.z.j.z.J.W.qXrXeXeXeXeXeXeXeXeXaXeX/.T.F.F.j.j.n.n.k c C 8.c c I F.F.<.1.5.5.;.I ^ ..+.X.X.X.@.^ ^ |  .O.C D D e.t.$.@.x.h.:.:.:.>.:.F.R.x.<X1X<X<X<X<X:X:X:X:Xu.0.r.0.@.r.r.h z h x z c O.cXbX~.0XaXaXW.2.X.f.@.@.@.| P  . .| K ; qXaXW.iXqXqXeX",
"-.<.<.1.4.-.F.qXaXaXaXaXaXaXaXaXrXrXrXeXeXeX).).aXeXqX3X2X1X5X5XkX5Xo. .X.;.^ ! H.bXbXMXHXaXiXqX).iXaXGXcXcXa.8 8.8.8.8.O.c c c 8 8 , | cXGXbXSXCXeX0XK.J.H.z.z.$Xe.h z N N z z v v p a k p o.oXh.h.j.F.J.W.qXrX).).eXeXeXeXeXeXeXeX^.W.F.F.j.j.R.<Xk c v O.c c ; 5.<._ =.=.;...K P K P ! ..|  ...+.X. .O.O.D D k v k  .f.h.4.D.4.:.4.z.R.R.<X5X1X1X1X4X4X4X6X6Xr.0.r.@.+.r.e.h z z x x c O.rXbXeXtXaXrXJ.X. .X.@.r.@.| p | | p ! ! uXGXuXnXaXaXeX",
"<.<.<.<.-.4.F.W.pXaXaXbXpXpXrXrXcXpXpXaXaXaXiXiXeXrXqX2X1X<X5X5X4X$Xf.2.2.,.*./ 2XrXrXcXcXrXuXuXiXaXaXaXuX7Xh.@. . . .k k 8 , , k k k @.6XrXyXtX0X2XK.K.J.H.j.z.n.e.h z V N z V k  .p p ! p  .l.R.J.R.W.W.W.^.0X^.^.^.).eXeXeXeXeXeX^.T.T.F.F.F.W.<Xk k c O.k l ; 5.1.-.<.<.4.*.I P ! ! ..| ! 1 |  . .k O.e.t.y.c O. .@.2.4.4.h.h.h.h.h.k.g.l.$X&X&X4X4X4X4X4X4Xe.O.@.@. .@.0.7 h h j z k k 6XqXeXeXtX0XF.2.X.X.f.g.f. .p |  .| @.X.3XuX3XpXuXuXuX",
"<.1.4.4.;.4.h.h.j.j.z.x.x.k.f.0.@.@.@.@.;.;.-.-.h.h.2.2.%.r.r.u.0.k.W.3X!.W.W.W.<Xf.0.f.f.f.g.R.3X2XW.2XrX3XqX2X2X2X6X2X<XJ.l.k.g.x.g.k.z.z.a.z.z.z.h.z.x.x.J.J.n.%.h z V N N V g.g.f.2.j.f.x.7XrXrX0X0X/.^.~.~.~.~.^.^.qXeXeXeXCXtXeX0X^.^.^./.qX3X^ | |  .k  ./ W./.!././.0XF.5.4.h.j.j.f.| 1 , k k k v i.#X#X$Xn.x.x.h.4.4.:.j.j.f.@.O.O.O.8.8.e.8.e.0.0.0.0.e.O.@.@...@.O., s s z h h , J.J.C.F.W.J.F.j.x.x.l.$X$Xr. . .O. . .l %.%. .#.#.#.X.",
"<.5.5.;.;.4.4.;. . .@.@.O.o.8 7 k k k | | | ........! ! k k c v | @.uXiX)./.qXeX:X1 < 8 8 k  .g.7X2XR.R.0XW.aXaXqXrXrXrXyX2XJ.z.v.E.R.x.@.+.+.a.9.0.a.z.x.J.R.Y.R.%.k c V V V V <X1XR.E.3XR.2XMXaXaXiXiXeX^.~.G.K.~.^.^.0XeXeXeXAXtXeXeXeXeXeXiXuXqX^ ! |  .|  .*.qXeX).iXiXiXW.F.F.F.R.R.j.| = % h k h v #X5X&X<XJ.<XJ.f.;.h.:.z.x.f. .p k h h h h 7 h h 8 8 8 O.O.@.+.| @.O., & & h h , - h.h.-.C.F.h.F.R.1XR.$X5X5Xk.O.O.O.O.c h h t & i i a k ",
"4.h.h.;.;.4.;.+. .@.r.e.8.7.0 7 , , 7 p k k | ........k k k v v | ..eX)._.~.^.^.7X1 8 c c k v b.cX7X<X2XqXC.qXeXeXiXaXaXtX2XK.H.5.R.x.J.@.0.9.d.9.0.k.l.x.R.R.Y.R.%.k c V V V V R.R.R.W.Q.R.W.bXeXiXiXeXeX^.~.G.G.G.K.^.^.qXeXeXtXtXeXwXeX).eXiXiXuX^ ! !  .! ~ / /././.iXiXeXW.J.j.h.x.R.j. .= 3 x v h c #X5X<Xf.2.j.z.;.;.h.4.k.k.@.8 , h h 3 h h h h h h k k O. . .| ! O.O.& t h j h , = h.4.-.C.F.5.j.R.<Xn.$X5X5Xl. .k  .O.B B f d j h j j h ",
"4.F.h.;.;.4.;...@.%.r.u.u.8.z 0 h h k k O.O.@.@...| | k k c v C | P qX).).).ZXAX7X1 8 8.8.v v #XfX4X<X2XrXC.eX).~.^.).qX0XK.h.:.Y.E.j.J.+.0.9.9.w.k.+XOXR.R.v.j.R.%.8 c V V V V J.R.Y.T.W.F.W.bX/./.qXeX).^.~.P.G.G.K.^.^.qXeXeXwXwX0X^.^.).).).iXuX^ ! !  .^ ~ / qXiX).ZXiXiXW.W.J.j.x.R.n.2.| s D C h c l.1Xn.z.h.K.K.;.;.h.4.f.f.@., , h j h h z z z z z z z O. . .| P  .O.& h h v h h - h.4._ <.<.4.j.3X3X<X$X5X5Xg.k k k k B B f B D B x x z ",
"5.4.4.4.5.2.X.X.O.@.t.u.u.8.z 9 z z j k k l  . .$.$.O.O.v v v v l  .nXiX).).).ZXn.p l v D  X X XgXgXgX2XK.K.0XeX(.wXeXtXrXh.x.x.m.v.g.$Xo.d.w.9.9.R d.:Xx.j.j.2.-Xe.h k O.v k p j.R.F.F.3X2XW.aXT.0XW.0XFXtXK.K.G.K.W.W.0XrXaXpXeXeXeXeXeXeXtXtXqXuX^ / ! ~ W ~ | bXaXrXiXSXSXY.W.F.4.f.x.l.0.k , k p k = j.2Xj.R.R.W.R.j.f.f.j.l.OXr.# k , i a 3 s 3 h 9 9 9 w  .| l O.$.O.l i i & , , 1 : j.2.4.4.5.h.F.J.K.R.<X6X1Xx.O.k k O.Z C C c c z c c 9 ",
"F.h.5.j.j.j.2.%.@.r.t.u.u.8.B x z z j h k k l l O.O.O.v c v v x k  .nXiX).).).ZXE.p k e.e.y.y.oXkXkXgX7X2X2XqXaXeXeXAXAXaXj.R.n.n.v.g.n.+.d.0.9.d.a.z.:Xz.n.R.g.jXi.c k k k p k F.W.R.J.3X2XW.rXaXGXrXqXaXtXK.K.W.W.W.0XqXrXpXpXeXeXeXeXqXwXwXyXbXaXX./ W ! W / X.pXpX3XuXuXiXT.W.J.F.R.7X<Xk.O.O.O.p p = j.3X2Xj.j.j.j.2.@.;.f.f.g.r.= k , , , h h h z z c V V  . .k O.O.O.k h h & i , 1 1 j.f.4.4.5.F.F.J.K.K.<X1X<Xk.| , , k c c h 8 7 7 7 7 z ",
"j.h.h.j.j.j.2.@.O.O.e.e.e.C z x x z j h k k k k k k k c h j z j k  .bXtXeXeX).iX3Xp p e.e.e.8.oX5X5X4X<XH.K.0XeXeXeXtXaXaXh.x.j.1Xn.g.x.@.0.+.R a.9.d.k.k.n.5X1Xi.e.v O. .k k  .W.3XW.W.3X2XW.W.aXaXyXW.yXyXK.2XL.L.K.W.2X3XrXpXaXaXaXaXaXtXrXzX2XW.X./ ! ! ! ( x.cXpXrXpXuXaXiX4.;.2.j.R.x.0.| 1 - = : O X.h.F.R.R.W.R.z.f.h.x.k.l.k. .O.k , , , , 7 8 8 8 0 0  .k k l v v h h h & , , 1 1 z.h.5.5.h.F.J.J.K.K.:X<X<Xk.o.8 k O.O.l k i , , i i k ",
";.;.X.@.2.%. .k k k c c c j s 3 x x j h h k p p k k k h h j z z k  .bXtXeXeX).AX3Xp p $.e.8.O.k.l.l.k.f.;.;.D.K.G.K.W.2XW.X.2.@.@.X.@.f.k.x.:XOX,XOXf.o.k c O.v O.t.&X5X5X<XR.<X3XrXqXW.0X0XK.D.j.h.;.;.h.K.yXtXtXqX0X2XF.*...X.X.+.+.+.+. .o.o.1 | ! X.X.~ ! W 8  .! ! | W ! 2.rXrXuXbXMXMXpX7X3X2X2XrXR.h.;.*.! ^ | ! < = = 1 1  .0.t.l.n.n.l.&X&X&X&X4X4X4X4X .k k k v c h h h & , , 1 1 x.j.Z.F.F.F.J.J.K.K.J.<X<Xx.k.k.x.$Xg.%.%. .| |  . . .",
"@.+. . .@.O.k 1 8 8 z z z h s 3 x x z h h h i i , i h h h z z x k  .bXtXeXwXeXVXR.^  .O.v r.O.@.8.@.@.@. .+.:.D.h.F.F.J.F.! ..! ! ! ..@.J.2X7X7X6X4Xf.8 % & 3 % , e.5X7X1XR.R.2XqXiXaXrXqXqXK.>.@. .| +.;.F.yXbXFXaXrXqXh.P = ; k k k k 8 8 8 8 = = | | X.^ ! P k 1 , , 1 = + 2.aXuXrXrXaXbXaXpXtXrXaXbXrX;.; O ! |  .! 1 - - 1 # , O.l.&X5X5X5X<X<X1X1X4X2X6X6XO.k h h k c h h h & , - , 1 R.R.F.L.F.J.J.W.R.W.2X2X2X<XJ.<X1X7XR.j.2.X. .X.X.#. .",
"0.+.@.@.0.8.v k z z z z z z x x N x z z h 7 , , , , 7 h h z x x k k bXtXwXwXwXCXR./  . .l %.X.X.O.%.@.@.+.@.z.J.j.x.J.J.J.! X.| @.+.+.+.<X<XR.J.x.1Xt., 7 c B B O.$XkX7X<XR.3XrXqXeXaXeXqXtX~.) 0.+.+.@.+.h.yXbXtXyXrXrXJ...P +.k k k k h z h h O.k 0. .! ! ^ ^ c 7 , , 1 = O 2.nXaXuXrXrXaXaXFXqX0XtXeXaX4.^ ! ! | | ! 1 = - , , , O.$Xl.$Xx.x.<X<X<X<X<XK.2XW.O.k i h h j h h h & , - , p <X<XK.K.W.W.W.R.W.W.yX2X2XJ.x.z.x.x.R.j.2.~ ! ! ~ X.~ ",
"f.0.0.0.u.e.O.c z z z z z x x x N N z z 7 , , , , , 7 h z z B N k | cXtXwXwXwXVX3X^ !  . . .| X.r.r.r.@.@.f.z.<Xx.x.R.R.J.! X.^ ..T ....2X2X2X2X1XcXx.h 9 N N f 8 k.1XJ.h.j.J.W.qXrXaXaXeXSX^.I u.0.0.a.+.h.qXtXbXtXbXbXK.P ; ..c v v v z z z z 8.7 t. .1 P ^ ^ 8.8 c 8 k 1 = f.aXaXaXrXrXeXeXeXCXAXAX^.eX;.I K p |  .| 1 - , , $ $ k $Xg.$X$X<XJ.J.J.K.J.K.K.K.v k i & h j h h h & , - , p 6X3XW.W.W.W.W.W.W.W.qX2XK.H.z.x.x.z.R.j.#.! u W ^ X.^ ",
"0.0.0.0.e.e.8.c z 9 d s h z z x N N z d 7 , , , , 7 8 z z z B B 8 | cXtXwXwX(.tX3X! p O. .| ! X.$.r.%.@.+.f.x.<Xx.x.x.J.x.! ..! +.+.+.T 2X2XR.R.n.7Xl.7 h B B m > f.1X2XR.W.2XW.0XqXSXaXeXFXwXI w.o.0.0.+.h.qXrXyX2XyXrXH.P ; +.x x x x z x N x 3 @ e. .| P ^ ^ 8.8 c 8 k 1 # %.uXuXaXaXeXqX^.^.(.VXAX^.tX4.^ I !  . .| 1 , , 1 j i O.5Xg.$XOX$X:X:XK.K.K.K.K.K.v k , & h h h g h & & - , p 6X3XW.W.W.W.W.W.W.W.2XK.J.H.J.J.<X:XE.j.#.! W ! ~ X.^ ",
"@.+.0.e.8.y.F 3 d d x z 3 j v 7 z z 8 7 , , - - : 1 1 > & z c 9 >  .yXFXAXAX0XaXR.!  .%. . .! X.u.0.0.0.e.l.l.$X&Xr.n.k.J.@.+.;.+.+.|  .1X7X1X1XjX5Xu.7 3 x Z A P +.z.2X2XW.W.W.qXiXrXrXaXaXJ...q.u.8.+.o.z.nXbXFXtXrX2Xh.P ; < B B D s 5 B B F z % O.! P K ^ I 8.k , 7 7 , k 0.tXrXrXqXqXeXiXAX}.(.wXAX0X<.^ ^ X.X...! p : - = = = k g.$Xx.x.&Xz.:X2XW.T.T.T.~.e.h j j j h & a , p # = - 1 n.7XR.<XJ.j.J.3X3XR.2X2X2XR.J.H.j.h.v.v.~ p  .|  . . .",
";.@.f.t.e.i.y.s x x x j 3 v e.c 9 9 7 7 , 1 : : ! ..k , , c c z 8 @.2X0X^.wX^.tXj.p k  .k p u ^ 8.8.O.O.8.e.t.l.1Xl.$Xf.f.@.| +.+.+.@.@.x.n.n.$X*X*Xl.v h x x 4 | @.z.2XW.R.Y.Y.qXrX0XqXaXaXW.;.q.y.8.O. .h.nXbXaXtXrXqXJ.;.+.@.y.y.XXx 3 B B B c 7 r. .^ ^ _ ) o.7 , 7 7 , 8 O.rXrXrXyXrXeXiXAXeX(.(.wXG.=.K K ! ! ! 1 : : = + = = k f.n.n.$X5Xk.z.J.G.G.Z.G.G.b h j z z h & l = p , k  .O.<X7X<X2XR.J.<XrXpX3X<XR.R.K.J.H.H.H.n.R. .p  .|  .O.o.",
";.;.k.f.r.i.p.h s s h h h t.5X&XfXgXgXkXcXcXcXaXrXpXrX<X$X5XfX&Xl.x.2XJ.4.4.:.J.g.- , k i , = ! c c c c c O.e.e.k k O. .@.<XJ.6X2X2X2Xx. .1 , , h v 8.8.e.u. Xy.+.f.J.<XR.F.F.F.^ ^ ! I ^ X.! O 8.8.o.o.| f.aXaXeXeXtXrX2Xh.h.z.=X#X=XC d B d x C h l.%.;.=.-.-.4X$X$X4X4X$X$X4X+.+.......*.=.=.-.-.-.C.Z.C.4.C.h.h.h.5.2.2.2.2.j.f.f.f.f.@.O.@.a.f.h.F.1.1.1.Z.v t h h h h ,  .f.x.g.g.%.| @. ...X.....;.j.J.h.J.J.J.J.K.K.K.K.$X$X .k O.k o.o.o.",
"4.4.h.j.t.l.t.j x x j h h u.5X4X&X&X<X1X3XrXuXaXuXuXrXR.x.<X$XOXn.x.J.h.:.:.h.K.f.- , h i , - p k k c c c v v C h v k k 1 1X<X7X3X<X6X1X, % , % 9 z C e.u.t.u.e.@.k.J.<XJ.j.j.j.X.^ ! ! ..X.X.! C Z c c 1 2.uXrXeXeXeXaX3XH.z.R.&X&X&X8.h x d x C h l.2.,.-.<.-.g.g.x.$X$XOXl.OXa.@.+.+.*.=.;.4.-.-.-.-.<.<.C.Z.4.4.4.5.5.5.3.3.n.j.f.%.@.O.O.0.0.a.h.5.4.<.4.5.j & h h h k p %.h.x.x.z.f.X.| ! ! ! ! ! @.j.J.j.j.H.H.J.K.R.2X2X<X<XO.c O.c c c c ",
"<.<.5.j.f.l.t.h v j h & , r.<X$X<X<X1X3XrXrXiXiXiXiXqXR.J.<Xx.x.b.m.n.F.F.h.J.J.k., 7 j h , - p k c c v v v B B v y.v k # <Xz.K.J.h.x.<X, h C z C C 8.e.e.@.O. .d.k.OX<Xx.j.j.j.^ ! : p ! |  . .V Z c k 1 ;.uXrXeXeXeXtX2Xj.h.J.OXx.OXO.h j z x c h l.2.2.<.<.-.f.z.J.<X<X<XOXl.0.@.+.+.+.X.;.;.F.F.5.4.-.-.-.>.=.=.=.-.-.4.4.4.2.2.@.X.@.@.k.k.0.f.h.j.4.4.4.5.j & h h , , p 2.;.;.2.2.2.2.X.X...X.....2.R.2XR.h.h.H.H.K.2X2X2X5X5X8.c O.c c c c ",
"] ] 1.5.2.g.t.k h & , & , r.5X1XR.R.W.2X0XeXiXiX/.).~.Z.5.j.j.f.m.1Xn.R.J.j.J.x.l., h x h h , k k c v v C C B B z C c k , 1X<X6XW.F.x.<X, c z 3 N N V 8.r.@.@.2.f.k.x.x.x.j.j.j.X.! !  . . . .@.C Z c k p 2.uXqXeXeXeXtXW.h.5.j.z.j.x. ., c h x h , g.2.<.<.<.-.2.h.J.z.z.OXl.k.d.0.0.0.@.f.f.f.4.h.5.4.4.C.C.V.-.<.V.V.C.C.Z.Z.5.j.2.X.+.+.0.7.0.f.x.j.3.5.3.5.j t h 7 & - P 5.F.4.4.;.;.;.I I P ! ! ! X.j.J.j.h.j.H.J.K.2X2X2X5X5XO.v O.k c c c ",
"` ' <.<.,.g.r.k l h k , , %.$Xx.J.J.F.T.W.~.~.).).)./.G.F.J.R.F.M.n.3.j.R.x.7X4Xi.3 h x s 3 & k k c v v C B N N N C C v k <XJ.2XT.Y.j.1Xh C N N A N C u.r.X...*.0.k.l.x.x.x.x.R. .p k O.O.k k O.A Z c c p 2.uXuXeXeXeXiX0XF.j.J.F.F.x. ., h s z h , g.3.4.<.V.-.4.F.J.j.z.<X<Xl.w.w.w.0.0.0.f.f.2.j.j.4.-.<.-.) -.-.-.-.-.<.<.<.,.4.2.X.@.0.0.7.8.r.g.j.3.2.3.3.j g j h $ = : 4.h.=.4.:.4.4.^ L ..X.....;.J.R.j.H.H.H.K.K.R.2X2X5X5X$.l O.k k k c ",
"' ' ] <.,.3.%.i & & i p k g.7X6XW.W.W././.)._.).).).).G.G.W.W.J.%X1X3.j.j.k.<XOXu.3 3 x s 3 & k h k c v B B z d z C C O.O.1XR.6X!.3XR.5Xh N 4 m m 4 V u.f.X.^ _ r.k.x.x.x.x.n.R. .l  .%.%.k k O.Z F B v k 2.iXuX)./.eXaX0XJ.J.2XK.J.J. ., h s g h , l.j.5.V.C.<.4.F.J.j.j.<X<Xl.w.w.0.0.0.a.f.k.;.j.j.2.-.<.-.) V.V.V.V.<.-.<.<.,.5.5.X.@.0.0.o.8.e.f.3.2.,.2.3.j g c h # = : 4.D.;.F.5.D.D.L K ..X...| ;.j.J.j.H.H.J.K.K.K.K.R.1X1X$.l O.k k k k ",
"r.r.%.%.r. . .g.X.X.|  .2.#.X.j.n.$Xg.f.1XvX7X6XrX3XpXg.f.l.l.#Xi.t.t.t.l.l.l.k.0 7.c 0 o.| P +._ <.=.X.@.g., , h c k k  .g.<X<Xj.J.j.*.4.^ ^ ^ +.z.a.+.%.r.%.%.v.g.g.f.r.t.k.l.v v v v v k k k h k h k p %.8X5X3XQ.Q.W.T.T.G.G.F.j.h.2.@.@. . .o.u.c r.k.k.r.r.#Xt.t..Xi.r.t.b.X.=.,._ _ =.4.j.J.F.h.h.h.h.h.j.J.F.J.qX^ ;.;.;.) L ) -.<.-.-.V.<.<.<.<.<.<.<.<.P I ! P : < ..+.z.z.J.H.h.h.h.h.X.,.3.j.h.f.k.x.x.<X<Xg.2.f.g.j.v.j.2.X./ / / X...",
", k k k O.k  .n.$X<Xn.x.g.! O = # , = - 2.<X<X<Xj.f.j.1 = $ $ $ & & & & , , , > 8.k.k.f.k.f.2.J.iXSXaXpXpXvX| - h k , $ = k  .| ......*.rXbXFXaXbXbX<X@.@.%.O.%. . .k k k k c c z z z h h h h h & h , , -  .1X<XY.F.F.Z.Z.1.<.<.4.5.h.j.x.x.$X$XOX4Xo.O.O.O.c O.h & & 3 3 & , p 3.3.5.5.<.5.J.2XW.W.W.W.W.0XrXaXaXaXrXaXK ^ L K Q L ) :.<.-.-.<.,.<.<.<.<.<.<.<.5.j.j.h.4.5.j.R.h.h.H.J.J.K.2XqXqXuXaXuX3X<X<X<Xx.<Xx.;.| | ..^ / X.X.;.,.2.2.5.5.",
"% 7 , , 7 , O.&XOX$X$X<X<X@.- 1 $ , = = @.n.x.z.R.j.R.p , - $ & , , , , , , , , | f.k.2.2.-.<.T./.qXrXuXnXMX .$ k k k , ,  .@. .X...! ..rXaXaXqXzXbXJ. . .@.%.g.O.O.O.c c c C C z z z z 9 9 9 7 & , & , $ | $Xn.j.j.3.4.<.-.-.=.4.4.j.J.R.7X7X7XgXgX8.o.k c k c j h 3 h h , , k 3.3.5.1.<.4.F.R.Z.Z.F.F.T./.eXaX0XrXrXaXK ^ ^ ^ ^ ^ / :.4.-.-.4.,.<.<.<.<.<.<.<.,.<.4.4.;.;.5.F.h.F.F.F.F.W.qXaXqXiXaXrX2XJ.H.H.J.<XJ.;.^ ^ ^ I ! ^ X.2.5.5.5.2.5.",
"9 c c 8 7 % c *XOX$XOXOX$X@.1  .# , # = @.n.J.x.J.j.R.! 1 p i h h 7 , , , , , , ! 2.j.5.<.<.S./.aXiX0XrXcXMXO.- $ , , $ , k O. .;.@.@.;.rXpXrXrXrXcX<X@.O.O. .O.r.O.O.c c V C Z N N N N z z z z , h , , -  .R.n.F.F.j.5.5.<.<.<.<.4.h.F.J.R.<X1X4X4Xo.O.v v c C v h h j j 7 k  .2.4.<.<.,.4.j.K.W.W.T.W.W./.eXiXqXuXaXaX+ J K W ^ L / :.4.:.;.4.<.<.<.4.4.4.4.4.<.<.1.4.,.,.5.F.F.F.F.5.1.Z.W.iX^.eXeXeX0XK.K.K.j.K.J.;.....*./ ! ^ X.2.5.5.2.2.,.",
"z C V c 8 7 8.5X+XOXoXoX+XO.1 8 - , - - %.<XR.x.j.h.x.1 , , , , & & & & & & & > u 2.5.4.<._ <._.AXaX0XrXbXMX@., - i , , , k o.k X.X.X.@.pXaXbXbXcXNX1X2.@.%.@.@.e.8.O.v V V Z Z A N N N N z z z 7 k , , = | R.x.R.R.J.F.F.5.<.<.<.<.5.h.j.x.J.J.&X&Xc c c C C q.h t & h h , , p 3.3.5.5.1.5.J.2XW.W.W.W.~./.eXiXuXpXsXsX: K W ^ ^ ^ ..;.4.;.;.h.<.<.4.4.4.4.4.4.<.5.Z.5.4.5.F.R.F.F.F.5.5.G./.iX/.eXaXeXyXK.K.K.h.H.h.;.! ^ ^ I ! ^ X.;.2.h.j.j.1.",
"5 0 8 8 k 7 O.*X+XOX+XOXOXo.= > , k , , 2.n.x.j.R.J.R.! , - $ & h 7 7 7 7 7 7 7 1 ;.2.,.=.' ] U.T.^.0XqXpXcX| # - a p , k O.0.o. .! p | pXbXaXrXcXcXR. . .@.0.f.8.O.O.c c V C Z 9 9 z z z z 9 9 , h , - = ! x.j.J.F.j.j.5.4.4.-.-.<.5.D.J.R.2X2XfXfXc c 8 z B y.j h 3 h h , , k 2.3.5.<.<.4.F.K.F.G.G.G.W.0XiXaXpXpXsXnX^ X.X.X.^ P ..;.4.;.;.h.4.4.4.4.4.4.5.5.,.<.4.,.;.;.5.j.j.j.J.Y.Y.W.uXsXaXaXbXrX2XJ.z.z.J.<XJ.;.....! P X.X.;.;.2.f.h.h.5.",
"3 8 8 h c h c l.4X4X,XOXx.+.= 1 - , = = @.x.j.j.F.h.x.1 - - $ & h 7 7 7 7 7 7 7 @.j.j.5.5.4.<.G.eXSXaXaXpXcX| = . - , , 8 o.o.c | k | @.pXNXnXnXcXvX<X@.@.@.+.@.O.O.k k c c z V N z z z z z h h 7 k , , = ! F.j.F.j.j.j.4.4.4.:.-.-.<.D.J.R.2X2XfXfXv c z z N Z h & & h h , , p 2.4.5.<.<.4.j.K.W.W.W.W.2XrXaXaXpXpX8XpXp ~ ! p ..! ..2.f.;.;.h.4.4.4.4.4.5.5.5.4.5.5.5.;.2.h.J.h.x.R.R.R.W.0XuXpXbXbXpX6X:XOXOXOX<XOXf. .o.X. .X.@.2.h.h.f.;.;.4.",
"v O.c c O.k p %.k.k.0.f.x.h.k.<Xn.$Xf.@.x.<Xj.f.F.j.R. .|  .O.$.v v v v v v v c o.0.@.X.;.X./ -.~.qX^.W.2XcXk.f.%.r.r.O.O.0.8.c , k  .| j.f.J.2Xn.7X1Xx.<X1X:X:Xn.l.l.u.u.u. XoXC C C C v v v v k O.k p : X.R.J.R.R.J.F.h.5.4.<.-.-.<.5.h.F.J.K.$X&XO.8.C Z N B $.c j v v k k O.v.Y.Y.G.Z.F.W.3XK.J.F.h.h.h.F.F.g.f.g.<X1  .@. .....+.;.f.;.;.h.5.5.5.5.5.5.5.5.;.2.2.;.@.;.f.z.x.x.R.R.j.j.j.j.2.j.x.x.k.r.0.r.8.r.r.o.k  .O.O.; P ;.h.J.H.h.2.h.",
" . .@.X.X.| ! 1 ! P ! ! ^ F.aXaXnXpXbXcXj.+.+.X.@.@.;.2.2.h.h.h.t.t.t.t.t.e.r.e.q.z V z 0 c c k.F.J.J.W.K.W.2XyX<X6X7XgX5X, % 7 , , 1 1 p p i i 1  .x.cXbXnXnXrXuX3X<X<X1X7X5X4XO.c v k k k k l.5.2.2.2.5.j.j.F.F.F.F.j.j.h.f.2.B.B.:.:.;.@.@.@.O.O.O.O.C C C C O.8.u.u.8.O.r.<XGXsXiXiXiXrX2XK.2Xz.x.:XOX1 # = # 7 & % c j 9 v 7 k c O.r.f.f.f.;.f.J.J.F.F.J.J.0.0.0.o.+.+.@.<XOX&XOX+Xl.k.> 1 - h h & 7 v x s z B B h s c k , , , f.x.:X7XK.2XF.",
" . .@.X.X.| ! ! ^ ! ^ ^ / F.uXqXaXrXbXcXj.X.@.@.f.2.2.2.2.4.4.4.g.g.r.r.r.e.e.e.q.V 8.V z V V oXJ.R.W.W.W.W.K.K.:X:X:X7XfX7 & 7 > , , , , , , 7 1 8 k.7XpXpXaXrXrX3XR.R.R.1X<X<XO.k l k k | p l.5.2.2.2.5.j.j.F.F.F.F.j.j.h.f.2.-.>.:.;.;.;.@.0.r.%.@.O.C C C C O.e.u.y.0.8.@.g.sXaXqXqXeX0XK.H.6Xz.x.OXOX8 , , , 8 & & c c 9 z 7 k c O.0.r.r.r.;.f.z.J.F.j.F.J.u.0.0.+.0.0.+.<X+XOXOX$XOXOX1 8 O.O.v h h v x s s x B z h v D C c k l.x.x.J.h.h.J.",
"| X.X.X.X.^ ^ ! ^ ^ ^ / ^ F.qX!.rXqXpXpXj.@.@.2.f.f.2.2.2.2.2.4.j.g.%.@.O.8.0.u.q.V q.V V V V oXW.W.W.2X2XW.J.L.<Xz.z.4XgX8 , h 7 7 7 7 7 h h h 8 > @.7XrXrXuXrXpXqXQ.3X3X7X7X7XO.k  .p | | p g.5.5.4.4.4.j.F.F.F.F.F.j.h.h.f.f.>.>.;.;.;.@.0.0.O.O.k k 7 h z z c u.u.8.u.8.O.f.aXuX/././.0XK.H.6Xz.:XOX+Xk 7 8 8 8 % 3 c V z z 7 h c O.8.0.r.0.@.k.z.J.j.j.F.J.u.0.w.0.0.0.+.<Xk.OXOX4X<X$X8 8 k k h s x y.p.F D p.y.x s s z j , , l.$Xg.x.:XJ.J.",
"^ | | ^ ^ ^ ! ! ^ W ^ W Q 5././.aXrXaXpXj.@.@.%.%.;.;.2.2.4.5.4.3.2.#. .O.O.8.q.Z w A V V V V  X2XW.W.W.W.2XK.K.2XJ.z.4XfX7 , c 8 k k k k k c c , = @.cXbXrXaXaXQ.W.Y.Y.R.<X<XR. .k  .p | ! p g.5.5.4.4.5.5.F.F.J.F.F.j.h.h.f.f.;.;.;.;.@.@.+.+.f.r.O.k k k v v h u.i.y.u.0.O.g.aXiXqXqXeXrX2XK.>Xz.:XOX+Xk , > 7 3 % 3 z B x d h j v 8.e.e.e.r.f.k.x.J.J.J.J.K.w.0.0.O.0.0.@.<Xk.OXOX$XOX+X> > v h & 3 z D F D B D C z 3 3 g x , p l.5XOXOX<Xx.x.",
"! ! ! ! ! ^ ^ ^ ^ K K K K 5.uXuXaXrXaXpXj.X.X.@.@.@.@.2.2.h.j.h.1.,.X.X. .O.8.0.q.V q.q.8.8.8.oX3XW.F.J.W.2X2XW.2X2X<X7X5X, 7 C h h k h j j j j , > r.bXHXaXaXaXqXQ.R.R.R.<X<X<XO.k  .p | | p g.4.4.4.4.4.5.F.F.J.J.F.h.h.h.f.f.z.z.f.a.@.+.+.o.%.@.O. .k k l l k e.i.u.u.0.r.<XaXaXeXeXiXtXyX2XJ.z.:XOXx.k , @ 7 % % 3 z z z z z B C e.e.e.e.e.r.g.x.R.x.z.J.R.0.+.0.o.@.@. .n.j.x.x.x.x.k.= = k , & , j v C C x x z z & & & h $ k l.5X5X4X4XOX$X",
" .| | | ..| X.X.*.....^ ^ F.aXuXrXqXpXpXj.@.@.2.@.@.;.2.2.5.h.h.,.,.2.2.2.%.r.r.k , k k k p 1 @.rX2XJ.J.2X2XK.J.F.W.<X<X$X7 0 C 0 0 9 z z z j z h 7 f.cXpX0X^.G.pX3XR.<X1X7X4X4XO.c O.k k k k l.<.4.<.<.<.5.Z.F.J.F.j.h.h.f.f.f.z.z.k.f.a.0.@.+. . . . . . .l l 8.O.e.u.8.o.r.$XrXqX/./.eXqX2XK.h.h.K.z.x. .k - c h c c h h j h z B C q.e.e.8.8.@.f.x.x.j.h.j.j.@.@.@.+.X.X.X.R.R.R.R.R.x.x.1 8 1 1 k O.v c c 8.8.c c v v k h k ,  .O.oX5X&X4XOXOX",
"+.+.o.o.@.@.f.f.z.h.z.j.h.W.rX2X2XR.rXpXj.2.f.x.k.f.f.2.2.;.;.;.;.2.j.j.J.x.j.j.<Xn.1X1XE.E.R.pXuXqX2XqXyX2XD.*.*.h.h.f.l.c V V V V V V B B B C 8.c r.x.f.:.-.) j.2.@.@.@.0.0.0.8.c v k c c k l.4.4.-.-.4.5.F.F.J.J.j.h.h.f.f.f.k.k.k.k.k.k.z.z.k.x.R.<X1X1Xn.n.&Xk c y.c 8 O.%.R.F.G.G.T.K.D.h.4.4.F.4.j.2.g.2.l.t.b.t.h t h s d x N B C C v c k O.@.r.@.@.;.2.2.2.2.;.2.,.=.Q./.`.Q.Q.3XrXf.x.J.J.<Xx.0., % , 7 # , r.$X<X<X<X%X5X$.O.i.8.c c e.",
"w.0.0.0.0.f.k.l.<X<X7X7X<X7XrXJ.F.j.2XrXJ.f.x.<Xn.x.j.f.2.X...^ 2.2.R.3X3X3XR.R.pX3XsXsXdXuXuXPXaXuXrXaXbX2X;.; K *.+. .k.V 8.V y.y.y.y.y.y.y.y.i.8.O. .: U J Y @.| 1 8 k o.c 0 8.V C c c c k oX<.4.-.-.4.5.F.F.J.J.z.j.h.f.f.f.0.r.u.k.l.OX,X,X:X1X7XvXMXvXdXuXlX7 % 8.8 > k p 5.4.<.<.C.5.:.*.1.4.5.=.j.v.uXuX5X5X9X%Xj & i t 3 4 z z z c z h , k  . . . .+.X.j.4.3.,.5.5.1./.iXiX`.uXaXPX3XbXqXrXbXcXx.1 = 1 8 > 8 x.cXMXcXpXmXmXl & O.7 % 7 7 ",
".X X.Xl.@.| 2.3XR.F.F.j.H.J.:X:X2X2X7X2Xz.z.h.z.z.z.2X@.@.0.0.0.k.@.6X<XR.R.2X2X^.^.qXiXiXiXiXiXDX/.DXiXT.0XL ^  . .O.8.e.y.XXXXe.C v C y..X Xq.0.0.0.c k v v h n j l e.e.v c C c z z C c z c u.4.4.4.4.4.5.F.L.R.j.z.OXoXw.q.q.e.y.u.g.x.J.F.F.V._ iXuXuXuXiXuXlXt h v & , k r.v.g.j.3.4.<.<.<.' <.] V.<.~.~.~.3X<X1X1X& % 3 * 3 * & j x s h v , , 1 P ! ^ Q L ' ] S.V.C.B.N.(.).)._.).eXaXbXNXP.eXK.yX:X8 c 7 3 @ @ l.NXaXiX).aXcXO.8 4 N N N x ",
"y.y.u.e.O.| 2.R.R.R.R.J.K.:X:X2XH.R.2XR.H.j.H.R.z.z.2X@.@.0.0.0.f.@.2XR.R.J.2XW.W./.qXiXiXiXiXiXiX~.iXiX/.aX*.*. . .O.O.8.8.8.q.v c j C q.u.y.q.8.0.8.c k v v k v j l v O.c c v C B C 8.O.c 8.k.4.4.2.2.4.5.F.F.F.j.j.x.oXw.8.q.8.e.t.g.x.J.J.L.!.Z.sXqX/.qXaXsX*Xh j c , h k k g.g.3.2.,.,.=._ _ <.` <.-.G.G.G.3XR.<X5X, h j 3 x h z v v h s z k k | | ../ ^ Q ' ' V.-.-.-.-.(.).).).).eXtXbXcXVXFXwXbX<X> 8 7 V 7 7 <XMXaXiX).aXcXO.8 4 N N N x ",
"q.y.y.e.O.O.f.<XR.R.R.R.R.K.K.J.J.K.W.R.J.F.J.R.x.z.1X@.+.0.0.0.;.X.2XR.R.K.W.W.^.0XqXeXiXiXeXeXiX/.iXiXeXaX-./ %.%.@.@.O.8.8.8.v c c v e.u.u.u.8.0.8.c k v O.c l h h k h 7 7 c 8.c v 8.o.c O.k.4.:.-.-.-.1.5.F.F.h.h.x.l.0.8.q.8.e.t.g.z.F.F.F.Y.Z.uXqXqXuXpXpX5Xk i l i k k k n.n.n.j.j.j.5.5._ <.,.<.=.F.G.K.R.R.x.5X, k 7 3 j h j v v z s s k k  .X.X.^ ^ Q _ _ <.4.:.:.>.(.).).).).eXeXrXrXCXFXtXGX:X= > > 7 % = h.rXqXqX~.aXcXO.8 9 N N N x ",
"e.y.u.u.e.r.l.<X<X<X1X<X2X<XK.J.2X2XW.W.J.F.F.F.J.x.<X@.+.0.0.d.@.+.2XR.W.W.2XK./.qXrXiXiXiXeX).SXeXiXaXrXaX-.^ 2.;.X.@.X.o.o.o.k k k O.8.0.0.0.0.u.8.c c v C C $.$.O.O.v c o.0.c k k o.| 1 | a.4.4.-.-.-.<.5.F.F.h.h.x.l.0.8.w.8.0.f.k.z.F.F.F.4.j.3XpXnXNXvXpXkXp # k k - 1 O.g.g.g.f.2.2.6.6.5.F.5.5.;.W.W.W.2X<Xx.$X- h # # & & s h j h h h i k  . ...! K W <.,.j.h.h.:.:.tX).).).).eXqXqXyX^.0X0XaXH.= = 1 , - : j.aXaXAXiXpXcXO.8 9 N N N x ",
"O.e.e.e.e.u.l.oX4X5X4X7X7X3X3X3XW.W.J.J.J.J.F.F.2XR.2X@.@.+.0.0.X...2X2X2XW.0XK.qXqXeXeXeXeX)./.aXqX0XaXrXaX5.-.*.X.X.......T T p p k | | | | o.k.k.0.c z v C C h k O.k 8 8  .o.o. . .@. .! +.f.4.4.4.4.4.5.F.F.H.h.j.J.x.k.0.u.0.f.k.j.z.F.F.F.R.3X3XcXMXMXvXvXx.1 o 1 p = 1 ! f.f.f.f.g.g.g.g.f.j.2.2.;.K.2X2X<X<Xx.x.k O., i h h h h h h h h 7 l $.%.@...^ ^ 2.%.f.f.z.;.;.tX).).).).eXqX2X2XFXFXtXtXh.2 o = : : : 5.W.^.eX^.aXcXO.8 9 N N N x ",
"j v v c c 8.8.C 8 7 , 1 1 ! / / 4.4.5.F.W.0XqXqXrX2X3X@.+.+.+.0.+...2XyXqXwX0X^.eXeXeXeXeXeX).^.K.K.J.3X2XrXW.W.aXaXaXtXrXyXyXyX3X8XpX7X7X6X6X7XOXOXu.c h x C B O.l.&X$XOXOX<X1Xf.@.;.2.;.*.;.J.5.5.5.<.5.F.F.G.J.H.H.<X:Xk.k.k.f.h.z.J.J.J.J.J.h.x.| | k k k k K.3X3XrXrXpXrXj.- : 1 1 p p p p @.@. . ...z.J.:XK.R.x.<Xg.x.l.l.#Xb.p.c h h h t h 8.l.n.g.2.2.5.%.l O.O.0.| ..yX^.eXeXiXeX/.W.W.4.4.F.W.W.W.rXaXE.Q.Y.qXaXeXAXeXaXcXO.8 9 N N N x ",
"h v c h z V c 9 7 7 > = : ^ =.4.-.=.-.Z.W.iXaXiXaXrXrXX. .|  .o.X.+.qXyXtXeXeX0XeXeXeXeXeXeX(.^.z.H.h.R.F.3XrXaXeXeXeXeXeXeXeXeXuXpXpXrX2XR.:X2X4X&Xi.c h x B m c l.5X5X1X6X7X7Xh.2.4.h.4.:.5.W.F.F.F.F.F.F.W.W.2XK.K.2X1XOXl.OXh.j.J.K.<XW.R.R.7X7Xk 8 , , , 7 ..yXrXrXuXpXaXj.= - : 1 p p k j c O.8 k 8 z.:X<X<X:X<X<X7X1X5X1XjX*Xi.j & h h h h e.#X%Xn.g.j.R.e.h c O.O.8 P 7X^.eXeXeXeX/.T.F.W.K.F.F.T.qXiXiXuXiX/.iXiX(.eXG.pXcXO.8 9 N N N x ",
"l $.b h j C V 3 0 7 % $ : / 4.A.<.-.<.Z.W.eXiXqXnXuXuX@...| | | *.*.rXtXaXtXtXeXeXeXeXeXeXeX^.^.z.:Xz.J.4.J.0XbXeXeXeXeXeXeXeXeXuXaXaXrXW.F.H.K.5X5Xl.v s x B f > r.4X4X<X2X7X2X2.;.2.5.4.-.<.G.F.F.F.F.F.W.W.W.2XK.:X6X6X:Xx.:XH.H.K.2X2X2XW.R.4X7Xk c 8 7 & 7 I 0XyXrXrX0XaXW.= = - : i i k l c O.8 | | OX<X7X2X<X6Xx.7X<X1X1X5X*Xp.t * h l h & v b.%Xn.g.j.R.e.c c 8.8.8 | rX0XeXeXeXeX~.T.F.W.J.h.-.F.iXAXiXiXDXiXiXZXeXeX^.pXcXO.8 9 N N N x ",
"$.l c l j V V 9 z 7 7 > O X.Y.5.<.4.,.4.W.qX/.iXiXiXSX/ ^ ^ ^ P ^ ^ aXaXaXrXqX2XCXtXeXeXeXeX0X^.k.,X:X:XyXF.aXaX^.^.eXeXeX).).~.qXqXtXtXW.W.W.2X7XfXk.8 9 9 9 N < f.1X1X<X6X3XR.h.:.:.:.-.-.V.C.j.j.z.J.J.<X<X<X2X6X6X2X<XJ.J.J.F.F.F.R.2X<X<X1X5XkXo.c 8 9 7 z / aXrXrXbXbXpXx.% , k h 7 7 j v N Z C c 8 OX6XJ.6XK.J.yXF.W.E.Y.6X7Xg.# , $ , h - O.n.1X<Xj.j.j.y.z q.V V c , kX0XqXiXqXaXtXD.H.,XOXz.J.2XuXiXiX'.'.'.).).eXeXtXuXrX .c 0 z z C z ",
"l j h c C 8.V 9 9 7 7 - O ^ 2.X.4.5.4.3.Q.uXuXaXqXqXeX^ K ^ ....^ ^ aXtXrXqXaXbXAXtX0X0XeXeX0X^.,X6X<XJ.W.h.aXrX^.qXeXeXeX)./.^.tXaXbXtXW.F.J.W.2X7Xf.7 7 9 9 z | l.7X1Xx.R.2X3Xh.h.4.4.4.<.C.Z.x.J.J.J.<X<X<X1Xx.:X:X:XJ.J.J.J.W.W.R.W.<X<X<X<X$X&Xk c c c 7 7 I rXuX2X7XcXcXR.% , h h 7 h j v N C C c 8 OX6X:XyX>XK.yXF.W.Y.F.<X<Xk.= p - , , =  .x.<XR.j.j.J.y.c y.C C o.k gXrXrXiXeXAXaXD.H.OXx.z.J.W.qXuX`._./.).).eXeXtXCXuXuX .k 9 9 9 z z ",
"e.v h v 8.C 9 % k , > # O ^ j.j.h.j.2.3.3XuXrXaXAXiXqX/ K ^ / ^ I *.aXaXrX2X2XqXFXtX0XqXaXFXtX0X:X:XJ.H.K.F.aXaXeXeXaXaXaXeXqXqX2XqXrXqXW.F.F.W.2X2Xf.8 8 c z c = @.<X7X<X<X<X1Xh.h.;.;.;.4.5.h.x.x.x.x.OXOX$X$X7X4X4X<X<XJ.J.H.F.F.R.J.R.<X1X1XfX&Xk 7 7 7 , , : qXNXrXpXvXcXR.& 7 h h h h x v x C v c 8 OX6X<XK.J.J.yXF.W.W.W.bXrXj.; - # - , -  .g.R.R.R.R.W.O.k 8.c c k k <XqX/.iX/.iXrXh.h.,XOXl.R.2XrXuXuX/./././.eX/.0X0XiXaXX.| 8 8 9 z c ",
"v v k k v k 7 c k p , - : ^ ;.2.f.h.2.2.W.qX3XuX/.^.T._ L / ^ K ^ ;.R.3XrXrXaXaXtXyXqXrXaXbXaXrXK.:XK.J.K.J.W.W.uXiXuXaXpXrXqX3XbXbXbX3XrXW.G.W.H.K.;.< 1 k h c  .f.$X5X1X<X<X$Xh.h.f.2.f.h.j.j.n.$X$X$X$X$X&X&X4XOX+Xl.x.:XJ.J.R.3X3XR.n.<X1X5X&Xl.O.k k k k k @.6XcXrX8XvX8X$X, 7 h h z j x x x C v c 8 OXrX2XK.K.K.wXC.G.T.T.W.F.;.K : : 1 ! ! X.h.F.F.F.F.F.%.k O.o. . ...x.eXeXiXqXaXuXh.x.4X$Xx.$X6XrXpXpXuX0X/.aXSXaXtXtX~.~.! T 8 7 8 k k ",
"& h 3 7 h , O.5X1X8XpXpXpXR.f.;.0.a.@.@.J.W.W.qX/.rXqXqXqXiXiX/.pXQ.X.: O O + + P P ........X.;.yXqXqX3XW.F.*./ ! ! ^ ! ! 1 1 : = = : P 3XrXaXaXaXFXqXj.z.:XOX$Xg.O., - - , , , 1 - = = = , 1 1 k k k c c c c c c 8 8 o.f.J.<X<Xj.R.g. .: , , - , k r.g.k.2.2.;.@.p : - - , , i 7 7 h h z x x B C D v c 1 <XpX7XaXtXeXeX<.<.-.-.4.C.K.qXrXuXrXrX3XuXbXbXaXaXiXtXj.2.g.f.2.2.5.R.-.-.<._ 4.2.= 1 , $ $ - 1 k | | ^ P ^ h.0X0X0XeXDXDXF.J.l.OXOX&X$X",
"% z 3 & , = @.MXpXpXpXnXcXJ.@.+.0.w.o.+.z.R.R.3XF.W.G.iXiXaXiX/.nX1X: O O : : : ; P @.@.+.+.;.h.2X2XqXrXW.J.^ I ! ! ! | p , , %  .k p P aXaXaXeXeXaX^.h.j.J.x.OX5X%., # , , , , p , : , , , k k O.o.c c c z z z 0 6 > 8 f.R.2X2XR.3XE. .- , i & # - l.x.j.h.h.5.n.1 = - $ , & , h h h z x C B B v D c k , <XcXpXaXaXtXtX:.-.-.-.) ) C.eXeXaXaXaXaXaXaXaXeXqXqX^.Z.<.3.j.2.4.F.F.<.<.V.<.1.2.- , i , $ , h c o.c o.1 | J.aXaXaXAX_.VX<.h.z.OXOX<Xx.",
"3 c 9 , 1 . ! pXuXaXuXpXcX:Xa.z.q.w.7.0.z.R.R.3XW.0XG.iXiXiXiX~.vX8X: - O = O O < | @.@.@.@.f.z.F.F.W.2XW.2X*... . . . .k k 7 7 , , , ; aXaXaXiX(.VX^.D.J.R.J.<Xb.l $ & h h & & , - - $ , , h h c c c c z z z z 8.c 7 k f.<X2XW.j.1XR. .$ , h i p - l.2.2.2.5.<.l.- , p , i & & j h s z C D B B b D c k , <XcXpX0XqXeXeX-.B.B.C.C.-.C.CX^.eXtXaXaXaXaXeXeXeXeXeX1.[ <.4.*.-.C.-.-.<.<._ 4.%.# & j i & , h c V V 8.8 | J.pXrX0XqX{.ZXS.L.H.:Xx.<Xn.",
"5 z % ,  .- ! pXuXaXuXpXcXz.T +.q.w.w.0.x.<XR.3XF.W.<.qXqXiXiX).pX8X= . X = : ! 1 1 |  .@.@.f.j.W.F.F.W.F.2X.... . . .O.v h 9 3 7 h p = pXqXqXeX~.eX~.C.L.K.J.R.%X$., & , & & 7 a , , , , 7 h j C C c c z z z z z 6 % 7 0.<X2XW.n.8X1X .$ , h t $   g.2.j.5.C.-.r.$ i & @ , , h j h s z B D S x b D l l 1 <XnXaXrXeXtXeX-.-.N.B.N.` C.AXwXtXeXeXaXeXqXqXeXeXtXVXS.] <.Z.-.<.G.-.] <.<.[ 4.%.- & t t & & h z V w o.> 8 J.bXrXqXiX{.ZXS.D.h.z.h.x.n.",
"t s & h 7 #  .uXiX/.`.`.dX1Xb e.+.@.+.f.x.<X<XR.W.W.3XrXuXuXaXaXvX8X- : p ~ - . , O. . .@.X. .j.rXW.F.R.<Xx.@.<  .p p ~ p O O - = : O O pXaXuXuXpXuXQ.Y.j.h.h.h.jXn * t j t $ t y t i t $ $ i n 8.8.C B B N N N j 3 & k f.R.R.Y.5X9X9Xp   - - p u : v.v.2.g.3.3.M.* t j i i $ i h v e.g * h v p.v $.j a - 1XKXmX3XaXaXeX-.-.` S.) -.Z.~.eXeXeXeXeXeXeXeXeXeXeXeX5.^ 5.Y.1.5.=./ =._ <.,.2.2.+ + t a t & h v C z c c k x.7X3XsXaXpXuXQ.R.j.n.R.R.g.",
"& t & 7 , 2 ! 3XiX/.uXuXdX1Xv e.k.f.f.k.<X4X1X1X2X3X3XrXuXaXaXaXKXlXp - - : . . 1 +. ...X.| | 2.rX2XR.<X2X<Xf. .O.k k  .| , : p = = = 1 rXnXnXnXpXpX3XR.J.x.x.x.%X$.$ $ $ * $ i t i a i & & h l v v V c z N N m B j 7 c f.R.R.J.8X8X5X .# : # - 1 : g.g.%.j.g.g.$.X $ i & , & i c v b h & v c c h v h h i 1XKXmXbXGXaXaX<.-.) -.>.<.F.^.qXeXqXqXeXeXeXeXeXeXeXeXY.=.F.Y.5.j.4.4.,.<.4.2.j.2.= : y i & $ 7 v 8.c 7.O.o.J.rXrXaXaXuXrXW.R.j.J.J.R.J.",
"e.e.8.8.+.T ;.tXeXqXeXuXcX<XC 8.8.8.7.8.u.l.k.k.x.x.x.<X<X<X2X6X4X4Xo.o.|  .|  .+.;.;.@.@.+...;.z.k.f.k.l.k.+.T o.k k  .O. .| O. .|  .@.x.x.R.J.R.R.x.x.g.g.g.g.l.r.$.O.O.O.$.r.h k k i i i k v c c z z z z d d C z 9 c e.g.x.f.x.k.x.@.@.@. .@.@.| f.f.@.f.f.z.r.k O.O.O.r.0.@.u.e.r.O.8.i.v 7 s h h h , l.5X*X<X2XJ.K.D.L.4.D.5.F.K.2XqXqX0X2XqXqXqXqXqXqXqXqXh.! ;.;.X.X.X.2.h.h.j.f.j.g.1 p p p p , k u.u.8.w.d.0.<XrXwXaXeXtXqXW.J.F.H.K.K.K.",
"$X4XOXOX,Xz.H.FXtXwXtXtXcX4XV V 0 9 7 0 c o.c 0 > > 1 1 8 8 | | E 0.d.OXOXOXOXOXz.z.z.s.s.;.;.;.o.| k o.7.7.c 7 c c c o.O.8.r.f.k.0.f.0.| 1 8 1 , , , , , , 7 7 8 f.<X4X4X7X7X7X| | | | k k | | 8 9 9 9 4 4 4 4 N d 3 9 c O.+.+.| P | a.J.:X:X2X,Xz.z.a.+.+.+.0.k.z.OXz.l.4X4X<X&XOX4X+XOX4X8.7 3 s 3 h * v 8.c | o.| @.H.2XK.W.J.J.W.2X2X2X2XW.W.W.W.W.W.W.K.K.@.= 1 1 = = 1 @.x.x.n.x.n.x.! | X.@.@.o.0.OXOX+X+Xz.s.0XtX0XeXeXtXwX2XJ.D.H.K.K.>X",
"<X2X,X+X,XH.>XJXtXwXtXxXcX4X0 w V 9 9 9 c V z 0 c c c o.o.o.O.O.R 9.,XhX,X,X,X,X:XH.H.H.s.s.s.;.k k c o.O.8.o.c c c c o.O.r.l.l.f.0.k.f.> = , > 7 8 k c c c V V 2 0.6X7X7XgXzXzXo.| | o.o.| | T 7 7 3 3 3 4 4 4 N d 4 7 8 k | ..T U T z.6X>X>X>XhX,Xd.9.+.R 9.9.a.OXOXz.OX4X6X<X4X4XkXhX4X4X0.8 3 3 3 h * h h & o.o.1 T J.2XH.H.R.2X2X2X2X2XR.K.K.K.K.K.K.K.K.K.@., , , , = , x.n.n.<Xx.<Xx.| | @.;.;.@.k.>X,X,X,X,Xz.yXtX(.eX(.tXwXK.L.H.H.H.K.>X"
};
