/* XPM */
static char *_9975850c90f40eeca773a9d0e37930dtJYvd2lw6KyEAXtG[] = {
/* columns rows colors chars-per-pixel */
"379 527 35 1 ",
"  c black",
". c white",
"X c gray98",
"o c #F6F6F6",
"O c #F3F3F3",
"+ c #ECECEC",
"@ c #DFDFDF",
"# c gray84",
"$ c gray94",
"% c gray67",
"& c #9D9D9D",
"* c gainsboro",
"= c #E9E9E9",
"- c #7E7E7E",
"; c #4B4B4B",
": c gray74",
"> c gray81",
", c gray10",
"< c gray56",
"1 c #C8C8C8",
"2 c #606060",
"3 c gray42",
"4 c #414141",
"5 c gray64",
"6 c #5B5B5B",
"7 c #222222",
"8 c #343434",
"9 c gray32",
"0 c #979797",
"q c #3A3A3A",
"w c #B7B7B7",
"e c #111111",
"r c #2C2C2C",
"t c #868686",
"y c gray46",
/* pixels */
"...............................................................................................................................................................................XXO$++@*#>%&ty2;qr77777q44;63t<05%:>#@++$$OXXX..............................................................................................................................................................",
".....................................................................................................................................................................Xo+@#>1:w&t-6q7                                  er42-t0%::1>*=$o.....................................................................................................................................................",
"...............................................................................................................................................................X@>w&0ty3;87                                                      7463yt05:1*O..............................................................................................................................................",
"..........................................................................................................................................................X#%-294r,                                                                      7rq;9y<:*.........................................................................................................................................",
"...................................................................................................................................................XO=:<6                                                                                          e3&>=OX.................................................................................................................................",
"..............................................................................................................................................X=#:5y,                                                                                                   ry0:#@$............................................................................................................................",
"...........................................................................................................................................=:0t67                                                                                                           ,;y&%#$........................................................................................................................",
"........................................................................................................................................#03;7                                                                                                                    q9y&#.....................................................................................................................",
"...................................................................................................................................X+w37                                                                                                                              e6%@XX...............................................................................................................",
"...............................................................................................................................X@>0q                                                                                                                                      ey:#=X...........................................................................................................",
".............................................................................................................................@w<4                                                                                                                                            e6<%#X........................................................................................................",
"..........................................................................................................................O%3;                                                                                                                                                   43<*......................................................................................................",
"........................................................................................................................:27e                                                                                                                                                        ,4<*...................................................................................................",
"....................................................................................................................=>t                                                                                                                                                                  <>=X..............................................................................................",
".................................................................................................................o1&;                                                                                                                                                                      40:=............................................................................................",
"...............................................................................................................o%3r                                                                                                                                                                           6-1..........................................................................................",
".............................................................................................................+08e                                                                                                                                                                               7;0$.......................................................................................",
"..........................................................................................................O#3                                                                                                                                                                                       qw=X...................................................................................",
"........................................................................................................=:y                                                                                                                                                                                           7t:=.................................................................................",
"......................................................................................................$06                                                                                                                                                                                                2&*...............................................................................",
"....................................................................................................O<4                                                                                                                                                                                                    82>.............................................................................",
"..................................................................................................$-                                                                                                                                                                                                          7&=X.........................................................................",
"................................................................................................@&e                                                                                                                                                                                                              <>O.......................................................................",
"..............................................................................................+<4                                                                                                                                                                                                                 ,y%o.....................................................................",
".............................................................................................%;                                                                                                                                                                                                                     e95o...................................................................",
"..........................................................................................X:q                                                                                                                                                                                                                           -$.................................................................",
"........................................................................................X>2                                                                                                                                                                                                                               <#X..............................................................",
".......................................................................................>-e                                                                                                                                                                                                                                 7t1.............................................................",
"......................................................................................<8                                                                                                                                                                                                                                     ry>...........................................................",
"....................................................................................14                                                                                                                                                                                                                                          2=.........................................................",
"..................................................................................*3                                                                                                                                                                                                                                              -#X......................................................",
"................................................................................$w7                                                                                                                                                                                                                                                ,<>.....................................................",
"...............................................................................*3                                                                                                                                                                                                                                                    8t=...................................................",
"..............................................................................&e                                                                                                                                                                                                                                                       7t..................................................",
"............................................................................@6                                                                                                                                                                                                                                                            w$...............................................",
"..........................................................................X%8                                                                                                                                                                                                                                                              6wo.............................................",
".........................................................................$y                                                                                                                                                                                                                                                                  3>............................................",
"........................................................................>;                                                                                                                                                                                                                                                                    7to..........................................",
"......................................................................$t                                                                                                                                                                                                                                                                         %O........................................",
".....................................................................@3                                                                                                                                                                                                                                                                           61X......................................",
"....................................................................:4                                                                                                                                                                                                                                                                             7-@.....................................",
"...................................................................&e                                                                                                                                                                                                                                                                                8w....................................",
".................................................................o9                                                                                                                                                                                                                                                                                    9*..................................",
"................................................................#q                                                                                                                                                                                                                                                                                      e5o................................",
"...............................................................:8                                                                                                                                                                                                                                                                                         -#...............................",
"..............................................................57                                                                                                                                                                                                                                                                                           85..............................",
".............................................................t                                                                                                                                                                                                                                                                                               q=............................",
"...........................................................ot                                                                                                                                                                                                                                                                                                  %$..........................",
"..........................................................oy                                                                                                                                                                                                                                                                                                    3>.........................",
"..........................................................2                                                                                                                                                                                                                                                                                                      85........................",
"........................................................X;                                                                                                                                                                                                                                                                                                         6@......................",
".......................................................=;                                                                                                                                                                                                                                                                                                            %X....................",
"......................................................=6                                                                                                                                                                                                                                                                                                              t@...................",
".....................................................=;                                                                                                                                                                                                                                                                                                                ;w..................",
"....................................................$4                                                                                                                                                                                                                                                                                                                   y.................",
"...................................................*q                                                                                                                                                                                                                                                                                                                      >X..............",
"..................................................@9                                                                                                                                                                                                                                                                                                                       e0$.............",
".................................................+9                                                                                                                                                                                                                                                                                                                          2#............",
".................................................;                                                                                                                                                                                                                                                                                                                            r:...........",
"...............................................+4                                                                                                                                                                                                                                                                                                                               y$.........",
"..............................................$2                                                                                                                                                                                                                                                                                                                                 9#........",
".............................................X3                                                                                                                                                                                                                                                                                                                                   5........",
".............................................3                                                                                                                                                                                                                                                                                                                                   4+........",
"............................................-                                                                                                                                                                                                                                                                                                                                   r*.........",
"..........................................X&                                                                                                                                                                                                                                                                                                                                   ew..........",
"..........................................17                                                                                                                                                                                                                                                                                                                                   <X..........",
".........................................$r                                                                                                                                                                                                                                                                                                                                   ;X...........",
".........................................;                                                                                                                                                                                                                                                                                                                                   eO............",
"........................................t                                                                                                                                                                                                                                                                                                                                   7>.............",
".......................................:,                                                                                                                                                                                                                                                                                                                                  e%..............",
"......................................@4                                                                                                                                                                                                                                                                                                                                   tX..............",
".....................................o3                                                                                                                                                                                                                                                                                                                                   ;................",
".....................................0                                                                                                                                                                                                                                                                                                                                   r.................",
"....................................>                                                                                                                                                                                                                                                                                                                                   8#.................",
"...................................+9                                                                                                                                                                                                                                                                                                                                  7w..................",
"...................................<                                                                                                                                                                                                                                                                                                                                   t...................",
"..................................:                                                                                                                                                                                                                                                                                                                                   3....................",
".................................$;                                                                                                                                                                                                                                                                                                                                  4o....................",
".................................t                                                                                                                                                                                                                                                                                                                                  8>.....................",
"................................@                                                                                                                                                                                                                                                                                                                                   %......................",
"................................q                                                                                                                                                                                                                                                                                                                                  &.......................",
"...............................5                                                                                                                                                                                                                                                                                                                                  -........................",
"..............................*4                                                                                                                                                                                                                                                                                                                                 9o........................",
".............................X<                                                                                                                                                                                                                                                                                                                                 8#.........................",
".............................#                                                                                                                                                                                                                                                                                                                                 71..........................",
".............................;                                                                                                                                                                                                                                                                                                                                 w...........................",
"............................:                                                                                                                                                                                                                                                                                                                                 0............................",
"...........................X;                                                                                                                                                                                                                                                                                                                                2X............................",
"...........................&                                                                                                                                                                                                                                                                                                                                ;=.............................",
"..........................=9                                                                                                                                                                                                                                                                                                                               q*..............................",
"..........................%                                                                                                                                                                                                                                                                                                                               e1...............................",
".........................=4                                                                                                                                                                                                                                                                                                                               w................................",
".........................%                                                                                                                                                                                                                                                                                                                               -.................................",
"........................X                                                                                                                                                                                                                                                                                                                               3X.................................",
"........................%                                                                                                                                                                                                                                                                                                                              ;=..................................",
".......................X4                                                                                                                                                                                                                                                                                                                             7#...................................",
".......................we                                                                                                                                                                                                                                                                                                                             :....................................",
"......................X2                                                                                                                                                                                                                                                                                                                             0.....................................",
"......................:,                                                                                                                                                                                                                                                                                                                            yX.....................................",
".....................X<                                                                                                                                                                                                                                                                                                                            6$......................................",
".....................@r                                                                                                                                                                                                                                                                                                                           8@.......................................",
".....................5                                                                                                                                                                                                                                                                                                                            #........................................",
".....................r                                                                                                                                                                                                                                                                                                                           %.........................................",
"....................#                                                                                                                                                                                                                                                                                                                           <..........................................",
"....................y                                                                                                                                                                                                                                                                                                                          yo..........................................",
"...................O7                                                                                                                                                                                                                                                                                                                         6O...........................................",
"...................%                                                                                                                                                                                                                                                                                                                         8=............................................",
"...................3                                                                                                                                                                                                                                                                                                                         1.............................................",
"..................#4                                                                                                                                                                                                                                                                                                                        %..............................................",
"..................%                                                                                                                                                                                                                                                                                                                        <...............................................",
".................Oy                                                                                                                                                                                                                                                                                                                       yo...............................................",
".................@r                                                                                                                                                                                                                                                                                                                      4=................................................",
".................:                                                                                                                                                                                                                                                                                                                       #.................................................",
".................-                                                                                                                                                                                                                                                                                                                      :..................................................",
"................o                                                                                                                                                                                                                                                                                                                      %...................................................",
"................*                                                                                                                                                                                                                                                                                                                     tX...................................................",
"................<                                                                                                                                                                                                                                                                                                                    6$....................................................",
"................q                                                                                                                                                                                                                                                                                                                    +.....................................................",
"...............=e                                                                                                                                                                                                                                                                                                                  e@......................................................",
"...............%                                                                                                                                                                                                                                                                                                                  ,:.......................................................",
"...............-                                                                                                                                                                                                                                                                                                                  5X.......................................................",
"..............X2                                                                                                                                                                                                                                                                                                                 3.........................................................",
"..............#q                                                                                                                                                                                                                                                                                                                ;..........................................................",
"..............we                                                                                                                                                                           ,492yy-<<000&55&&&5&00<t-y32;4,                                                                                                     q=..........................................................",
"..............&                                                                                                                                                                       ,9-0%:#@O......................X+@#:%&t2q                                                                                               81...........................................................",
".............ot                                                                                                                                                                    4t>*=O...................................X+@#:09                                                                                           %............................................................",
".............=6                                                                                                                                                                ,;w+................................................o*%2,e                                                                                    t.............................................................",
".............#,                                                                                                                                                             4ywX........................................................>&397                                                                               3..............................................................",
".............1                                                                                                                                                            65*..............................................................=:&ye                                                                           6$..............................................................",
".............%                                                                                                                                                          91=...................................................................$>%9                                                                        4*...............................................................",
"............X-                                                                                                                                                        41o........................................................................X=t                                                                     ,1................................................................",
"............o4                                                                                                                                                      ;w...............................................................................:3r                                                                 w.................................................................",
"............o                                                                                                                                                     ,t+..................................................................................1<;                                                              t..................................................................",
"............=                                                                                                                                                    r:X.....................................................................................@:4                                                           3O..................................................................",
"............1                                                                                                                                                   7+.........................................................................................$:8                                                        ;@...................................................................",
"............<                                                                                                                                                  3..............................................................................................19,                                                    8#....................................................................",
"............y                                                                                                                                                 to................................................................................................w3                                                   :.....................................................................",
"............;                                                                                                                                                -O..................................................................................................$19                                                &......................................................................",
"............e                                                                                                                                               4X.....................................................................................................$w7                                             tX......................................................................",
"...........X                                                                                                                                               eo........................................................................................................ot7                                          y$.......................................................................",
"...........*                                                                                                                                              e1...........................................................................................................>2e                                       9=........................................................................",
"...........1                                                                                                                                              tX............................................................................................................o%q                                      *.........................................................................",
"...........%                                                                                                                                             4#...............................................................................................................=y                                    :..........................................................................",
"...........<                                                                                                                                             -..................................................................................................................:7                                 %...........................................................................",
"...........-                                                                                                                                            ,=...................................................................................................................=-                               <X...........................................................................",
"...........3                                                                                                                                            2.....................................................................................................................X:r                            3$............................................................................",
"...........2                                                                                                                                            :.......................................................................................................................#3                          ,$.............................................................................",
"..........X6                                                                                                                                            X........................................................................................................................X<                         @..............................................................................",
"..........O9                                                                                                                                           6...........................................................................................................................1q                     ,>...............................................................................",
"..........=;                                                                                                                                           0............................................................................................................................*2                   e5................................................................................",
"..........*4                                                                                                                                           :.............................................................................................................................$t                  tX................................................................................",
"..........#q                                                                                                                                           #...............................................................................................................................%                4..................................................................................",
"..........18                                                                                                                                          ,*................................................................................................................................1r             qX..................................................................................",
"..........1r                                                                                                                                          ;=.................................................................................................................................*6           q*...................................................................................",
"..........1r                                                                                                                                          2+..................................................................................................................................=-         r:....................................................................................",
"..........:7                                                                                                                                          2+...................................................................................................................................X0        5.....................................................................................",
"..........w,                                                                                                                                          2+.....................................................................................................................................:,     t......................................................................................",
"..........we                                                                                                                                          9=......................................................................................................................................>9   3.......................................................................................",
"..........%e                                                                                                                                          ,*.......................................................................................................................................=- 2+.......................................................................................",
"..........%                                                                                                                                            >........................................................................................................................................O:*........................................................................................",
"..........%                                                                                                                                            <...................................................................................................................................................................................................................................",
"..........%                                                                                                                                            ,X..................................................................................................................................................................................................................................",
"..........%                                                                                                                                             :..................................................................................................................................................................................................................................",
"..........%                                                                                                                                             ;..................................................................................................................................................................................................................................",
"..........%e                                                                                                                                             5.................................................................................................................................................................................................................................",
"..........we                                                                                                                                             4@................................................................................................................................................................................................................................",
"..........w,                                                                                                                                              yo...............................................................................................................................................................................................................................",
"..........:7                                                                                                                                               &...............................................................................................................................................................................................................................",
"..........1r                                                                                                                                                :..............................................................................................................................................................................................................................",
"..........1r                                                                                                                                                 :.............................................................................................................................................................................................................................",
"..........18                                                                                                                                                 7w............................................................................................................................................................................................................................",
"..........>8                                                                                                                                                  75...........................................................................................................................................................................................................................",
"..........*4                                                                                                                                                    <..........................................................................................................................................................................................................................",
"..........=;                                                                                                                                                     2=........................................................................................................................................................................................................................",
"..........$9                                                                                                                                                      ;:.......................................................................................................................................................................................................................",
"..........o6                                                                                                                                                       7to.....................................................................................................................................................................................................................",
"...........6                                                                                                                                                         91....................................................................................................................................................................................................................",
"...........3                                                                                                                                                           3@..................................................................................................................................................................................................................",
"...........y                                                                                                                                                             %=................................................................................................................................................................................................................",
"...........<                                                                                                                                                              6w...............................................................................................................................................................................................................",
"...........%                                                                                                                                                               e;>.............................................................................................................................................................................................................",
"...........1                                                                                                                                                                  6#X..........................................................................................................................................................................................................",
"...........*                                                                                                                                                                    2>$........................................................................................................................................................................................................",
"...........o                                                                                                                                                                      3wo......................................................................................................................................................................................................",
"............                                                                                                                                                                       ,65o....................................................................................................................................................................................................",
"............4                                                                                                                                                                         7t=..................................................................................................................................................................................................",
"............3                                                                                                                                                                            6w@X..............................................................................................................................................................................................",
"............0                                                                                                                                                                              rt:+............................................................................................................................................................................................",
"............:                                                                                                                                                                                e6t:X.........................................................................................................................................................................................",
"............@                                                                                                                                                                                   ,r-*.......................................................................................................................................................................................",
"............o                                                                                                                                                                                       r0#=X..................................................................................................................................................................................",
"............X4                                                                                                                                                                                         ;0:=................................................................................................................................................................................",
"............X-                                                                                                                                                                                            6-w=.............................................................................................................................................................................",
".............%                                                                                                                                                                                              e83:X..........................................................................................................................................................................",
".............1                                                                                                                                                                                                   4w=$......................................................................................................................................................................",
".............*q                                                                                                                                                                                                     2&1@...................................................................................................................................................................",
".............+3                                                                                                                                                                                                        9t%=................................................................................................................................................................",
"..............0                                                                                                                                                                                                          e42%O.............................................................................................................................................................",
"..............%                                                                                                                                                                                                               4%@o.........................................................................................................................................................",
"..............>8                                                                                                                                                                                                                 95>+......................................................................................................................................................",
"..............+9                                                                                                                                                                                                                   ,301o...................................................................................................................................................",
"...............3                                                                                                                                                                                                                      r9t#.................................................................................................................................................",
"...............%                                                                                                                                                                                                                          ,t*X.............................................................................................................................................",
"...............=e                                                                                                                                                                                                                            r<>=..........................................................................................................................................",
"................8                                                                                                                                                                                                                               6<w$.......................................................................................................................................",
"................-                                                                                                                                                                                                                                 ,6t1.....................................................................................................................................",
"................#                                                                                                                                                                                                                                    e7-@..................................................................................................................................",
"................X                                                                                                                                                                                                                                        70*+..............................................................................................................................",
".................t                                                                                                                                                                                                                                          251o...........................................................................................................................",
".................1                                                                                                                                                                                                                                            r30@.........................................................................................................................",
".................@8                                                                                                                                                                                                                                              r;%X......................................................................................................................",
".................Xt                                                                                                                                                                                                                                                  31=X..................................................................................................................",
"..................we                                                                                                                                                                                                                                                   q01$................................................................................................................",
"..................=9                                                                                                                                                                                                                                                     ,30@..............................................................................................................",
"...................y                                                                                                                                                                                                                                                        831............................................................................................................",
"...................>e                                                                                                                                                                                                                                                           <*O........................................................................................................",
"....................4                                                                                                                                                                                                                                                             6%*......................................................................................................",
"....................%                                                                                                                                                                                                                                                               4t:X...................................................................................................",
"....................o                                                                                                                                                                                                                                                                 7;5o.................................................................................................",
".....................0                                                                                                                                                                                                                                                                    3*o..............................................................................................",
".....................*                                                                                                                                                                                                                                                                      9w@............................................................................................",
".....................Oy                                                                                                                                                                                                                                                                       4<>..........................................................................................",
"......................we                                                                                                                                                                                                                                                                        8y:........................................................................................",
"......................o3                                                                                                                                                                                                                                                                           r%......................................................................................",
".......................%                                                                                                                                                                                                                                                                              &*X..................................................................................",
".......................Xq                                                                                                                                                                                                                                                                              r<#.................................................................................",
"........................%                                                                                                                                                                                                                                                                                q->...............................................................................",
".........................7                                                                                                                                                                                                                                                                                 ,9*.............................................................................",
".........................:                                                                                                                                                                                                                                                                                    2>X..........................................................................",
".........................$2                                                                                                                                                                                                                                                                                     t>.........................................................................",
"..........................:e                                                                                                                                                                                                                                                                                     8t*.......................................................................",
"..........................X3                                                                                                                                                                                                                                                                                       7-......................................................................",
"...........................>7                                                                                                                                                                                                                                                                                         :o...................................................................",
"............................t                                                                                                                                                                                                                                                                                          31..................................................................",
"............................$                                                                                                                                                                                                                                                                                           7&o................................................................",
".............................%                                                                                                                                                                                                                                                                                            6#...............................................................",
".............................O3                                                                                                                                                                                                                                                                                             0o.............................................................",
"..............................>r                                                                                                                                                                                                                                                                                             9*............................................................",
"...............................<                                                                                                                                                                                                                                                                                              8%X..........................................................",
"...............................oq                                                                                                                                                                                                                                                                                              e3..........................................................",
"................................*                                                                                                                                                                                                                                                                                                r=........................................................",
".................................0                                                                                                                                                                                                                                                                                                rw.......................................................",
".................................o6                                                                                                                                                                                                                                                                                                 0......................................................",
"..................................>8                                                                                                                                                                                                                                                                                                 yX....................................................",
"...................................5                                                                                                                                                                                                                                                                                                  6@...................................................",
"....................................-                                                                                                                                                                                                                                                                                                  q1..................................................",
"....................................Xq                                                                                                                                                                                                                                                                                                  7w.................................................",
".....................................>                                                                                                                                                                                                                                                                                                   e%................................................",
"......................................w                                                                                                                                                                                                                                                                                                    &...............................................",
".......................................&                                                                                                                                                                                                                                                                                                    <o.............................................",
".......................................o-                                                                                                                                                                                                                                                                                                    -O............................................",
"........................................$4                                                                                                                                                                                                                                                                                                    tO...........................................",
".........................................@e                                                                                                                                                                                                                                                                                                    -O..........................................",
"..........................................#7                                                                                                                                                                                                                                                                                                    3+.........................................",
"...........................................1,                                                                                                                                                                                                                                                                                                    2$........................................",
"............................................:                                                                                                                                                                                                                                                                                                     y$.......................................",
".............................................w                                                                                                                                                                                                                                                                                                     to......................................",
"..............................................w                                                                                                                                                                                                                                                                                                     to.....................................",
"..............................................X5e                                                                                                                                                                                                                                                                                                    <.....................................",
"...............................................X5                                                                                                                                                                                                                                                                                                     %....................................",
".................................................&                                                                                                                                                                                                                                                                                                    e:...................................",
"..................................................5                                                                                                                                                                                                                                                                                                    71..................................",
"...................................................%e                                                                                                                                                                                                                                                                                                   8#.................................",
"....................................................:                                                                                                                                                                                                                                                                                                    ;O................................",
".....................................................1                                                                                                                                                                                                                                                                                                    y................................",
"......................................................#r                                                                                                                                                                                                                                                                                                   0...............................",
".......................................................@2                                                                                                                                                                                                                                                                                                  ,w..............................",
"........................................................+-                                                                                                                                                                                                                                                                                                  q@.............................",
".........................................................o<                                                                                                                                                                                                                                                                                                  9.............................",
"...........................................................w,                                                                                                                                                                                                                                                                                                 0............................",
"............................................................#9                                                                                                                                                                                                                                                                                                e:...........................",
".............................................................$3                                                                                                                                                                                                                                                                                                ;@..........................",
"..............................................................X&,                                                                                                                                                                                                                                                                                               -o.........................",
"................................................................>e                                                                                                                                                                                                                                                                                               :.........................",
"..................................................................2e                                                                                                                                                                                                                                                                                              O........................",
"...................................................................%8                                                                                                                                                                                                                                                                                             3........................",
"....................................................................#y                                                                                                                                                                                                                                                                                             w.......................",
".....................................................................o5                                                                                                                                                                                                                                                                                            ;@......................",
".......................................................................@2                                                                                                                                                                                                                                                                                           <X.....................",
".........................................................................%4                                                                                                                                                                                                                                                                                          1.....................",
"..........................................................................*te                                                                                                                                                                                                                                                                                        9.....................",
"...........................................................................X>2                                                                                                                                                                                                                                                                                        w....................",
"..............................................................................1q                                                                                                                                                                                                                                                                                      rX...................",
"................................................................................%6                                                                                                                                                                                                                                                                                     <...................",
".................................................................................$5;                                                                                                                                                                                                                                                                                   4*..................",
"...................................................................................=%8                                                                                                                                                                                                                                                                                  0..................",
".....................................................................................X%e                                                                                                                                                                                                                                                                                7*.................",
"........................................................................................59e                                                                                                                                                                                                                                                                              t.................",
".........................................................................................ow3e                                                                                                                                                                                                                                                                             @................",
"...........................................................................................$1t                                                                                                                                                                                                                                                                            y................",
".............................................................................................X+t                                                                                                                                                                                                                                                                          e=...............",
"................................................................................................X%97                                                                                                                                                                                                                                                                       y...............",
"...................................................................................................:tq                                                                                                                                                                                                                                                                     q#..............",
".....................................................................................................#%4                                                                                                                                                                                                                                                                    &..............",
".......................................................................................................+16                                                                                                                                                                                                                                                                  ;=.............",
"..........................................................................................................$t8e                                                                                                                                                                                                                                                               w.............",
"............................................................................................................Ow-8                                                                                                                                                                                                                                                             9X............",
"...............................................................................................................>59                                                                                                                                                                                                                                                            *............",
".................................................................................................................+>y                                                                                                                                                                                                                                                          y............",
"....................................................................................................................o%4,                                                                                                                                                                                                                                                       o...........",
".......................................................................................................................#t6,                                                                                                                                                                                                                                                    5...........",
".........................................................................................................................$:tr                                                                                                                                                                                                                                                  6X..........",
"...........................................................................................................................X@:3                                                                                                                                                                                                                                                r1..........",
"..............................................................................................................................Xo5q                                                                                                                                                                                                                                              &..........",
"..................................................................................................................................#-;e                                                                                                                                                                                                                                          6=.........",
"....................................................................................................................................=w<;                                                                                                                                                                                                                                         1.........",
"......................................................................................................................................X@:-e                                                                                                                                                                                                                                      0.........",
".........................................................................................................................................XO19                                                                                                                                                                                                                                    rO........",
".............................................................................................................................................O%2q                                                                                                                                                                                                                                 #........",
"................................................................................................................................................#5y7                                                                                                                                                                                                                              t........",
"..................................................................................................................................................O>5;                                                                                                                                                                                                                            7........",
".....................................................................................................................................................$*&,                                                                                                                                                                                                                          @.......",
".........................................................................................................................................................=<;r                                                                                                                                                                                                                      <.......",
"............................................................................................................................................................>03r                                                                                                                                                                                                                   6.......",
"..............................................................................................................................................................$>%6                                                                                                                                                                                                                 q*......",
".................................................................................................................................................................$*%4                                                                                                                                                                                                              e%......",
".....................................................................................................................................................................$&;r                                                                                                                                                                                                           <......",
"........................................................................................................................................................................*038                                                                                                                                                                                                        2=.....",
"..........................................................................................................................................................................X>%3,                                                                                                                                                                                                     r#.....",
".............................................................................................................................................................................$@:3                                                                                                                                                                                                    :.....",
".................................................................................................................................................................................o%97                                                                                                                                                                                                0X....",
"....................................................................................................................................................................................O%3;                                                                                                                                                                                             6O....",
".......................................................................................................................................................................................*%-7                                                                                                                                                                                           +....",
".........................................................................................................................................................................................O*w3                                                                                                                                                                                         #....",
"............................................................................................................................................................................................XO%9                                                                                                                                                                                      5....",
"................................................................................................................................................................................................$06q                                                                                                                                                                                  9....",
"...................................................................................................................................................................................................>&2                                                                                                                                                                                 ....",
".....................................................................................................................................................................................................=107                                                                                                                                                                              O...",
".......................................................................................................................................................................................................XO14                                                                                                                                                                            >...",
"...........................................................................................................................................................................................................@-4                                                                                                                                                                         0...",
".............................................................................................................................................................................................................$&3e                                                                                                                                                                      y...",
"...............................................................................................................................................................................................................$:y                                                                                                                                                                     9...",
".................................................................................................................................................................................................................o>;                                                                                                                                                                   4+..",
"....................................................................................................................................................................................................................*2,                                                                                                                                                                r1..",
"......................................................................................................................................................................................................................13,                                                                                                                                                              ,w..",
".......................................................................................................................................................................................................................X:2                                                                                                                                                              0..",
".........................................................................................................................................................................................................................$w                                                                                                                                                             <..",
"...........................................................................................................................................................................................................................o<,                                                                                                                                                          yo.",
".............................................................................................................................................................................................................................>2                                                                                                                                                         2+.",
"..............................................................................................................................................................................................................................O&r                                                                                                                                                       4*.",
"................................................................................................................................................................................................................................>q                                                                                                                                                      r>.",
"..................................................................................................................................................................................................................................-                                                                                                                                                      1.",
"...................................................................................................................................................................................................................................%r                                                                                                                                                    :.",
"....................................................................................................................................................................................................................................14                                                                                                                                                   w.",
".....................................................................................................................................................................................................................................@r                                                                                                                                                  &.",
"......................................................................................................................................................................................................................................or                                                                                                                                                 tX",
".......................................................................................................................................................................................................................................$;                                                                                                                                                yo",
"........................................................................................................................................................................................................................................@4                                                                                                                                               6O",
".........................................................................................................................................................................................................................................>e                                                                                                                                              q$",
"..........................................................................................................................................................................................................................................w                                                                                                                                              ,+",
"...........................................................................................................................................................................................................................................-                                                                                                                                              +",
"...........................................................................................................................................................................................................................................+8                                                                                                                                             @",
"............................................................................................................................................................................................................................................%                                                                                                                                             *",
"............................................................................................................................................................................................................................................+6                                                                                                                                            #",
".............................................................................................................................................................................................................................................5                                                                                                                                            1",
"..............................................................................o..............................................................................................................................................................+q                                                                                                                                           %",
".............................................................................=-#..............................................................................................................................................................2                                                                                                                                           &",
"............................................................................Xy q1.............................................................................................................................................................&                                                                                                                                           <",
"...........................................................................X-    w............................................................................................................................................................1                                                                                                                                           t",
"...........................................................................5      5X..........................................................................................................................................................@                                                                                                                                           -",
"..........................................................................w        <$.........................................................................................................................................................O                                                                                                                                           2",
".........................................................................@7         yO........................................................................................................................................................O                                                                                                                                           9",
"........................................................................=;           ;X.......................................................................................................................................................O                                                                                                                                           ;",
".......................................................................O2             q=......................................................................................................................................................O                                                                                                                                           4",
".......................................................................<               4#.....................................................................................................................................................=                                                                                                                                           q",
"......................................................................%                 81....................................................................................................................................................>                                                                                                                                           8",
".....................................................................>                   ew...................................................................................................................................................w                                                                                                                                           8",
"....................................................................@r                     0X.................................................................................................................................................5                                                                                                                                           4",
"...................................................................+6                       -$................................................................................................................................................y                                                                                                                                           9",
"..................................................................X-                         2+...............................................................................................................................................;                                                                                                                                           2",
"..................................................................&                           q=.............................................................................................................................................o4                                                                                                                                           -",
".................................................................:                              w............................................................................................................................................#r                                                                                                                                           t",
"................................................................#,                               0o..........................................................................................................................................%e                                                                                                                                           0",
"...............................................................@;                                 yO.........................................................................................................................................<                                                                                                                                            %",
"..............................................................oy                                   2@.......................................................................................................................................O3                                                                                                                                            1",
"..............................................................t                                     ,:......................................................................................................................................>8                                                                                                                                            >",
".............................................................w                                        &o....................................................................................................................................%                                                                                                                                             @",
"............................................................>e                                         -@..................................................................................................................................O3                                                                                                                                             =",
"...........................................................@;                                           41.................................................................................................................................=                                                                                                                                             ,+",
"..........................................................+2                                              <................................................................................................................................-                                                                                                                                             4$",
"..........................................................-                                                9@.............................................................................................................................+                                                                                                                                              3o",
".........................................................%                                                  r%X...........................................................................................................................y                                                                                                                                              -X",
"........................................................1e                                                   e3O.........................................................................................................................>,                                                                                                                                              0X",
".......................................................#q                                                      q1.......................................................................................................................$2                                                                                                                                               w.",
"......................................................=6                                                         -@.....................................................................................................................<                                                                                                                                                :.",
"......................................................-                                                           4wX..................................................................................................................w                                                                                                                                                e1.",
".....................................................0                                                              -@................................................................................................................@7                                                                                                                                                8#.",
"....................................................w                                                                7&..............................................................................................................=4                                                                                                                                                 ;@.",
"...................................................1r                                                                  r>X..........................................................................................................@4                                                                                                                                                  yO.",
"..................................................=9                                                                     t#........................................................................................................#9                                                                                                                                                   t..",
"..................................................3                                                                       q<=.....................................................................................................1;                                                                                                                                                    <..",
".................................................&                                                                          q0X..................................................................................................%r                                                                                                                                                     5..",
"................................................:                                                                              %O..............................................................................................=3                                                                                                                                                      8>..",
"...............................................*q                                                                               q%@..........................................................................................O:8                                                                                                                                                       4=..",
"..............................................+6                                                                                  ;<#.......................................................................................1y                                                                                                                                                         9...",
"..............................................-                                                                                     q-#...................................................................................*3r                                                                                                                                                          y...",
".............................................&                                                                                         7:O.............................................................................X*3                                                                                                                                                             5...",
"............................................:                                                                                            7<1+.......................................................................X@:9                                                                                                                                                               @...",
"...........................................#r                                                                                               3&1O..................................................................=:<;                                                                                                                                                                 ....",
"..........................................+6                                                                                                  r6<1.............................................................Owy9,                                                                                                                                                                  4....",
".........................................Xy                                                                                                      e,;5=X...................................................Xo#&r,                                                                                                                                                                      t....",
".........................................0                                                                                                             35#*=oX......................................X+@*:04                                                                                                                                                                           >....",
"........................................:                                                                                                                 e4-05w1#*@$........................X=@#:%&t28                                                                                                                                                                               +....",
".......................................#8                                                                                                                       74;92yy--t<00&&5%%%%%%%5&<-yy36;47                                                                                                                                                                                   6O....",
"......................................=9                                                                                                                                        eeeeeee                                                                                                                                                                                              %.....",
".....................................oy                                                                                                                                                                                                                                                                                                                                              1.....",
".....................................0                                                                                                                                                                                                                                                                                                                                              9@.....",
"....................................:                                                                                                                                                                                                                                                                                                                                               tX.....",
"...................................>8                                                                                                                                                                                                                                                                                                                                               5......",
"..................................@;                                                                                                                                                                                                                                                                                                                                               q*......",
".................................o3                                                                                                                                                                                                                                                                                                                                                2.......",
".................................t                                                                                                                                                                                                                                                                                                                                                 &.......",
"................................:                                                                                                                                                                                                                                                                                                                                                  =.......",
"...............................17                                                                                                                                                                                                                                                                                                                                                 4........",
"..............................@;                                                                                                                                                                                                                                                                                                                                                  w........",
".............................o2                                                                                                                                                                                                                                                                                                                                                   +........",
".............................t                                                                                                                                                                                                                                                                                                                                                   yX........",
"............................%                                                                                                                                                                                                                                                                                                                                                    1.........",
"...........................1e                                                                                                                                                                                                                                                                                                                                                   6=.........",
"..........................@4                                                                                                                                                                                                                                                                                                                                                    0..........",
".........................O2                                                                                                                                                                                                                                                                                                                                                    8>..........",
".........................-                                                                                                                                                                                                                                                                                                                                                     2...........",
"........................%                                                                                                                                                                                                                                                                                                                                                      :...........",
".......................1                                                                                                                                                                                                                                                                                                                                                      q............",
"......................*4                                                                                                                                                                                                                                                                                                                                                      %............",
".....................$2                                                                                                                                                                                                                                                                                                                                                       O............",
".....................-                                                                                                                                                                                                                                                                                                                                                       %.............",
"....................%                                                                                                                                                                                                                                                                                                                                                       q@.............",
"...................1                                                                                                                                                                                                                                                                                                                                                        0..............",
"..................*4                                                                                                                                                                                                                                                                                                                                                       q#..............",
".................=6                                                                                                                                                                                                                                                                                                                                                        <...............",
".................y                                                                                                                                                                                                                                                                                                                                                        7+...............",
"................0                                                                                                                                                                                                                                                                                                                                                         0................",
"...............:                                                                                                                                                                                                                                                                                                                                                          $................",
"..............>8                                                                                                                                                                                                                                                                                                                                                         w.................",
".............=6                                                                                                                                                                                                                                                                                                                                                         2+.................",
".............3                                                                                                                                                                                                                                                                                                                                                         ,w..................",
"............0                                                                                                                                                                                                                                                                                                                                                          2X..................",
"...........:                                                                                                                                                                                                                                                                                                                                                          ,#...................",
"..........>r                                                                                                                                                                                                                                                                                                                                                          <....................",
".........=9                                                                                                                                                                                                                                                                                                                                                          8o....................",
".........2                                                                                                                                                                                                                                                                                                                                                           :.....................",
"........-                                                                                                                                                                                                                                                                                                                                                           tX.....................",
".......%                                                                                                                                                                                                                                                                                                                                                           4@......................",
"......17                                                                                                                                                                                                                                                                                                                                                           %.......................",
".....@4                                                                                                                                                                                                                                                                                                                                                           3........................",
"....X2                                                                                                                                                                                                                                                                                                                                                            o........................",
"....3                                                                                                                                                                                                                                                                                                                                                            1.........................",
"...%                                                                                                                                                                                                                                                                                                                                                            -o.........................",
"..1,                                                                                                                                                                                                                                                                                                                                                           ;=..........................",
".@4                                                                                                                                                                                                                                                                                                                                                           e1...........................",
"$9                                                                                                                                                                                                                                                                                                                                                            &............................",
"t                                                                                                                                                                                                                                                                                                                                                            2.............................",
"                                                                                                                                                                                                                                                                                                                                                            ;=.............................",
"                                                                                                                                                                                                                                                                                                                                                           71..............................",
"                                                                                                                                                                                                                                                                                                                                                           5...............................",
"                                                                                                                                                                                                                                                                                                                                                          t................................",
"                                                                                                                                                                                                                                                                                                                                                         3X................................",
"                                                                                                                                                                                                                                                                                                                                                        6=.................................",
">e                                                                                                                                                                                                                                                                                                                                                     6=..................................",
".@2                                                                                                                                                                                                                                                                                                                                                   9@...................................",
"..+0                                                                                                                                                                                                                                                                                                                                                 q@....................................",
"....%                                                                                                                                                                                                                                                                                                                                               q>.....................................",
".....#4                                                                                                                                                                                                                                                                                                                                            8>......................................",
"......O-                                                                                                                                                                                                                                                                                                                                          4#.......................................",
"........07                                                                                                                                                                                                                                                                                                                                       8#........................................",
".........1;                                                                                                                                                                                                                                                                                                                                     r>.........................................",
"..........=6                                                                                                                                                                                                                                                                                                                                   r1..........................................",
"............&,                                                                                                                                                                                                                                                                                                                                4#...........................................",
".............:;                                                                                                                                                                                                                                                                                                                              4>............................................",
"..............@y                                                                                                                                                                                                                                                                                                                            8>.............................................",
"...............o&                                                                                                                                                                                                                                                                                                                          8>..............................................",
".................#q                                                                                                                                                                                                                                                                                                                       ;*...............................................",
"..................=-                                                                                                                                                                                                                                                                                                                     9@................................................",
"...................o%e                                                                                                                                                                                                                                                                                                                  6@.................................................",
".....................>4                                                                                                                                                                                                                                                                                                                2=..................................................",
"......................Xt                                                                                                                                                                                                                                                                                                              yX...................................................",
"........................wq                                                                                                                                                                                                                                                                                                           <.....................................................",
".........................*y                                                                                                                                                                                                                                                                                                        8%......................................................",
"..........................O5                                                                                                                                                                                                                                                                                                      q>.......................................................",
"............................@7                                                                                                                                                                                                                                                                                                   9o........................................................",
".............................X<7                                                                                                                                                                                                                                                                                               ,<..........................................................",
"...............................16                                                                                                                                                                                                                                                                                             8w...........................................................",
"................................=<                                                                                                                                                                                                                                                                                           ;*............................................................",
"..................................1q                                                                                                                                                                                                                                                                                        yo.............................................................",
"...................................X<7                                                                                                                                                                                                                                                                                    rw...............................................................",
".....................................:6                                                                                                                                                                                                                                                                                  3#................................................................",
"......................................+0                                                                                                                                                                                                                                                                                0$.................................................................",
".......................................X*7                                                                                                                                                                                                                                                                            81...................................................................",
"..........................................&7                                                                                                                                                                                                                                                                        e<.....................................................................",
"...........................................#y                                                                                                                                                                                                                                                                      9:......................................................................",
"............................................o%8                                                                                                                                                                                                                                                                   <=.......................................................................",
"..............................................@-                                                                                                                                                                                                                                                                e#X........................................................................",
"................................................*4                                                                                                                                                                                                                                                            e<X..........................................................................",
"..................................................5;                                                                                                                                                                                                                                                         y>............................................................................",
"...................................................@0                                                                                                                                                                                                                                                      4%X.............................................................................",
"....................................................X*3                                                                                                                                                                                                                                                   t@...............................................................................",
".......................................................#;                                                                                                                                                                                                                                               q*.................................................................................",
".........................................................w;                                                                                                                                                                                                                                           45...................................................................................",
"..........................................................+5;                                                                                                                                                                                                                                       r&@....................................................................................",
"............................................................=5                                                                                                                                                                                                                                     t*......................................................................................",
"..............................................................=-                                                                                                                                                                                                                                 2#........................................................................................",
"................................................................+-r                                                                                                                                                                                                                           72#..........................................................................................",
"..................................................................>tq                                                                                                                                                                                                                        y:............................................................................................",
"....................................................................*%e                                                                                                                                                                                                                    31O.............................................................................................",
"......................................................................=&                                                                                                                                                                                                                 ;>o...............................................................................................",
".........................................................................%4e                                                                                                                                                                                                          r6*..................................................................................................",
"..........................................................................O%3e                                                                                                                                                                                                      ;<>....................................................................................................",
"............................................................................$1<e                                                                                                                                                                                                  ;%@......................................................................................................",
"..............................................................................X@5                                                                                                                                                                                               91$........................................................................................................",
"..................................................................................12r                                                                                                                                                                                        8-=...........................................................................................................",
"....................................................................................@&27                                                                                                                                                                                  73%$.............................................................................................................",
"......................................................................................$1&;                                                                                                                                                                              ;01o...............................................................................................................",
".........................................................................................=>y                                                                                                                                                                          y1=..................................................................................................................",
"............................................................................................X>37e                                                                                                                                                                e72:X.....................................................................................................................",
"...............................................................................................Owy9e                                                                                                                                                           ;y%$........................................................................................................................",
"..................................................................................................=:&37                                                                                                                                                     ;<w@...........................................................................................................................",
".....................................................................................................$*:-r                                                                                                                                               8<>=X.............................................................................................................................",
".........................................................................................................X=%27e                                                                                                                                     ee2w=X.................................................................................................................................",
"..............................................................................................................=%y2;7                                                                                                                            r93&*......................................................................................................................................",
".................................................................................................................X@:&<34e                                                                                                                   76t51+.........................................................................................................................................",
".....................................................................................................................X$*>15t;                                                                                                           7201#=X............................................................................................................................................",
"...........................................................................................................................XO$@1<37                                                                                                 901=OoX................................................................................................................................................",
"....................................................................................................................................$#w<y69;qr,                                                                           erq;6-5>O........................................................................................................................................................",
"..........................................................................................................................................X=#1w&<t-y2;q8,                                                          rq93-<0%1#O.............................................................................................................................................................",
"..................................................................................................................................................XO+@##>1::5<ty647e                                      7;3-<5w:1>#@$o...................................................................................................................................................................",
".............................................................................................................................................................XXoO$$++@*#>>:%5<<ty2;448re   ,7q;63t<&%>#*=+$OoXX............................................................................................................................................................................"
};
