/* XPM */
static char *sand_xpm[] = {
"64 64 4 1",
"_ c #C2A87A",
". c #D4B98A",
"+ c #E6CCA0",
"# c #B6976A",
"_.+.+#_.+.+#_.+.+#_.+.+#_.+.+#_.+.+#_.+.+#_.+.+#_.+.+#_.+.+#",
".+.+#_.+.+#_.+.+#_.+.+#_.+.+#_.+.+#_.+.+#_.+.+#_.+.+#_.+.+#",
"+.+#_.+.+#_.+.+#_.+.+#_.+.+#_.+.+#_.+.+#_.+.+#_.+.+#_.+.+#",
"_.+.+#_.+.+#_.+.+#_.+.+#_.+.+#_.+.+#_.+.+#_.+.+#_.+.+#_.+.+#",
".+.+#_.+.+#_.+.+#_.+.+#_.+.+#_.+.+#_.+.+#_.+.+#_.+.+#_.+.+#",
"+.+#_.+.+#_.+.+#_.+.+#_.+.+#_.+.+#_.+.+#_.+.+#_.+.+#_.+.+#",
"_.+.+#_.+.+#_.+.+#_.+.+#_.+.+#_.+.+#_.+.+#_.+.+#_.+.+#_.+.+#",
".+.+#_.+.+#_.+.+#_.+.+#_.+.+#_.+.+#_.+.+#_.+.+#_.+.+#_.+.+#",
"+.+#_.+.+#_.+.+#_.+.+#_.+.+#_.+.+#_.+.+#_.+.+#_.+.+#_.+.+#",
"_.+.+#_.+.+#_.+.+#_.+.+#_.+.+#_.+.+#_.+.+#_.+.+#_.+.+#_.+.+#",
".+.+#_.+.+#_.+.+#_.+.+#_.+.+#_.+.+#_.+.+#_.+.+#_.+.+#_.+.+#",
"+.+#_.+.+#_.+.+#_.+.+#_.+.+#_.+.+#_.+.+#_.+.+#_.+.+#_.+.+#",
"_.+.+#_.+.+#_.+.+#_.+.+#_.+.+#_.+.+#_.+.+#_.+.+#_.+.+#_.+.+#",
".+.+#_.+.+#_.+.+#_.+.+#_.+.+#_.+.+#_.+.+#_.+.+#_.+.+#_.+.+#",
"+.+#_.+.+#_.+.+#_.+.+#_.+.+#_.+.+#_.+.+#_.+.+#_.+.+#_.+.+#",
"_.+.+#_.+.+#_.+.+#_.+.+#_.+.+#_.+.+#_.+.+#_.+.+#_.+.+#_.+.+#",
".+.+#_.+.+#_.+.+#_.+.+#_.+.+#_.+.+#_.+.+#_.+.+#_.+.+#_.+.+#",
"+.+#_.+.+#_.+.+#_.+.+#_.+.+#_.+.+#_.+.+#_.+.+#_.+.+#_.+.+#",
"_.+.+#_.+.+#_.+.+#_.+.+#_.+.+#_.+.+#_.+.+#_.+.+#_.+.+#_.+.+#",
".+.+#_.+.+#_.+.+#_.+.+#_.+.+#_.+.+#_.+.+#_.+.+#_.+.+#_.+.+#",
"+.+#_.+.+#_.+.+#_.+.+#_.+.+#_.+.+#_.+.+#_.+.+#_.+.+#_.+.+#",
"_.+.+#_.+.+#_.+.+#_.+.+#_.+.+#_.+.+#_.+.+#_.+.+#_.+.+#_.+.+#",
".+.+#_.+.+#_.+.+#_.+.+#_.+.+#_.+.+#_.+.+#_.+.+#_.+.+#_.+.+#",
"+.+#_.+.+#_.+.+#_.+.+#_.+.+#_.+.+#_.+.+#_.+.+#_.+.+#_.+.+#",
"_.+.+#_.+.+#_.+.+#_.+.+#_.+.+#_.+.+#_.+.+#_.+.+#_.+.+#_.+.+#",
".+.+#_.+.+#_.+.+#_.+.+#_.+.+#_.+.+#_.+.+#_.+.+#_.+.+#_.+.+#",
"+.+#_.+.+#_.+.+#_.+.+#_.+.+#_.+.+#_.+.+#_.+.+#_.+.+#_.+.+#",
"_.+.+#_.+.+#_.+.+#_.+.+#_.+.+#_.+.+#_.+.+#_.+.+#_.+.+#_.+.+#",
".+.+#_.+.+#_.+.+#_.+.+#_.+.+#_.+.+#_.+.+#_.+.+#_.+.+#_.+.+#",
"+.+#_.+.+#_.+.+#_.+.+#_.+.+#_.+.+#_.+.+#_.+.+#_.+.+#_.+.+#",
"_.+.+#_.+.+#_.+.+#_.+.+#_.+.+#_.+.+#_.+.+#_.+.+#_.+.+#_.+.+#",
".+.+#_.+.+#_.+.+#_.+.+#_.+.+#_.+.+#_.+.+#_.+.+#_.+.+#_.+.+#",
"+.+#_.+.+#_.+.+#_.+.+#_.+.+#_.+.+#_.+.+#_.+.+#_.+.+#_.+.+#",
"_.+.+#_.+.+#_.+.+#_.+.+#_.+.+#_.+.+#_.+.+#_.+.+#_.+.+#_.+.+#",
".+.+#_.+.+#_.+.+#_.+.+#_.+.+#_.+.+#_.+.+#_.+.+#_.+.+#_.+.+#",
"+.+#_.+.+#_.+.+#_.+.+#_.+.+#_.+.+#_.+.+#_.+.+#_.+.+#_.+.+#",
"_.+.+#_.+.+#_.+.+#_.+.+#_.+.+#_.+.+#_.+.+#_.+.+#_.+.+#_.+.+#",
".+.+#_.+.+#_.+.+#_.+.+#_.+.+#_.+.+#_.+.+#_.+.+#_.+.+#_.+.+#",
"+.+#_.+.+#_.+.+#_.+.+#_.+.+#_.+.+#_.+.+#_.+.+#_.+.+#_.+.+#",
"_.+.+#_.+.+#_.+.+#_.+.+#_.+.+#_.+.+#_.+.+#_.+.+#_.+.+#_.+.+#",
".+.+#_.+.+#_.+.+#_.+.+#_.+.+#_.+.+#_.+.+#_.+.+#_.+.+#_.+.+#",
"+.+#_.+.+#_.+.+#_.+.+#_.+.+#_.+.+#_.+.+#_.+.+#_.+.+#_.+.+#",
"_.+.+#_.+.+#_.+.+#_.+.+#_.+.+#_.+.+#_.+.+#_.+.+#_.+.+#_.+.+#",
".+.+#_.+.+#_.+.+#_.+.+#_.+.+#_.+.+#_.+.+#_.+.+#_.+.+#_.+.+#",
"+.+#_.+.+#_.+.+#_.+.+#_.+.+#_.+.+#_.+.+#_.+.+#_.+.+#_.+.+#",
"_.+.+#_.+.+#_.+.+#_.+.+#_.+.+#_.+.+#_.+.+#_.+.+#_.+.+#_.+.+#",
".+.+#_.+.+#_.+.+#_.+.+#_.+.+#_.+.+#_.+.+#_.+.+#_.+.+#_.+.+#",
"+.+#_.+.+#_.+.+#_.+.+#_.+.+#_.+.+#_.+.+#_.+.+#_.+.+#_.+.+#",
"_.+.+#_.+.+#_.+.+#_.+.+#_.+.+#_.+.+#_.+.+#_.+.+#_.+.+#_.+.+#",
".+.+#_.+.+#_.+.+#_.+.+#_.+.+#_.+.+#_.+.+#_.+.+#_.+.+#_.+.+#",
"+.+#_.+.+#_.+.+#_.+.+#_.+.+#_.+.+#_.+.+#_.+.+#_.+.+#_.+.+#",
"_.+.+#_.+.+#_.+.+#_.+.+#_.+.+#_.+.+#_.+.+#_.+.+#_.+.+#_.+.+#",
".+.+#_.+.+#_.+.+#_.+.+#_.+.+#_.+.+#_.+.+#_.+.+#_.+.+#_.+.+#",
"+.+#_.+.+#_.+.+#_.+.+#_.+.+#_.+.+#_.+.+#_.+.+#_.+.+#_.+.+#",
"_.+.+#_.+.+#_.+.+#_.+.+#_.+.+#_.+.+#_.+.+#_.+.+#_.+.+#_.+.+#",
".+.+#_.+.+#_.+.+#_.+.+#_.+.+#_.+.+#_.+.+#_.+.+#_.+.+#_.+.+#",
"+.+#_.+.+#_.+.+#_.+.+#_.+.+#_.+.+#_.+.+#_.+.+#_.+.+#_.+.+#",
"_.+.+#_.+.+#_.+.+#_.+.+#_.+.+#_.+.+#_.+.+#_.+.+#_.+.+#_.+.+#",
".+.+#_.+.+#_.+.+#_.+.+#_.+.+#_.+.+#_.+.+#_.+.+#_.+.+#_.+.+#",
"+.+#_.+.+#_.+.+#_.+.+#_.+.+#_.+.+#_.+.+#_.+.+#_.+.+#_.+.+#",
"_.+.+#_.+.+#_.+.+#_.+.+#_.+.+#_.+.+#_.+.+#_.+.+#_.+.+#_.+.+#",
".+.+#_.+.+#_.+.+#_.+.+#_.+.+#_.+.+#_.+.+#_.+.+#_.+.+#_.+.+#",
"+.+#_.+.+#_.+.+#_.+.+#_.+.+#_.+.+#_.+.+#_.+.+#_.+.+#_.+.+#"
};