/* XPM */
static char *_d71a2b1a959405793507c83fd361063bkUbCgtnvZeeChSW[] = {
/* columns rows colors chars-per-pixel */
"554 554 33 1 ",
"  c #DAC99C",
". c #E2D6AC",
"X c #AC9171",
"o c #BFA27E",
"O c #D3BA91",
"+ c #DECFA6",
"@ c #ECE2B9",
"# c #C4B58C",
"$ c #C9AE87",
"% c #CABD98",
"& c #DACA9D",
"* c #BDA681",
"= c #DFD1A6",
"- c #E6D9AF",
"; c #BEA07D",
": c #D4BD93",
"> c #CCB68F",
", c #D6C297",
"< c #D1C299",
"1 c #B09574",
"2 c #C9B98F",
"3 c #C0AB88",
"4 c #A88B6C",
"5 c #E8DEB4",
"6 c #B69A78",
"7 c #F0E7BE",
"8 c #AD9272",
"9 c #CCB78E",
"0 c #C9B189",
"q c #CFBF94",
"w c #CEC19B",
"e c #DACBA3",
"r c #C4B18E",
/* pixels */
"..................................-@@@@@@@@@@@@@@@@@@@@@@@@@@@@@@@@@@@@@@@@@@@@@@@@@@@@@@@@@@@@@@@@@@@@@..........................................................................................................................................5@@@@@@@@@@@@@@@@@@@@@@@@@@@@@@@@@@@@@@@@@@@@@@@@@@@@@@@@@@@@@@@@@@@@5.......................................................................................................5@@@@@@@@@@@@@@@@@@@@@@@@@@@@@@@@@@..................................-@@@@@@@@@@@@@@@@@@@@@@@@@@@@@@@@@7>;ooooooooooooooooooooooooooooooooo",
"..................................-@@@@@@@@@@@@@@@@@@@@@@@@@@@@@@@@@@@@@@@@@@@@@@@@@@@@@@@@@@@@@@@@@@@@@..........................................................................................................................................5@@@@@@@@@@@@@@@@@@@@@@@@@@@@@@@@@@@@@@@@@@@@@@@@@@@@@@@@@@@@@@@@@@@@5.......................................................................................................5@@@@@@@@@@@@@@@@@@@@@@@@@@@@@@@@@@..................................-@@@@@@@@@@@@@@@@@@@@@@@@@@@@@@@@@7>;ooooooooooooooooooooooooooooooooo",
"..................................-@@@@@@@@@@@@@@@@@@@@@@@@@@@@@@@@@@@@@@@@@@@@@@@@@@@@@@@@@@@@@@@@@@@@@..........................................................................................................................................5@@@@@@@@@@@@@@@@@@@@@@@@@@@@@@@@@@@@@@@@@@@@@@@@@@@@@@@@@@@@@@@@@@@@5.......................................................................................................5@@@@@@@@@@@@@@@@@@@@@@@@@@@@@@@@@@..................................-@@@@@@@@@@@@@@@@@@@@@@@@@@@@@@@@@7>;ooooooooooooooooooooooooooooooooo",
"..................................-@@@@@@@@@@@@@@@@@@@@@@@@@@@@@@@@@@@@@@@@@@@@@@@@@@@@@@@@@@@@@@@@@@@@@..........................................................................................................................................5@@@@@@@@@@@@@@@@@@@@@@@@@@@@@@@@@@@@@@@@@@@@@@@@@@@@@@@@@@@@@@@@@@@@5.......................................................................................................5@@@@@@@@@@@@@@@@@@@@@@@@@@@@@@@@@@..................................-@@@@@@@@@@@@@@@@@@@@@@@@@@@@@@@@@7>;ooooooooooooooooooooooooooooooooo",
"..................................-@@@@@@@@@@@@@@@@@@@@@@@@@@@@@@@@@@@@@@@@@@@@@@@@@@@@@@@@@@@@@@@@@@@@@..........................................................................................................................................5@@@@@@@@@@@@@@@@@@@@@@@@@@@@@@@@@@@@@@@@@@@@@@@@@@@@@@@@@@@@@@@@@@@@5.......................................................................................................5@@@@@@@@@@@@@@@@@@@@@@@@@@@@@@@@@@..................................-@@@@@@@@@@@@@@@@@@@@@@@@@@@@@@@@@7>;ooooooooooooooooooooooooooooooooo",
"..................................-@@@@@@@@@@@@@@@@@@@@@@@@@@@@@@@@@@@@@@@@@@@@@@@@@@@@@@@@@@@@@@@@@@@@@..........................................................................................................................................5@@@@@@@@@@@@@@@@@@@@@@@@@@@@@@@@@@@@@@@@@@@@@@@@@@@@@@@@@@@@@@@@@@@@5.......................................................................................................5@@@@@@@@@@@@@@@@@@@@@@@@@@@@@@@@@@..................................-@@@@@@@@@@@@@@@@@@@@@@@@@@@@@@@@@7>;ooooooooooooooooooooooooooooooooo",
"..................................-@@@@@@@@@@@@@@@@@@@@@@@@@@@@@@@@@@@@@@@@@@@@@@@@@@@@@@@@@@@@@@@@@@@@@..........................................................................................................................................5@@@@@@@@@@@@@@@@@@@@@@@@@@@@@@@@@@@@@@@@@@@@@@@@@@@@@@@@@@@@@@@@@@@@5.......................................................................................................5@@@@@@@@@@@@@@@@@@@@@@@@@@@@@@@@@@..................................-@@@@@@@@@@@@@@@@@@@@@@@@@@@@@@@@@7>;ooooooooooooooooooooooooooooooooo",
"..................................-@@@@@@@@@@@@@@@@@@@@@@@@@@@@@@@@@@@@@@@@@@@@@@@@@@@@@@@@@@@@@@@@@@@@@..........................................................................................................................................5@@@@@@@@@@@@@@@@@@@@@@@@@@@@@@@@@@@@@@@@@@@@@@@@@@@@@@@@@@@@@@@@@@@@5.......................................................................................................5@@@@@@@@@@@@@@@@@@@@@@@@@@@@@@@@@@..................................-@@@@@@@@@@@@@@@@@@@@@@@@@@@@@@@@@7>;ooooooooooooooooooooooooooooooooo",
"..................................-@@@@@@@@@@@@@@@@@@@@@@@@@@@@@@@@@@@@@@@@@@@@@@@@@@@@@@@@@@@@@@@@@@@@@..........................................................................................................................................5@@@@@@@@@@@@@@@@@@@@@@@@@@@@@@@@@@@@@@@@@@@@@@@@@@@@@@@@@@@@@@@@@@@@5.......................................................................................................5@@@@@@@@@@@@@@@@@@@@@@@@@@@@@@@@@@..................................-@@@@@@@@@@@@@@@@@@@@@@@@@@@@@@@@@7>;ooooooooooooooooooooooooooooooooo",
"..................................-@@@@@@@@@@@@@@@@@@@@@@@@@@@@@@@@@@@@@@@@@@@@@@@@@@@@@@@@@@@@@@@@@@@@@..........................................................................................................................................5@@@@@@@@@@@@@@@@@@@@@@@@@@@@@@@@@@@@@@@@@@@@@@@@@@@@@@@@@@@@@@@@@@@@5.......................................................................................................5@@@@@@@@@@@@@@@@@@@@@@@@@@@@@@@@@@..................................-@@@@@@@@@@@@@@@@@@@@@@@@@@@@@@@@@7>;ooooooooooooooooooooooooooooooooo",
"..................................-@@@@@@@@@@@@@@@@@@@@@@@@@@@@@@@@@@@@@@@@@@@@@@@@@@@@@@@@@@@@@@@@@@@@@..........................................................................................................................................5@@@@@@@@@@@@@@@@@@@@@@@@@@@@@@@@@@@@@@@@@@@@@@@@@@@@@@@@@@@@@@@@@@@@5.......................................................................................................5@@@@@@@@@@@@@@@@@@@@@@@@@@@@@@@@@@..................................-@@@@@@@@@@@@@@@@@@@@@@@@@@@@@@@@@7>;ooooooooooooooooooooooooooooooooo",
"..................................-@@@@@@@@@@@@@@@@@@@@@@@@@@@@@@@@@@@@@@@@@@@@@@@@@@@@@@@@@@@@@@@@@@@@@..........................................................................................................................................5@@@@@@@@@@@@@@@@@@@@@@@@@@@@@@@@@@@@@@@@@@@@@@@@@@@@@@@@@@@@@@@@@@@@5.......................................................................................................5@@@@@@@@@@@@@@@@@@@@@@@@@@@@@@@@@@..................................-@@@@@@@@@@@@@@@@@@@@@@@@@@@@@@@@@7>;ooooooooooooooooooooooooooooooooo",
"..................................-@@@@@@@@@@@@@@@@@@@@@@@@@@@@@@@@@@@@@@@@@@@@@@@@@@@@@@@@@@@@@@@@@@@@@..........................................................................................................................................5@@@@@@@@@@@@@@@@@@@@@@@@@@@@@@@@@@@@@@@@@@@@@@@@@@@@@@@@@@@@@@@@@@@@5.......................................................................................................5@@@@@@@@@@@@@@@@@@@@@@@@@@@@@@@@@@..................................-@@@@@@@@@@@@@@@@@@@@@@@@@@@@@@@@@7>;ooooooooooooooooooooooooooooooooo",
"..................................-@@@@@@@@@@@@@@@@@@@@@@@@@@@@@@@@@@@@@@@@@@@@@@@@@@@@@@@@@@@@@@@@@@@@@..........................................................................................................................................5@@@@@@@@@@@@@@@@@@@@@@@@@@@@@@@@@@@@@@@@@@@@@@@@@@@@@@@@@@@@@@@@@@@@5.......................................................................................................5@@@@@@@@@@@@@@@@@@@@@@@@@@@@@@@@@@..................................-@@@@@@@@@@@@@@@@@@@@@@@@@@@@@@@@@7>;ooooooooooooooooooooooooooooooooo",
"..................................-@@@@@@@@@@@@@@@@@@@@@@@@@@@@@@@@@@@@@@@@@@@@@@@@@@@@@@@@@@@@@@@@@@@@@..........................................................................................................................................5@@@@@@@@@@@@@@@@@@@@@@@@@@@@@@@@@@@@@@@@@@@@@@@@@@@@@@@@@@@@@@@@@@@@5.......................................................................................................5@@@@@@@@@@@@@@@@@@@@@@@@@@@@@@@@@@..................................-@@@@@@@@@@@@@@@@@@@@@@@@@@@@@@@@@7>;ooooooooooooooooooooooooooooooooo",
"..................................-@@@@@@@@@@@@@@@@@@@@@@@@@@@@@@@@@@@@@@@@@@@@@@@@@@@@@@@@@@@@@@@@@@@@@..........................................................................................................................................5@@@@@@@@@@@@@@@@@@@@@@@@@@@@@@@@@@@@@@@@@@@@@@@@@@@@@@@@@@@@@@@@@@@@5.......................................................................................................5@@@@@@@@@@@@@@@@@@@@@@@@@@@@@@@@@@..................................-@@@@@@@@@@@@@@@@@@@@@@@@@@@@@@@@@7>;ooooooooooooooooooooooooooooooooo",
"..................................-@@@@@@@@@@@@@@@@@@@@@@@@@@@@@@@@@@@@@@@@@@@@@@@@@@@@@@@@@@@@@@@@@@@@@..........................................................................................................................................5@@@@@@@@@@@@@@@@@@@@@@@@@@@@@@@@@@@@@@@@@@@@@@@@@@@@@@@@@@@@@@@@@@@@5.......................................................................................................5@@@@@@@@@@@@@@@@@@@@@@@@@@@@@@@@@@..................................-@@@@@@@@@@@@@@@@@@@@@@@@@@@@@@@@@7>;ooooooooooooooooooooooooooooooooo",
"..................................-@@@@@@@@@@@@@@@@@@@@@@@@@@@@@@@@@@@@@@@@@@@@@@@@@@@@@@@@@@@@@@@@@@@@@..........................................................................................................................................5@@@@@@@@@@@@@@@@@@@@@@@@@@@@@@@@@@@@@@@@@@@@@@@@@@@@@@@@@@@@@@@@@@@@5.......................................................................................................5@@@@@@@@@@@@@@@@@@@@@@@@@@@@@@@@@@..................................-@@@@@@@@@@@@@@@@@@@@@@@@@@@@@@@@@7>;ooooooooooooooooooooooooooooooooo",
"..................................-@@@@@@@@@@@@@@@@@@@@@@@@@@@@@@@@@@@@@@@@@@@@@@@@@@@@@@@@@@@@@@@@@@@@@..........................................................................................................................................5@@@@@@@@@@@@@@@@@@@@@@@@@@@@@@@@@@@@@@@@@@@@@@@@@@@@@@@@@@@@@@@@@@@@5.......................................................................................................5@@@@@@@@@@@@@@@@@@@@@@@@@@@@@@@@@@..................................-@@@@@@@@@@@@@@@@@@@@@@@@@@@@@@@@@7>;ooooooooooooooooooooooooooooooooo",
"..................................-@@@@@@@@@@@@@@@@@@@@@@@@@@@@@@@@@@@@@@@@@@@@@@@@@@@@@@@@@@@@@@@@@@@@@..........................................................................................................................................5@@@@@@@@@@@@@@@@@@@@@@@@@@@@@@@@@@@@@@@@@@@@@@@@@@@@@@@@@@@@@@@@@@@@5.......................................................................................................5@@@@@@@@@@@@@@@@@@@@@@@@@@@@@@@@@@..................................-@@@@@@@@@@@@@@@@@@@@@@@@@@@@@@@@@7>;ooooooooooooooooooooooooooooooooo",
"..................................-@@@@@@@@@@@@@@@@@@@@@@@@@@@@@@@@@@@@@@@@@@@@@@@@@@@@@@@@@@@@@@@@@@@@@..........................................................................................................................................5@@@@@@@@@@@@@@@@@@@@@@@@@@@@@@@@@@@@@@@@@@@@@@@@@@@@@@@@@@@@@@@@@@@@5.......................................................................................................5@@@@@@@@@@@@@@@@@@@@@@@@@@@@@@@@@@..................................-@@@@@@@@@@@@@@@@@@@@@@@@@@@@@@@@@7>;ooooooooooooooooooooooooooooooooo",
"..................................-@@@@@@@@@@@@@@@@@@@@@@@@@@@@@@@@@@@@@@@@@@@@@@@@@@@@@@@@@@@@@@@@@@@@@..........................................................................................................................................5@@@@@@@@@@@@@@@@@@@@@@@@@@@@@@@@@@@@@@@@@@@@@@@@@@@@@@@@@@@@@@@@@@@@5.......................................................................................................5@@@@@@@@@@@@@@@@@@@@@@@@@@@@@@@@@@..................................-@@@@@@@@@@@@@@@@@@@@@@@@@@@@@@@@@7>;ooooooooooooooooooooooooooooooooo",
"..................................-@@@@@@@@@@@@@@@@@@@@@@@@@@@@@@@@@@@@@@@@@@@@@@@@@@@@@@@@@@@@@@@@@@@@@..........................................................................................................................................5@@@@@@@@@@@@@@@@@@@@@@@@@@@@@@@@@@@@@@@@@@@@@@@@@@@@@@@@@@@@@@@@@@@@5.......................................................................................................5@@@@@@@@@@@@@@@@@@@@@@@@@@@@@@@@@@..................................-@@@@@@@@@@@@@@@@@@@@@@@@@@@@@@@@@7>;ooooooooooooooooooooooooooooooooo",
"..................................-@@@@@@@@@@@@@@@@@@@@@@@@@@@@@@@@@@@@@@@@@@@@@@@@@@@@@@@@@@@@@@@@@@@@@..........................................................................................................................................5@@@@@@@@@@@@@@@@@@@@@@@@@@@@@@@@@@@@@@@@@@@@@@@@@@@@@@@@@@@@@@@@@@@@5.......................................................................................................5@@@@@@@@@@@@@@@@@@@@@@@@@@@@@@@@@@..................................-@@@@@@@@@@@@@@@@@@@@@@@@@@@@@@@@@7>;ooooooooooooooooooooooooooooooooo",
"..................................-@@@@@@@@@@@@@@@@@@@@@@@@@@@@@@@@@@@@@@@@@@@@@@@@@@@@@@@@@@@@@@@@@@@@@..........................................................................................................................................5@@@@@@@@@@@@@@@@@@@@@@@@@@@@@@@@@@@@@@@@@@@@@@@@@@@@@@@@@@@@@@@@@@@@5.......................................................................................................5@@@@@@@@@@@@@@@@@@@@@@@@@@@@@@@@@@..................................-@@@@@@@@@@@@@@@@@@@@@@@@@@@@@@@@@7>;ooooooooooooooooooooooooooooooooo",
"..................................-@@@@@@@@@@@@@@@@@@@@@@@@@@@@@@@@@@@@@@@@@@@@@@@@@@@@@@@@@@@@@@@@@@@@@..........................................................................................................................................5@@@@@@@@@@@@@@@@@@@@@@@@@@@@@@@@@@@@@@@@@@@@@@@@@@@@@@@@@@@@@@@@@@@@5.......................................................................................................5@@@@@@@@@@@@@@@@@@@@@@@@@@@@@@@@@@..................................-@@@@@@@@@@@@@@@@@@@@@@@@@@@@@@@@@7>;ooooooooooooooooooooooooooooooooo",
"..................................-@@@@@@@@@@@@@@@@@@@@@@@@@@@@@@@@@@@@@@@@@@@@@@@@@@@@@@@@@@@@@@@@@@@@@..........................................................................................................................................5@@@@@@@@@@@@@@@@@@@@@@@@@@@@@@@@@@@@@@@@@@@@@@@@@@@@@@@@@@@@@@@@@@@@5.......................................................................................................5@@@@@@@@@@@@@@@@@@@@@@@@@@@@@@@@@@..................................-@@@@@@@@@@@@@@@@@@@@@@@@@@@@@@@@@7>;ooooooooooooooooooooooooooooooooo",
"..................................-@@@@@@@@@@@@@@@@@@@@@@@@@@@@@@@@@@@@@@@@@@@@@@@@@@@@@@@@@@@@@@@@@@@@@..........................................................................................................................................5@@@@@@@@@@@@@@@@@@@@@@@@@@@@@@@@@@@@@@@@@@@@@@@@@@@@@@@@@@@@@@@@@@@@5.......................................................................................................5@@@@@@@@@@@@@@@@@@@@@@@@@@@@@@@@@@..................................-@@@@@@@@@@@@@@@@@@@@@@@@@@@@@@@@@7>;ooooooooooooooooooooooooooooooooo",
"..................................-@@@@@@@@@@@@@@@@@@@@@@@@@@@@@@@@@@@@@@@@@@@@@@@@@@@@@@@@@@@@@@@@@@@@@..........................................................................................................................................5@@@@@@@@@@@@@@@@@@@@@@@@@@@@@@@@@@@@@@@@@@@@@@@@@@@@@@@@@@@@@@@@@@@@5.......................................................................................................5@@@@@@@@@@@@@@@@@@@@@@@@@@@@@@@@@@..................................-@@@@@@@@@@@@@@@@@@@@@@@@@@@@@@@@@7>;ooooooooooooooooooooooooooooooooo",
"..................................-@@@@@@@@@@@@@@@@@@@@@@@@@@@@@@@@@@@@@@@@@@@@@@@@@@@@@@@@@@@@@@@@@@@@@..........................................................................................................................................5@@@@@@@@@@@@@@@@@@@@@@@@@@@@@@@@@@@@@@@@@@@@@@@@@@@@@@@@@@@@@@@@@@@@5.......................................................................................................5@@@@@@@@@@@@@@@@@@@@@@@@@@@@@@@@@@..................................-@@@@@@@@@@@@@@@@@@@@@@@@@@@@@@@@@7>;ooooooooooooooooooooooooooooooooo",
"..................................-@@@@@@@@@@@@@@@@@@@@@@@@@@@@@@@@@@@@@@@@@@@@@@@@@@@@@@@@@@@@@@@@@@@@@..........................................................................................................................................5@@@@@@@@@@@@@@@@@@@@@@@@@@@@@@@@@@@@@@@@@@@@@@@@@@@@@@@@@@@@@@@@@@@@5.......................................................................................................5@@@@@@@@@@@@@@@@@@@@@@@@@@@@@@@@@@..................................-@@@@@@@@@@@@@@@@@@@@@@@@@@@@@@@@@7>;ooooooooooooooooooooooooooooooooo",
"..................................-@@@@@@@@@@@@@@@@@@@@@@@@@@@@@@@@@@@@@@@@@@@@@@@@@@@@@@@@@@@@@@@@@@@@@..........................................................................................................................................5@@@@@@@@@@@@@@@@@@@@@@@@@@@@@@@@@@@@@@@@@@@@@@@@@@@@@@@@@@@@@@@@@@@@5.......................................................................................................5@@@@@@@@@@@@@@@@@@@@@@@@@@@@@@@@@@..................................-@@@@@@@@@@@@@@@@@@@@@@@@@@@@@@@@@7>;ooooooooooooooooooooooooooooooooo",
"..................................-@@@@@@@@@@@@@@@@@@@@@@@@@@@@@@@@@@@@@@@@@@@@@@@@@@@@@@@@@@@@@@@@@@@@@..........................................................................................................................................5@@@@@@@@@@@@@@@@@@@@@@@@@@@@@@@@@@@@@@@@@@@@@@@@@@@@@@@@@@@@@@@@@@@@5.......................................................................................................5@@@@@@@@@@@@@@@@@@@@@@@@@@@@@@@@@@..................................-@@@@@@@@@@@@@@@@@@@@@@@@@@@@@@@@@7>;ooooooooooooooooooooooooooooooooo",
"..................................-@@@@@@@@@@@@@@@@@@@@@@@@@@@@@@@@@@@@@@@@@@@@@@@@@@@@@@@@@@@@@@@@@@@@@..........................................................................................................................................5@@@@@@@@@@@@@@@@@@@@@@@@@@@@@@@@@@@@@@@@@@@@@@@@@@@@@@@@@@@@@@@@@@@@5.......................................................................................................5@@@@@@@@@@@@@@@@@@@@@@@@@@@@@@@@@@..................................-@@@@@@@@@@@@@@@@@@@@@@@@@@@@@@@@@7>;ooooooooooooooooooooooooooooooooo",
"...................................---------------------------------------------------------------------==========================================================================================================================================.--------------------------------------------------------------------.=======================================================================================================.----------------------------------===================================---------------------------------->6666666666666666666666666666666666",
"..................................=                                                                                                                                                                                                                                                                                                                                                                                                                                                                                                    *4XXXXXXXXXXXXXXXXXXXXXXXXXXXXXXXXX",
"..................................=                                                                                                                                                                                                                                                                                                                                                                                                                                                                                                   &*XXXXXXXXXXXXXXXXXXXXXXXXXXXXXXXXXX",
"..................................=                                                                                                                                                                                                                                                                                                                                                                                                                                                                                                   &*XXXXXXXXXXXXXXXXXXXXXXXXXXXXXXXXXX",
"..................................=                                                                                                                                                                                                                                                                                                                                                                                                                                                                                                   &*XXXXXXXXXXXXXXXXXXXXXXXXXXXXXXXXXX",
"..................................=                                                                                                                                                                                                                                                                                                                                                                                                                                                                                                   &*XXXXXXXXXXXXXXXXXXXXXXXXXXXXXXXXXX",
"..................................=                                                                                                                                                                                                                                                                                                                                                                                                                                                                                                   &*XXXXXXXXXXXXXXXXXXXXXXXXXXXXXXXXXX",
"..................................=                                                                                                                                                                                                                                                                                                                                                                                                                                                                                                   &*XXXXXXXXXXXXXXXXXXXXXXXXXXXXXXXXXX",
"..................................=                                                                                                                                                                                                                                                                                                                                                                                                                                                                                                   &*XXXXXXXXXXXXXXXXXXXXXXXXXXXXXXXXXX",
"..................................=                                                                                                                                                                                                                                                                                                                                                                                                                                                                                                   &*XXXXXXXXXXXXXXXXXXXXXXXXXXXXXXXXXX",
"..................................=                                                                                                                                                                                                                                                                                                                                                                                                                                                                                                   &*XXXXXXXXXXXXXXXXXXXXXXXXXXXXXXXXXX",
"..................................=                                                                                                                                                                                                                                                                                                                                                                                                                                                                                                   &*XXXXXXXXXXXXXXXXXXXXXXXXXXXXXXXXXX",
"..................................=                                                                                                                                                                                                                                                                                                                                                                                                                                                                                                   &*XXXXXXXXXXXXXXXXXXXXXXXXXXXXXXXXXX",
"..................................=                                                                                                                                                                                                                                                                                                                                                                                                                                                                                                   &*XXXXXXXXXXXXXXXXXXXXXXXXXXXXXXXXXX",
"..................................=                                                                                                                                                                                                                                                                                                                                                                                                                                                                                                   &*XXXXXXXXXXXXXXXXXXXXXXXXXXXXXXXXXX",
"..................................=                                                                                                                                                                                                                                                                                                                                                                                                                                                                                                   &*XXXXXXXXXXXXXXXXXXXXXXXXXXXXXXXXXX",
"..................................=                                                                                                                                                                                                                                                                                                                                                                                                                                                                                                   &*XXXXXXXXXXXXXXXXXXXXXXXXXXXXXXXXXX",
"..................................=                                                                                                                                                                                                                                                                                                                                                                                                                                                                                                   &*XXXXXXXXXXXXXXXXXXXXXXXXXXXXXXXXXX",
"..................................=                                                                                                                                                                                                                                                                                                                                                                                                                                                                                                   &*XXXXXXXXXXXXXXXXXXXXXXXXXXXXXXXXXX",
"..................................=                                                                                                                                                                                                                                                                                                                                                                                                                                                                                                   &*XXXXXXXXXXXXXXXXXXXXXXXXXXXXXXXXXX",
"..................................=                                                                                                                                                                                                                                                                                                                                                                                                                                                                                                   &*XXXXXXXXXXXXXXXXXXXXXXXXXXXXXXXXXX",
"..................................=                                                                                                                                                                                                                                                                                                                                                                                                                                                                                                   &*XXXXXXXXXXXXXXXXXXXXXXXXXXXXXXXXXX",
"..................................=                                                                                                                                                                                                                                                                                                                                                                                                                                                                                                   &*XXXXXXXXXXXXXXXXXXXXXXXXXXXXXXXXXX",
"..................................=                                                                                                                                                                                                                                                                                                                                                                                                                                                                                                   &*XXXXXXXXXXXXXXXXXXXXXXXXXXXXXXXXXX",
"..................................=                                                                                                                                                                                                                                                                                                                                                                                                                                                                                                   &*XXXXXXXXXXXXXXXXXXXXXXXXXXXXXXXXXX",
"..................................=                                                                                                                                                                                                                                                                                                                                                                                                                                                                                                   &*XXXXXXXXXXXXXXXXXXXXXXXXXXXXXXXXXX",
"..................................=                                                                                                                                                                                                                                                                                                                                                                                                                                                                                                   &*XXXXXXXXXXXXXXXXXXXXXXXXXXXXXXXXXX",
"..................................=                                                                                                                                                                                                                                                                                                                                                                                                                                                                                                   &*XXXXXXXXXXXXXXXXXXXXXXXXXXXXXXXXXX",
"..................................=                                                                                                                                                                                                                                                                                                                                                                                                                                                                                                   &*XXXXXXXXXXXXXXXXXXXXXXXXXXXXXXXXXX",
"..................................=                                                                                                                                                                                                                                                                                                                                                                                                                                                                                                   &*XXXXXXXXXXXXXXXXXXXXXXXXXXXXXXXXXX",
"..................................=                                                                                                                                                                                                                                                                                                                                                                                                                                                                                                   &*XXXXXXXXXXXXXXXXXXXXXXXXXXXXXXXXXX",
"..................................=                                                                                                                                                                                                                                                                                                                                                                                                                                                                                                   &*XXXXXXXXXXXXXXXXXXXXXXXXXXXXXXXXXX",
"..................................=                                                                                                                                                                                                                                                                                                                                                                                                                                                                                                   &*XXXXXXXXXXXXXXXXXXXXXXXXXXXXXXXXXX",
"..................................=                                                                                                                                                                                                                                                                                                                                                                                                                                                                                                   &*XXXXXXXXXXXXXXXXXXXXXXXXXXXXXXXXXX",
"..................................=                                                                                                                                                                                                                                                                                                                       &&&&&&&&&&&&&&&&&&&&&&&&&&&&&&&&&&&&&&&&&&&&&&&&&&&&&&&&&&&&&&&&&&&&&                                                                                                       &*XXXXXXXXXXXXXXXXXXXXXXXXXXXXXXXXXX",
"..................................=                                                                                                                                                                                                               q22222222222222222222222222222222222222222222222222222222222222222222<++++++++++++++++++++++++++++++++++,::::::::::::::::::::::::::::::::::::::::::::::::::::::::::::::::::::,                                                                                                      &*XXXXXXXXXXXXXXXXXXXXXXXXXXXXXXXXXX",
"..................................=                                                                                                                                                                                                               2####################################################################q++++++++++++++++++++++++++++++++++:OOOOOOOOOOOOOOOOOOOOOOOOOOOOOOOOOOOOOOOOOOOOOOOOOOOOOOOOOOOOOOOOOOOO,&                                                                                                     &*XXXXXXXXXXXXXXXXXXXXXXXXXXXXXXXXXX",
"..................................=                                                                                                                                                                                                               2####################################################################<++++++++++++++++++++++++++++++++++:OOOOOOOOOOOOOOOOOOOOOOOOOOOOOOOOOOOOOOOOOOOOOOOOOOOOOOOOOOOOOOOOOOOO,&                                                                                                     &*XXXXXXXXXXXXXXXXXXXXXXXXXXXXXXXXXX",
"..................................=                                                                                                                                                                                                               2####################################################################<++++++++++++++++++++++++++++++++++:OOOOOOOOOOOOOOOOOOOOOOOOOOOOOOOOOOOOOOOOOOOOOOOOOOOOOOOOOOOOOOOOOOOO,&                                                                                                     &*XXXXXXXXXXXXXXXXXXXXXXXXXXXXXXXXXX",
"..................................=                                                                                                                                                                                                               2####################################################################<++++++++++++++++++++++++++++++++++:OOOOOOOOOOOOOOOOOOOOOOOOOOOOOOOOOOOOOOOOOOOOOOOOOOOOOOOOOOOOOOOOOOOO,&                                                                                                     &*XXXXXXXXXXXXXXXXXXXXXXXXXXXXXXXXXX",
"..................................=                                                                                                                                                                                                               2####################################################################<++++++++++++++++++++++++++++++++++:OOOOOOOOOOOOOOOOOOOOOOOOOOOOOOOOOOOOOOOOOOOOOOOOOOOOOOOOOOOOOOOOOOOO,&                                                                                                     &*XXXXXXXXXXXXXXXXXXXXXXXXXXXXXXXXXX",
"..................................=                                                                                                                                                                                                               2####################################################################<++++++++++++++++++++++++++++++++++:OOOOOOOOOOOOOOOOOOOOOOOOOOOOOOOOOOOOOOOOOOOOOOOOOOOOOOOOOOOOOOOOOOOO,&                                                                                                     &*XXXXXXXXXXXXXXXXXXXXXXXXXXXXXXXXXX",
"..................................=                                                                                                                                                                                                               2####################################################################<++++++++++++++++++++++++++++++++++:OOOOOOOOOOOOOOOOOOOOOOOOOOOOOOOOOOOOOOOOOOOOOOOOOOOOOOOOOOOOOOOOOOOO,&                                                                                                     &*XXXXXXXXXXXXXXXXXXXXXXXXXXXXXXXXXX",
"..................................=                                                                                                                                                                                                               2####################################################################<++++++++++++++++++++++++++++++++++:OOOOOOOOOOOOOOOOOOOOOOOOOOOOOOOOOOOOOOOOOOOOOOOOOOOOOOOOOOOOOOOOOOOO,&                                                                                                     &*XXXXXXXXXXXXXXXXXXXXXXXXXXXXXXXXXX",
"..................................=                                                                                                                                                                                                               2####################################################################<++++++++++++++++++++++++++++++++++:OOOOOOOOOOOOOOOOOOOOOOOOOOOOOOOOOOOOOOOOOOOOOOOOOOOOOOOOOOOOOOOOOOOO,&                                                                                                     &*XXXXXXXXXXXXXXXXXXXXXXXXXXXXXXXXXX",
"..................................=                                                                                                                                                                                                               2####################################################################<++++++++++++++++++++++++++++++++++:OOOOOOOOOOOOOOOOOOOOOOOOOOOOOOOOOOOOOOOOOOOOOOOOOOOOOOOOOOOOOOOOOOOO,&                                                                                                     &*XXXXXXXXXXXXXXXXXXXXXXXXXXXXXXXXXX",
"..................................=                                                                                                                                                                                                               2####################################################################<++++++++++++++++++++++++++++++++++:OOOOOOOOOOOOOOOOOOOOOOOOOOOOOOOOOOOOOOOOOOOOOOOOOOOOOOOOOOOOOOOOOOOO,&                                                                                                     &*XXXXXXXXXXXXXXXXXXXXXXXXXXXXXXXXXX",
"..................................=                                                                                                                                                                                                               2####################################################################<++++++++++++++++++++++++++++++++++:OOOOOOOOOOOOOOOOOOOOOOOOOOOOOOOOOOOOOOOOOOOOOOOOOOOOOOOOOOOOOOOOOOOO,&                                                                                                     &*XXXXXXXXXXXXXXXXXXXXXXXXXXXXXXXXXX",
"..................................=                                                                                                                                                                                                               2####################################################################<++++++++++++++++++++++++++++++++++:OOOOOOOOOOOOOOOOOOOOOOOOOOOOOOOOOOOOOOOOOOOOOOOOOOOOOOOOOOOOOOOOOOOO,&                                                                                                     &*XXXXXXXXXXXXXXXXXXXXXXXXXXXXXXXXXX",
"..................................=                                                                                                                                                                                                               2####################################################################<++++++++++++++++++++++++++++++++++:OOOOOOOOOOOOOOOOOOOOOOOOOOOOOOOOOOOOOOOOOOOOOOOOOOOOOOOOOOOOOOOOOOOO,&                                                                                                     &*XXXXXXXXXXXXXXXXXXXXXXXXXXXXXXXXXX",
"..................................=                                                                                                                                                                                                               2####################################################################<++++++++++++++++++++++++++++++++++:OOOOOOOOOOOOOOOOOOOOOOOOOOOOOOOOOOOOOOOOOOOOOOOOOOOOOOOOOOOOOOOOOOOO,&                                                                                                     &*XXXXXXXXXXXXXXXXXXXXXXXXXXXXXXXXXX",
"..................................=                                                                                                                                                                                                               2####################################################################<++++++++++++++++++++++++++++++++++:OOOOOOOOOOOOOOOOOOOOOOOOOOOOOOOOOOOOOOOOOOOOOOOOOOOOOOOOOOOOOOOOOOOO,&                                                                                                     &*XXXXXXXXXXXXXXXXXXXXXXXXXXXXXXXXXX",
"..................................=                                                                                                                                                                                                               2####################################################################<++++++++++++++++++++++++++++++++++:OOOOOOOOOOOOOOOOOOOOOOOOOOOOOOOOOOOOOOOOOOOOOOOOOOOOOOOOOOOOOOOOOOOO,&                                                                                                     &*XXXXXXXXXXXXXXXXXXXXXXXXXXXXXXXXXX",
"..................................=                                                                                                                                                                                                               2####################################################################<++++++++++++++++++++++++++++++++++:OOOOOOOOOOOOOOOOOOOOOOOOOOOOOOOOOOOOOOOOOOOOOOOOOOOOOOOOOOOOOOOOOOOO,&                                                                                                     &*XXXXXXXXXXXXXXXXXXXXXXXXXXXXXXXXXX",
"..................................=                                                                                                                                                                                                               2####################################################################<++++++++++++++++++++++++++++++++++:OOOOOOOOOOOOOOOOOOOOOOOOOOOOOOOOOOOOOOOOOOOOOOOOOOOOOOOOOOOOOOOOOOOO,&                                                                                                     &*XXXXXXXXXXXXXXXXXXXXXXXXXXXXXXXXXX",
"..................................=                                                                                                                                                                                                               2####################################################################<++++++++++++++++++++++++++++++++++:OOOOOOOOOOOOOOOOOOOOOOOOOOOOOOOOOOOOOOOOOOOOOOOOOOOOOOOOOOOOOOOOOOOO,&                                                                                                     &*XXXXXXXXXXXXXXXXXXXXXXXXXXXXXXXXXX",
"..................................=                                                                                                                                                                                                               2####################################################################<++++++++++++++++++++++++++++++++++:OOOOOOOOOOOOOOOOOOOOOOOOOOOOOOOOOOOOOOOOOOOOOOOOOOOOOOOOOOOOOOOOOOOO,&                                                                                                     &*XXXXXXXXXXXXXXXXXXXXXXXXXXXXXXXXXX",
"..................................=                                                                                                                                                                                                               2####################################################################<++++++++++++++++++++++++++++++++++:OOOOOOOOOOOOOOOOOOOOOOOOOOOOOOOOOOOOOOOOOOOOOOOOOOOOOOOOOOOOOOOOOOOO,&                                                                                                     &*XXXXXXXXXXXXXXXXXXXXXXXXXXXXXXXXXX",
"..................................=                                                                                                                                                                                                               2####################################################################<++++++++++++++++++++++++++++++++++:OOOOOOOOOOOOOOOOOOOOOOOOOOOOOOOOOOOOOOOOOOOOOOOOOOOOOOOOOOOOOOOOOOOO,&                                                                                                     &*XXXXXXXXXXXXXXXXXXXXXXXXXXXXXXXXXX",
"..................................=                                                                                                                                                                                                               2####################################################################<++++++++++++++++++++++++++++++++++:OOOOOOOOOOOOOOOOOOOOOOOOOOOOOOOOOOOOOOOOOOOOOOOOOOOOOOOOOOOOOOOOOOOO,&                                                                                                     &*XXXXXXXXXXXXXXXXXXXXXXXXXXXXXXXXXX",
"..................................=                                                                                                                                                                                                               2####################################################################<++++++++++++++++++++++++++++++++++:OOOOOOOOOOOOOOOOOOOOOOOOOOOOOOOOOOOOOOOOOOOOOOOOOOOOOOOOOOOOOOOOOOOO,&                                                                                                     &*XXXXXXXXXXXXXXXXXXXXXXXXXXXXXXXXXX",
"..................................=                                                                                                                                                                                                               2####################################################################<++++++++++++++++++++++++++++++++++:OOOOOOOOOOOOOOOOOOOOOOOOOOOOOOOOOOOOOOOOOOOOOOOOOOOOOOOOOOOOOOOOOOOO,&                                                                                                     &*XXXXXXXXXXXXXXXXXXXXXXXXXXXXXXXXXX",
"..................................=                                                                                                                                                                                                               2####################################################################<++++++++++++++++++++++++++++++++++:OOOOOOOOOOOOOOOOOOOOOOOOOOOOOOOOOOOOOOOOOOOOOOOOOOOOOOOOOOOOOOOOOOOO,&                                                                                                     &*XXXXXXXXXXXXXXXXXXXXXXXXXXXXXXXXXX",
"..................................=                                                                                                                                                                                                               2####################################################################<++++++++++++++++++++++++++++++++++:OOOOOOOOOOOOOOOOOOOOOOOOOOOOOOOOOOOOOOOOOOOOOOOOOOOOOOOOOOOOOOOOOOOO,&                                                                                                     &*XXXXXXXXXXXXXXXXXXXXXXXXXXXXXXXXXX",
"..................................=                                                                                                                                                                                                               2####################################################################<++++++++++++++++++++++++++++++++++:OOOOOOOOOOOOOOOOOOOOOOOOOOOOOOOOOOOOOOOOOOOOOOOOOOOOOOOOOOOOOOOOOOOO,&                                                                                                     &*XXXXXXXXXXXXXXXXXXXXXXXXXXXXXXXXXX",
"..................................=                                                                                                                                                                                                               2####################################################################<++++++++++++++++++++++++++++++++++:OOOOOOOOOOOOOOOOOOOOOOOOOOOOOOOOOOOOOOOOOOOOOOOOOOOOOOOOOOOOOOOOOOOO,&                                                                                                     &*XXXXXXXXXXXXXXXXXXXXXXXXXXXXXXXXXX",
"..................................=                                                                                                                                                                                                               2####################################################################<++++++++++++++++++++++++++++++++++:OOOOOOOOOOOOOOOOOOOOOOOOOOOOOOOOOOOOOOOOOOOOOOOOOOOOOOOOOOOOOOOOOOOO,&                                                                                                     &*XXXXXXXXXXXXXXXXXXXXXXXXXXXXXXXXXX",
"..................................=                                                                                                                                                                                                               2####################################################################<++++++++++++++++++++++++++++++++++:OOOOOOOOOOOOOOOOOOOOOOOOOOOOOOOOOOOOOOOOOOOOOOOOOOOOOOOOOOOOOOOOOOOO,&                                                                                                     &*XXXXXXXXXXXXXXXXXXXXXXXXXXXXXXXXXX",
"..................................=                                                                                                                                                                                                               2####################################################################q++++++++++++++++++++++++++++++++++:OOOOOOOOOOOOOOOOOOOOOOOOOOOOOOOOOOOOOOOOOOOOOOOOOOOOOOOOOOOOOOOOOOOO,                                                                                                      &*XXXXXXXXXXXXXXXXXXXXXXXXXXXXXXXXXX",
"..................................=                                                                                                                                                                                                               q####################################################################<+++++++++++++++++++++++++++++++++=:OOOOOOOOOOOOOOOOOOOOOOOOOOOOOOOOOOOOOOOOOOOOOOOOOOOOOOOOOOOOOOOOOOOO, &     &         &         &                                                                          &*XXXXXXXXXXXXXXXXXXXXXXXXXXXXXXXXXX",
"@@@@@@@@@@@@@@@@@@@@@@@@@@@@@@@@@@-                                                                     ##################################9OOOOOOOOOOOOOOOOOOOOOOOOOOOOOOOOOOOOOOOOOOOOOOOOOOOOOOOOOOOOOOOOOOOOOOOOOOOOOOOOOOOOOOOOOOOOOOOOOOOOOOOOOOOOOOOOOOOOOOOOOOOOOOOOOOOOOOOOOO&                                                                    &&&&&&&&&&&&&&&&&&&&&&&&&&&&&&&&&&&&&&&&&&&&&&&&&&&&&&&&&&&&&&&&&&&&&+++++++++++++++++++++++++++++++++++                                                                    &*XXXXXXXXXXXXXXXXXXXXXXXXXXXXXXXXXX",
"@@@@@@@@@@@@@@@@@@@@@@@@@@@@@@@@@@-                                                                     ##################################9OOOOOOOOOOOOOOOOOOOOOOOOOOOOOOOOOOOOOOOOOOOOOOOOOOOOOOOOOOOOOOOOOOOOOOOOOOOOOOOOOOOOOOOOOOOOOOOOOOOOOOOOOOOOOOOOOOOOOOOOOOOOOOOOOOOOOOOOOO                                                                                                                                          &++++++++++++++++++++++++++++++++++                                                                    &*XXXXXXXXXXXXXXXXXXXXXXXXXXXXXXXXXX",
"@@@@@@@@@@@@@@@@@@@@@@@@@@@@@@@@@@-                                                                     ##################################9OOOOOOOOOOOOOOOOOOOOOOOOOOOOOOOOOOOOOOOOOOOOOOOOOOOOOOOOOOOOOOOOOOOOOOOOOOOOOOOOOOOOOOOOOOOOOOOOOOOOOOOOOOOOOOOOOOOOOOOOOOOOOOOOOOOOOOOOOO                                                                                                                                          &++++++++++++++++++++++++++++++++++                                                                    &*XXXXXXXXXXXXXXXXXXXXXXXXXXXXXXXXXX",
"@@@@@@@@@@@@@@@@@@@@@@@@@@@@@@@@@@-                                                                     ##################################9OOOOOOOOOOOOOOOOOOOOOOOOOOOOOOOOOOOOOOOOOOOOOOOOOOOOOOOOOOOOOOOOOOOOOOOOOOOOOOOOOOOOOOOOOOOOOOOOOOOOOOOOOOOOOOOOOOOOOOOOOOOOOOOOOOOOOOOOOO                                                                                                                                          &++++++++++++++++++++++++++++++++++                                                                    &*XXXXXXXXXXXXXXXXXXXXXXXXXXXXXXXXXX",
"@@@@@@@@@@@@@@@@@@@@@@@@@@@@@@@@@@-                                                                     ##################################9OOOOOOOOOOOOOOOOOOOOOOOOOOOOOOOOOOOOOOOOOOOOOOOOOOOOOOOOOOOOOOOOOOOOOOOOOOOOOOOOOOOOOOOOOOOOOOOOOOOOOOOOOOOOOOOOOOOOOOOOOOOOOOOOOOOOOOOOOO                                                                                                                                          &++++++++++++++++++++++++++++++++++                                                                    &*XXXXXXXXXXXXXXXXXXXXXXXXXXXXXXXXXX",
"@@@@@@@@@@@@@@@@@@@@@@@@@@@@@@@@@@-                                                                     ##################################9OOOOOOOOOOOOOOOOOOOOOOOOOOOOOOOOOOOOOOOOOOOOOOOOOOOOOOOOOOOOOOOOOOOOOOOOOOOOOOOOOOOOOOOOOOOOOOOOOOOOOOOOOOOOOOOOOOOOOOOOOOOOOOOOOOOOOOOOOO                                                                                                                                          &++++++++++++++++++++++++++++++++++                                                                    &*XXXXXXXXXXXXXXXXXXXXXXXXXXXXXXXXXX",
"@@@@@@@@@@@@@@@@@@@@@@@@@@@@@@@@@@-                                                                     ##################################9OOOOOOOOOOOOOOOOOOOOOOOOOOOOOOOOOOOOOOOOOOOOOOOOOOOOOOOOOOOOOOOOOOOOOOOOOOOOOOOOOOOOOOOOOOOOOOOOOOOOOOOOOOOOOOOOOOOOOOOOOOOOOOOOOOOOOOOOOO                                                                                                                                          &++++++++++++++++++++++++++++++++++                                                                    &*XXXXXXXXXXXXXXXXXXXXXXXXXXXXXXXXXX",
"@@@@@@@@@@@@@@@@@@@@@@@@@@@@@@@@@@-                                                                     ##################################9OOOOOOOOOOOOOOOOOOOOOOOOOOOOOOOOOOOOOOOOOOOOOOOOOOOOOOOOOOOOOOOOOOOOOOOOOOOOOOOOOOOOOOOOOOOOOOOOOOOOOOOOOOOOOOOOOOOOOOOOOOOOOOOOOOOOOOOOOO                                                                                                                                          &++++++++++++++++++++++++++++++++++                                                                    &*XXXXXXXXXXXXXXXXXXXXXXXXXXXXXXXXXX",
"@@@@@@@@@@@@@@@@@@@@@@@@@@@@@@@@@@-                                                                     ##################################9OOOOOOOOOOOOOOOOOOOOOOOOOOOOOOOOOOOOOOOOOOOOOOOOOOOOOOOOOOOOOOOOOOOOOOOOOOOOOOOOOOOOOOOOOOOOOOOOOOOOOOOOOOOOOOOOOOOOOOOOOOOOOOOOOOOOOOOOOO                                                                                                                                          &++++++++++++++++++++++++++++++++++                                                                    &*XXXXXXXXXXXXXXXXXXXXXXXXXXXXXXXXXX",
"@@@@@@@@@@@@@@@@@@@@@@@@@@@@@@@@@@-                                                                     ##################################9OOOOOOOOOOOOOOOOOOOOOOOOOOOOOOOOOOOOOOOOOOOOOOOOOOOOOOOOOOOOOOOOOOOOOOOOOOOOOOOOOOOOOOOOOOOOOOOOOOOOOOOOOOOOOOOOOOOOOOOOOOOOOOOOOOOOOOOOOO                                                                                                                                          &++++++++++++++++++++++++++++++++++                                                                    &*XXXXXXXXXXXXXXXXXXXXXXXXXXXXXXXXXX",
"@@@@@@@@@@@@@@@@@@@@@@@@@@@@@@@@@@-                                                                     ##################################9OOOOOOOOOOOOOOOOOOOOOOOOOOOOOOOOOOOOOOOOOOOOOOOOOOOOOOOOOOOOOOOOOOOOOOOOOOOOOOOOOOOOOOOOOOOOOOOOOOOOOOOOOOOOOOOOOOOOOOOOOOOOOOOOOOOOOOOOOO                                                                                                                                          &++++++++++++++++++++++++++++++++++                                                                    &*XXXXXXXXXXXXXXXXXXXXXXXXXXXXXXXXXX",
"@@@@@@@@@@@@@@@@@@@@@@@@@@@@@@@@@@-                                                                     ##################################9OOOOOOOOOOOOOOOOOOOOOOOOOOOOOOOOOOOOOOOOOOOOOOOOOOOOOOOOOOOOOOOOOOOOOOOOOOOOOOOOOOOOOOOOOOOOOOOOOOOOOOOOOOOOOOOOOOOOOOOOOOOOOOOOOOOOOOOOOO                                                                                                                                          &++++++++++++++++++++++++++++++++++                                                                    &*XXXXXXXXXXXXXXXXXXXXXXXXXXXXXXXXXX",
"@@@@@@@@@@@@@@@@@@@@@@@@@@@@@@@@@@-                                                                     ##################################9OOOOOOOOOOOOOOOOOOOOOOOOOOOOOOOOOOOOOOOOOOOOOOOOOOOOOOOOOOOOOOOOOOOOOOOOOOOOOOOOOOOOOOOOOOOOOOOOOOOOOOOOOOOOOOOOOOOOOOOOOOOOOOOOOOOOOOOOOO                                                                                                                                          &++++++++++++++++++++++++++++++++++                                                                    &*XXXXXXXXXXXXXXXXXXXXXXXXXXXXXXXXXX",
"@@@@@@@@@@@@@@@@@@@@@@@@@@@@@@@@@@-                                                                     ##################################9OOOOOOOOOOOOOOOOOOOOOOOOOOOOOOOOOOOOOOOOOOOOOOOOOOOOOOOOOOOOOOOOOOOOOOOOOOOOOOOOOOOOOOOOOOOOOOOOOOOOOOOOOOOOOOOOOOOOOOOOOOOOOOOOOOOOOOOOOO                                                                                                                                          &++++++++++++++++++++++++++++++++++                                                                    &*XXXXXXXXXXXXXXXXXXXXXXXXXXXXXXXXXX",
"@@@@@@@@@@@@@@@@@@@@@@@@@@@@@@@@@@-                                                                     ##################################9OOOOOOOOOOOOOOOOOOOOOOOOOOOOOOOOOOOOOOOOOOOOOOOOOOOOOOOOOOOOOOOOOOOOOOOOOOOOOOOOOOOOOOOOOOOOOOOOOOOOOOOOOOOOOOOOOOOOOOOOOOOOOOOOOOOOOOOOOO                                                                                                                                          &++++++++++++++++++++++++++++++++++                                                                    &*XXXXXXXXXXXXXXXXXXXXXXXXXXXXXXXXXX",
"@@@@@@@@@@@@@@@@@@@@@@@@@@@@@@@@@@-                                                                     ##################################9OOOOOOOOOOOOOOOOOOOOOOOOOOOOOOOOOOOOOOOOOOOOOOOOOOOOOOOOOOOOOOOOOOOOOOOOOOOOOOOOOOOOOOOOOOOOOOOOOOOOOOOOOOOOOOOOOOOOOOOOOOOOOOOOOOOOOOOOOO                                                                                                                                          &++++++++++++++++++++++++++++++++++                                                                    &*XXXXXXXXXXXXXXXXXXXXXXXXXXXXXXXXXX",
"@@@@@@@@@@@@@@@@@@@@@@@@@@@@@@@@@@-                                                                     ##################################9OOOOOOOOOOOOOOOOOOOOOOOOOOOOOOOOOOOOOOOOOOOOOOOOOOOOOOOOOOOOOOOOOOOOOOOOOOOOOOOOOOOOOOOOOOOOOOOOOOOOOOOOOOOOOOOOOOOOOOOOOOOOOOOOOOOOOOOOOO                                                                                                                                          &++++++++++++++++++++++++++++++++++                                                                    &*XXXXXXXXXXXXXXXXXXXXXXXXXXXXXXXXXX",
"@@@@@@@@@@@@@@@@@@@@@@@@@@@@@@@@@@-                                                                     ##################################9OOOOOOOOOOOOOOOOOOOOOOOOOOOOOOOOOOOOOOOOOOOOOOOOOOOOOOOOOOOOOOOOOOOOOOOOOOOOOOOOOOOOOOOOOOOOOOOOOOOOOOOOOOOOOOOOOOOOOOOOOOOOOOOOOOOOOOOOOO                                                                                                                                          &++++++++++++++++++++++++++++++++++                                                                    &*XXXXXXXXXXXXXXXXXXXXXXXXXXXXXXXXXX",
"@@@@@@@@@@@@@@@@@@@@@@@@@@@@@@@@@@-                                                                     ##################################9OOOOOOOOOOOOOOOOOOOOOOOOOOOOOOOOOOOOOOOOOOOOOOOOOOOOOOOOOOOOOOOOOOOOOOOOOOOOOOOOOOOOOOOOOOOOOOOOOOOOOOOOOOOOOOOOOOOOOOOOOOOOOOOOOOOOOOOOOO                                                                                                                                          &++++++++++++++++++++++++++++++++++                                                                    &*XXXXXXXXXXXXXXXXXXXXXXXXXXXXXXXXXX",
"@@@@@@@@@@@@@@@@@@@@@@@@@@@@@@@@@@-                                                                     ##################################9OOOOOOOOOOOOOOOOOOOOOOOOOOOOOOOOOOOOOOOOOOOOOOOOOOOOOOOOOOOOOOOOOOOOOOOOOOOOOOOOOOOOOOOOOOOOOOOOOOOOOOOOOOOOOOOOOOOOOOOOOOOOOOOOOOOOOOOOOO                                                                                                                                          &++++++++++++++++++++++++++++++++++                                                                    &*XXXXXXXXXXXXXXXXXXXXXXXXXXXXXXXXXX",
"@@@@@@@@@@@@@@@@@@@@@@@@@@@@@@@@@@-                                                                     ##################################9OOOOOOOOOOOOOOOOOOOOOOOOOOOOOOOOOOOOOOOOOOOOOOOOOOOOOOOOOOOOOOOOOOOOOOOOOOOOOOOOOOOOOOOOOOOOOOOOOOOOOOOOOOOOOOOOOOOOOOOOOOOOOOOOOOOOOOOOOO                                                                                                                                          &++++++++++++++++++++++++++++++++++                                                                    &*XXXXXXXXXXXXXXXXXXXXXXXXXXXXXXXXXX",
"@@@@@@@@@@@@@@@@@@@@@@@@@@@@@@@@@@-                                                                     ##################################9OOOOOOOOOOOOOOOOOOOOOOOOOOOOOOOOOOOOOOOOOOOOOOOOOOOOOOOOOOOOOOOOOOOOOOOOOOOOOOOOOOOOOOOOOOOOOOOOOOOOOOOOOOOOOOOOOOOOOOOOOOOOOOOOOOOOOOOOOO                                                                                                                                          &++++++++++++++++++++++++++++++++++                                                                    &*XXXXXXXXXXXXXXXXXXXXXXXXXXXXXXXXXX",
"@@@@@@@@@@@@@@@@@@@@@@@@@@@@@@@@@@-                                                                     ##################################9OOOOOOOOOOOOOOOOOOOOOOOOOOOOOOOOOOOOOOOOOOOOOOOOOOOOOOOOOOOOOOOOOOOOOOOOOOOOOOOOOOOOOOOOOOOOOOOOOOOOOOOOOOOOOOOOOOOOOOOOOOOOOOOOOOOOOOOOOO                                                                                                                                          &++++++++++++++++++++++++++++++++++                                                                    &*XXXXXXXXXXXXXXXXXXXXXXXXXXXXXXXXXX",
"@@@@@@@@@@@@@@@@@@@@@@@@@@@@@@@@@@-                                                                     ##################################9OOOOOOOOOOOOOOOOOOOOOOOOOOOOOOOOOOOOOOOOOOOOOOOOOOOOOOOOOOOOOOOOOOOOOOOOOOOOOOOOOOOOOOOOOOOOOOOOOOOOOOOOOOOOOOOOOOOOOOOOOOOOOOOOOOOOOOOOOO                                                                                                                                          &++++++++++++++++++++++++++++++++++                                                                    &*XXXXXXXXXXXXXXXXXXXXXXXXXXXXXXXXXX",
"@@@@@@@@@@@@@@@@@@@@@@@@@@@@@@@@@@-                                                                     ##################################9OOOOOOOOOOOOOOOOOOOOOOOOOOOOOOOOOOOOOOOOOOOOOOOOOOOOOOOOOOOOOOOOOOOOOOOOOOOOOOOOOOOOOOOOOOOOOOOOOOOOOOOOOOOOOOOOOOOOOOOOOOOOOOOOOOOOOOOOOO                                                                                                                                          &++++++++++++++++++++++++++++++++++                                                                    &*XXXXXXXXXXXXXXXXXXXXXXXXXXXXXXXXXX",
"@@@@@@@@@@@@@@@@@@@@@@@@@@@@@@@@@@-                                                                     ##################################9OOOOOOOOOOOOOOOOOOOOOOOOOOOOOOOOOOOOOOOOOOOOOOOOOOOOOOOOOOOOOOOOOOOOOOOOOOOOOOOOOOOOOOOOOOOOOOOOOOOOOOOOOOOOOOOOOOOOOOOOOOOOOOOOOOOOOOOOOO                                                                                                                                          &++++++++++++++++++++++++++++++++++                                                                    &*XXXXXXXXXXXXXXXXXXXXXXXXXXXXXXXXXX",
"@@@@@@@@@@@@@@@@@@@@@@@@@@@@@@@@@@-                                                                     ##################################9OOOOOOOOOOOOOOOOOOOOOOOOOOOOOOOOOOOOOOOOOOOOOOOOOOOOOOOOOOOOOOOOOOOOOOOOOOOOOOOOOOOOOOOOOOOOOOOOOOOOOOOOOOOOOOOOOOOOOOOOOOOOOOOOOOOOOOOOOO                                                                                                                                          &++++++++++++++++++++++++++++++++++                                                                    &*XXXXXXXXXXXXXXXXXXXXXXXXXXXXXXXXXX",
"@@@@@@@@@@@@@@@@@@@@@@@@@@@@@@@@@@-                                                                     ##################################9OOOOOOOOOOOOOOOOOOOOOOOOOOOOOOOOOOOOOOOOOOOOOOOOOOOOOOOOOOOOOOOOOOOOOOOOOOOOOOOOOOOOOOOOOOOOOOOOOOOOOOOOOOOOOOOOOOOOOOOOOOOOOOOOOOOOOOOOOO                                                                                                                                          &++++++++++++++++++++++++++++++++++                                                                    &*XXXXXXXXXXXXXXXXXXXXXXXXXXXXXXXXXX",
"@@@@@@@@@@@@@@@@@@@@@@@@@@@@@@@@@@-                                                                     ##################################9OOOOOOOOOOOOOOOOOOOOOOOOOOOOOOOOOOOOOOOOOOOOOOOOOOOOOOOOOOOOOOOOOOOOOOOOOOOOOOOOOOOOOOOOOOOOOOOOOOOOOOOOOOOOOOOOOOOOOOOOOOOOOOOOOOOOOOOOOO                                                                                                                                          &++++++++++++++++++++++++++++++++++                                                                    &*XXXXXXXXXXXXXXXXXXXXXXXXXXXXXXXXXX",
"@@@@@@@@@@@@@@@@@@@@@@@@@@@@@@@@@@-                                                                     ##################################9OOOOOOOOOOOOOOOOOOOOOOOOOOOOOOOOOOOOOOOOOOOOOOOOOOOOOOOOOOOOOOOOOOOOOOOOOOOOOOOOOOOOOOOOOOOOOOOOOOOOOOOOOOOOOOOOOOOOOOOOOOOOOOOOOOOOOOOOOO                                                                                                                                          &++++++++++++++++++++++++++++++++++                                                                    &*XXXXXXXXXXXXXXXXXXXXXXXXXXXXXXXXXX",
"@@@@@@@@@@@@@@@@@@@@@@@@@@@@@@@@@@-                                                                     ##################################9OOOOOOOOOOOOOOOOOOOOOOOOOOOOOOOOOOOOOOOOOOOOOOOOOOOOOOOOOOOOOOOOOOOOOOOOOOOOOOOOOOOOOOOOOOOOOOOOOOOOOOOOOOOOOOOOOOOOOOOOOOOOOOOOOOOOOOOOOO                                                                                                                                          &++++++++++++++++++++++++++++++++++                                                                    &*XXXXXXXXXXXXXXXXXXXXXXXXXXXXXXXXXX",
"@@@@@@@@@@@@@@@@@@@@@@@@@@@@@@@@@@-                                                                     ##################################9OOOOOOOOOOOOOOOOOOOOOOOOOOOOOOOOOOOOOOOOOOOOOOOOOOOOOOOOOOOOOOOOOOOOOOOOOOOOOOOOOOOOOOOOOOOOOOOOOOOOOOOOOOOOOOOOOOOOOOOOOOOOOOOOOOOOOOOOOO                                                                                                                                          &++++++++++++++++++++++++++++++++++                                                                    &*XXXXXXXXXXXXXXXXXXXXXXXXXXXXXXXXXX",
"@@@@@@@@@@@@@@@@@@@@@@@@@@@@@@@@@@-                                                                     ##################################9OOOOOOOOOOOOOOOOOOOOOOOOOOOOOOOOOOOOOOOOOOOOOOOOOOOOOOOOOOOOOOOOOOOOOOOOOOOOOOOOOOOOOOOOOOOOOOOOOOOOOOOOOOOOOOOOOOOOOOOOOOOOOOOOOOOOOOOOOO                                                                                                                                          &++++++++++++++++++++++++++++++++++                                                                    &*XXXXXXXXXXXXXXXXXXXXXXXXXXXXXXXXXX",
"@@@@@@@@@@@@@@@@@@@@@@@@@@@@@@@@@@-                                                                     ##################################9OOOOOOOOOOOOOOOOOOOOOOOOOOOOOOOOOOOOOOOOOOOOOOOOOOOOOOOOOOOOOOOOOOOOOOOOOOOOOOOOOOOOOOOOOOOOOOOOOOOOOOOOOOOOOOOOOOOOOOOOOOOOOOOOOOOOOOOOOO                                                                                                                                          &++++++++++++++++++++++++++++++++++&                                                                   &*XXXXXXXXXXXXXXXXXXXXXXXXXXXXXXXXXX",
"5555555555555555555555555555555555.                                                                     00000000000000000000000000000000009,,,,,,,,,,,,,,,,,,,,,,,,,,,,,,,,,,,,,,,,,,,,,,,,,,,,,,,,,,,,,,,,,,,,,,,,,,,,,,,,,,,,,,,,,,,,,,,,,,,,,,,,,,,,,,,,,,,,,,,,,,,,,,,,,,,,,,,,,,&                                  <<<<<<<<<<<<<<<<<<<<<<<<<<<<<<<<<<                                   &&&&&&&&&&&&&&&&&&&&&&&&&&&&&&&&&&,::::::::::::::::::::::::::::::::::                                                                    &$6666666666666666666666666666666666",
"..................................=                                                                     $$$$$$$$$$$$$$$$$$$$$$$$$$$$$$$$$$: &&&&&&&&&&&&&&&&&&&&&&&&&&&&&&&&&&&&&&&&&&&&&&&&&&&&&&&&&&&&&&&&&&&&&&&&&&&&&&&&&&&&&&&&&&&&&&&&&&&&&&&&&&&&&&&&&&&&&&&&&&&&&&&&&&&&&&&&&                                  <%%%%%%%%%%%%%%%%%%%%%%%%%%%%%%%%%%                                   ++++++++++++++++++++++++++++++++++:$$$$$$$$$$$$$$$$$$$$$$$$$$$$$$$$$$                                                                    &0;ooooooooooooooooooooooooooooooooo",
"..................................=                                                                     $$$$$$$$$$$$$$$$$$$$$$$$$$$$$$$$$$:                                                                                                                                                                            <%%%%%%%%%%%%%%%%%%%%%%%%%%%%%%%%%%                                   ++++++++++++++++++++++++++++++++++:$$$$$$$$$$$$$$$$$$$$$$$$$$$$$$$$$$                                                                    &0oooooooooooooooooooooooooooooooooo",
"..................................=                                                                     $$$$$$$$$$$$$$$$$$$$$$$$$$$$$$$$$$:                                                                                                                                                                            <%%%%%%%%%%%%%%%%%%%%%%%%%%%%%%%%%%                                   ++++++++++++++++++++++++++++++++++:$$$$$$$$$$$$$$$$$$$$$$$$$$$$$$$$$$                                                                    &0oooooooooooooooooooooooooooooooooo",
"..................................=                                                                     $$$$$$$$$$$$$$$$$$$$$$$$$$$$$$$$$$:                                                                                                                                                                            <%%%%%%%%%%%%%%%%%%%%%%%%%%%%%%%%%%                                   ++++++++++++++++++++++++++++++++++:$$$$$$$$$$$$$$$$$$$$$$$$$$$$$$$$$$                                                                    &0oooooooooooooooooooooooooooooooooo",
"..................................=                                                                     $$$$$$$$$$$$$$$$$$$$$$$$$$$$$$$$$$:                                                                                                                                                                            <%%%%%%%%%%%%%%%%%%%%%%%%%%%%%%%%%%                                   ++++++++++++++++++++++++++++++++++:$$$$$$$$$$$$$$$$$$$$$$$$$$$$$$$$$$                                                                    &0oooooooooooooooooooooooooooooooooo",
"..................................=                                                                     $$$$$$$$$$$$$$$$$$$$$$$$$$$$$$$$$$:                                                                                                                                                                            <%%%%%%%%%%%%%%%%%%%%%%%%%%%%%%%%%%                                   ++++++++++++++++++++++++++++++++++:$$$$$$$$$$$$$$$$$$$$$$$$$$$$$$$$$$                                                                    &0oooooooooooooooooooooooooooooooooo",
"..................................=                                                                     $$$$$$$$$$$$$$$$$$$$$$$$$$$$$$$$$$:                                                                                                                                                                            <%%%%%%%%%%%%%%%%%%%%%%%%%%%%%%%%%%                                   ++++++++++++++++++++++++++++++++++:$$$$$$$$$$$$$$$$$$$$$$$$$$$$$$$$$$                                                                    &0oooooooooooooooooooooooooooooooooo",
"..................................=                                                                     $$$$$$$$$$$$$$$$$$$$$$$$$$$$$$$$$$:                                                                                                                                                                            <%%%%%%%%%%%%%%%%%%%%%%%%%%%%%%%%%%                                   ++++++++++++++++++++++++++++++++++:$$$$$$$$$$$$$$$$$$$$$$$$$$$$$$$$$$                                                                    &0oooooooooooooooooooooooooooooooooo",
"..................................=                                                                     $$$$$$$$$$$$$$$$$$$$$$$$$$$$$$$$$$:                                                                                                                                                                            <%%%%%%%%%%%%%%%%%%%%%%%%%%%%%%%%%%                                   ++++++++++++++++++++++++++++++++++:$$$$$$$$$$$$$$$$$$$$$$$$$$$$$$$$$$                                                                    &0oooooooooooooooooooooooooooooooooo",
"..................................=                                                                     $$$$$$$$$$$$$$$$$$$$$$$$$$$$$$$$$$:                                                                                                                                                                            <%%%%%%%%%%%%%%%%%%%%%%%%%%%%%%%%%%                                   ++++++++++++++++++++++++++++++++++:$$$$$$$$$$$$$$$$$$$$$$$$$$$$$$$$$$                                                                    &0oooooooooooooooooooooooooooooooooo",
"..................................=                                                                     $$$$$$$$$$$$$$$$$$$$$$$$$$$$$$$$$$:                                                                                                                                                                            <%%%%%%%%%%%%%%%%%%%%%%%%%%%%%%%%%%                                   ++++++++++++++++++++++++++++++++++:$$$$$$$$$$$$$$$$$$$$$$$$$$$$$$$$$$                                                                    &0oooooooooooooooooooooooooooooooooo",
"..................................=                                                                     $$$$$$$$$$$$$$$$$$$$$$$$$$$$$$$$$$:                                                                                                                                                                            <%%%%%%%%%%%%%%%%%%%%%%%%%%%%%%%%%%                                   ++++++++++++++++++++++++++++++++++:$$$$$$$$$$$$$$$$$$$$$$$$$$$$$$$$$$                                                                    &0oooooooooooooooooooooooooooooooooo",
"..................................=                                                                     $$$$$$$$$$$$$$$$$$$$$$$$$$$$$$$$$$:                                                                                                                                                                            <%%%%%%%%%%%%%%%%%%%%%%%%%%%%%%%%%%                                   ++++++++++++++++++++++++++++++++++:$$$$$$$$$$$$$$$$$$$$$$$$$$$$$$$$$$                                                                    &0oooooooooooooooooooooooooooooooooo",
"..................................=                                                                     $$$$$$$$$$$$$$$$$$$$$$$$$$$$$$$$$$:                                                                                                                                                                            <%%%%%%%%%%%%%%%%%%%%%%%%%%%%%%%%%%                                   ++++++++++++++++++++++++++++++++++:$$$$$$$$$$$$$$$$$$$$$$$$$$$$$$$$$$                                                                    &0oooooooooooooooooooooooooooooooooo",
"..................................=                                                                     $$$$$$$$$$$$$$$$$$$$$$$$$$$$$$$$$$:                                                                                                                                                                            <%%%%%%%%%%%%%%%%%%%%%%%%%%%%%%%%%%                                   ++++++++++++++++++++++++++++++++++:$$$$$$$$$$$$$$$$$$$$$$$$$$$$$$$$$$                                                                    &0oooooooooooooooooooooooooooooooooo",
"..................................=                                                                     $$$$$$$$$$$$$$$$$$$$$$$$$$$$$$$$$$:                                                                                                                                                                            <%%%%%%%%%%%%%%%%%%%%%%%%%%%%%%%%%%                                   ++++++++++++++++++++++++++++++++++:$$$$$$$$$$$$$$$$$$$$$$$$$$$$$$$$$$                                                                    &0oooooooooooooooooooooooooooooooooo",
"..................................=                                                                     $$$$$$$$$$$$$$$$$$$$$$$$$$$$$$$$$$:                                                                                                                                                                            <%%%%%%%%%%%%%%%%%%%%%%%%%%%%%%%%%%                                   ++++++++++++++++++++++++++++++++++:$$$$$$$$$$$$$$$$$$$$$$$$$$$$$$$$$$                                                                    &0oooooooooooooooooooooooooooooooooo",
"..................................=                                                                     $$$$$$$$$$$$$$$$$$$$$$$$$$$$$$$$$$:                                                                                                                                                                            <%%%%%%%%%%%%%%%%%%%%%%%%%%%%%%%%%%                                   ++++++++++++++++++++++++++++++++++:$$$$$$$$$$$$$$$$$$$$$$$$$$$$$$$$$$                                                                    &0oooooooooooooooooooooooooooooooooo",
"..................................=                                                                     $$$$$$$$$$$$$$$$$$$$$$$$$$$$$$$$$$:                                                                                                                                                                            <%%%%%%%%%%%%%%%%%%%%%%%%%%%%%%%%%%                                   ++++++++++++++++++++++++++++++++++:$$$$$$$$$$$$$$$$$$$$$$$$$$$$$$$$$$                                                                    &0oooooooooooooooooooooooooooooooooo",
"..................................=                                                                     $$$$$$$$$$$$$$$$$$$$$$$$$$$$$$$$$$:                                                                                                                                                                            <%%%%%%%%%%%%%%%%%%%%%%%%%%%%%%%%%%                                   ++++++++++++++++++++++++++++++++++:$$$$$$$$$$$$$$$$$$$$$$$$$$$$$$$$$$                                                                    &0oooooooooooooooooooooooooooooooooo",
"..................................=                                                                     $$$$$$$$$$$$$$$$$$$$$$$$$$$$$$$$$$:                                                                                                                                                                            <%%%%%%%%%%%%%%%%%%%%%%%%%%%%%%%%%%                                   ++++++++++++++++++++++++++++++++++:$$$$$$$$$$$$$$$$$$$$$$$$$$$$$$$$$$                                                                    &0oooooooooooooooooooooooooooooooooo",
"..................................=                                                                     $$$$$$$$$$$$$$$$$$$$$$$$$$$$$$$$$$:                                                                                                                                                                            <%%%%%%%%%%%%%%%%%%%%%%%%%%%%%%%%%%                                   ++++++++++++++++++++++++++++++++++:$$$$$$$$$$$$$$$$$$$$$$$$$$$$$$$$$$                                                                    &0oooooooooooooooooooooooooooooooooo",
"..................................=                                                                     $$$$$$$$$$$$$$$$$$$$$$$$$$$$$$$$$$:                                                                                                                                                                            <%%%%%%%%%%%%%%%%%%%%%%%%%%%%%%%%%%                                   ++++++++++++++++++++++++++++++++++:$$$$$$$$$$$$$$$$$$$$$$$$$$$$$$$$$$                                                                    &0oooooooooooooooooooooooooooooooooo",
"..................................=                                                                     $$$$$$$$$$$$$$$$$$$$$$$$$$$$$$$$$$:                                                                                                                                                                            <%%%%%%%%%%%%%%%%%%%%%%%%%%%%%%%%%%                                   ++++++++++++++++++++++++++++++++++:$$$$$$$$$$$$$$$$$$$$$$$$$$$$$$$$$$                                                                    &0oooooooooooooooooooooooooooooooooo",
"..................................=                                                                     $$$$$$$$$$$$$$$$$$$$$$$$$$$$$$$$$$:                                                                                                                                                                            <%%%%%%%%%%%%%%%%%%%%%%%%%%%%%%%%%%                                   ++++++++++++++++++++++++++++++++++:$$$$$$$$$$$$$$$$$$$$$$$$$$$$$$$$$$                                                                    &0oooooooooooooooooooooooooooooooooo",
"..................................=                                                                     $$$$$$$$$$$$$$$$$$$$$$$$$$$$$$$$$$:                                                                                                                                                                            <%%%%%%%%%%%%%%%%%%%%%%%%%%%%%%%%%%                                   ++++++++++++++++++++++++++++++++++:$$$$$$$$$$$$$$$$$$$$$$$$$$$$$$$$$$                                                                    &0oooooooooooooooooooooooooooooooooo",
"..................................=                                                                     $$$$$$$$$$$$$$$$$$$$$$$$$$$$$$$$$$:                                                                                                                                                                            <%%%%%%%%%%%%%%%%%%%%%%%%%%%%%%%%%%                                   ++++++++++++++++++++++++++++++++++:$$$$$$$$$$$$$$$$$$$$$$$$$$$$$$$$$$                                                                    &0oooooooooooooooooooooooooooooooooo",
"..................................=                                                                     $$$$$$$$$$$$$$$$$$$$$$$$$$$$$$$$$$:                                                                                                                                                                            <%%%%%%%%%%%%%%%%%%%%%%%%%%%%%%%%%%                                   ++++++++++++++++++++++++++++++++++:$$$$$$$$$$$$$$$$$$$$$$$$$$$$$$$$$$                                                                    &0oooooooooooooooooooooooooooooooooo",
"..................................=                                                                     $$$$$$$$$$$$$$$$$$$$$$$$$$$$$$$$$$:                                                                                                                                                                            <%%%%%%%%%%%%%%%%%%%%%%%%%%%%%%%%%%                                   ++++++++++++++++++++++++++++++++++:$$$$$$$$$$$$$$$$$$$$$$$$$$$$$$$$$$                                                                    &0oooooooooooooooooooooooooooooooooo",
"..................................=                                                                     $$$$$$$$$$$$$$$$$$$$$$$$$$$$$$$$$$:                                                                                                                                                                            <%%%%%%%%%%%%%%%%%%%%%%%%%%%%%%%%%%                                   ++++++++++++++++++++++++++++++++++:$$$$$$$$$$$$$$$$$$$$$$$$$$$$$$$$$$                                                                    &0oooooooooooooooooooooooooooooooooo",
"..................................=                                                                     $$$$$$$$$$$$$$$$$$$$$$$$$$$$$$$$$$:                                                                                                                                                                            <%%%%%%%%%%%%%%%%%%%%%%%%%%%%%%%%%%                                   ++++++++++++++++++++++++++++++++++:$$$$$$$$$$$$$$$$$$$$$$$$$$$$$$$$$$                                                                    &0oooooooooooooooooooooooooooooooooo",
"..................................=                                                                     $$$$$$$$$$$$$$$$$$$$$$$$$$$$$$$$$$:                                                                                                                                                                            <%%%%%%%%%%%%%%%%%%%%%%%%%%%%%%%%%%                                   ++++++++++++++++++++++++++++++++++:$$$$$$$$$$$$$$$$$$$$$$$$$$$$$$$$$$                                                                    &0oooooooooooooooooooooooooooooooooo",
"..................................=                                                                     $$$$$$$$$$$$$$$$$$$$$$$$$$$$$$$$$$:                                                                                                                                                                            <%%%%%%%%%%%%%%%%%%%%%%%%%%%%%%%%%%                                   ++++++++++++++++++++++++++++++++++:$$$$$$$$$$$$$$$$$$$$$$$$$$$$$$$$$$                                                                    &0oooooooooooooooooooooooooooooooooo",
"..................................=                                                                     $$$$$$$$$$$$$$$$$$$$$$$$$$$$$$$$$$:&                                                                                                      &&&&&&&&&&&&&&&&&&&&&&&&&&&&&&&&&&&&&&&&&&&&&&&&&&&&&&&&&&&&&&&&&&&& <%%%%%%%%%%%%%%%%%%%%%%%%%%%%%%%%%%  &&&&&&&&&&&&&&&&&&&&&&&&&&&&&&&&&++++++++++++++++++++++++++++++++++,$$$$$$$$$$$$$$$$$$$$$$$$$$$$$$$$$$                                                                    &0oooooooooooooooooooooooooooooooooo",
"..................................=                                                                                                       &+++++++++++++++++++++++++++++++++++++++++++++++++++++++++++++++++++++                                 &,OOOOOOOOOOOOOOOOOOOOOOOOOOOOOOOOOOOOOOOOOOOOOOOOOOOOOOOOOOOOOOOOOOOOOOOOOOOOOOOOOOOOOOOOOOOOOOOOOOOOOOOOOOOOOOOOOOOOOOOOOOOOOOOOOOOOOOOOOO$$$$$$$$$$$$$$$$$$$$$$$$$$$$$$$$$0$$$$$$$$$$$$$$$$$$$$$$$$$$$$$$$$$$$                                                                    &0oooooooooooooooooooooooooooooooooo",
"..................................=                                                                                                       &+++++++++++++++++++++++++++++++++++++++++++++++++++++++++++++++++++++                                 &:OOOOOOOOOOOOOOOOOOOOOOOOOOOOOOOOOOOOOOOOOOOOOOOOOOOOOOOOOOOOOOOOOOOOOOOOOOOOOOOOOOOOOOOOOOOOOOOOOOOOOOOOOOOOOOOOOOOOOOOOOOOOOOOOOOOOOOOOOO$$$$$$$$$$$$$$$$$$$$$$$$$$$$$$$$$$$$$$$$$$$$$$$$$$$$$$$$$$$$$$$$$$$$$                                                                    &0oooooooooooooooooooooooooooooooooo",
"..................................=                                                                                                       &+++++++++++++++++++++++++++++++++++++++++++++++++++++++++++++++++++++                                 &:OOOOOOOOOOOOOOOOOOOOOOOOOOOOOOOOOOOOOOOOOOOOOOOOOOOOOOOOOOOOOOOOOOOOOOOOOOOOOOOOOOOOOOOOOOOOOOOOOOOOOOOOOOOOOOOOOOOOOOOOOOOOOOOOOOOOOOOOOO$$$$$$$$$$$$$$$$$$$$$$$$$$$$$$$$$$$$$$$$$$$$$$$$$$$$$$$$$$$$$$$$$$$$$                                                                    &0oooooooooooooooooooooooooooooooooo",
"..................................=                                                                                                       &+++++++++++++++++++++++++++++++++++++++++++++++++++++++++++++++++++++                                 &:OOOOOOOOOOOOOOOOOOOOOOOOOOOOOOOOOOOOOOOOOOOOOOOOOOOOOOOOOOOOOOOOOOOOOOOOOOOOOOOOOOOOOOOOOOOOOOOOOOOOOOOOOOOOOOOOOOOOOOOOOOOOOOOOOOOOOOOOOO$$$$$$$$$$$$$$$$$$$$$$$$$$$$$$$$$$$$$$$$$$$$$$$$$$$$$$$$$$$$$$$$$$$$$                                                                    &0oooooooooooooooooooooooooooooooooo",
"..................................=                                                                                                       &+++++++++++++++++++++++++++++++++++++++++++++++++++++++++++++++++++++                                 &:OOOOOOOOOOOOOOOOOOOOOOOOOOOOOOOOOOOOOOOOOOOOOOOOOOOOOOOOOOOOOOOOOOOOOOOOOOOOOOOOOOOOOOOOOOOOOOOOOOOOOOOOOOOOOOOOOOOOOOOOOOOOOOOOOOOOOOOOOO$$$$$$$$$$$$$$$$$$$$$$$$$$$$$$$$$$$$$$$$$$$$$$$$$$$$$$$$$$$$$$$$$$$$$                                                                    &0oooooooooooooooooooooooooooooooooo",
"..................................=                                                                                                       &+++++++++++++++++++++++++++++++++++++++++++++++++++++++++++++++++++++                                 &:OOOOOOOOOOOOOOOOOOOOOOOOOOOOOOOOOOOOOOOOOOOOOOOOOOOOOOOOOOOOOOOOOOOOOOOOOOOOOOOOOOOOOOOOOOOOOOOOOOOOOOOOOOOOOOOOOOOOOOOOOOOOOOOOOOOOOOOOOO$$$$$$$$$$$$$$$$$$$$$$$$$$$$$$$$$$$$$$$$$$$$$$$$$$$$$$$$$$$$$$$$$$$$$                                                                    &0oooooooooooooooooooooooooooooooooo",
"..................................=                                                                                                       &+++++++++++++++++++++++++++++++++++++++++++++++++++++++++++++++++++++                                 &:OOOOOOOOOOOOOOOOOOOOOOOOOOOOOOOOOOOOOOOOOOOOOOOOOOOOOOOOOOOOOOOOOOOOOOOOOOOOOOOOOOOOOOOOOOOOOOOOOOOOOOOOOOOOOOOOOOOOOOOOOOOOOOOOOOOOOOOOOO$$$$$$$$$$$$$$$$$$$$$$$$$$$$$$$$$$$$$$$$$$$$$$$$$$$$$$$$$$$$$$$$$$$$$                                                                    &0oooooooooooooooooooooooooooooooooo",
"..................................=                                                                                                       &+++++++++++++++++++++++++++++++++++++++++++++++++++++++++++++++++++++                                 &:OOOOOOOOOOOOOOOOOOOOOOOOOOOOOOOOOOOOOOOOOOOOOOOOOOOOOOOOOOOOOOOOOOOOOOOOOOOOOOOOOOOOOOOOOOOOOOOOOOOOOOOOOOOOOOOOOOOOOOOOOOOOOOOOOOOOOOOOOO$$$$$$$$$$$$$$$$$$$$$$$$$$$$$$$$$$$$$$$$$$$$$$$$$$$$$$$$$$$$$$$$$$$$$                                                                    &0oooooooooooooooooooooooooooooooooo",
"..................................=                                                                                                       &+++++++++++++++++++++++++++++++++++++++++++++++++++++++++++++++++++++                                 &:OOOOOOOOOOOOOOOOOOOOOOOOOOOOOOOOOOOOOOOOOOOOOOOOOOOOOOOOOOOOOOOOOOOOOOOOOOOOOOOOOOOOOOOOOOOOOOOOOOOOOOOOOOOOOOOOOOOOOOOOOOOOOOOOOOOOOOOOOO$$$$$$$$$$$$$$$$$$$$$$$$$$$$$$$$$$$$$$$$$$$$$$$$$$$$$$$$$$$$$$$$$$$$$                                                                    &0oooooooooooooooooooooooooooooooooo",
"..................................=                                                                                                       &+++++++++++++++++++++++++++++++++++++++++++++++++++++++++++++++++++++                                 &:OOOOOOOOOOOOOOOOOOOOOOOOOOOOOOOOOOOOOOOOOOOOOOOOOOOOOOOOOOOOOOOOOOOOOOOOOOOOOOOOOOOOOOOOOOOOOOOOOOOOOOOOOOOOOOOOOOOOOOOOOOOOOOOOOOOOOOOOOO$$$$$$$$$$$$$$$$$$$$$$$$$$$$$$$$$$$$$$$$$$$$$$$$$$$$$$$$$$$$$$$$$$$$$                                                                    &0oooooooooooooooooooooooooooooooooo",
"..................................=                                                                                                       &+++++++++++++++++++++++++++++++++++++++++++++++++++++++++++++++++++++                                 &:OOOOOOOOOOOOOOOOOOOOOOOOOOOOOOOOOOOOOOOOOOOOOOOOOOOOOOOOOOOOOOOOOOOOOOOOOOOOOOOOOOOOOOOOOOOOOOOOOOOOOOOOOOOOOOOOOOOOOOOOOOOOOOOOOOOOOOOOOO$$$$$$$$$$$$$$$$$$$$$$$$$$$$$$$$$$$$$$$$$$$$$$$$$$$$$$$$$$$$$$$$$$$$$                                                                    &0oooooooooooooooooooooooooooooooooo",
"..................................=                                                                                                       &+++++++++++++++++++++++++++++++++++++++++++++++++++++++++++++++++++++                                 &:OOOOOOOOOOOOOOOOOOOOOOOOOOOOOOOOOOOOOOOOOOOOOOOOOOOOOOOOOOOOOOOOOOOOOOOOOOOOOOOOOOOOOOOOOOOOOOOOOOOOOOOOOOOOOOOOOOOOOOOOOOOOOOOOOOOOOOOOOO$$$$$$$$$$$$$$$$$$$$$$$$$$$$$$$$$$$$$$$$$$$$$$$$$$$$$$$$$$$$$$$$$$$$$                                                                    &0oooooooooooooooooooooooooooooooooo",
"..................................=                                                                                                       &+++++++++++++++++++++++++++++++++++++++++++++++++++++++++++++++++++++                                 &:OOOOOOOOOOOOOOOOOOOOOOOOOOOOOOOOOOOOOOOOOOOOOOOOOOOOOOOOOOOOOOOOOOOOOOOOOOOOOOOOOOOOOOOOOOOOOOOOOOOOOOOOOOOOOOOOOOOOOOOOOOOOOOOOOOOOOOOOOO$$$$$$$$$$$$$$$$$$$$$$$$$$$$$$$$$$$$$$$$$$$$$$$$$$$$$$$$$$$$$$$$$$$$$                                                                    &0oooooooooooooooooooooooooooooooooo",
"..................................=                                                                                                       &+++++++++++++++++++++++++++++++++++++++++++++++++++++++++++++++++++++                                 &:OOOOOOOOOOOOOOOOOOOOOOOOOOOOOOOOOOOOOOOOOOOOOOOOOOOOOOOOOOOOOOOOOOOOOOOOOOOOOOOOOOOOOOOOOOOOOOOOOOOOOOOOOOOOOOOOOOOOOOOOOOOOOOOOOOOOOOOOOO$$$$$$$$$$$$$$$$$$$$$$$$$$$$$$$$$$$$$$$$$$$$$$$$$$$$$$$$$$$$$$$$$$$$$                                                                    &0oooooooooooooooooooooooooooooooooo",
"..................................=                                                                                                       &+++++++++++++++++++++++++++++++++++++++++++++++++++++++++++++++++++++                                 &:OOOOOOOOOOOOOOOOOOOOOOOOOOOOOOOOOOOOOOOOOOOOOOOOOOOOOOOOOOOOOOOOOOOOOOOOOOOOOOOOOOOOOOOOOOOOOOOOOOOOOOOOOOOOOOOOOOOOOOOOOOOOOOOOOOOOOOOOOO$$$$$$$$$$$$$$$$$$$$$$$$$$$$$$$$$$$$$$$$$$$$$$$$$$$$$$$$$$$$$$$$$$$$$                                                                    &0oooooooooooooooooooooooooooooooooo",
"..................................=                                                                                                       &+++++++++++++++++++++++++++++++++++++++++++++++++++++++++++++++++++++                                 &:OOOOOOOOOOOOOOOOOOOOOOOOOOOOOOOOOOOOOOOOOOOOOOOOOOOOOOOOOOOOOOOOOOOOOOOOOOOOOOOOOOOOOOOOOOOOOOOOOOOOOOOOOOOOOOOOOOOOOOOOOOOOOOOOOOOOOOOOOO$$$$$$$$$$$$$$$$$$$$$$$$$$$$$$$$$$$$$$$$$$$$$$$$$$$$$$$$$$$$$$$$$$$$$                                                                    &0oooooooooooooooooooooooooooooooooo",
"..................................=                                                                                                       &+++++++++++++++++++++++++++++++++++++++++++++++++++++++++++++++++++++                                 &:OOOOOOOOOOOOOOOOOOOOOOOOOOOOOOOOOOOOOOOOOOOOOOOOOOOOOOOOOOOOOOOOOOOOOOOOOOOOOOOOOOOOOOOOOOOOOOOOOOOOOOOOOOOOOOOOOOOOOOOOOOOOOOOOOOOOOOOOOO$$$$$$$$$$$$$$$$$$$$$$$$$$$$$$$$$$$$$$$$$$$$$$$$$$$$$$$$$$$$$$$$$$$$$                                                                    &0oooooooooooooooooooooooooooooooooo",
"..................................=                                                                                                       &+++++++++++++++++++++++++++++++++++++++++++++++++++++++++++++++++++++                                 &:OOOOOOOOOOOOOOOOOOOOOOOOOOOOOOOOOOOOOOOOOOOOOOOOOOOOOOOOOOOOOOOOOOOOOOOOOOOOOOOOOOOOOOOOOOOOOOOOOOOOOOOOOOOOOOOOOOOOOOOOOOOOOOOOOOOOOOOOOO$$$$$$$$$$$$$$$$$$$$$$$$$$$$$$$$$$$$$$$$$$$$$$$$$$$$$$$$$$$$$$$$$$$$$                                                                    &0oooooooooooooooooooooooooooooooooo",
"..................................=                                                                                                       &+++++++++++++++++++++++++++++++++++++++++++++++++++++++++++++++++++++                                 &:OOOOOOOOOOOOOOOOOOOOOOOOOOOOOOOOOOOOOOOOOOOOOOOOOOOOOOOOOOOOOOOOOOOOOOOOOOOOOOOOOOOOOOOOOOOOOOOOOOOOOOOOOOOOOOOOOOOOOOOOOOOOOOOOOOOOOOOOOO$$$$$$$$$$$$$$$$$$$$$$$$$$$$$$$$$$$$$$$$$$$$$$$$$$$$$$$$$$$$$$$$$$$$$                                                                    &0oooooooooooooooooooooooooooooooooo",
"..................................=                                                                                                       &+++++++++++++++++++++++++++++++++++++++++++++++++++++++++++++++++++++                                 &:OOOOOOOOOOOOOOOOOOOOOOOOOOOOOOOOOOOOOOOOOOOOOOOOOOOOOOOOOOOOOOOOOOOOOOOOOOOOOOOOOOOOOOOOOOOOOOOOOOOOOOOOOOOOOOOOOOOOOOOOOOOOOOOOOOOOOOOOOO$$$$$$$$$$$$$$$$$$$$$$$$$$$$$$$$$$$$$$$$$$$$$$$$$$$$$$$$$$$$$$$$$$$$$                                                                    &0oooooooooooooooooooooooooooooooooo",
"..................................=                                                                                                       &+++++++++++++++++++++++++++++++++++++++++++++++++++++++++++++++++++++                                 &:OOOOOOOOOOOOOOOOOOOOOOOOOOOOOOOOOOOOOOOOOOOOOOOOOOOOOOOOOOOOOOOOOOOOOOOOOOOOOOOOOOOOOOOOOOOOOOOOOOOOOOOOOOOOOOOOOOOOOOOOOOOOOOOOOOOOOOOOOO$$$$$$$$$$$$$$$$$$$$$$$$$$$$$$$$$$$$$$$$$$$$$$$$$$$$$$$$$$$$$$$$$$$$$                                                                    &0oooooooooooooooooooooooooooooooooo",
"..................................=                                                                                                       &+++++++++++++++++++++++++++++++++++++++++++++++++++++++++++++++++++++                                 &:OOOOOOOOOOOOOOOOOOOOOOOOOOOOOOOOOOOOOOOOOOOOOOOOOOOOOOOOOOOOOOOOOOOOOOOOOOOOOOOOOOOOOOOOOOOOOOOOOOOOOOOOOOOOOOOOOOOOOOOOOOOOOOOOOOOOOOOOOO$$$$$$$$$$$$$$$$$$$$$$$$$$$$$$$$$$$$$$$$$$$$$$$$$$$$$$$$$$$$$$$$$$$$$                                                                    &0oooooooooooooooooooooooooooooooooo",
"..................................=                                                                                                       &+++++++++++++++++++++++++++++++++++++++++++++++++++++++++++++++++++++                                 &:OOOOOOOOOOOOOOOOOOOOOOOOOOOOOOOOOOOOOOOOOOOOOOOOOOOOOOOOOOOOOOOOOOOOOOOOOOOOOOOOOOOOOOOOOOOOOOOOOOOOOOOOOOOOOOOOOOOOOOOOOOOOOOOOOOOOOOOOOO$$$$$$$$$$$$$$$$$$$$$$$$$$$$$$$$$$$$$$$$$$$$$$$$$$$$$$$$$$$$$$$$$$$$$                                                                    &0oooooooooooooooooooooooooooooooooo",
"..................................=                                                                                                       &+++++++++++++++++++++++++++++++++++++++++++++++++++++++++++++++++++++                                 &:OOOOOOOOOOOOOOOOOOOOOOOOOOOOOOOOOOOOOOOOOOOOOOOOOOOOOOOOOOOOOOOOOOOOOOOOOOOOOOOOOOOOOOOOOOOOOOOOOOOOOOOOOOOOOOOOOOOOOOOOOOOOOOOOOOOOOOOOOO$$$$$$$$$$$$$$$$$$$$$$$$$$$$$$$$$$$$$$$$$$$$$$$$$$$$$$$$$$$$$$$$$$$$$                                                                    &0oooooooooooooooooooooooooooooooooo",
"..................................=                                                                                                       &+++++++++++++++++++++++++++++++++++++++++++++++++++++++++++++++++++++                                 &:OOOOOOOOOOOOOOOOOOOOOOOOOOOOOOOOOOOOOOOOOOOOOOOOOOOOOOOOOOOOOOOOOOOOOOOOOOOOOOOOOOOOOOOOOOOOOOOOOOOOOOOOOOOOOOOOOOOOOOOOOOOOOOOOOOOOOOOOOO$$$$$$$$$$$$$$$$$$$$$$$$$$$$$$$$$$$$$$$$$$$$$$$$$$$$$$$$$$$$$$$$$$$$$                                                                    &0oooooooooooooooooooooooooooooooooo",
"..................................=                                                                                                       &+++++++++++++++++++++++++++++++++++++++++++++++++++++++++++++++++++++                                 &:OOOOOOOOOOOOOOOOOOOOOOOOOOOOOOOOOOOOOOOOOOOOOOOOOOOOOOOOOOOOOOOOOOOOOOOOOOOOOOOOOOOOOOOOOOOOOOOOOOOOOOOOOOOOOOOOOOOOOOOOOOOOOOOOOOOOOOOOOO$$$$$$$$$$$$$$$$$$$$$$$$$$$$$$$$$$$$$$$$$$$$$$$$$$$$$$$$$$$$$$$$$$$$$                                                                    &0oooooooooooooooooooooooooooooooooo",
"..................................=                                                                                                       &+++++++++++++++++++++++++++++++++++++++++++++++++++++++++++++++++++++                                 &:OOOOOOOOOOOOOOOOOOOOOOOOOOOOOOOOOOOOOOOOOOOOOOOOOOOOOOOOOOOOOOOOOOOOOOOOOOOOOOOOOOOOOOOOOOOOOOOOOOOOOOOOOOOOOOOOOOOOOOOOOOOOOOOOOOOOOOOOOO$$$$$$$$$$$$$$$$$$$$$$$$$$$$$$$$$$$$$$$$$$$$$$$$$$$$$$$$$$$$$$$$$$$$$                                                                    &0oooooooooooooooooooooooooooooooooo",
"..................................=                                                                                                       &+++++++++++++++++++++++++++++++++++++++++++++++++++++++++++++++++++++                                 &:OOOOOOOOOOOOOOOOOOOOOOOOOOOOOOOOOOOOOOOOOOOOOOOOOOOOOOOOOOOOOOOOOOOOOOOOOOOOOOOOOOOOOOOOOOOOOOOOOOOOOOOOOOOOOOOOOOOOOOOOOOOOOOOOOOOOOOOOOO$$$$$$$$$$$$$$$$$$$$$$$$$$$$$$$$$$$$$$$$$$$$$$$$$$$$$$$$$$$$$$$$$$$$$                                                                    &0oooooooooooooooooooooooooooooooooo",
"..................................=                                                                                                       &+++++++++++++++++++++++++++++++++++++++++++++++++++++++++++++++++++++                                 &:OOOOOOOOOOOOOOOOOOOOOOOOOOOOOOOOOOOOOOOOOOOOOOOOOOOOOOOOOOOOOOOOOOOOOOOOOOOOOOOOOOOOOOOOOOOOOOOOOOOOOOOOOOOOOOOOOOOOOOOOOOOOOOOOOOOOOOOOOO$$$$$$$$$$$$$$$$$$$$$$$$$$$$$$$$$$$$$$$$$$$$$$$$$$$$$$$$$$$$$$$$$$$$$                                                                    &0oooooooooooooooooooooooooooooooooo",
"..................................=                                                                                                       &+++++++++++++++++++++++++++++++++++++++++++++++++++++++++++++++++++++                                 &:OOOOOOOOOOOOOOOOOOOOOOOOOOOOOOOOOOOOOOOOOOOOOOOOOOOOOOOOOOOOOOOOOOOOOOOOOOOOOOOOOOOOOOOOOOOOOOOOOOOOOOOOOOOOOOOOOOOOOOOOOOOOOOOOOOOOOOOOOO$$$$$$$$$$$$$$$$$$$$$$$$$$$$$$$$$$$$$$$$$$$$$$$$$$$$$$$$$$$$$$$$$$$$$                                                                    &0oooooooooooooooooooooooooooooooooo",
"..................................=                                                                                                       &+++++++++++++++++++++++++++++++++++++++++++++++++++++++++++++++++++++                                 &:OOOOOOOOOOOOOOOOOOOOOOOOOOOOOOOOOOOOOOOOOOOOOOOOOOOOOOOOOOOOOOOOOOOOOOOOOOOOOOOOOOOOOOOOOOOOOOOOOOOOOOOOOOOOOOOOOOOOOOOOOOOOOOOOOOOOOOOOOO$$$$$$$$$$$$$$$$$$$$$$$$$$$$$$$$$$$$$$$$$$$$$$$$$$$$$$$$$$$$$$$$$$$$$                                                                    &0oooooooooooooooooooooooooooooooooo",
"..................................=                                                                                                       &+++++++++++++++++++++++++++++++++++++++++++++++++++++++++++++++++++++                                 &:OOOOOOOOOOOOOOOOOOOOOOOOOOOOOOOOOOOOOOOOOOOOOOOOOOOOOOOOOOOOOOOOOOOOOOOOOOOOOOOOOOOOOOOOOOOOOOOOOOOOOOOOOOOOOOOOOOOOOOOOOOOOOOOOOOOOOOOOOO$$$$$$$$$$$$$$$$$$$$$$$$$$$$$$$$$$$$$$$$$$$$$$$$$$$$$$$$$$$$$$$$$$$$$                                                                    &0oooooooooooooooooooooooooooooooooo",
"..................................=                                                                                                       &+++++++++++++++++++++++++++++++++++++++++++++++++++++++++++++++++++++                                 &:OOOOOOOOOOOOOOOOOOOOOOOOOOOOOOOOOOOOOOOOOOOOOOOOOOOOOOOOOOOOOOOOOOOOOOOOOOOOOOOOOOOOOOOOOOOOOOOOOOOOOOOOOOOOOOOOOOOOOOOOOOOOOOOOOOOOOOOOOO$$$$$$$$$$$$$$$$$$$$$$$$$$$$$$$$$$$$$$$$$$$$$$$$$$$$$$$$$$$$$$$$$$$$$                                                                    &0oooooooooooooooooooooooooooooooooo",
"..................................=                                                                                                       &+++++++++++++++++++++++++++++++++++++++++++++++++++++++++++++++++++++  &  & &&   &  &  &   && &  &   & :OOOOOOOOOOOOOOOOOOOOOOOOOOOOOOOOOOOOOOOOOOOOOOOOOOOOOOOOOOOOOOOOOOOOOOOOOOOOOOOOOOOOOOOOOOOOOOOOOOOOOOOOOOOOOOOOOOOOOOOOOOOOOOOOOOOOOOOOOO$$$$$$$$$$$$$$$$$$$$$$$$$$$$$$$$$$$$$$$$$$$$$$$$$$$$$$$$$$$$$$$$$$$$$                                                                    &0oooooooooooooooooooooooooooooooooo",
"----------------------------------=                                                                                                       &++++++++++++++++++++++++++++++++++++++++++++++++++++++++++++++++++++&,,,,,,,,,,,,,,,,,,,,,,,,,,,,,,,,,,::::::::::::::::::::::::::::::::::::::::::::::::::::::::::::::::::::::::::::::::::::::::::::::::::::::::OOOOOOOOOOOOOOOOOOOOOOOOOOOOOOOOOO90$$$$$0$$0$$$$$$0$$0$$$$$$0$$0$$$$00000000000000000000000000000000000                                                                    &0;;;;;;;;;;;;;;;;;;;;;;;;;;;;;;;;;;",
"@@@@@@@@@@@@@@@@@@@@@@@@@@@@@@@@@@-                                 &:OOOOOOOOOOOOOOOOOOOOOOOOOOOOOOOOOOOOOOOOOOOOOOOOOOOOOOOOOOOOOOOOOOOO,                                                                    ,$$$$$$$$$$$$$$$$$$$$$$$$$$$$$$$$$$,&&&&&&&&&&&&&&&&&&&&&&&&&&&&&&&&&&&&&&&&&&&&&&&&&&&&&&&&&&&&&&&&&&&&&&&&&&&&&&&&&&&&&&&&&&&&&&&&&&&&&&&2####################################################################q&                                                                                                     &*4XXXXXXXXXXXXXXXXXXXXXXXXXXXXXXXXX",
"@@@@@@@@@@@@@@@@@@@@@@@@@@@@@@@@@@-                                 &:OOOOOOOOOOOOOOOOOOOOOOOOOOOOOOOOOOOOOOOOOOOOOOOOOOOOOOOOOOOOOOOOOOOO,&                                                                   ,$$$$$$$$$$$$$$$$$$$$$$$$$$$$$$$$$$,&                                                                                                      2####################################################################q                                                                                                      &*XXXXXXXXXXXXXXXXXXXXXXXXXXXXXXXXXX",
"@@@@@@@@@@@@@@@@@@@@@@@@@@@@@@@@@@-                                 &:OOOOOOOOOOOOOOOOOOOOOOOOOOOOOOOOOOOOOOOOOOOOOOOOOOOOOOOOOOOOOOOOOOOO,&                                                                  &,$$$$$$$$$$$$$$$$$$$$$$$$$$$$$$$$$$,                                                                                                       2####################################################################q                                                                                                      &*XXXXXXXXXXXXXXXXXXXXXXXXXXXXXXXXXX",
"@@@@@@@@@@@@@@@@@@@@@@@@@@@@@@@@@@-                                 &:OOOOOOOOOOOOOOOOOOOOOOOOOOOOOOOOOOOOOOOOOOOOOOOOOOOOOOOOOOOOOOOOOOOO,&                                                                   ,$$$$$$$$$$$$$$$$$$$$$$$$$$$$$$$$$$,&                                                                                                      2####################################################################q                                                                                                      &*XXXXXXXXXXXXXXXXXXXXXXXXXXXXXXXXXX",
"@@@@@@@@@@@@@@@@@@@@@@@@@@@@@@@@@@-                                 &:OOOOOOOOOOOOOOOOOOOOOOOOOOOOOOOOOOOOOOOOOOOOOOOOOOOOOOOOOOOOOOOOOOOO,&                                                                   ,$$$$$$$$$$$$$$$$$$$$$$$$$$$$$$$$$$,&                                                                                                      2####################################################################q                                                                                                      &*XXXXXXXXXXXXXXXXXXXXXXXXXXXXXXXXXX",
"@@@@@@@@@@@@@@@@@@@@@@@@@@@@@@@@@@-                                 &:OOOOOOOOOOOOOOOOOOOOOOOOOOOOOOOOOOOOOOOOOOOOOOOOOOOOOOOOOOOOOOOOOOOO,&                                                                  &,$$$$$$$$$$$$$$$$$$$$$$$$$$$$$$$$$$,                                                                                                       2####################################################################q                                                                                                      &*XXXXXXXXXXXXXXXXXXXXXXXXXXXXXXXXXX",
"@@@@@@@@@@@@@@@@@@@@@@@@@@@@@@@@@@-                                 &:OOOOOOOOOOOOOOOOOOOOOOOOOOOOOOOOOOOOOOOOOOOOOOOOOOOOOOOOOOOOOOOOOOOO,&                                                                   ,$$$$$$$$$$$$$$$$$$$$$$$$$$$$$$$$$$,&                                                                                                      2####################################################################q                                                                                                      &*XXXXXXXXXXXXXXXXXXXXXXXXXXXXXXXXXX",
"@@@@@@@@@@@@@@@@@@@@@@@@@@@@@@@@@@-                                 &:OOOOOOOOOOOOOOOOOOOOOOOOOOOOOOOOOOOOOOOOOOOOOOOOOOOOOOOOOOOOOOOOOOOO,&                                                                   ,$$$$$$$$$$$$$$$$$$$$$$$$$$$$$$$$$$,&                                                                                                      2####################################################################q                                                                                                      &*XXXXXXXXXXXXXXXXXXXXXXXXXXXXXXXXXX",
"@@@@@@@@@@@@@@@@@@@@@@@@@@@@@@@@@@-                                 &:OOOOOOOOOOOOOOOOOOOOOOOOOOOOOOOOOOOOOOOOOOOOOOOOOOOOOOOOOOOOOOOOOOOO,&                                                                  &,$$$$$$$$$$$$$$$$$$$$$$$$$$$$$$$$$$,                                                                                                       2####################################################################q                                                                                                      &*XXXXXXXXXXXXXXXXXXXXXXXXXXXXXXXXXX",
"@@@@@@@@@@@@@@@@@@@@@@@@@@@@@@@@@@-                                 &:OOOOOOOOOOOOOOOOOOOOOOOOOOOOOOOOOOOOOOOOOOOOOOOOOOOOOOOOOOOOOOOOOOOO,&                                                                   ,$$$$$$$$$$$$$$$$$$$$$$$$$$$$$$$$$$,&                                                                                                      2####################################################################q                                                                                                      &*XXXXXXXXXXXXXXXXXXXXXXXXXXXXXXXXXX",
"@@@@@@@@@@@@@@@@@@@@@@@@@@@@@@@@@@-                                 &:OOOOOOOOOOOOOOOOOOOOOOOOOOOOOOOOOOOOOOOOOOOOOOOOOOOOOOOOOOOOOOOOOOOO,&                                                                   ,$$$$$$$$$$$$$$$$$$$$$$$$$$$$$$$$$$,&                                                                                                      2####################################################################q                                                                                                      &*XXXXXXXXXXXXXXXXXXXXXXXXXXXXXXXXXX",
"@@@@@@@@@@@@@@@@@@@@@@@@@@@@@@@@@@-                                 &:OOOOOOOOOOOOOOOOOOOOOOOOOOOOOOOOOOOOOOOOOOOOOOOOOOOOOOOOOOOOOOOOOOOO,&                                                                   ,$$$$$$$$$$$$$$$$$$$$$$$$$$$$$$$$$$,&                                                                                                      2####################################################################q                                                                                                      &*XXXXXXXXXXXXXXXXXXXXXXXXXXXXXXXXXX",
"@@@@@@@@@@@@@@@@@@@@@@@@@@@@@@@@@@-                                 &:OOOOOOOOOOOOOOOOOOOOOOOOOOOOOOOOOOOOOOOOOOOOOOOOOOOOOOOOOOOOOOOOOOOO,&                                                                  &,$$$$$$$$$$$$$$$$$$$$$$$$$$$$$$$$$$,                                                                                                       2####################################################################q                                                                                                      &*XXXXXXXXXXXXXXXXXXXXXXXXXXXXXXXXXX",
"@@@@@@@@@@@@@@@@@@@@@@@@@@@@@@@@@@-                                 &:OOOOOOOOOOOOOOOOOOOOOOOOOOOOOOOOOOOOOOOOOOOOOOOOOOOOOOOOOOOOOOOOOOOO,&                                                                   ,$$$$$$$$$$$$$$$$$$$$$$$$$$$$$$$$$$,&                                                                                                      2####################################################################q                                                                                                      &*XXXXXXXXXXXXXXXXXXXXXXXXXXXXXXXXXX",
"@@@@@@@@@@@@@@@@@@@@@@@@@@@@@@@@@@-                                 &:OOOOOOOOOOOOOOOOOOOOOOOOOOOOOOOOOOOOOOOOOOOOOOOOOOOOOOOOOOOOOOOOOOOO,&                                                                   ,$$$$$$$$$$$$$$$$$$$$$$$$$$$$$$$$$$,&                                                                                                      2####################################################################q                                                                                                      &*XXXXXXXXXXXXXXXXXXXXXXXXXXXXXXXXXX",
"@@@@@@@@@@@@@@@@@@@@@@@@@@@@@@@@@@-                                 &:OOOOOOOOOOOOOOOOOOOOOOOOOOOOOOOOOOOOOOOOOOOOOOOOOOOOOOOOOOOOOOOOOOOO,&                                                                  &,$$$$$$$$$$$$$$$$$$$$$$$$$$$$$$$$$$,                                                                                                       2####################################################################q                                                                                                      &*XXXXXXXXXXXXXXXXXXXXXXXXXXXXXXXXXX",
"@@@@@@@@@@@@@@@@@@@@@@@@@@@@@@@@@@-                                 &:OOOOOOOOOOOOOOOOOOOOOOOOOOOOOOOOOOOOOOOOOOOOOOOOOOOOOOOOOOOOOOOOOOOO,&                                                                   ,$$$$$$$$$$$$$$$$$$$$$$$$$$$$$$$$$$,&                                                                                                      2####################################################################q                                                                                                      &*XXXXXXXXXXXXXXXXXXXXXXXXXXXXXXXXXX",
"@@@@@@@@@@@@@@@@@@@@@@@@@@@@@@@@@@-                                 &:OOOOOOOOOOOOOOOOOOOOOOOOOOOOOOOOOOOOOOOOOOOOOOOOOOOOOOOOOOOOOOOOOOOO,&                                                                   ,$$$$$$$$$$$$$$$$$$$$$$$$$$$$$$$$$$,&                                                                                                      2####################################################################q                                                                                                      &*XXXXXXXXXXXXXXXXXXXXXXXXXXXXXXXXXX",
"@@@@@@@@@@@@@@@@@@@@@@@@@@@@@@@@@@-                                 &:OOOOOOOOOOOOOOOOOOOOOOOOOOOOOOOOOOOOOOOOOOOOOOOOOOOOOOOOOOOOOOOOOOOO,&                                                                  &,$$$$$$$$$$$$$$$$$$$$$$$$$$$$$$$$$$,                                                                                                       2####################################################################q                                                                                                      &*XXXXXXXXXXXXXXXXXXXXXXXXXXXXXXXXXX",
"@@@@@@@@@@@@@@@@@@@@@@@@@@@@@@@@@@-                                 &:OOOOOOOOOOOOOOOOOOOOOOOOOOOOOOOOOOOOOOOOOOOOOOOOOOOOOOOOOOOOOOOOOOOO,&                                                                   ,$$$$$$$$$$$$$$$$$$$$$$$$$$$$$$$$$$,&                                                                                                      2####################################################################q                                                                                                      &*XXXXXXXXXXXXXXXXXXXXXXXXXXXXXXXXXX",
"@@@@@@@@@@@@@@@@@@@@@@@@@@@@@@@@@@-                                 &:OOOOOOOOOOOOOOOOOOOOOOOOOOOOOOOOOOOOOOOOOOOOOOOOOOOOOOOOOOOOOOOOOOOO,&                                                                   ,$$$$$$$$$$$$$$$$$$$$$$$$$$$$$$$$$$,&                                                                                                      2####################################################################q                                                                                                      &*XXXXXXXXXXXXXXXXXXXXXXXXXXXXXXXXXX",
"@@@@@@@@@@@@@@@@@@@@@@@@@@@@@@@@@@-                                 &:OOOOOOOOOOOOOOOOOOOOOOOOOOOOOOOOOOOOOOOOOOOOOOOOOOOOOOOOOOOOOOOOOOOO,&                                                                   ,$$$$$$$$$$$$$$$$$$$$$$$$$$$$$$$$$$,&                                                                                                      2####################################################################q                                                                                                      &*XXXXXXXXXXXXXXXXXXXXXXXXXXXXXXXXXX",
"@@@@@@@@@@@@@@@@@@@@@@@@@@@@@@@@@@-                                 &:OOOOOOOOOOOOOOOOOOOOOOOOOOOOOOOOOOOOOOOOOOOOOOOOOOOOOOOOOOOOOOOOOOOO,&                                                                  &,$$$$$$$$$$$$$$$$$$$$$$$$$$$$$$$$$$,                                                                                                       2####################################################################q                                                                                                      &*XXXXXXXXXXXXXXXXXXXXXXXXXXXXXXXXXX",
"@@@@@@@@@@@@@@@@@@@@@@@@@@@@@@@@@@-                                 &:OOOOOOOOOOOOOOOOOOOOOOOOOOOOOOOOOOOOOOOOOOOOOOOOOOOOOOOOOOOOOOOOOOOO,&                                                                   ,$$$$$$$$$$$$$$$$$$$$$$$$$$$$$$$$$$,&                                                                                                      2####################################################################q                                                                                                      &*XXXXXXXXXXXXXXXXXXXXXXXXXXXXXXXXXX",
"@@@@@@@@@@@@@@@@@@@@@@@@@@@@@@@@@@-                                 &:OOOOOOOOOOOOOOOOOOOOOOOOOOOOOOOOOOOOOOOOOOOOOOOOOOOOOOOOOOOOOOOOOOOO,&                                                                   ,$$$$$$$$$$$$$$$$$$$$$$$$$$$$$$$$$$,&                                                                                                      2####################################################################q                                                                                                      &*XXXXXXXXXXXXXXXXXXXXXXXXXXXXXXXXXX",
"@@@@@@@@@@@@@@@@@@@@@@@@@@@@@@@@@@-                                 &:OOOOOOOOOOOOOOOOOOOOOOOOOOOOOOOOOOOOOOOOOOOOOOOOOOOOOOOOOOOOOOOOOOOO,&                                                                  &,$$$$$$$$$$$$$$$$$$$$$$$$$$$$$$$$$$,                                                                                                       2####################################################################q                                                                                                      &*XXXXXXXXXXXXXXXXXXXXXXXXXXXXXXXXXX",
"@@@@@@@@@@@@@@@@@@@@@@@@@@@@@@@@@@-                                 &:OOOOOOOOOOOOOOOOOOOOOOOOOOOOOOOOOOOOOOOOOOOOOOOOOOOOOOOOOOOOOOOOOOOO,&                                                                   ,$$$$$$$$$$$$$$$$$$$$$$$$$$$$$$$$$$,&                                                                                                      2####################################################################q                                                                                                      &*XXXXXXXXXXXXXXXXXXXXXXXXXXXXXXXXXX",
"@@@@@@@@@@@@@@@@@@@@@@@@@@@@@@@@@@-                                 &:OOOOOOOOOOOOOOOOOOOOOOOOOOOOOOOOOOOOOOOOOOOOOOOOOOOOOOOOOOOOOOOOOOOO,&                                                                   ,$$$$$$$$$$$$$$$$$$$$$$$$$$$$$$$$$$,&                                                                                                      2####################################################################q                                                                                                      &*XXXXXXXXXXXXXXXXXXXXXXXXXXXXXXXXXX",
"@@@@@@@@@@@@@@@@@@@@@@@@@@@@@@@@@@-                                 &:OOOOOOOOOOOOOOOOOOOOOOOOOOOOOOOOOOOOOOOOOOOOOOOOOOOOOOOOOOOOOOOOOOOO,&                                                                  &,$$$$$$$$$$$$$$$$$$$$$$$$$$$$$$$$$$,                                                                                                       2####################################################################q                                                                                                      &*XXXXXXXXXXXXXXXXXXXXXXXXXXXXXXXXXX",
"@@@@@@@@@@@@@@@@@@@@@@@@@@@@@@@@@@-                                 &:OOOOOOOOOOOOOOOOOOOOOOOOOOOOOOOOOOOOOOOOOOOOOOOOOOOOOOOOOOOOOOOOOOOO,&                                                                   ,$$$$$$$$$$$$$$$$$$$$$$$$$$$$$$$$$$,&                                                                                                      2####################################################################q                                                                                                      &*XXXXXXXXXXXXXXXXXXXXXXXXXXXXXXXXXX",
"@@@@@@@@@@@@@@@@@@@@@@@@@@@@@@@@@@-                                 &:OOOOOOOOOOOOOOOOOOOOOOOOOOOOOOOOOOOOOOOOOOOOOOOOOOOOOOOOOOOOOOOOOOOO,&                                                                   ,$$$$$$$$$$$$$$$$$$$$$$$$$$$$$$$$$$,&                                                                                                      2####################################################################q                                                                                                      &*XXXXXXXXXXXXXXXXXXXXXXXXXXXXXXXXXX",
"@@@@@@@@@@@@@@@@@@@@@@@@@@@@@@@@@@-                                 &:OOOOOOOOOOOOOOOOOOOOOOOOOOOOOOOOOOOOOOOOOOOOOOOOOOOOOOOOOOOOOOOOOOOO,&                                                                   ,$$$$$$$$$$$$$$$$$$$$$$$$$$$$$$$$$$,&                                                                                                      2####################################################################q                                                                                                      &*XXXXXXXXXXXXXXXXXXXXXXXXXXXXXXXXXX",
"@@@@@@@@@@@@@@@@@@@@@@@@@@@@@@@@@@-                                 &:OOOOOOOOOOOOOOOOOOOOOOOOOOOOOOOOOOOOOOOOOOOOOOOOOOOOOOOOOOOOOOOOOOOO,&                                                                  &,$$$$$$$$$$$$$$$$$$$$$$$$$$$$$$$$$$,                                                                                                       2####################################################################q                                                                                                      &*XXXXXXXXXXXXXXXXXXXXXXXXXXXXXXXXXX",
"@@@@@@@@@@@@@@@@@@@@@@@@@@@@@@@@@@-                                 &:OOOOOOOOOOOOOOOOOOOOOOOOOOOOOOOOOOOOOOOOOOOOOOOOOOOOOOOOOOOOOOOOOOOO,&                                                                  &,$$$$$$$$$$$$$$$$$$$$$$$$$$$$$$$$$$,&                                                                                                      2####################################################################q                                                                                                      &*XXXXXXXXXXXXXXXXXXXXXXXXXXXXXXXXXX",
"@@@@@@@@@@@@@@@@@@@@@@@@@@@@@@@@@@-                                  ,,,,,,,,,,,,,,,,,,,,,,,,,,,,,,,,,,,,,,,,,,,,,,,,,,,,,,,,,,,,,,,,,,,,,                                   O9999999999999999999999999999999999$$$$$$$$$$$$$$$$$$$$$$$$$$$$$$$$$$09999999999999999999999999999999999                                                                     ,qqqqqqqqqqqqqqqqqqqqqqqqqqqqqqqqqqqqqqqqqqqqqqqqqqqqqqqqqqqqqqqqqqqq                                                                                                       &*XXXXXXXXXXXXXXXXXXXXXXXXXXXXXXXXXX",
"@@@@@@@@@@@@@@@@@@@@@@@@@@@@@@@@@@-                                                                                                                                         &$$$$$$$$$$$$$$$$$$$$$$$$$$$$$$$$$$$$$$$$$$$$$$$$$$$$$$$$$$$$$$$$$$$$$$$$$$$$$$$$$$$$$$$$$$$$$$$$$$$$$$$$&                                                                                                                                                                                                                                                &*XXXXXXXXXXXXXXXXXXXXXXXXXXXXXXXXXX",
"@@@@@@@@@@@@@@@@@@@@@@@@@@@@@@@@@@-                                                                                                                                         &$$$$$$$$$$$$$$$$$$$$$$$$$$$$$$$$$$$$$$$$$$$$$$$$$$$$$$$$$$$$$$$$$$$$$$$$$$$$$$$$$$$$$$$$$$$$$$$$$$$$$$$$&                                                                                                                                                                                                                                                &*XXXXXXXXXXXXXXXXXXXXXXXXXXXXXXXXXX",
"@@@@@@@@@@@@@@@@@@@@@@@@@@@@@@@@@@-                                                                                                                                         &$$$$$$$$$$$$$$$$$$$$$$$$$$$$$$$$$$$$$$$$$$$$$$$$$$$$$$$$$$$$$$$$$$$$$$$$$$$$$$$$$$$$$$$$$$$$$$$$$$$$$$$$&                                                                                                                                                                                                                                                &*XXXXXXXXXXXXXXXXXXXXXXXXXXXXXXXXXX",
"@@@@@@@@@@@@@@@@@@@@@@@@@@@@@@@@@@-                                                                                                                                         &$$$$$$$$$$$$$$$$$$$$$$$$$$$$$$$$$$$$$$$$$$$$$$$$$$$$$$$$$$$$$$$$$$$$$$$$$$$$$$$$$$$$$$$$$$$$$$$$$$$$$$$$&                                                                                                                                                                                                                                                &*XXXXXXXXXXXXXXXXXXXXXXXXXXXXXXXXXX",
"@@@@@@@@@@@@@@@@@@@@@@@@@@@@@@@@@@-                                                                                                                                         &$$$$$$$$$$$$$$$$$$$$$$$$$$$$$$$$$$$$$$$$$$$$$$$$$$$$$$$$$$$$$$$$$$$$$$$$$$$$$$$$$$$$$$$$$$$$$$$$$$$$$$$$&                                                                                                                                                                                                                                                &*XXXXXXXXXXXXXXXXXXXXXXXXXXXXXXXXXX",
"@@@@@@@@@@@@@@@@@@@@@@@@@@@@@@@@@@-                                                                                                                                         &$$$$$$$$$$$$$$$$$$$$$$$$$$$$$$$$$$$$$$$$$$$$$$$$$$$$$$$$$$$$$$$$$$$$$$$$$$$$$$$$$$$$$$$$$$$$$$$$$$$$$$$$&                                                                                                                                                                                                                                                &*XXXXXXXXXXXXXXXXXXXXXXXXXXXXXXXXXX",
"@@@@@@@@@@@@@@@@@@@@@@@@@@@@@@@@@@-                                                                                                                                         &$$$$$$$$$$$$$$$$$$$$$$$$$$$$$$$$$$$$$$$$$$$$$$$$$$$$$$$$$$$$$$$$$$$$$$$$$$$$$$$$$$$$$$$$$$$$$$$$$$$$$$$$&                                                                                                                                                                                                                                                &*XXXXXXXXXXXXXXXXXXXXXXXXXXXXXXXXXX",
"@@@@@@@@@@@@@@@@@@@@@@@@@@@@@@@@@@-                                                                                                                                         &$$$$$$$$$$$$$$$$$$$$$$$$$$$$$$$$$$$$$$$$$$$$$$$$$$$$$$$$$$$$$$$$$$$$$$$$$$$$$$$$$$$$$$$$$$$$$$$$$$$$$$$$&                                                                                                                                                                                                                                                &*XXXXXXXXXXXXXXXXXXXXXXXXXXXXXXXXXX",
"@@@@@@@@@@@@@@@@@@@@@@@@@@@@@@@@@@-                                                                                                                                         &$$$$$$$$$$$$$$$$$$$$$$$$$$$$$$$$$$$$$$$$$$$$$$$$$$$$$$$$$$$$$$$$$$$$$$$$$$$$$$$$$$$$$$$$$$$$$$$$$$$$$$$$&                                                                                                                                                                                                                                                &*XXXXXXXXXXXXXXXXXXXXXXXXXXXXXXXXXX",
"@@@@@@@@@@@@@@@@@@@@@@@@@@@@@@@@@@-                                                                                                                                         &$$$$$$$$$$$$$$$$$$$$$$$$$$$$$$$$$$$$$$$$$$$$$$$$$$$$$$$$$$$$$$$$$$$$$$$$$$$$$$$$$$$$$$$$$$$$$$$$$$$$$$$$&                                                                                                                                                                                                                                                &*XXXXXXXXXXXXXXXXXXXXXXXXXXXXXXXXXX",
"@@@@@@@@@@@@@@@@@@@@@@@@@@@@@@@@@@-                                                                                                                                         &$$$$$$$$$$$$$$$$$$$$$$$$$$$$$$$$$$$$$$$$$$$$$$$$$$$$$$$$$$$$$$$$$$$$$$$$$$$$$$$$$$$$$$$$$$$$$$$$$$$$$$$$&                                                                                                                                                                                                                                                &*XXXXXXXXXXXXXXXXXXXXXXXXXXXXXXXXXX",
"@@@@@@@@@@@@@@@@@@@@@@@@@@@@@@@@@@-                                                                                                                                         &$$$$$$$$$$$$$$$$$$$$$$$$$$$$$$$$$$$$$$$$$$$$$$$$$$$$$$$$$$$$$$$$$$$$$$$$$$$$$$$$$$$$$$$$$$$$$$$$$$$$$$$$&                                                                                                                                                                                                                                                &*XXXXXXXXXXXXXXXXXXXXXXXXXXXXXXXXXX",
"@@@@@@@@@@@@@@@@@@@@@@@@@@@@@@@@@@-                                                                                                                                         &$$$$$$$$$$$$$$$$$$$$$$$$$$$$$$$$$$$$$$$$$$$$$$$$$$$$$$$$$$$$$$$$$$$$$$$$$$$$$$$$$$$$$$$$$$$$$$$$$$$$$$$$&                                                                                                                                                                                                                                                &*XXXXXXXXXXXXXXXXXXXXXXXXXXXXXXXXXX",
"@@@@@@@@@@@@@@@@@@@@@@@@@@@@@@@@@@-                                                                                                                                         &$$$$$$$$$$$$$$$$$$$$$$$$$$$$$$$$$$$$$$$$$$$$$$$$$$$$$$$$$$$$$$$$$$$$$$$$$$$$$$$$$$$$$$$$$$$$$$$$$$$$$$$$&                                                                                                                                                                                                                                                &*XXXXXXXXXXXXXXXXXXXXXXXXXXXXXXXXXX",
"@@@@@@@@@@@@@@@@@@@@@@@@@@@@@@@@@@-                                                                                                                                         &$$$$$$$$$$$$$$$$$$$$$$$$$$$$$$$$$$$$$$$$$$$$$$$$$$$$$$$$$$$$$$$$$$$$$$$$$$$$$$$$$$$$$$$$$$$$$$$$$$$$$$$$&                                                                                                                                                                                                                                                &*XXXXXXXXXXXXXXXXXXXXXXXXXXXXXXXXXX",
"@@@@@@@@@@@@@@@@@@@@@@@@@@@@@@@@@@-                                                                                                                                         &$$$$$$$$$$$$$$$$$$$$$$$$$$$$$$$$$$$$$$$$$$$$$$$$$$$$$$$$$$$$$$$$$$$$$$$$$$$$$$$$$$$$$$$$$$$$$$$$$$$$$$$$&                                                                                                                                                                                                                                                &*XXXXXXXXXXXXXXXXXXXXXXXXXXXXXXXXXX",
"@@@@@@@@@@@@@@@@@@@@@@@@@@@@@@@@@@-                                                                                                                                         &$$$$$$$$$$$$$$$$$$$$$$$$$$$$$$$$$$$$$$$$$$$$$$$$$$$$$$$$$$$$$$$$$$$$$$$$$$$$$$$$$$$$$$$$$$$$$$$$$$$$$$$$&                                                                                                                                                                                                                                                &*XXXXXXXXXXXXXXXXXXXXXXXXXXXXXXXXXX",
"@@@@@@@@@@@@@@@@@@@@@@@@@@@@@@@@@@-                                                                                                                                         &$$$$$$$$$$$$$$$$$$$$$$$$$$$$$$$$$$$$$$$$$$$$$$$$$$$$$$$$$$$$$$$$$$$$$$$$$$$$$$$$$$$$$$$$$$$$$$$$$$$$$$$$&                                                                                                                                                                                                                                                &*XXXXXXXXXXXXXXXXXXXXXXXXXXXXXXXXXX",
"@@@@@@@@@@@@@@@@@@@@@@@@@@@@@@@@@@-                                                                                                                                         &$$$$$$$$$$$$$$$$$$$$$$$$$$$$$$$$$$$$$$$$$$$$$$$$$$$$$$$$$$$$$$$$$$$$$$$$$$$$$$$$$$$$$$$$$$$$$$$$$$$$$$$$&                                                                                                                                                                                                                                                &*XXXXXXXXXXXXXXXXXXXXXXXXXXXXXXXXXX",
"@@@@@@@@@@@@@@@@@@@@@@@@@@@@@@@@@@-                                                                                                                                         &$$$$$$$$$$$$$$$$$$$$$$$$$$$$$$$$$$$$$$$$$$$$$$$$$$$$$$$$$$$$$$$$$$$$$$$$$$$$$$$$$$$$$$$$$$$$$$$$$$$$$$$$&                                                                                                                                                                                                                                                &*XXXXXXXXXXXXXXXXXXXXXXXXXXXXXXXXXX",
"@@@@@@@@@@@@@@@@@@@@@@@@@@@@@@@@@@-                                                                                                                                         &$$$$$$$$$$$$$$$$$$$$$$$$$$$$$$$$$$$$$$$$$$$$$$$$$$$$$$$$$$$$$$$$$$$$$$$$$$$$$$$$$$$$$$$$$$$$$$$$$$$$$$$$&                                                                                                                                                                                                                                                &*XXXXXXXXXXXXXXXXXXXXXXXXXXXXXXXXXX",
"@@@@@@@@@@@@@@@@@@@@@@@@@@@@@@@@@@-                                                                                                                                         &$$$$$$$$$$$$$$$$$$$$$$$$$$$$$$$$$$$$$$$$$$$$$$$$$$$$$$$$$$$$$$$$$$$$$$$$$$$$$$$$$$$$$$$$$$$$$$$$$$$$$$$$&                                                                                                                                                                                                                                                &*XXXXXXXXXXXXXXXXXXXXXXXXXXXXXXXXXX",
"@@@@@@@@@@@@@@@@@@@@@@@@@@@@@@@@@@-                                                                                                                                         &$$$$$$$$$$$$$$$$$$$$$$$$$$$$$$$$$$$$$$$$$$$$$$$$$$$$$$$$$$$$$$$$$$$$$$$$$$$$$$$$$$$$$$$$$$$$$$$$$$$$$$$$&                                                                                                                                                                                                                                                &*XXXXXXXXXXXXXXXXXXXXXXXXXXXXXXXXXX",
"@@@@@@@@@@@@@@@@@@@@@@@@@@@@@@@@@@-                                                                                                                                         &$$$$$$$$$$$$$$$$$$$$$$$$$$$$$$$$$$$$$$$$$$$$$$$$$$$$$$$$$$$$$$$$$$$$$$$$$$$$$$$$$$$$$$$$$$$$$$$$$$$$$$$$&                                                                                                                                                                                                                                                &*XXXXXXXXXXXXXXXXXXXXXXXXXXXXXXXXXX",
"@@@@@@@@@@@@@@@@@@@@@@@@@@@@@@@@@@-                                                                                                                                         &$$$$$$$$$$$$$$$$$$$$$$$$$$$$$$$$$$$$$$$$$$$$$$$$$$$$$$$$$$$$$$$$$$$$$$$$$$$$$$$$$$$$$$$$$$$$$$$$$$$$$$$$&                                                                                                                                                                                                                                                &*XXXXXXXXXXXXXXXXXXXXXXXXXXXXXXXXXX",
"@@@@@@@@@@@@@@@@@@@@@@@@@@@@@@@@@@-                                                                                                                                         &$$$$$$$$$$$$$$$$$$$$$$$$$$$$$$$$$$$$$$$$$$$$$$$$$$$$$$$$$$$$$$$$$$$$$$$$$$$$$$$$$$$$$$$$$$$$$$$$$$$$$$$$&                                                                                                                                                                                                                                                &*XXXXXXXXXXXXXXXXXXXXXXXXXXXXXXXXXX",
"@@@@@@@@@@@@@@@@@@@@@@@@@@@@@@@@@@-                                                                                                                                         &$$$$$$$$$$$$$$$$$$$$$$$$$$$$$$$$$$$$$$$$$$$$$$$$$$$$$$$$$$$$$$$$$$$$$$$$$$$$$$$$$$$$$$$$$$$$$$$$$$$$$$$$&                                                                                                                                                                                                                                                &*XXXXXXXXXXXXXXXXXXXXXXXXXXXXXXXXXX",
"@@@@@@@@@@@@@@@@@@@@@@@@@@@@@@@@@@-                                                                                                                                         &$$$$$$$$$$$$$$$$$$$$$$$$$$$$$$$$$$$$$$$$$$$$$$$$$$$$$$$$$$$$$$$$$$$$$$$$$$$$$$$$$$$$$$$$$$$$$$$$$$$$$$$$&                                                                                                                                                                                                                                                &*XXXXXXXXXXXXXXXXXXXXXXXXXXXXXXXXXX",
"@@@@@@@@@@@@@@@@@@@@@@@@@@@@@@@@@@-                                                                                                                                         &$$$$$$$$$$$$$$$$$$$$$$$$$$$$$$$$$$$$$$$$$$$$$$$$$$$$$$$$$$$$$$$$$$$$$$$$$$$$$$$$$$$$$$$$$$$$$$$$$$$$$$$$&                                                                                                                                                                                                                                                &*XXXXXXXXXXXXXXXXXXXXXXXXXXXXXXXXXX",
"@@@@@@@@@@@@@@@@@@@@@@@@@@@@@@@@@@-                                                                                                                                         &$$$$$$$$$$$$$$$$$$$$$$$$$$$$$$$$$$$$$$$$$$$$$$$$$$$$$$$$$$$$$$$$$$$$$$$$$$$$$$$$$$$$$$$$$$$$$$$$$$$$$$$$&                                                                                                                                                                                                                                                &*XXXXXXXXXXXXXXXXXXXXXXXXXXXXXXXXXX",
"@@@@@@@@@@@@@@@@@@@@@@@@@@@@@@@@@@-                                                                                                                                         &$$$$$$$$$$$$$$$$$$$$$$$$$$$$$$$$$$$$$$$$$$$$$$$$$$$$$$$$$$$$$$$$$$$$$$$$$$$$$$$$$$$$$$$$$$$$$$$$$$$$$$$$&                                                                                                                                                                                                                                                &*XXXXXXXXXXXXXXXXXXXXXXXXXXXXXXXXXX",
"@@@@@@@@@@@@@@@@@@@@@@@@@@@@@@@@@@-                                                                                                                                         &$$$$$$$$$$$$$$$$$$$$$$$$$$$$$$$$$$$$$$$$$$$$$$$$$$$$$$$$$$$$$$$$$$$$$$$$$$$$$$$$$$$$$$$$$$$$$$$$$$$$$$$$&                                                                                                                                                                                                                                                &*XXXXXXXXXXXXXXXXXXXXXXXXXXXXXXXXXX",
"@@@@@@@@@@@@@@@@@@@@@@@@@@@@@@@@@@-                                                                                                                                         &$$$$$$$$$$$$$$$$$$$$$$$$$$$$$$$$$$$$$$$$$$$$$$$$$$$$$$$$$$$$$$$$$$$$$$$$$$$$$$$$$$$$$$$$$$$$$$$$$$$$$$$$&                                                                                                                                                                                                                                                &*XXXXXXXXXXXXXXXXXXXXXXXXXXXXXXXXXX",
"77777777777777777777777777777777775&&&&&&&&&&&&&&&&&&&&&&&&&&&&&&&&&&&&&&&&&&&&&&&&&&&&&&&&&&&&&&&&&&&&&&&&&&&&&&&&&&&&&&&&&&&&&&&&&&&&&&&&&&&&&&&&&&&&&&&&&&&&&&&&&&&&&&&&&&0$$$$$$$$$$$$$$$$$$$$$$$$$$$$$$$$$$$$$$$$$$$$$$$$$$$$$$$$$$$$$$$$$$$$$$$$$$$$$$$$$$$$$$$$$$$$$$$$$$$$$$$&&&&&&&&&&&&&&&&&&&&&&&&&&&&&&&&&&&&&&&&&&&&&&&&&&&&&&&&&&&&&&&&&&&&&&&&&&&&&&&&&&&&&&&&&&&&&&&&&&&&&&&&&&&&&&&&&&&&&&&&&&&&&&&&&&&&&&&&&&&&&&&&&&&&&&&&&&&&&&&&&&&&&&&&&&&&&&&&&&&&&&&&&&&&&&&&&&&&&&&&&&&&&&&&&&&&&&&&&&&&&&&&&&&&&&&&&&&&&&&&&&*XXXXXXXXXXXXXXXXXXXXXXXXXXXXXXXXXX",
";;;;;;;;;;;;;;;;;;;;;;;;;;;;;;;;;;;;;;;;;;;;;;;;;;;;;;;;;;;;;;;;;;;;;;;;;;;;;;;;;;;;;;;;;;;;;;;;;;;;;;;;;;;;;;;;;;;;;;;;;;;;;;;;;;;;;;;;;;144444444444444444444444444444444444XXXXXXXXXXXXXXXXXXXXXXXXXXXXXXXXXXXXXXXXXXXXXXXXXXXXXXXXXXXXXXXXXXXXXXXXXXXXXXXXXXXXXXXXXXXXXXXXXXXXXX4;;;;;;;;;;;;;;;;;;;;;;;;;;;;;;;;;;;;;;;;;;;;;;;;;;;;;;;;;;;;;;;;;;;;;X4444444444444444444444444444444444;;;;;;;;;;;;;;;;;;;;;;;;;;;;;;;;;;;;;;;;;;;;;;;;;;;;;;;;;;;;;;;;;;;;;4444444444444444444444444444444444X;;;;;;;;;;;;;;;;;;;;;;;;;;;;;;;;;;ooooooooooooooooooooooooooooooooooo",
"oooooooooooooooooooooooooooooooooooooooooooooooooooooooooooooooooooooooooooooooooooooooooooooooooooooooooooooooooooooooooooooooooooooooooo6XXXXXXXXXXXXXXXXXXXXXXXXXXXXXXXXXXXXXXXXXXXXXXXXXXXXXXXXXXXXXXXXXXXXXXXXXXXXXXXXXXXXXXXXXXXXXXXXXXXXXXXXXXXXXXXXXXXXXXXXXXXXXXXXXXXXXXXXXXooooooooooooooooooooooooooooooooooooooooooooooooooooooooooooooooooooo1XXXXXXXXXXXXXXXXXXXXXXXXXXXXXXXXX8ooooooooooooooooooooooooooooooooooooooooooooooooooooooooooooooooooooo8XXXXXXXXXXXXXXXXXXXXXXXXXXXXXXXXX1ooooooooooooooooooooooooooooooooooooooooooooooooooooooooooooooooooooo",
"oooooooooooooooooooooooooooooooooooooooooooooooooooooooooooooooooooooooooooooooooooooooooooooooooooooooooooooooooooooooooooooooooooooooooo6XXXXXXXXXXXXXXXXXXXXXXXXXXXXXXXXXXXXXXXXXXXXXXXXXXXXXXXXXXXXXXXXXXXXXXXXXXXXXXXXXXXXXXXXXXXXXXXXXXXXXXXXXXXXXXXXXXXXXXXXXXXXXXXXXXXXXXXXXXooooooooooooooooooooooooooooooooooooooooooooooooooooooooooooooooooooo1XXXXXXXXXXXXXXXXXXXXXXXXXXXXXXXXX8ooooooooooooooooooooooooooooooooooooooooooooooooooooooooooooooooooooo8XXXXXXXXXXXXXXXXXXXXXXXXXXXXXXXXX1ooooooooooooooooooooooooooooooooooooooooooooooooooooooooooooooooooooo",
"oooooooooooooooooooooooooooooooooooooooooooooooooooooooooooooooooooooooooooooooooooooooooooooooooooooooooooooooooooooooooooooooooooooooooo6XXXXXXXXXXXXXXXXXXXXXXXXXXXXXXXXXXXXXXXXXXXXXXXXXXXXXXXXXXXXXXXXXXXXXXXXXXXXXXXXXXXXXXXXXXXXXXXXXXXXXXXXXXXXXXXXXXXXXXXXXXXXXXXXXXXXXXXXXXooooooooooooooooooooooooooooooooooooooooooooooooooooooooooooooooooooo1XXXXXXXXXXXXXXXXXXXXXXXXXXXXXXXXX8ooooooooooooooooooooooooooooooooooooooooooooooooooooooooooooooooooooo8XXXXXXXXXXXXXXXXXXXXXXXXXXXXXXXXX1ooooooooooooooooooooooooooooooooooooooooooooooooooooooooooooooooooooo",
"oooooooooooooooooooooooooooooooooooooooooooooooooooooooooooooooooooooooooooooooooooooooooooooooooooooooooooooooooooooooooooooooooooooooooo6XXXXXXXXXXXXXXXXXXXXXXXXXXXXXXXXXXXXXXXXXXXXXXXXXXXXXXXXXXXXXXXXXXXXXXXXXXXXXXXXXXXXXXXXXXXXXXXXXXXXXXXXXXXXXXXXXXXXXXXXXXXXXXXXXXXXXXXXXXooooooooooooooooooooooooooooooooooooooooooooooooooooooooooooooooooooo1XXXXXXXXXXXXXXXXXXXXXXXXXXXXXXXXX8ooooooooooooooooooooooooooooooooooooooooooooooooooooooooooooooooooooo8XXXXXXXXXXXXXXXXXXXXXXXXXXXXXXXXX1ooooooooooooooooooooooooooooooooooooooooooooooooooooooooooooooooooooo",
"oooooooooooooooooooooooooooooooooooooooooooooooooooooooooooooooooooooooooooooooooooooooooooooooooooooooooooooooooooooooooooooooooooooooooo6XXXXXXXXXXXXXXXXXXXXXXXXXXXXXXXXXXXXXXXXXXXXXXXXXXXXXXXXXXXXXXXXXXXXXXXXXXXXXXXXXXXXXXXXXXXXXXXXXXXXXXXXXXXXXXXXXXXXXXXXXXXXXXXXXXXXXXXXXXooooooooooooooooooooooooooooooooooooooooooooooooooooooooooooooooooooo1XXXXXXXXXXXXXXXXXXXXXXXXXXXXXXXXX8ooooooooooooooooooooooooooooooooooooooooooooooooooooooooooooooooooooo8XXXXXXXXXXXXXXXXXXXXXXXXXXXXXXXXX1ooooooooooooooooooooooooooooooooooooooooooooooooooooooooooooooooooooo",
"oooooooooooooooooooooooooooooooooooooooooooooooooooooooooooooooooooooooooooooooooooooooooooooooooooooooooooooooooooooooooooooooooooooooooo6XXXXXXXXXXXXXXXXXXXXXXXXXXXXXXXXXXXXXXXXXXXXXXXXXXXXXXXXXXXXXXXXXXXXXXXXXXXXXXXXXXXXXXXXXXXXXXXXXXXXXXXXXXXXXXXXXXXXXXXXXXXXXXXXXXXXXXXXXXooooooooooooooooooooooooooooooooooooooooooooooooooooooooooooooooooooo1XXXXXXXXXXXXXXXXXXXXXXXXXXXXXXXXX8ooooooooooooooooooooooooooooooooooooooooooooooooooooooooooooooooooooo8XXXXXXXXXXXXXXXXXXXXXXXXXXXXXXXXX1ooooooooooooooooooooooooooooooooooooooooooooooooooooooooooooooooooooo",
"oooooooooooooooooooooooooooooooooooooooooooooooooooooooooooooooooooooooooooooooooooooooooooooooooooooooooooooooooooooooooooooooooooooooooo6XXXXXXXXXXXXXXXXXXXXXXXXXXXXXXXXXXXXXXXXXXXXXXXXXXXXXXXXXXXXXXXXXXXXXXXXXXXXXXXXXXXXXXXXXXXXXXXXXXXXXXXXXXXXXXXXXXXXXXXXXXXXXXXXXXXXXXXXXXooooooooooooooooooooooooooooooooooooooooooooooooooooooooooooooooooooo1XXXXXXXXXXXXXXXXXXXXXXXXXXXXXXXXX8ooooooooooooooooooooooooooooooooooooooooooooooooooooooooooooooooooooo8XXXXXXXXXXXXXXXXXXXXXXXXXXXXXXXXX1ooooooooooooooooooooooooooooooooooooooooooooooooooooooooooooooooooooo",
"oooooooooooooooooooooooooooooooooooooooooooooooooooooooooooooooooooooooooooooooooooooooooooooooooooooooooooooooooooooooooooooooooooooooooo6XXXXXXXXXXXXXXXXXXXXXXXXXXXXXXXXXXXXXXXXXXXXXXXXXXXXXXXXXXXXXXXXXXXXXXXXXXXXXXXXXXXXXXXXXXXXXXXXXXXXXXXXXXXXXXXXXXXXXXXXXXXXXXXXXXXXXXXXXXooooooooooooooooooooooooooooooooooooooooooooooooooooooooooooooooooooo1XXXXXXXXXXXXXXXXXXXXXXXXXXXXXXXXX8ooooooooooooooooooooooooooooooooooooooooooooooooooooooooooooooooooooo8XXXXXXXXXXXXXXXXXXXXXXXXXXXXXXXXX1ooooooooooooooooooooooooooooooooooooooooooooooooooooooooooooooooooooo",
"oooooooooooooooooooooooooooooooooooooooooooooooooooooooooooooooooooooooooooooooooooooooooooooooooooooooooooooooooooooooooooooooooooooooooo6XXXXXXXXXXXXXXXXXXXXXXXXXXXXXXXXXXXXXXXXXXXXXXXXXXXXXXXXXXXXXXXXXXXXXXXXXXXXXXXXXXXXXXXXXXXXXXXXXXXXXXXXXXXXXXXXXXXXXXXXXXXXXXXXXXXXXXXXXXooooooooooooooooooooooooooooooooooooooooooooooooooooooooooooooooooooo1XXXXXXXXXXXXXXXXXXXXXXXXXXXXXXXXX8ooooooooooooooooooooooooooooooooooooooooooooooooooooooooooooooooooooo8XXXXXXXXXXXXXXXXXXXXXXXXXXXXXXXXX1ooooooooooooooooooooooooooooooooooooooooooooooooooooooooooooooooooooo",
"oooooooooooooooooooooooooooooooooooooooooooooooooooooooooooooooooooooooooooooooooooooooooooooooooooooooooooooooooooooooooooooooooooooooooo6XXXXXXXXXXXXXXXXXXXXXXXXXXXXXXXXXXXXXXXXXXXXXXXXXXXXXXXXXXXXXXXXXXXXXXXXXXXXXXXXXXXXXXXXXXXXXXXXXXXXXXXXXXXXXXXXXXXXXXXXXXXXXXXXXXXXXXXXXXooooooooooooooooooooooooooooooooooooooooooooooooooooooooooooooooooooo1XXXXXXXXXXXXXXXXXXXXXXXXXXXXXXXXX8ooooooooooooooooooooooooooooooooooooooooooooooooooooooooooooooooooooo8XXXXXXXXXXXXXXXXXXXXXXXXXXXXXXXXX1ooooooooooooooooooooooooooooooooooooooooooooooooooooooooooooooooooooo",
"oooooooooooooooooooooooooooooooooooooooooooooooooooooooooooooooooooooooooooooooooooooooooooooooooooooooooooooooooooooooooooooooooooooooooo6XXXXXXXXXXXXXXXXXXXXXXXXXXXXXXXXXXXXXXXXXXXXXXXXXXXXXXXXXXXXXXXXXXXXXXXXXXXXXXXXXXXXXXXXXXXXXXXXXXXXXXXXXXXXXXXXXXXXXXXXXXXXXXXXXXXXXXXXXXooooooooooooooooooooooooooooooooooooooooooooooooooooooooooooooooooooo1XXXXXXXXXXXXXXXXXXXXXXXXXXXXXXXXX8ooooooooooooooooooooooooooooooooooooooooooooooooooooooooooooooooooooo8XXXXXXXXXXXXXXXXXXXXXXXXXXXXXXXXX1ooooooooooooooooooooooooooooooooooooooooooooooooooooooooooooooooooooo",
"oooooooooooooooooooooooooooooooooooooooooooooooooooooooooooooooooooooooooooooooooooooooooooooooooooooooooooooooooooooooooooooooooooooooooo6XXXXXXXXXXXXXXXXXXXXXXXXXXXXXXXXXXXXXXXXXXXXXXXXXXXXXXXXXXXXXXXXXXXXXXXXXXXXXXXXXXXXXXXXXXXXXXXXXXXXXXXXXXXXXXXXXXXXXXXXXXXXXXXXXXXXXXXXXXooooooooooooooooooooooooooooooooooooooooooooooooooooooooooooooooooooo1XXXXXXXXXXXXXXXXXXXXXXXXXXXXXXXXX8ooooooooooooooooooooooooooooooooooooooooooooooooooooooooooooooooooooo8XXXXXXXXXXXXXXXXXXXXXXXXXXXXXXXXX1ooooooooooooooooooooooooooooooooooooooooooooooooooooooooooooooooooooo",
"oooooooooooooooooooooooooooooooooooooooooooooooooooooooooooooooooooooooooooooooooooooooooooooooooooooooooooooooooooooooooooooooooooooooooo6XXXXXXXXXXXXXXXXXXXXXXXXXXXXXXXXXXXXXXXXXXXXXXXXXXXXXXXXXXXXXXXXXXXXXXXXXXXXXXXXXXXXXXXXXXXXXXXXXXXXXXXXXXXXXXXXXXXXXXXXXXXXXXXXXXXXXXXXXXooooooooooooooooooooooooooooooooooooooooooooooooooooooooooooooooooooo1XXXXXXXXXXXXXXXXXXXXXXXXXXXXXXXXX8ooooooooooooooooooooooooooooooooooooooooooooooooooooooooooooooooooooo8XXXXXXXXXXXXXXXXXXXXXXXXXXXXXXXXX1ooooooooooooooooooooooooooooooooooooooooooooooooooooooooooooooooooooo",
"oooooooooooooooooooooooooooooooooooooooooooooooooooooooooooooooooooooooooooooooooooooooooooooooooooooooooooooooooooooooooooooooooooooooooo6XXXXXXXXXXXXXXXXXXXXXXXXXXXXXXXXXXXXXXXXXXXXXXXXXXXXXXXXXXXXXXXXXXXXXXXXXXXXXXXXXXXXXXXXXXXXXXXXXXXXXXXXXXXXXXXXXXXXXXXXXXXXXXXXXXXXXXXXXXooooooooooooooooooooooooooooooooooooooooooooooooooooooooooooooooooooo1XXXXXXXXXXXXXXXXXXXXXXXXXXXXXXXXX8ooooooooooooooooooooooooooooooooooooooooooooooooooooooooooooooooooooo8XXXXXXXXXXXXXXXXXXXXXXXXXXXXXXXXX1ooooooooooooooooooooooooooooooooooooooooooooooooooooooooooooooooooooo",
"oooooooooooooooooooooooooooooooooooooooooooooooooooooooooooooooooooooooooooooooooooooooooooooooooooooooooooooooooooooooooooooooooooooooooo6XXXXXXXXXXXXXXXXXXXXXXXXXXXXXXXXXXXXXXXXXXXXXXXXXXXXXXXXXXXXXXXXXXXXXXXXXXXXXXXXXXXXXXXXXXXXXXXXXXXXXXXXXXXXXXXXXXXXXXXXXXXXXXXXXXXXXXXXXXooooooooooooooooooooooooooooooooooooooooooooooooooooooooooooooooooooo1XXXXXXXXXXXXXXXXXXXXXXXXXXXXXXXXX8ooooooooooooooooooooooooooooooooooooooooooooooooooooooooooooooooooooo8XXXXXXXXXXXXXXXXXXXXXXXXXXXXXXXXX1ooooooooooooooooooooooooooooooooooooooooooooooooooooooooooooooooooooo",
"oooooooooooooooooooooooooooooooooooooooooooooooooooooooooooooooooooooooooooooooooooooooooooooooooooooooooooooooooooooooooooooooooooooooooo6XXXXXXXXXXXXXXXXXXXXXXXXXXXXXXXXXXXXXXXXXXXXXXXXXXXXXXXXXXXXXXXXXXXXXXXXXXXXXXXXXXXXXXXXXXXXXXXXXXXXXXXXXXXXXXXXXXXXXXXXXXXXXXXXXXXXXXXXXXooooooooooooooooooooooooooooooooooooooooooooooooooooooooooooooooooooo1XXXXXXXXXXXXXXXXXXXXXXXXXXXXXXXXX8ooooooooooooooooooooooooooooooooooooooooooooooooooooooooooooooooooooo8XXXXXXXXXXXXXXXXXXXXXXXXXXXXXXXXX1ooooooooooooooooooooooooooooooooooooooooooooooooooooooooooooooooooooo",
"oooooooooooooooooooooooooooooooooooooooooooooooooooooooooooooooooooooooooooooooooooooooooooooooooooooooooooooooooooooooooooooooooooooooooo6XXXXXXXXXXXXXXXXXXXXXXXXXXXXXXXXXXXXXXXXXXXXXXXXXXXXXXXXXXXXXXXXXXXXXXXXXXXXXXXXXXXXXXXXXXXXXXXXXXXXXXXXXXXXXXXXXXXXXXXXXXXXXXXXXXXXXXXXXXooooooooooooooooooooooooooooooooooooooooooooooooooooooooooooooooooooo1XXXXXXXXXXXXXXXXXXXXXXXXXXXXXXXXX8ooooooooooooooooooooooooooooooooooooooooooooooooooooooooooooooooooooo8XXXXXXXXXXXXXXXXXXXXXXXXXXXXXXXXX1ooooooooooooooooooooooooooooooooooooooooooooooooooooooooooooooooooooo",
"oooooooooooooooooooooooooooooooooooooooooooooooooooooooooooooooooooooooooooooooooooooooooooooooooooooooooooooooooooooooooooooooooooooooooo6XXXXXXXXXXXXXXXXXXXXXXXXXXXXXXXXXXXXXXXXXXXXXXXXXXXXXXXXXXXXXXXXXXXXXXXXXXXXXXXXXXXXXXXXXXXXXXXXXXXXXXXXXXXXXXXXXXXXXXXXXXXXXXXXXXXXXXXXXXooooooooooooooooooooooooooooooooooooooooooooooooooooooooooooooooooooo1XXXXXXXXXXXXXXXXXXXXXXXXXXXXXXXXX8ooooooooooooooooooooooooooooooooooooooooooooooooooooooooooooooooooooo8XXXXXXXXXXXXXXXXXXXXXXXXXXXXXXXXX1ooooooooooooooooooooooooooooooooooooooooooooooooooooooooooooooooooooo",
"oooooooooooooooooooooooooooooooooooooooooooooooooooooooooooooooooooooooooooooooooooooooooooooooooooooooooooooooooooooooooooooooooooooooooo6XXXXXXXXXXXXXXXXXXXXXXXXXXXXXXXXXXXXXXXXXXXXXXXXXXXXXXXXXXXXXXXXXXXXXXXXXXXXXXXXXXXXXXXXXXXXXXXXXXXXXXXXXXXXXXXXXXXXXXXXXXXXXXXXXXXXXXXXXXooooooooooooooooooooooooooooooooooooooooooooooooooooooooooooooooooooo1XXXXXXXXXXXXXXXXXXXXXXXXXXXXXXXXX8ooooooooooooooooooooooooooooooooooooooooooooooooooooooooooooooooooooo8XXXXXXXXXXXXXXXXXXXXXXXXXXXXXXXXX1ooooooooooooooooooooooooooooooooooooooooooooooooooooooooooooooooooooo",
"oooooooooooooooooooooooooooooooooooooooooooooooooooooooooooooooooooooooooooooooooooooooooooooooooooooooooooooooooooooooooooooooooooooooooo6XXXXXXXXXXXXXXXXXXXXXXXXXXXXXXXXXXXXXXXXXXXXXXXXXXXXXXXXXXXXXXXXXXXXXXXXXXXXXXXXXXXXXXXXXXXXXXXXXXXXXXXXXXXXXXXXXXXXXXXXXXXXXXXXXXXXXXXXXXooooooooooooooooooooooooooooooooooooooooooooooooooooooooooooooooooooo1XXXXXXXXXXXXXXXXXXXXXXXXXXXXXXXXX8ooooooooooooooooooooooooooooooooooooooooooooooooooooooooooooooooooooo8XXXXXXXXXXXXXXXXXXXXXXXXXXXXXXXXX1ooooooooooooooooooooooooooooooooooooooooooooooooooooooooooooooooooooo",
"oooooooooooooooooooooooooooooooooooooooooooooooooooooooooooooooooooooooooooooooooooooooooooooooooooooooooooooooooooooooooooooooooooooooooo6XXXXXXXXXXXXXXXXXXXXXXXXXXXXXXXXXXXXXXXXXXXXXXXXXXXXXXXXXXXXXXXXXXXXXXXXXXXXXXXXXXXXXXXXXXXXXXXXXXXXXXXXXXXXXXXXXXXXXXXXXXXXXXXXXXXXXXXXXXooooooooooooooooooooooooooooooooooooooooooooooooooooooooooooooooooooo1XXXXXXXXXXXXXXXXXXXXXXXXXXXXXXXXX8ooooooooooooooooooooooooooooooooooooooooooooooooooooooooooooooooooooo8XXXXXXXXXXXXXXXXXXXXXXXXXXXXXXXXX1ooooooooooooooooooooooooooooooooooooooooooooooooooooooooooooooooooooo",
"oooooooooooooooooooooooooooooooooooooooooooooooooooooooooooooooooooooooooooooooooooooooooooooooooooooooooooooooooooooooooooooooooooooooooo6XXXXXXXXXXXXXXXXXXXXXXXXXXXXXXXXXXXXXXXXXXXXXXXXXXXXXXXXXXXXXXXXXXXXXXXXXXXXXXXXXXXXXXXXXXXXXXXXXXXXXXXXXXXXXXXXXXXXXXXXXXXXXXXXXXXXXXXXXXooooooooooooooooooooooooooooooooooooooooooooooooooooooooooooooooooooo1XXXXXXXXXXXXXXXXXXXXXXXXXXXXXXXXX8ooooooooooooooooooooooooooooooooooooooooooooooooooooooooooooooooooooo8XXXXXXXXXXXXXXXXXXXXXXXXXXXXXXXXX1ooooooooooooooooooooooooooooooooooooooooooooooooooooooooooooooooooooo",
"oooooooooooooooooooooooooooooooooooooooooooooooooooooooooooooooooooooooooooooooooooooooooooooooooooooooooooooooooooooooooooooooooooooooooo6XXXXXXXXXXXXXXXXXXXXXXXXXXXXXXXXXXXXXXXXXXXXXXXXXXXXXXXXXXXXXXXXXXXXXXXXXXXXXXXXXXXXXXXXXXXXXXXXXXXXXXXXXXXXXXXXXXXXXXXXXXXXXXXXXXXXXXXXXXooooooooooooooooooooooooooooooooooooooooooooooooooooooooooooooooooooo1XXXXXXXXXXXXXXXXXXXXXXXXXXXXXXXXX8ooooooooooooooooooooooooooooooooooooooooooooooooooooooooooooooooooooo8XXXXXXXXXXXXXXXXXXXXXXXXXXXXXXXXX1ooooooooooooooooooooooooooooooooooooooooooooooooooooooooooooooooooooo",
"oooooooooooooooooooooooooooooooooooooooooooooooooooooooooooooooooooooooooooooooooooooooooooooooooooooooooooooooooooooooooooooooooooooooooo6XXXXXXXXXXXXXXXXXXXXXXXXXXXXXXXXXXXXXXXXXXXXXXXXXXXXXXXXXXXXXXXXXXXXXXXXXXXXXXXXXXXXXXXXXXXXXXXXXXXXXXXXXXXXXXXXXXXXXXXXXXXXXXXXXXXXXXXXXXooooooooooooooooooooooooooooooooooooooooooooooooooooooooooooooooooooo1XXXXXXXXXXXXXXXXXXXXXXXXXXXXXXXXX8ooooooooooooooooooooooooooooooooooooooooooooooooooooooooooooooooooooo8XXXXXXXXXXXXXXXXXXXXXXXXXXXXXXXXX1ooooooooooooooooooooooooooooooooooooooooooooooooooooooooooooooooooooo",
"oooooooooooooooooooooooooooooooooooooooooooooooooooooooooooooooooooooooooooooooooooooooooooooooooooooooooooooooooooooooooooooooooooooooooo6XXXXXXXXXXXXXXXXXXXXXXXXXXXXXXXXXXXXXXXXXXXXXXXXXXXXXXXXXXXXXXXXXXXXXXXXXXXXXXXXXXXXXXXXXXXXXXXXXXXXXXXXXXXXXXXXXXXXXXXXXXXXXXXXXXXXXXXXXXooooooooooooooooooooooooooooooooooooooooooooooooooooooooooooooooooooo1XXXXXXXXXXXXXXXXXXXXXXXXXXXXXXXXX8ooooooooooooooooooooooooooooooooooooooooooooooooooooooooooooooooooooo8XXXXXXXXXXXXXXXXXXXXXXXXXXXXXXXXX1ooooooooooooooooooooooooooooooooooooooooooooooooooooooooooooooooooooo",
"oooooooooooooooooooooooooooooooooooooooooooooooooooooooooooooooooooooooooooooooooooooooooooooooooooooooooooooooooooooooooooooooooooooooooo6XXXXXXXXXXXXXXXXXXXXXXXXXXXXXXXXXXXXXXXXXXXXXXXXXXXXXXXXXXXXXXXXXXXXXXXXXXXXXXXXXXXXXXXXXXXXXXXXXXXXXXXXXXXXXXXXXXXXXXXXXXXXXXXXXXXXXXXXXXooooooooooooooooooooooooooooooooooooooooooooooooooooooooooooooooooooo1XXXXXXXXXXXXXXXXXXXXXXXXXXXXXXXXX8ooooooooooooooooooooooooooooooooooooooooooooooooooooooooooooooooooooo8XXXXXXXXXXXXXXXXXXXXXXXXXXXXXXXXX1ooooooooooooooooooooooooooooooooooooooooooooooooooooooooooooooooooooo",
"oooooooooooooooooooooooooooooooooooooooooooooooooooooooooooooooooooooooooooooooooooooooooooooooooooooooooooooooooooooooooooooooooooooooooo6XXXXXXXXXXXXXXXXXXXXXXXXXXXXXXXXXXXXXXXXXXXXXXXXXXXXXXXXXXXXXXXXXXXXXXXXXXXXXXXXXXXXXXXXXXXXXXXXXXXXXXXXXXXXXXXXXXXXXXXXXXXXXXXXXXXXXXXXXXooooooooooooooooooooooooooooooooooooooooooooooooooooooooooooooooooooo1XXXXXXXXXXXXXXXXXXXXXXXXXXXXXXXXX8ooooooooooooooooooooooooooooooooooooooooooooooooooooooooooooooooooooo8XXXXXXXXXXXXXXXXXXXXXXXXXXXXXXXXX1ooooooooooooooooooooooooooooooooooooooooooooooooooooooooooooooooooooo",
"oooooooooooooooooooooooooooooooooooooooooooooooooooooooooooooooooooooooooooooooooooooooooooooooooooooooooooooooooooooooooooooooooooooooooo6XXXXXXXXXXXXXXXXXXXXXXXXXXXXXXXXXXXXXXXXXXXXXXXXXXXXXXXXXXXXXXXXXXXXXXXXXXXXXXXXXXXXXXXXXXXXXXXXXXXXXXXXXXXXXXXXXXXXXXXXXXXXXXXXXXXXXXXXXXooooooooooooooooooooooooooooooooooooooooooooooooooooooooooooooooooooo1XXXXXXXXXXXXXXXXXXXXXXXXXXXXXXXXX8ooooooooooooooooooooooooooooooooooooooooooooooooooooooooooooooooooooo8XXXXXXXXXXXXXXXXXXXXXXXXXXXXXXXXX1ooooooooooooooooooooooooooooooooooooooooooooooooooooooooooooooooooooo",
"oooooooooooooooooooooooooooooooooooooooooooooooooooooooooooooooooooooooooooooooooooooooooooooooooooooooooooooooooooooooooooooooooooooooooo6XXXXXXXXXXXXXXXXXXXXXXXXXXXXXXXXXXXXXXXXXXXXXXXXXXXXXXXXXXXXXXXXXXXXXXXXXXXXXXXXXXXXXXXXXXXXXXXXXXXXXXXXXXXXXXXXXXXXXXXXXXXXXXXXXXXXXXXXXXooooooooooooooooooooooooooooooooooooooooooooooooooooooooooooooooooooo1XXXXXXXXXXXXXXXXXXXXXXXXXXXXXXXXX8ooooooooooooooooooooooooooooooooooooooooooooooooooooooooooooooooooooo8XXXXXXXXXXXXXXXXXXXXXXXXXXXXXXXXX1ooooooooooooooooooooooooooooooooooooooooooooooooooooooooooooooooooooo",
"oooooooooooooooooooooooooooooooooooooooooooooooooooooooooooooooooooooooooooooooooooooooooooooooooooooooooooooooooooooooooooooooooooooooooo6XXXXXXXXXXXXXXXXXXXXXXXXXXXXXXXXXXXXXXXXXXXXXXXXXXXXXXXXXXXXXXXXXXXXXXXXXXXXXXXXXXXXXXXXXXXXXXXXXXXXXXXXXXXXXXXXXXXXXXXXXXXXXXXXXXXXXXXXXXooooooooooooooooooooooooooooooooooooooooooooooooooooooooooooooooooooo1XXXXXXXXXXXXXXXXXXXXXXXXXXXXXXXXX8ooooooooooooooooooooooooooooooooooooooooooooooooooooooooooooooooooooo8XXXXXXXXXXXXXXXXXXXXXXXXXXXXXXXXX1ooooooooooooooooooooooooooooooooooooooooooooooooooooooooooooooooooooo",
"oooooooooooooooooooooooooooooooooooooooooooooooooooooooooooooooooooooooooooooooooooooooooooooooooooooooooooooooooooooooooooooooooooooooooo6XXXXXXXXXXXXXXXXXXXXXXXXXXXXXXXXXXXXXXXXXXXXXXXXXXXXXXXXXXXXXXXXXXXXXXXXXXXXXXXXXXXXXXXXXXXXXXXXXXXXXXXXXXXXXXXXXXXXXXXXXXXXXXXXXXXXXXXXXXooooooooooooooooooooooooooooooooooooooooooooooooooooooooooooooooooooo1XXXXXXXXXXXXXXXXXXXXXXXXXXXXXXXXX8ooooooooooooooooooooooooooooooooooooooooooooooooooooooooooooooooooooo8XXXXXXXXXXXXXXXXXXXXXXXXXXXXXXXXX1ooooooooooooooooooooooooooooooooooooooooooooooooooooooooooooooooooooo",
"oooooooooooooooooooooooooooooooooooooooooooooooooooooooooooooooooooooooooooooooooooooooooooooooooooooooooooooooooooooooooooooooooooooooooo6XXXXXXXXXXXXXXXXXXXXXXXXXXXXXXXXXXXXXXXXXXXXXXXXXXXXXXXXXXXXXXXXXXXXXXXXXXXXXXXXXXXXXXXXXXXXXXXXXXXXXXXXXXXXXXXXXXXXXXXXXXXXXXXXXXXXXXXXXXooooooooooooooooooooooooooooooooooooooooooooooooooooooooooooooooooooo1XXXXXXXXXXXXXXXXXXXXXXXXXXXXXXXXX8ooooooooooooooooooooooooooooooooooooooooooooooooooooooooooooooooooooo8XXXXXXXXXXXXXXXXXXXXXXXXXXXXXXXXX1ooooooooooooooooooooooooooooooooooooooooooooooooooooooooooooooooooooo",
";;;;;;;;;;;;;;;;;;;;;;;;;;;;;;;;;;;;;;;;;;;;;;;;;;;;;;;;;;;;;;;;;;;;;;;;;;;;;;;;;;;;;;;;;;;;;;;;;;;;;;;;;;;;;;;;;;;;;;;;;;;;;;;;;;;;;;;;;o6X444444444444444444444444444444444XXXXXXXXXXXXXXXXXXXXXXXXXXXXXXXXXXXXXXXXXXXXXXXXXXXXXXXXXXXXXXXXXXXXXXXXXXXXXXXXXXXXXXXXXXXXXXXXXXXXXXXXo;;;;;;;;;;;;;;;;;;;;;;;;;;;;;;;;;;;;;;;;;;;;;;;;;;;;;;;;;;;;;;;;;;;o14XXXXXXXXXXXXXXXXXXXXXXXXXXXXXXXXXo;;;;;;;;;;;;;;;;;;;;;;;;;;;;;;;;;;;;;;;;;;;;;;;;;;;;;;;;;;;;;;;;;;;oXXXXXXXXXXXXXXXXXXXXXXXXXXXXXXXXX41o;;;;;;;;;;;;;;;;;;;;;;;;;;;;;;;;;;;;;;;;;;;;;;;;;;;;;;;;;;;;;;;;;;;;",
">>>>>>>>>>>>>>>>>>>>>>>>>>>>>>>>>>>>>>>>>>>>>>>>>>>>>>>>>>>>>>>>>>>>>>>>>>>>>>>>>>>>>>>>>>>>>>>>>>>>>>>>>>>>>>>>>>>>>>>>>>>>>>>>>>>>>>>>>>>rrrrrrrrrrrrrrrrrrrrrrrrrrrrrrrrrr33333333333333333333333333333333333333333333333333333333333333333333361111111111111111111111111111111111>>>>>>>>>>>>>>>>>>>>>>>>>>>>>>>>>>>>>>>>>>>>>>>>>>>>>>>>>>>>>>>>>>>>>r3333333333333333333333333333333333>>>>>>>>>>>>>>>>>>>>>>>>>>>>>>>>>>>>>>>>>>>>>>>>>>>>>>>>>>>>>>>>>>>>>33333333333333333333333333333333333>>>>>>>>>>>>>>>>>>>>>>>>>>>>>>>>>>>>>>>>>>>>>>>>>>>>>>>>>>>>>>>>>>>>>",
"-----------------------------------------------------------------------------------------------------------------------------------------.57777777777777777777777777777777777--------------------------------------------------------------------->ooooooooooooooooooooooooooooooooo;5--------------------------------.57777777777777777777777777777777777--------------------------------------------------------------------.57777777777777777777777777777777777--------------------------------------------------------------------------------------------------------",
"..........................................................................................................................................5@@@@@@@@@@@@@@@@@@@@@@@@@@@@@@@@@@....................................................................->;oooooooooooooooooooooooooooooooo;-.................................-@@@@@@@@@@@@@@@@@@@@@@@@@@@@@@@@@@-....................................................................5@@@@@@@@@@@@@@@@@@@@@@@@@@@@@@@@@@........................................................................................................",
"..........................................................................................................................................5@@@@@@@@@@@@@@@@@@@@@@@@@@@@@@@@@@....................................................................->;oooooooooooooooooooooooooooooooo;-.................................-@@@@@@@@@@@@@@@@@@@@@@@@@@@@@@@@@@-....................................................................5@@@@@@@@@@@@@@@@@@@@@@@@@@@@@@@@@@........................................................................................................",
"..........................................................................................................................................5@@@@@@@@@@@@@@@@@@@@@@@@@@@@@@@@@@....................................................................->;oooooooooooooooooooooooooooooooo;-.................................-@@@@@@@@@@@@@@@@@@@@@@@@@@@@@@@@@@-....................................................................5@@@@@@@@@@@@@@@@@@@@@@@@@@@@@@@@@@........................................................................................................",
"..........................................................................................................................................5@@@@@@@@@@@@@@@@@@@@@@@@@@@@@@@@@@....................................................................->;oooooooooooooooooooooooooooooooo;-.................................-@@@@@@@@@@@@@@@@@@@@@@@@@@@@@@@@@@-....................................................................5@@@@@@@@@@@@@@@@@@@@@@@@@@@@@@@@@@........................................................................................................",
"..........................................................................................................................................5@@@@@@@@@@@@@@@@@@@@@@@@@@@@@@@@@@....................................................................->;oooooooooooooooooooooooooooooooo;-.................................-@@@@@@@@@@@@@@@@@@@@@@@@@@@@@@@@@@-....................................................................5@@@@@@@@@@@@@@@@@@@@@@@@@@@@@@@@@@........................................................................................................",
"..........................................................................................................................................5@@@@@@@@@@@@@@@@@@@@@@@@@@@@@@@@@@....................................................................->;oooooooooooooooooooooooooooooooo;-.................................-@@@@@@@@@@@@@@@@@@@@@@@@@@@@@@@@@@-....................................................................5@@@@@@@@@@@@@@@@@@@@@@@@@@@@@@@@@@........................................................................................................",
"..........................................................................................................................................5@@@@@@@@@@@@@@@@@@@@@@@@@@@@@@@@@@....................................................................->;oooooooooooooooooooooooooooooooo;-.................................-@@@@@@@@@@@@@@@@@@@@@@@@@@@@@@@@@@-....................................................................5@@@@@@@@@@@@@@@@@@@@@@@@@@@@@@@@@@........................................................................................................",
"..........................................................................................................................................5@@@@@@@@@@@@@@@@@@@@@@@@@@@@@@@@@@....................................................................->;oooooooooooooooooooooooooooooooo;-.................................-@@@@@@@@@@@@@@@@@@@@@@@@@@@@@@@@@@-....................................................................5@@@@@@@@@@@@@@@@@@@@@@@@@@@@@@@@@@........................................................................................................",
"..........................................................................................................................................5@@@@@@@@@@@@@@@@@@@@@@@@@@@@@@@@@@....................................................................->;oooooooooooooooooooooooooooooooo;-.................................-@@@@@@@@@@@@@@@@@@@@@@@@@@@@@@@@@@-....................................................................5@@@@@@@@@@@@@@@@@@@@@@@@@@@@@@@@@@........................................................................................................",
"..........................................................................................................................................5@@@@@@@@@@@@@@@@@@@@@@@@@@@@@@@@@@....................................................................->;oooooooooooooooooooooooooooooooo;-.................................-@@@@@@@@@@@@@@@@@@@@@@@@@@@@@@@@@@-....................................................................5@@@@@@@@@@@@@@@@@@@@@@@@@@@@@@@@@@........................................................................................................",
"..........................................................................................................................................5@@@@@@@@@@@@@@@@@@@@@@@@@@@@@@@@@@....................................................................->;oooooooooooooooooooooooooooooooo;-.................................-@@@@@@@@@@@@@@@@@@@@@@@@@@@@@@@@@@-....................................................................5@@@@@@@@@@@@@@@@@@@@@@@@@@@@@@@@@@........................................................................................................",
"..........................................................................................................................................5@@@@@@@@@@@@@@@@@@@@@@@@@@@@@@@@@@....................................................................->;oooooooooooooooooooooooooooooooo;-.................................-@@@@@@@@@@@@@@@@@@@@@@@@@@@@@@@@@@-....................................................................5@@@@@@@@@@@@@@@@@@@@@@@@@@@@@@@@@@........................................................................................................",
"..........................................................................................................................................5@@@@@@@@@@@@@@@@@@@@@@@@@@@@@@@@@@....................................................................->;oooooooooooooooooooooooooooooooo;-.................................-@@@@@@@@@@@@@@@@@@@@@@@@@@@@@@@@@@-....................................................................5@@@@@@@@@@@@@@@@@@@@@@@@@@@@@@@@@@........................................................................................................",
"..........................................................................................................................................5@@@@@@@@@@@@@@@@@@@@@@@@@@@@@@@@@@....................................................................->;oooooooooooooooooooooooooooooooo;-.................................-@@@@@@@@@@@@@@@@@@@@@@@@@@@@@@@@@@-....................................................................5@@@@@@@@@@@@@@@@@@@@@@@@@@@@@@@@@@........................................................................................................",
"..........................................................................................................................................5@@@@@@@@@@@@@@@@@@@@@@@@@@@@@@@@@@....................................................................->;oooooooooooooooooooooooooooooooo;-.................................-@@@@@@@@@@@@@@@@@@@@@@@@@@@@@@@@@@-....................................................................5@@@@@@@@@@@@@@@@@@@@@@@@@@@@@@@@@@........................................................................................................",
"..........................................................................................................................................5@@@@@@@@@@@@@@@@@@@@@@@@@@@@@@@@@@....................................................................->;oooooooooooooooooooooooooooooooo;-.................................-@@@@@@@@@@@@@@@@@@@@@@@@@@@@@@@@@@-....................................................................5@@@@@@@@@@@@@@@@@@@@@@@@@@@@@@@@@@........................................................................................................",
"..........................................................................................................................................5@@@@@@@@@@@@@@@@@@@@@@@@@@@@@@@@@@....................................................................->;oooooooooooooooooooooooooooooooo;-.................................-@@@@@@@@@@@@@@@@@@@@@@@@@@@@@@@@@@-....................................................................5@@@@@@@@@@@@@@@@@@@@@@@@@@@@@@@@@@........................................................................................................",
"..........................................................................................................................................5@@@@@@@@@@@@@@@@@@@@@@@@@@@@@@@@@@....................................................................->;oooooooooooooooooooooooooooooooo;-.................................-@@@@@@@@@@@@@@@@@@@@@@@@@@@@@@@@@@-....................................................................5@@@@@@@@@@@@@@@@@@@@@@@@@@@@@@@@@@........................................................................................................",
"..........................................................................................................................................5@@@@@@@@@@@@@@@@@@@@@@@@@@@@@@@@@@....................................................................->;oooooooooooooooooooooooooooooooo;-.................................-@@@@@@@@@@@@@@@@@@@@@@@@@@@@@@@@@@-....................................................................5@@@@@@@@@@@@@@@@@@@@@@@@@@@@@@@@@@........................................................................................................",
"..........................................................................................................................................5@@@@@@@@@@@@@@@@@@@@@@@@@@@@@@@@@@....................................................................->;oooooooooooooooooooooooooooooooo;-.................................-@@@@@@@@@@@@@@@@@@@@@@@@@@@@@@@@@@-....................................................................5@@@@@@@@@@@@@@@@@@@@@@@@@@@@@@@@@@........................................................................................................",
"..........................................................................................................................................5@@@@@@@@@@@@@@@@@@@@@@@@@@@@@@@@@@....................................................................->;oooooooooooooooooooooooooooooooo;-.................................-@@@@@@@@@@@@@@@@@@@@@@@@@@@@@@@@@@-....................................................................5@@@@@@@@@@@@@@@@@@@@@@@@@@@@@@@@@@........................................................................................................",
"..........................................................................................................................................5@@@@@@@@@@@@@@@@@@@@@@@@@@@@@@@@@@....................................................................->;oooooooooooooooooooooooooooooooo;-.................................-@@@@@@@@@@@@@@@@@@@@@@@@@@@@@@@@@@-....................................................................5@@@@@@@@@@@@@@@@@@@@@@@@@@@@@@@@@@........................................................................................................",
"..........................................................................................................................................5@@@@@@@@@@@@@@@@@@@@@@@@@@@@@@@@@@....................................................................->;oooooooooooooooooooooooooooooooo;-.................................-@@@@@@@@@@@@@@@@@@@@@@@@@@@@@@@@@@-....................................................................5@@@@@@@@@@@@@@@@@@@@@@@@@@@@@@@@@@........................................................................................................",
"..........................................................................................................................................5@@@@@@@@@@@@@@@@@@@@@@@@@@@@@@@@@@....................................................................->;oooooooooooooooooooooooooooooooo;-.................................-@@@@@@@@@@@@@@@@@@@@@@@@@@@@@@@@@@-....................................................................5@@@@@@@@@@@@@@@@@@@@@@@@@@@@@@@@@@........................................................................................................",
"..........................................................................................................................................5@@@@@@@@@@@@@@@@@@@@@@@@@@@@@@@@@@....................................................................->;oooooooooooooooooooooooooooooooo;-.................................-@@@@@@@@@@@@@@@@@@@@@@@@@@@@@@@@@@-....................................................................5@@@@@@@@@@@@@@@@@@@@@@@@@@@@@@@@@@........................................................................................................",
"..........................................................................................................................................5@@@@@@@@@@@@@@@@@@@@@@@@@@@@@@@@@@....................................................................->;oooooooooooooooooooooooooooooooo;-.................................-@@@@@@@@@@@@@@@@@@@@@@@@@@@@@@@@@@-....................................................................5@@@@@@@@@@@@@@@@@@@@@@@@@@@@@@@@@@........................................................................................................",
"..........................................................................................................................................5@@@@@@@@@@@@@@@@@@@@@@@@@@@@@@@@@@....................................................................->;oooooooooooooooooooooooooooooooo;-.................................-@@@@@@@@@@@@@@@@@@@@@@@@@@@@@@@@@@-....................................................................5@@@@@@@@@@@@@@@@@@@@@@@@@@@@@@@@@@........................................................................................................",
"..........................................................................................................................................5@@@@@@@@@@@@@@@@@@@@@@@@@@@@@@@@@@....................................................................->;oooooooooooooooooooooooooooooooo;-.................................-@@@@@@@@@@@@@@@@@@@@@@@@@@@@@@@@@@-....................................................................5@@@@@@@@@@@@@@@@@@@@@@@@@@@@@@@@@@........................................................................................................",
"..........................................................................................................................................5@@@@@@@@@@@@@@@@@@@@@@@@@@@@@@@@@@....................................................................->;oooooooooooooooooooooooooooooooo;-.................................-@@@@@@@@@@@@@@@@@@@@@@@@@@@@@@@@@@-....................................................................5@@@@@@@@@@@@@@@@@@@@@@@@@@@@@@@@@@........................................................................................................",
"..........................................................................................................................................5@@@@@@@@@@@@@@@@@@@@@@@@@@@@@@@@@@....................................................................->;oooooooooooooooooooooooooooooooo;-.................................-@@@@@@@@@@@@@@@@@@@@@@@@@@@@@@@@@@-....................................................................5@@@@@@@@@@@@@@@@@@@@@@@@@@@@@@@@@@........................................................................................................",
"..........................................................................................................................................5@@@@@@@@@@@@@@@@@@@@@@@@@@@@@@@@@@....................................................................->;oooooooooooooooooooooooooooooooo;-.................................-@@@@@@@@@@@@@@@@@@@@@@@@@@@@@@@@@@-....................................................................5@@@@@@@@@@@@@@@@@@@@@@@@@@@@@@@@@@........................................................................................................",
"..........................................................................................................................................5@@@@@@@@@@@@@@@@@@@@@@@@@@@@@@@@@@....................................................................->;oooooooooooooooooooooooooooooooo;-.................................-@@@@@@@@@@@@@@@@@@@@@@@@@@@@@@@@@@-....................................................................5@@@@@@@@@@@@@@@@@@@@@@@@@@@@@@@@@@........................................................................................................",
"..........................................................................................................................................5@@@@@@@@@@@@@@@@@@@@@@@@@@@@@@@@@@....................................................................->;oooooooooooooooooooooooooooooooo;-.................................-@@@@@@@@@@@@@@@@@@@@@@@@@@@@@@@@@@-....................................................................5@@@@@@@@@@@@@@@@@@@@@@@@@@@@@@@@@@........................................................................................................",
"&&&&&&&&&&&&&&&&&&&&&&&&&&&&&&&&&&&&&&&&&&&&&&&&&&&&&&&&&&&&&&&&&&&&&&&&&&&&&&&&&&&&&&&&&&&&&&&&&&&&&&&&&&&&&&&&&&&&&&&&&&&&&&&&&&&&&&&&&&&==================================&&&&&&&&&&&&&&&&&&&&&&&&&&&&&&&&&&&&&&&&&&&&&&&&&&&&&&&&&&&&&&&&&&&&&0ooooooooooooooooooooooooooooooooo;-.................................===================================&&&&&&&&&&&&&&&&&&&&&&&&&&&&&&&&&&&&&&&&&&&&&&&&&&&&&&&&&&&&&&&&&&&&&&==================================&&&&&&&&&&&&&&&&&&&&&&&&&&&&&&&&&&&&&&&&&&&&&&&&&&&&&&&&&&&&&&&&&&&&&&&&&&&&&&&&&&&&&&&&&&&&&&&&&&&&&&&&",
"                                                                                                                                                                                                                                                  0ooooooooooooooooooooooooooooooooo;-.................................=                                                                                                                                                                                                                                                  ",
"                                                                                                                                                                                                                                                 &0ooooooooooooooooooooooooooooooooo;-.................................=                                                                                                                                                                                                                                                  ",
"                                                                                                                                                                                                                                                 &0ooooooooooooooooooooooooooooooooo;-.................................=                                                                                                                                                                                                                                                  ",
"                                                                                                                                                                                                                                                 &0ooooooooooooooooooooooooooooooooo;-.................................=                                                                                                                                                                                                                                                  ",
"                                                                                                                                                                                                                                                 &0ooooooooooooooooooooooooooooooooo;-.................................=                                                                                                                                                                                                                                                  ",
"                                                                                                                                                                                                                                                 &0ooooooooooooooooooooooooooooooooo;-.................................=                                                                                                                                                                                                                                                  ",
"                                                                                                                                                                                                                                                 &0ooooooooooooooooooooooooooooooooo;-.................................=                                                                                                                                                                                                                                                  ",
"                                                                                                                                                                                                                                                 &0ooooooooooooooooooooooooooooooooo;-.................................=                                                                                                                                                                                                                                                  ",
"                                                                                                                                                                                                                                                 &0ooooooooooooooooooooooooooooooooo;-.................................=                                                                                                                                                                                                                                                  ",
"                                                                                                                                                                                                                                                 &0ooooooooooooooooooooooooooooooooo;-.................................=                                                                                                                                                                                                                                                  ",
"                                                                                                                                                                                                                                                 &0ooooooooooooooooooooooooooooooooo;-.................................=                                                                                                                                                                                                                                                  ",
"                                                                                                                                                                                                                                                 &0ooooooooooooooooooooooooooooooooo;-.................................=                                                                                                                                                                                                                                                  ",
"                                                                                                                                                                                                                                                 &0ooooooooooooooooooooooooooooooooo;-.................................=                                                                                                                                                                                                                                                  ",
"                                                                                                                                                                                                                                                 &0ooooooooooooooooooooooooooooooooo;-.................................=                                                                                                                                                                                                                                                  ",
"                                                                                                                                                                                                                                                 &0ooooooooooooooooooooooooooooooooo;-.................................=                                                                                                                                                                                                                                                  ",
"                                                                                                                                                                                                                                                 &0ooooooooooooooooooooooooooooooooo;-.................................=                                                                                                                                                                                                                                                  ",
"                                                                                                                                                                                                                                                 &0ooooooooooooooooooooooooooooooooo;-.................................=                                                                                                                                                                                                                                                  ",
"                                                                                                                                                                                                                                                 &0ooooooooooooooooooooooooooooooooo;-.................................=                                                                                                                                                                                                                                                  ",
"                                                                                                                                                                                                                                                 &0ooooooooooooooooooooooooooooooooo;-.................................=                                                                                                                                                                                                                                                  ",
"                                                                                                                                                                                                                                                 &0ooooooooooooooooooooooooooooooooo;-.................................=                                                                                                                                                                                                                                                  ",
"                                                                                                                                                                                                                                                 &0ooooooooooooooooooooooooooooooooo;-.................................=                                                                                                                                                                                                                                                  ",
"                                                                                                                                                                                                                                                 &0ooooooooooooooooooooooooooooooooo;-.................................=                                                                                                                                                                                                                                                  ",
"                                                                                                                                                                                                                                                 &0ooooooooooooooooooooooooooooooooo;-.................................=                                                                                                                                                                                                                                                  ",
"                                                                                                                                                                                                                                                 &0ooooooooooooooooooooooooooooooooo;-.................................=                                                                                                                                                                                                                                                  ",
"                                                                                                                                                                                                                                                 &0ooooooooooooooooooooooooooooooooo;-.................................=                                                                                                                                                                                                                                                  ",
"                                                                                                                                                                                                                                                 &0ooooooooooooooooooooooooooooooooo;-.................................=                                                                                                                                                                                                                                                  ",
"                                                                                                                                                                                                                                                 &0ooooooooooooooooooooooooooooooooo;-.................................=                                                                                                                                                                                                                                                  ",
"                                                                                                                                                                                                                                                 &0ooooooooooooooooooooooooooooooooo;-.................................=                                                                                                                                                                                                                                                  ",
"                                                                                                                                                                                                                                                 &0ooooooooooooooooooooooooooooooooo;-.................................=                                                                                                                                                                                                                                                  ",
"                                                                                                                                                                                                                                                 &0ooooooooooooooooooooooooooooooooo;-.................................=                                                                                                                                                                                                                                                  ",
"                                                                                                                                                                                                                                                 &0ooooooooooooooooooooooooooooooooo;-.................................=                                                                                                                                                                                                                                                  ",
"                                                                                                                                                                                                                                                 &0ooooooooooooooooooooooooooooooooo;-.................................=                                                                                                                                                                                                                                                  ",
"                                                                                                                                                                                                                                                 &0ooooooooooooooooooooooooooooooooo;-.................................=                                                                                                                                                                                                                                                  ",
"                                                                                                                                                                                       &         &                                               &0;oooooooooooooooooooooooooooooooo;5.................................=                                                                                                                                                                                                                                                  ",
"                                  ,OOOOOOOOOOOOOOOOOOOOOOOOOOOOOOOOOOOOOOOOOOOOOOOOOOOOOOOOOOOOOOOOOOOOO#####################################################################e++++++++++++++++++++++++++++++++++                                 &*XXXXXXXXXXXXXXXXXXXXXXXXXXXXXXXXX47@@@@@@@@@@@@@@@@@@@@@@@@@@@@@@@@@-                                 &:OOOOOOOOOOOOOOOOOOOOOOOOOOOOOOOOOOOOOOOOOOOOOOOOOOOOOOOOOOOOOOOOOOOO9#####################################################################OOOOOOOOOOOOOOOOOOOOOOOOOOOOOOOOOO,                                  ",
"                                  ,OOOOOOOOOOOOOOOOOOOOOOOOOOOOOOOOOOOOOOOOOOOOOOOOOOOOOOOOOOOOOOOOOOOOO#####################################################################+++++++++++++++++++++++++++++++++++                                 &*XXXXXXXXXXXXXXXXXXXXXXXXXXXXXXXXX47@@@@@@@@@@@@@@@@@@@@@@@@@@@@@@@@@-                                 &:OOOOOOOOOOOOOOOOOOOOOOOOOOOOOOOOOOOOOOOOOOOOOOOOOOOOOOOOOOOOOOOOOOOO9#####################################################################OOOOOOOOOOOOOOOOOOOOOOOOOOOOOOOOOO,                                  ",
"                                  ,OOOOOOOOOOOOOOOOOOOOOOOOOOOOOOOOOOOOOOOOOOOOOOOOOOOOOOOOOOOOOOOOOOOOO#####################################################################+++++++++++++++++++++++++++++++++++                                 &*XXXXXXXXXXXXXXXXXXXXXXXXXXXXXXXXX47@@@@@@@@@@@@@@@@@@@@@@@@@@@@@@@@@-                                 &:OOOOOOOOOOOOOOOOOOOOOOOOOOOOOOOOOOOOOOOOOOOOOOOOOOOOOOOOOOOOOOOOOOOO9#####################################################################OOOOOOOOOOOOOOOOOOOOOOOOOOOOOOOOOO,                                  ",
"                                  ,OOOOOOOOOOOOOOOOOOOOOOOOOOOOOOOOOOOOOOOOOOOOOOOOOOOOOOOOOOOOOOOOOOOOO#####################################################################+++++++++++++++++++++++++++++++++++                                 &*XXXXXXXXXXXXXXXXXXXXXXXXXXXXXXXXX47@@@@@@@@@@@@@@@@@@@@@@@@@@@@@@@@@-                                 &:OOOOOOOOOOOOOOOOOOOOOOOOOOOOOOOOOOOOOOOOOOOOOOOOOOOOOOOOOOOOOOOOOOOO9#####################################################################OOOOOOOOOOOOOOOOOOOOOOOOOOOOOOOOOO,                                  ",
"                                  ,OOOOOOOOOOOOOOOOOOOOOOOOOOOOOOOOOOOOOOOOOOOOOOOOOOOOOOOOOOOOOOOOOOOOO#####################################################################+++++++++++++++++++++++++++++++++++                                 &*XXXXXXXXXXXXXXXXXXXXXXXXXXXXXXXXX47@@@@@@@@@@@@@@@@@@@@@@@@@@@@@@@@@-                                 &:OOOOOOOOOOOOOOOOOOOOOOOOOOOOOOOOOOOOOOOOOOOOOOOOOOOOOOOOOOOOOOOOOOOO9#####################################################################OOOOOOOOOOOOOOOOOOOOOOOOOOOOOOOOOO,                                  ",
"                                  ,OOOOOOOOOOOOOOOOOOOOOOOOOOOOOOOOOOOOOOOOOOOOOOOOOOOOOOOOOOOOOOOOOOOOO#####################################################################+++++++++++++++++++++++++++++++++++                                 &*XXXXXXXXXXXXXXXXXXXXXXXXXXXXXXXXX47@@@@@@@@@@@@@@@@@@@@@@@@@@@@@@@@@-                                 &:OOOOOOOOOOOOOOOOOOOOOOOOOOOOOOOOOOOOOOOOOOOOOOOOOOOOOOOOOOOOOOOOOOOO9#####################################################################OOOOOOOOOOOOOOOOOOOOOOOOOOOOOOOOOO,                                  ",
"                                  ,OOOOOOOOOOOOOOOOOOOOOOOOOOOOOOOOOOOOOOOOOOOOOOOOOOOOOOOOOOOOOOOOOOOOO#####################################################################+++++++++++++++++++++++++++++++++++                                 &*XXXXXXXXXXXXXXXXXXXXXXXXXXXXXXXXX47@@@@@@@@@@@@@@@@@@@@@@@@@@@@@@@@@-                                 &:OOOOOOOOOOOOOOOOOOOOOOOOOOOOOOOOOOOOOOOOOOOOOOOOOOOOOOOOOOOOOOOOOOOO9#####################################################################OOOOOOOOOOOOOOOOOOOOOOOOOOOOOOOOOO,                                  ",
"                                  ,OOOOOOOOOOOOOOOOOOOOOOOOOOOOOOOOOOOOOOOOOOOOOOOOOOOOOOOOOOOOOOOOOOOOO#####################################################################+++++++++++++++++++++++++++++++++++                                 &*XXXXXXXXXXXXXXXXXXXXXXXXXXXXXXXXX47@@@@@@@@@@@@@@@@@@@@@@@@@@@@@@@@@-                                 &:OOOOOOOOOOOOOOOOOOOOOOOOOOOOOOOOOOOOOOOOOOOOOOOOOOOOOOOOOOOOOOOOOOOO9#####################################################################OOOOOOOOOOOOOOOOOOOOOOOOOOOOOOOOOO,                                  ",
"                                  ,OOOOOOOOOOOOOOOOOOOOOOOOOOOOOOOOOOOOOOOOOOOOOOOOOOOOOOOOOOOOOOOOOOOOO#####################################################################+++++++++++++++++++++++++++++++++++                                 &*XXXXXXXXXXXXXXXXXXXXXXXXXXXXXXXXX47@@@@@@@@@@@@@@@@@@@@@@@@@@@@@@@@@-                                 &:OOOOOOOOOOOOOOOOOOOOOOOOOOOOOOOOOOOOOOOOOOOOOOOOOOOOOOOOOOOOOOOOOOOO9#####################################################################OOOOOOOOOOOOOOOOOOOOOOOOOOOOOOOOOO,                                  ",
"                                  ,OOOOOOOOOOOOOOOOOOOOOOOOOOOOOOOOOOOOOOOOOOOOOOOOOOOOOOOOOOOOOOOOOOOOO#####################################################################+++++++++++++++++++++++++++++++++++                                 &*XXXXXXXXXXXXXXXXXXXXXXXXXXXXXXXXX47@@@@@@@@@@@@@@@@@@@@@@@@@@@@@@@@@-                                 &:OOOOOOOOOOOOOOOOOOOOOOOOOOOOOOOOOOOOOOOOOOOOOOOOOOOOOOOOOOOOOOOOOOOO9#####################################################################OOOOOOOOOOOOOOOOOOOOOOOOOOOOOOOOOO,                                  ",
"                                  ,OOOOOOOOOOOOOOOOOOOOOOOOOOOOOOOOOOOOOOOOOOOOOOOOOOOOOOOOOOOOOOOOOOOOO#####################################################################+++++++++++++++++++++++++++++++++++                                 &*XXXXXXXXXXXXXXXXXXXXXXXXXXXXXXXXX47@@@@@@@@@@@@@@@@@@@@@@@@@@@@@@@@@-                                 &:OOOOOOOOOOOOOOOOOOOOOOOOOOOOOOOOOOOOOOOOOOOOOOOOOOOOOOOOOOOOOOOOOOOO9#####################################################################OOOOOOOOOOOOOOOOOOOOOOOOOOOOOOOOOO,                                  ",
"                                  ,OOOOOOOOOOOOOOOOOOOOOOOOOOOOOOOOOOOOOOOOOOOOOOOOOOOOOOOOOOOOOOOOOOOOO#####################################################################+++++++++++++++++++++++++++++++++++                                 &*XXXXXXXXXXXXXXXXXXXXXXXXXXXXXXXXX47@@@@@@@@@@@@@@@@@@@@@@@@@@@@@@@@@-                                 &:OOOOOOOOOOOOOOOOOOOOOOOOOOOOOOOOOOOOOOOOOOOOOOOOOOOOOOOOOOOOOOOOOOOO9#####################################################################OOOOOOOOOOOOOOOOOOOOOOOOOOOOOOOOOO,                                  ",
"                                  ,OOOOOOOOOOOOOOOOOOOOOOOOOOOOOOOOOOOOOOOOOOOOOOOOOOOOOOOOOOOOOOOOOOOOO#####################################################################+++++++++++++++++++++++++++++++++++                                 &*XXXXXXXXXXXXXXXXXXXXXXXXXXXXXXXXX47@@@@@@@@@@@@@@@@@@@@@@@@@@@@@@@@@-                                 &:OOOOOOOOOOOOOOOOOOOOOOOOOOOOOOOOOOOOOOOOOOOOOOOOOOOOOOOOOOOOOOOOOOOO9#####################################################################OOOOOOOOOOOOOOOOOOOOOOOOOOOOOOOOOO,                                  ",
"                                  ,OOOOOOOOOOOOOOOOOOOOOOOOOOOOOOOOOOOOOOOOOOOOOOOOOOOOOOOOOOOOOOOOOOOOO#####################################################################+++++++++++++++++++++++++++++++++++                                 &*XXXXXXXXXXXXXXXXXXXXXXXXXXXXXXXXX47@@@@@@@@@@@@@@@@@@@@@@@@@@@@@@@@@-                                 &:OOOOOOOOOOOOOOOOOOOOOOOOOOOOOOOOOOOOOOOOOOOOOOOOOOOOOOOOOOOOOOOOOOOO9#####################################################################OOOOOOOOOOOOOOOOOOOOOOOOOOOOOOOOOO,                                  ",
"                                  ,OOOOOOOOOOOOOOOOOOOOOOOOOOOOOOOOOOOOOOOOOOOOOOOOOOOOOOOOOOOOOOOOOOOOO#####################################################################+++++++++++++++++++++++++++++++++++                                 &*XXXXXXXXXXXXXXXXXXXXXXXXXXXXXXXXX47@@@@@@@@@@@@@@@@@@@@@@@@@@@@@@@@@-                                 &:OOOOOOOOOOOOOOOOOOOOOOOOOOOOOOOOOOOOOOOOOOOOOOOOOOOOOOOOOOOOOOOOOOOO9#####################################################################OOOOOOOOOOOOOOOOOOOOOOOOOOOOOOOOOO,                                  ",
"                                  ,OOOOOOOOOOOOOOOOOOOOOOOOOOOOOOOOOOOOOOOOOOOOOOOOOOOOOOOOOOOOOOOOOOOOO#####################################################################+++++++++++++++++++++++++++++++++++                                 &*XXXXXXXXXXXXXXXXXXXXXXXXXXXXXXXXX47@@@@@@@@@@@@@@@@@@@@@@@@@@@@@@@@@-                                 &:OOOOOOOOOOOOOOOOOOOOOOOOOOOOOOOOOOOOOOOOOOOOOOOOOOOOOOOOOOOOOOOOOOOO9#####################################################################OOOOOOOOOOOOOOOOOOOOOOOOOOOOOOOOOO,                                  ",
"                                  ,OOOOOOOOOOOOOOOOOOOOOOOOOOOOOOOOOOOOOOOOOOOOOOOOOOOOOOOOOOOOOOOOOOOOO#####################################################################+++++++++++++++++++++++++++++++++++                                 &*XXXXXXXXXXXXXXXXXXXXXXXXXXXXXXXXX47@@@@@@@@@@@@@@@@@@@@@@@@@@@@@@@@@-                                 &:OOOOOOOOOOOOOOOOOOOOOOOOOOOOOOOOOOOOOOOOOOOOOOOOOOOOOOOOOOOOOOOOOOOO9#####################################################################OOOOOOOOOOOOOOOOOOOOOOOOOOOOOOOOOO,                                  ",
"                                  ,OOOOOOOOOOOOOOOOOOOOOOOOOOOOOOOOOOOOOOOOOOOOOOOOOOOOOOOOOOOOOOOOOOOOO#####################################################################+++++++++++++++++++++++++++++++++++                                 &*XXXXXXXXXXXXXXXXXXXXXXXXXXXXXXXXX47@@@@@@@@@@@@@@@@@@@@@@@@@@@@@@@@@-                                 &:OOOOOOOOOOOOOOOOOOOOOOOOOOOOOOOOOOOOOOOOOOOOOOOOOOOOOOOOOOOOOOOOOOOO9#####################################################################OOOOOOOOOOOOOOOOOOOOOOOOOOOOOOOOOO,                                  ",
"                                  ,OOOOOOOOOOOOOOOOOOOOOOOOOOOOOOOOOOOOOOOOOOOOOOOOOOOOOOOOOOOOOOOOOOOOO#####################################################################+++++++++++++++++++++++++++++++++++                                 &*XXXXXXXXXXXXXXXXXXXXXXXXXXXXXXXXX47@@@@@@@@@@@@@@@@@@@@@@@@@@@@@@@@@-                                 &:OOOOOOOOOOOOOOOOOOOOOOOOOOOOOOOOOOOOOOOOOOOOOOOOOOOOOOOOOOOOOOOOOOOO9#####################################################################OOOOOOOOOOOOOOOOOOOOOOOOOOOOOOOOOO,                                  ",
"                                  ,OOOOOOOOOOOOOOOOOOOOOOOOOOOOOOOOOOOOOOOOOOOOOOOOOOOOOOOOOOOOOOOOOOOOO#####################################################################+++++++++++++++++++++++++++++++++++                                 &*XXXXXXXXXXXXXXXXXXXXXXXXXXXXXXXXX47@@@@@@@@@@@@@@@@@@@@@@@@@@@@@@@@@-                                 &:OOOOOOOOOOOOOOOOOOOOOOOOOOOOOOOOOOOOOOOOOOOOOOOOOOOOOOOOOOOOOOOOOOOO9#####################################################################OOOOOOOOOOOOOOOOOOOOOOOOOOOOOOOOOO,                                  ",
"                                  ,OOOOOOOOOOOOOOOOOOOOOOOOOOOOOOOOOOOOOOOOOOOOOOOOOOOOOOOOOOOOOOOOOOOOO#####################################################################+++++++++++++++++++++++++++++++++++                                 &*XXXXXXXXXXXXXXXXXXXXXXXXXXXXXXXXX47@@@@@@@@@@@@@@@@@@@@@@@@@@@@@@@@@-                                 &:OOOOOOOOOOOOOOOOOOOOOOOOOOOOOOOOOOOOOOOOOOOOOOOOOOOOOOOOOOOOOOOOOOOO9#####################################################################OOOOOOOOOOOOOOOOOOOOOOOOOOOOOOOOOO,                                  ",
"                                  ,OOOOOOOOOOOOOOOOOOOOOOOOOOOOOOOOOOOOOOOOOOOOOOOOOOOOOOOOOOOOOOOOOOOOO#####################################################################+++++++++++++++++++++++++++++++++++                                 &*XXXXXXXXXXXXXXXXXXXXXXXXXXXXXXXXX47@@@@@@@@@@@@@@@@@@@@@@@@@@@@@@@@@-                                 &:OOOOOOOOOOOOOOOOOOOOOOOOOOOOOOOOOOOOOOOOOOOOOOOOOOOOOOOOOOOOOOOOOOOO9#####################################################################OOOOOOOOOOOOOOOOOOOOOOOOOOOOOOOOOO,                                  ",
"                                  ,OOOOOOOOOOOOOOOOOOOOOOOOOOOOOOOOOOOOOOOOOOOOOOOOOOOOOOOOOOOOOOOOOOOOO#####################################################################+++++++++++++++++++++++++++++++++++                                 &*XXXXXXXXXXXXXXXXXXXXXXXXXXXXXXXXX47@@@@@@@@@@@@@@@@@@@@@@@@@@@@@@@@@-                                 &:OOOOOOOOOOOOOOOOOOOOOOOOOOOOOOOOOOOOOOOOOOOOOOOOOOOOOOOOOOOOOOOOOOOO9#####################################################################OOOOOOOOOOOOOOOOOOOOOOOOOOOOOOOOOO,                                  ",
"                                  ,OOOOOOOOOOOOOOOOOOOOOOOOOOOOOOOOOOOOOOOOOOOOOOOOOOOOOOOOOOOOOOOOOOOOO#####################################################################+++++++++++++++++++++++++++++++++++                                 &*XXXXXXXXXXXXXXXXXXXXXXXXXXXXXXXXX47@@@@@@@@@@@@@@@@@@@@@@@@@@@@@@@@@-                                 &:OOOOOOOOOOOOOOOOOOOOOOOOOOOOOOOOOOOOOOOOOOOOOOOOOOOOOOOOOOOOOOOOOOOO9#####################################################################OOOOOOOOOOOOOOOOOOOOOOOOOOOOOOOOOO,                                  ",
"                                  ,OOOOOOOOOOOOOOOOOOOOOOOOOOOOOOOOOOOOOOOOOOOOOOOOOOOOOOOOOOOOOOOOOOOOO#####################################################################+++++++++++++++++++++++++++++++++++                                 &*XXXXXXXXXXXXXXXXXXXXXXXXXXXXXXXXX47@@@@@@@@@@@@@@@@@@@@@@@@@@@@@@@@@-                                 &:OOOOOOOOOOOOOOOOOOOOOOOOOOOOOOOOOOOOOOOOOOOOOOOOOOOOOOOOOOOOOOOOOOOO9#####################################################################OOOOOOOOOOOOOOOOOOOOOOOOOOOOOOOOOO,                                  ",
"                                  ,OOOOOOOOOOOOOOOOOOOOOOOOOOOOOOOOOOOOOOOOOOOOOOOOOOOOOOOOOOOOOOOOOOOOO#####################################################################+++++++++++++++++++++++++++++++++++                                 &*XXXXXXXXXXXXXXXXXXXXXXXXXXXXXXXXX47@@@@@@@@@@@@@@@@@@@@@@@@@@@@@@@@@-                                 &:OOOOOOOOOOOOOOOOOOOOOOOOOOOOOOOOOOOOOOOOOOOOOOOOOOOOOOOOOOOOOOOOOOOO9#####################################################################OOOOOOOOOOOOOOOOOOOOOOOOOOOOOOOOOO,                                  ",
"                                  ,OOOOOOOOOOOOOOOOOOOOOOOOOOOOOOOOOOOOOOOOOOOOOOOOOOOOOOOOOOOOOOOOOOOOO#####################################################################+++++++++++++++++++++++++++++++++++                                 &*XXXXXXXXXXXXXXXXXXXXXXXXXXXXXXXXX47@@@@@@@@@@@@@@@@@@@@@@@@@@@@@@@@@-                                 &:OOOOOOOOOOOOOOOOOOOOOOOOOOOOOOOOOOOOOOOOOOOOOOOOOOOOOOOOOOOOOOOOOOOO9#####################################################################OOOOOOOOOOOOOOOOOOOOOOOOOOOOOOOOOO,                                  ",
"                                  ,OOOOOOOOOOOOOOOOOOOOOOOOOOOOOOOOOOOOOOOOOOOOOOOOOOOOOOOOOOOOOOOOOOOOO#####################################################################+++++++++++++++++++++++++++++++++++                                 &*XXXXXXXXXXXXXXXXXXXXXXXXXXXXXXXXX47@@@@@@@@@@@@@@@@@@@@@@@@@@@@@@@@@-                                 &:OOOOOOOOOOOOOOOOOOOOOOOOOOOOOOOOOOOOOOOOOOOOOOOOOOOOOOOOOOOOOOOOOOOO9#####################################################################OOOOOOOOOOOOOOOOOOOOOOOOOOOOOOOOOO,                                  ",
"                                  ,OOOOOOOOOOOOOOOOOOOOOOOOOOOOOOOOOOOOOOOOOOOOOOOOOOOOOOOOOOOOOOOOOOOOO#####################################################################+++++++++++++++++++++++++++++++++++                                 &*XXXXXXXXXXXXXXXXXXXXXXXXXXXXXXXXX47@@@@@@@@@@@@@@@@@@@@@@@@@@@@@@@@@-                                 &:OOOOOOOOOOOOOOOOOOOOOOOOOOOOOOOOOOOOOOOOOOOOOOOOOOOOOOOOOOOOOOOOOOOO9#####################################################################OOOOOOOOOOOOOOOOOOOOOOOOOOOOOOOOOO,                                  ",
"                                  ,OOOOOOOOOOOOOOOOOOOOOOOOOOOOOOOOOOOOOOOOOOOOOOOOOOOOOOOOOOOOOOOOOOOOO#####################################################################+++++++++++++++++++++++++++++++++++                                 &*XXXXXXXXXXXXXXXXXXXXXXXXXXXXXXXXX47@@@@@@@@@@@@@@@@@@@@@@@@@@@@@@@@@-                                 &:OOOOOOOOOOOOOOOOOOOOOOOOOOOOOOOOOOOOOOOOOOOOOOOOOOOOOOOOOOOOOOOOOOOO9#####################################################################OOOOOOOOOOOOOOOOOOOOOOOOOOOOOOOOOO,                                  ",
"                                  ,OOOOOOOOOOOOOOOOOOOOOOOOOOOOOOOOOOOOOOOOOOOOOOOOOOOOOOOOOOOOOOOOOOOOO#####################################################################+++++++++++++++++++++++++++++++++++                                 &*XXXXXXXXXXXXXXXXXXXXXXXXXXXXXXXXX47@@@@@@@@@@@@@@@@@@@@@@@@@@@@@@@@@-                                 &:OOOOOOOOOOOOOOOOOOOOOOOOOOOOOOOOOOOOOOOOOOOOOOOOOOOOOOOOOOOOOOOOOOOO9#####################################################################OOOOOOOOOOOOOOOOOOOOOOOOOOOOOOOOOO,                                  ",
"                                  ,OOOOOOOOOOOOOOOOOOOOOOOOOOOOOOOOOOOOOOOOOOOOOOOOOOOOOOOOOOOOOOOOOOOOO#####################################################################+++++++++++++++++++++++++++++++++++                                 &*XXXXXXXXXXXXXXXXXXXXXXXXXXXXXXXXX47@@@@@@@@@@@@@@@@@@@@@@@@@@@@@@@@@-                                 &:OOOOOOOOOOOOOOOOOOOOOOOOOOOOOOOOOOOOOOOOOOOOOOOOOOOOOOOOOOOOOOOOOOOO9#####################################################################OOOOOOOOOOOOOOOOOOOOOOOOOOOOOOOOOO,                                  ",
"                                  ,OOOOOOOOOOOOOOOOOOOOOOOOOOOOOOOOOOOOOOOOOOOOOOOOOOOOOOOOOOOOOOOOOOOOO#####################################################################+++++++++++++++++++++++++++++++++++                                 &*XXXXXXXXXXXXXXXXXXXXXXXXXXXXXXXXX47@@@@@@@@@@@@@@@@@@@@@@@@@@@@@@@@@-                                 &:OOOOOOOOOOOOOOOOOOOOOOOOOOOOOOOOOOOOOOOOOOOOOOOOOOOOOOOOOOOOOOOOOOOO9#####################################################################OOOOOOOOOOOOOOOOOOOOOOOOOOOOOOOOOO,                                  ",
"                                  ,OOOOOOOOOOOOOOOOOOOOOOOOOOOOOOOOOOOOOOOOOOOOOOOOOOOOOOOOOOOOOOOOOOOOO#####################################################################+++++++++++++++++++++++++++++++++++                                 &*XXXXXXXXXXXXXXXXXXXXXXXXXXXXXXXXX47@@@@@@@@@@@@@@@@@@@@@@@@@@@@@@@@@-                                 &:OOOOOOOOOOOOOOOOOOOOOOOOOOOOOOOOOOOOOOOOOOOOOOOOOOOOOOOOOOOOOOOOOOOO9#####################################################################OOOOOOOOOOOOOOOOOOOOOOOOOOOOOOOOOO,                                  ",
"                                 &,9999999999999999999999999999999999:,,,,,,,,,,,,,,,,,,,,,,,,,,,,,,,,,,<<<<<<<<<<<<<<<<<<<<<<<<<<<<<<<<<<<<<<<<<<<<<<<<<<<<<<<<<<<<<<<<<<<<<<<<<<<<<<<<<<<<<<<<<<<<<<<<<<<<<<<<                                 &*XXXXXXXXXXXXXXXXXXXXXXXXXXXXXXXXX4@555555555555555555555555555555555.                                  ,,,,,,,,,,,,,,,,,,,,,,,,,,,,,,,,,,,,,,,,,,,,,,,,,,,,,,,,,,,,,,,,,,,,,,<<<<<<<<<<<<<<<<<<<<<<<<<<<<<<<<<<<<<<<<<<<<<<<<<<<<<<<<<<<<<<<<<<<<<9>9>>9>>9>>>9>>9>>9>>>9>>9>>9>>>99,                                  ",
"                                  q##################################  &&&&&&&&&&&&&&&&&&&&&&&&&&&&&&&  +++++++++++++++++++++++++++++++++++++++++++++++++++++++++++++++++++++##################################2                                 &*XXXXXXXXXXXXXXXXXXXXXXXXXXXXXXXXX4-.................................=                                   &&&&&&&&&&&&&&&&&&&&&&&&&&&&&&&&&&&&&&&&&&&&&&&&&&&&&&&&&&&&&&&&&&& +++++++++++++++++++++++++++++++++++++++++++++++++++++++++++++++++++++e%%%%%%%%%%%%%%%%%%%%%%%%%%%%%%%%%%<                                  ",
"                                  q##################################                                   +++++++++++++++++++++++++++++++++++++++++++++++++++++++++++++++++++++##################################2                                 &*XXXXXXXXXXXXXXXXXXXXXXXXXXXXXXXXX4-.................................=                                                                                                       &++++++++++++++++++++++++++++++++++++++++++++++++++++++++++++++++++++e%%%%%%%%%%%%%%%%%%%%%%%%%%%%%%%%%%<                                  ",
"                                  q##################################                                   +++++++++++++++++++++++++++++++++++++++++++++++++++++++++++++++++++++##################################2                                 &*XXXXXXXXXXXXXXXXXXXXXXXXXXXXXXXXX4-.................................=                                                                                                       &++++++++++++++++++++++++++++++++++++++++++++++++++++++++++++++++++++e%%%%%%%%%%%%%%%%%%%%%%%%%%%%%%%%%%<                                  ",
"                                  q##################################                                   +++++++++++++++++++++++++++++++++++++++++++++++++++++++++++++++++++++##################################2                                 &*XXXXXXXXXXXXXXXXXXXXXXXXXXXXXXXXX4-.................................=                                                                                                       &++++++++++++++++++++++++++++++++++++++++++++++++++++++++++++++++++++e%%%%%%%%%%%%%%%%%%%%%%%%%%%%%%%%%%<                                  ",
"                                  q##################################                                   +++++++++++++++++++++++++++++++++++++++++++++++++++++++++++++++++++++##################################2                                 &*XXXXXXXXXXXXXXXXXXXXXXXXXXXXXXXXX4-.................................=                                                                                                       &++++++++++++++++++++++++++++++++++++++++++++++++++++++++++++++++++++e%%%%%%%%%%%%%%%%%%%%%%%%%%%%%%%%%%<                                  ",
"                                  q##################################                                   +++++++++++++++++++++++++++++++++++++++++++++++++++++++++++++++++++++##################################2                                 &*XXXXXXXXXXXXXXXXXXXXXXXXXXXXXXXXX4-.................................=                                                                                                       &++++++++++++++++++++++++++++++++++++++++++++++++++++++++++++++++++++e%%%%%%%%%%%%%%%%%%%%%%%%%%%%%%%%%%<                                  ",
"                                  q##################################                                   +++++++++++++++++++++++++++++++++++++++++++++++++++++++++++++++++++++##################################2                                 &*XXXXXXXXXXXXXXXXXXXXXXXXXXXXXXXXX4-.................................=                                                                                                       &++++++++++++++++++++++++++++++++++++++++++++++++++++++++++++++++++++e%%%%%%%%%%%%%%%%%%%%%%%%%%%%%%%%%%<                                  ",
"                                  q##################################                                   +++++++++++++++++++++++++++++++++++++++++++++++++++++++++++++++++++++##################################2                                 &*XXXXXXXXXXXXXXXXXXXXXXXXXXXXXXXXX4-.................................=                                                                                                       &++++++++++++++++++++++++++++++++++++++++++++++++++++++++++++++++++++e%%%%%%%%%%%%%%%%%%%%%%%%%%%%%%%%%%<                                  ",
"                                  q##################################                                   +++++++++++++++++++++++++++++++++++++++++++++++++++++++++++++++++++++##################################2                                 &*XXXXXXXXXXXXXXXXXXXXXXXXXXXXXXXXX4-.................................=                                                                                                       &++++++++++++++++++++++++++++++++++++++++++++++++++++++++++++++++++++e%%%%%%%%%%%%%%%%%%%%%%%%%%%%%%%%%%<                                  ",
"                                  q##################################                                   +++++++++++++++++++++++++++++++++++++++++++++++++++++++++++++++++++++##################################2                                 &*XXXXXXXXXXXXXXXXXXXXXXXXXXXXXXXXX4-.................................=                                                                                                       &++++++++++++++++++++++++++++++++++++++++++++++++++++++++++++++++++++e%%%%%%%%%%%%%%%%%%%%%%%%%%%%%%%%%%<                                  ",
"                                  q##################################                                   +++++++++++++++++++++++++++++++++++++++++++++++++++++++++++++++++++++##################################2                                 &*XXXXXXXXXXXXXXXXXXXXXXXXXXXXXXXXX4-.................................=                                                                                                       &++++++++++++++++++++++++++++++++++++++++++++++++++++++++++++++++++++e%%%%%%%%%%%%%%%%%%%%%%%%%%%%%%%%%%<                                  ",
"                                  q##################################                                   +++++++++++++++++++++++++++++++++++++++++++++++++++++++++++++++++++++##################################2                                 &*XXXXXXXXXXXXXXXXXXXXXXXXXXXXXXXXX4-.................................=                                                                                                       &++++++++++++++++++++++++++++++++++++++++++++++++++++++++++++++++++++e%%%%%%%%%%%%%%%%%%%%%%%%%%%%%%%%%%<                                  ",
"                                  q##################################                                   +++++++++++++++++++++++++++++++++++++++++++++++++++++++++++++++++++++##################################2                                 &*XXXXXXXXXXXXXXXXXXXXXXXXXXXXXXXXX4-.................................=                                                                                                       &++++++++++++++++++++++++++++++++++++++++++++++++++++++++++++++++++++e%%%%%%%%%%%%%%%%%%%%%%%%%%%%%%%%%%<                                  ",
"                                  q##################################                                   +++++++++++++++++++++++++++++++++++++++++++++++++++++++++++++++++++++##################################2                                 &*XXXXXXXXXXXXXXXXXXXXXXXXXXXXXXXXX4-.................................=                                                                                                       &++++++++++++++++++++++++++++++++++++++++++++++++++++++++++++++++++++e%%%%%%%%%%%%%%%%%%%%%%%%%%%%%%%%%%<                                  ",
"                                  q##################################                                   +++++++++++++++++++++++++++++++++++++++++++++++++++++++++++++++++++++##################################2                                 &*XXXXXXXXXXXXXXXXXXXXXXXXXXXXXXXXX4-.................................=                                                                                                       &++++++++++++++++++++++++++++++++++++++++++++++++++++++++++++++++++++e%%%%%%%%%%%%%%%%%%%%%%%%%%%%%%%%%%<                                  ",
"                                  q##################################                                   +++++++++++++++++++++++++++++++++++++++++++++++++++++++++++++++++++++##################################2                                 &*XXXXXXXXXXXXXXXXXXXXXXXXXXXXXXXXX4-.................................=                                                                                                       &++++++++++++++++++++++++++++++++++++++++++++++++++++++++++++++++++++e%%%%%%%%%%%%%%%%%%%%%%%%%%%%%%%%%%<                                  ",
"                                  q##################################                                   +++++++++++++++++++++++++++++++++++++++++++++++++++++++++++++++++++++##################################2                                 &*XXXXXXXXXXXXXXXXXXXXXXXXXXXXXXXXX4-.................................=                                                                                                       &++++++++++++++++++++++++++++++++++++++++++++++++++++++++++++++++++++e%%%%%%%%%%%%%%%%%%%%%%%%%%%%%%%%%%<                                  ",
"                                  q##################################                                   +++++++++++++++++++++++++++++++++++++++++++++++++++++++++++++++++++++##################################2                                 &*XXXXXXXXXXXXXXXXXXXXXXXXXXXXXXXXX4-.................................=                                                                                                       &++++++++++++++++++++++++++++++++++++++++++++++++++++++++++++++++++++e%%%%%%%%%%%%%%%%%%%%%%%%%%%%%%%%%%<                                  ",
"                                  q##################################                                   +++++++++++++++++++++++++++++++++++++++++++++++++++++++++++++++++++++##################################2                                 &*XXXXXXXXXXXXXXXXXXXXXXXXXXXXXXXXX4-.................................=                                                                                                       &++++++++++++++++++++++++++++++++++++++++++++++++++++++++++++++++++++e%%%%%%%%%%%%%%%%%%%%%%%%%%%%%%%%%%<                                  ",
"                                  q##################################                                   +++++++++++++++++++++++++++++++++++++++++++++++++++++++++++++++++++++##################################2                                 &*XXXXXXXXXXXXXXXXXXXXXXXXXXXXXXXXX4-.................................=                                                                                                       &++++++++++++++++++++++++++++++++++++++++++++++++++++++++++++++++++++e%%%%%%%%%%%%%%%%%%%%%%%%%%%%%%%%%%<                                  ",
"                                  q##################################                                   +++++++++++++++++++++++++++++++++++++++++++++++++++++++++++++++++++++##################################2                                 &*XXXXXXXXXXXXXXXXXXXXXXXXXXXXXXXXX4-.................................=                                                                                                       &++++++++++++++++++++++++++++++++++++++++++++++++++++++++++++++++++++e%%%%%%%%%%%%%%%%%%%%%%%%%%%%%%%%%%<                                  ",
"                                  q##################################                                   +++++++++++++++++++++++++++++++++++++++++++++++++++++++++++++++++++++##################################2                                 &*XXXXXXXXXXXXXXXXXXXXXXXXXXXXXXXXX4-.................................=                                                                                                       &++++++++++++++++++++++++++++++++++++++++++++++++++++++++++++++++++++e%%%%%%%%%%%%%%%%%%%%%%%%%%%%%%%%%%<                                  ",
"                                  q##################################                                   +++++++++++++++++++++++++++++++++++++++++++++++++++++++++++++++++++++##################################2                                 &*XXXXXXXXXXXXXXXXXXXXXXXXXXXXXXXXX4-.................................=                                                                                                       &++++++++++++++++++++++++++++++++++++++++++++++++++++++++++++++++++++e%%%%%%%%%%%%%%%%%%%%%%%%%%%%%%%%%%<                                  ",
"                                  q##################################                                   +++++++++++++++++++++++++++++++++++++++++++++++++++++++++++++++++++++##################################2                                 &*XXXXXXXXXXXXXXXXXXXXXXXXXXXXXXXXX4-.................................=                                                                                                       &++++++++++++++++++++++++++++++++++++++++++++++++++++++++++++++++++++e%%%%%%%%%%%%%%%%%%%%%%%%%%%%%%%%%%<                                  ",
"                                  q##################################                                   +++++++++++++++++++++++++++++++++++++++++++++++++++++++++++++++++++++##################################2                                 &*XXXXXXXXXXXXXXXXXXXXXXXXXXXXXXXXX4-.................................=                                                                                                       &++++++++++++++++++++++++++++++++++++++++++++++++++++++++++++++++++++e%%%%%%%%%%%%%%%%%%%%%%%%%%%%%%%%%%<                                  ",
"                                  q##################################                                   +++++++++++++++++++++++++++++++++++++++++++++++++++++++++++++++++++++##################################2                                 &*XXXXXXXXXXXXXXXXXXXXXXXXXXXXXXXXX4-.................................=                                                                                                       &++++++++++++++++++++++++++++++++++++++++++++++++++++++++++++++++++++e%%%%%%%%%%%%%%%%%%%%%%%%%%%%%%%%%%<                                  ",
"                                  q##################################                                   +++++++++++++++++++++++++++++++++++++++++++++++++++++++++++++++++++++##################################2                                 &*XXXXXXXXXXXXXXXXXXXXXXXXXXXXXXXXX4-.................................=                                                                                                       &++++++++++++++++++++++++++++++++++++++++++++++++++++++++++++++++++++e%%%%%%%%%%%%%%%%%%%%%%%%%%%%%%%%%%<                                  ",
"                                  q##################################                                   +++++++++++++++++++++++++++++++++++++++++++++++++++++++++++++++++++++##################################2                                 &*XXXXXXXXXXXXXXXXXXXXXXXXXXXXXXXXX4-.................................=                                                                                                       &++++++++++++++++++++++++++++++++++++++++++++++++++++++++++++++++++++e%%%%%%%%%%%%%%%%%%%%%%%%%%%%%%%%%%<                                  ",
"                                  q##################################                                   +++++++++++++++++++++++++++++++++++++++++++++++++++++++++++++++++++++##################################2                                 &*XXXXXXXXXXXXXXXXXXXXXXXXXXXXXXXXX4-.................................=                                                                                                       &++++++++++++++++++++++++++++++++++++++++++++++++++++++++++++++++++++e%%%%%%%%%%%%%%%%%%%%%%%%%%%%%%%%%%<                                  ",
"                                  q##################################                                   +++++++++++++++++++++++++++++++++++++++++++++++++++++++++++++++++++++##################################2                                 &*XXXXXXXXXXXXXXXXXXXXXXXXXXXXXXXXX4-.................................=                                                                                                       &++++++++++++++++++++++++++++++++++++++++++++++++++++++++++++++++++++e%%%%%%%%%%%%%%%%%%%%%%%%%%%%%%%%%%<                                  ",
"                                  q##################################                                   +++++++++++++++++++++++++++++++++++++++++++++++++++++++++++++++++++++##################################2                                 &*XXXXXXXXXXXXXXXXXXXXXXXXXXXXXXXXX4-.................................=                                                                                                       &++++++++++++++++++++++++++++++++++++++++++++++++++++++++++++++++++++e%%%%%%%%%%%%%%%%%%%%%%%%%%%%%%%%%%<                                  ",
"                                  q##################################                                   +++++++++++++++++++++++++++++++++++++++++++++++++++++++++++++++++++++##################################2                                 &*XXXXXXXXXXXXXXXXXXXXXXXXXXXXXXXXX4-.................................=                                                                                                       &++++++++++++++++++++++++++++++++++++++++++++++++++++++++++++++++++++e%%%%%%%%%%%%%%%%%%%%%%%%%%%%%%%%%%<                                  ",
"                                  q##################################                                   +++++++++++++++++++++++++++++++++++++++++++++++++++++++++++++++++++++##################################2                                 &*XXXXXXXXXXXXXXXXXXXXXXXXXXXXXXXXX4-.................................=                                                                                                       &++++++++++++++++++++++++++++++++++++++++++++++++++++++++++++++++++++e%%%%%%%%%%%%%%%%%%%%%%%%%%%%%%%%%%<                                  ",
"                                  q##################################                                   +++++++++++++++++++++++++++++++++++++++++++++++++++++++++++++++++++++##################################2                                 &*XXXXXXXXXXXXXXXXXXXXXXXXXXXXXXXXX4-.................................=                                                                                                       &++++++++++++++++++++++++++++++++++++++++++++++++++++++++++++++++++++e%%%%%%%%%%%%%%%%%%%%%%%%%%%%%%%%%%<                                  ",
"                                                                     w%%%%%%%%%%%%%%%%%%%%%%%%%%%%%%%%%w         &                &       ,O:OO:OO:OOO:OO:OO:OOO:OO:OO:O:O:O:OOOOOOOOOOOOOOOOOOOOOOOOOOOOOOOOOO:                                 &*XXXXXXXXXXXXXXXXXXXXXXXXXXXXXXXXX47@@@@@@@@@@@@@@@@@@@@@@@@@@@@@@@@@-                                                                     +++++++++++++++++++++++++++++++++++++++++++++++++++++++++++++++++++++:OO:O:O:OO:OO:O:O:OO:OO:OOO:OO:OO:OOOOOOOOOOOOOOOOOOOOOOOOOOOOOOOOOOO,                                  ",
"                                                                     w%%%%%%%%%%%%%%%%%%%%%%%%%%%%%%%%%%                                  ,OOOOOOOOOOOOOOOOOOOOOOOOOOOOOOOOOOOOOOOOOOOOOOOOOOOOOOOOOOOOOOOOOOOO:&                                &*XXXXXXXXXXXXXXXXXXXXXXXXXXXXXXXXX47@@@@@@@@@@@@@@@@@@@@@@@@@@@@@@@@@-                                                                     +++++++++++++++++++++++++++++++++++++++++++++++++++++++++++++++++++++OOOOOOOOOOOOOOOOOOOOOOOOOOOOOOOOOOOOOOOOOOOOOOOOOOOOOOOOOOOOOOOOOOOOO,                                  ",
"                                                                     w%%%%%%%%%%%%%%%%%%%%%%%%%%%%%%%%%%                                 &,OOOOOOOOOOOOOOOOOOOOOOOOOOOOOOOOOOOOOOOOOOOOOOOOOOOOOOOOOOOOOOOOOOOO:&                                &*XXXXXXXXXXXXXXXXXXXXXXXXXXXXXXXXX47@@@@@@@@@@@@@@@@@@@@@@@@@@@@@@@@@-                                                                     +++++++++++++++++++++++++++++++++++++++++++++++++++++++++++++++++++++OOOOOOOOOOOOOOOOOOOOOOOOOOOOOOOOOOOOOOOOOOOOOOOOOOOOOOOOOOOOOOOOOOOOO,                                  ",
"                                                                     w%%%%%%%%%%%%%%%%%%%%%%%%%%%%%%%%%%                                 &,OOOOOOOOOOOOOOOOOOOOOOOOOOOOOOOOOOOOOOOOOOOOOOOOOOOOOOOOOOOOOOOOOOOO:&                                &*XXXXXXXXXXXXXXXXXXXXXXXXXXXXXXXXX47@@@@@@@@@@@@@@@@@@@@@@@@@@@@@@@@@-                                                                     +++++++++++++++++++++++++++++++++++++++++++++++++++++++++++++++++++++:OOOOOOOOOOOOOOOOOOOOOOOOOOOOOOOOOOOOOOOOOOOOOOOOOOOOOOOOOOOOOOOOOOOO,                                  ",
"                                                                     w%%%%%%%%%%%%%%%%%%%%%%%%%%%%%%%%%%                                 &,OOOOOOOOOOOOOOOOOOOOOOOOOOOOOOOOOOOOOOOOOOOOOOOOOOOOOOOOOOOOOOOOOOOO:&                                &*XXXXXXXXXXXXXXXXXXXXXXXXXXXXXXXXX47@@@@@@@@@@@@@@@@@@@@@@@@@@@@@@@@@-                                                                     +++++++++++++++++++++++++++++++++++++++++++++++++++++++++++++++++++++OOOOOOOOOOOOOOOOOOOOOOOOOOOOOOOOOOOOOOOOOOOOOOOOOOOOOOOOOOOOOOOOOOOOO,                                  ",
"                                                                     w%%%%%%%%%%%%%%%%%%%%%%%%%%%%%%%%%%                                 &,OOOOOOOOOOOOOOOOOOOOOOOOOOOOOOOOOOOOOOOOOOOOOOOOOOOOOOOOOOOOOOOOOOOO:&                                &*XXXXXXXXXXXXXXXXXXXXXXXXXXXXXXXXX47@@@@@@@@@@@@@@@@@@@@@@@@@@@@@@@@@-                                                                     +++++++++++++++++++++++++++++++++++++++++++++++++++++++++++++++++++++OOOOOOOOOOOOOOOOOOOOOOOOOOOOOOOOOOOOOOOOOOOOOOOOOOOOOOOOOOOOOOOOOOOOO,                                  ",
"                                                                     w%%%%%%%%%%%%%%%%%%%%%%%%%%%%%%%%%%                                 &,OOOOOOOOOOOOOOOOOOOOOOOOOOOOOOOOOOOOOOOOOOOOOOOOOOOOOOOOOOOOOOOOOOOO:&                                &*XXXXXXXXXXXXXXXXXXXXXXXXXXXXXXXXX47@@@@@@@@@@@@@@@@@@@@@@@@@@@@@@@@@-                                                                     +++++++++++++++++++++++++++++++++++++++++++++++++++++++++++++++++++++OOOOOOOOOOOOOOOOOOOOOOOOOOOOOOOOOOOOOOOOOOOOOOOOOOOOOOOOOOOOOOOOOOOOO,                                  ",
"                                                                     w%%%%%%%%%%%%%%%%%%%%%%%%%%%%%%%%%%                                 &,OOOOOOOOOOOOOOOOOOOOOOOOOOOOOOOOOOOOOOOOOOOOOOOOOOOOOOOOOOOOOOOOOOOO:&                                &*XXXXXXXXXXXXXXXXXXXXXXXXXXXXXXXXX47@@@@@@@@@@@@@@@@@@@@@@@@@@@@@@@@@-                                                                     +++++++++++++++++++++++++++++++++++++++++++++++++++++++++++++++++++++:OOOOOOOOOOOOOOOOOOOOOOOOOOOOOOOOOOOOOOOOOOOOOOOOOOOOOOOOOOOOOOOOOOOO,                                  ",
"                                                                     w%%%%%%%%%%%%%%%%%%%%%%%%%%%%%%%%%%                                 &,OOOOOOOOOOOOOOOOOOOOOOOOOOOOOOOOOOOOOOOOOOOOOOOOOOOOOOOOOOOOOOOOOOOO:&                                &*XXXXXXXXXXXXXXXXXXXXXXXXXXXXXXXXX47@@@@@@@@@@@@@@@@@@@@@@@@@@@@@@@@@-                                                                     +++++++++++++++++++++++++++++++++++++++++++++++++++++++++++++++++++++OOOOOOOOOOOOOOOOOOOOOOOOOOOOOOOOOOOOOOOOOOOOOOOOOOOOOOOOOOOOOOOOOOOOO,                                  ",
"                                                                     w%%%%%%%%%%%%%%%%%%%%%%%%%%%%%%%%%%                                 &,OOOOOOOOOOOOOOOOOOOOOOOOOOOOOOOOOOOOOOOOOOOOOOOOOOOOOOOOOOOOOOOOOOOO:&                                &*XXXXXXXXXXXXXXXXXXXXXXXXXXXXXXXXX47@@@@@@@@@@@@@@@@@@@@@@@@@@@@@@@@@-                                                                     +++++++++++++++++++++++++++++++++++++++++++++++++++++++++++++++++++++:OOOOOOOOOOOOOOOOOOOOOOOOOOOOOOOOOOOOOOOOOOOOOOOOOOOOOOOOOOOOOOOOOOOO,                                  ",
"                                                                     w%%%%%%%%%%%%%%%%%%%%%%%%%%%%%%%%%%                                 &,OOOOOOOOOOOOOOOOOOOOOOOOOOOOOOOOOOOOOOOOOOOOOOOOOOOOOOOOOOOOOOOOOOOO:&                                &*XXXXXXXXXXXXXXXXXXXXXXXXXXXXXXXXX47@@@@@@@@@@@@@@@@@@@@@@@@@@@@@@@@@-                                                                     +++++++++++++++++++++++++++++++++++++++++++++++++++++++++++++++++++++OOOOOOOOOOOOOOOOOOOOOOOOOOOOOOOOOOOOOOOOOOOOOOOOOOOOOOOOOOOOOOOOOOOOO,                                  ",
"                                                                     w%%%%%%%%%%%%%%%%%%%%%%%%%%%%%%%%%%                                 &,OOOOOOOOOOOOOOOOOOOOOOOOOOOOOOOOOOOOOOOOOOOOOOOOOOOOOOOOOOOOOOOOOOOO:&                                &*XXXXXXXXXXXXXXXXXXXXXXXXXXXXXXXXX47@@@@@@@@@@@@@@@@@@@@@@@@@@@@@@@@@-                                                                     +++++++++++++++++++++++++++++++++++++++++++++++++++++++++++++++++++++OOOOOOOOOOOOOOOOOOOOOOOOOOOOOOOOOOOOOOOOOOOOOOOOOOOOOOOOOOOOOOOOOOOOO,                                  ",
"                                                                     w%%%%%%%%%%%%%%%%%%%%%%%%%%%%%%%%%%                                 &,OOOOOOOOOOOOOOOOOOOOOOOOOOOOOOOOOOOOOOOOOOOOOOOOOOOOOOOOOOOOOOOOOOOO:&                                &*XXXXXXXXXXXXXXXXXXXXXXXXXXXXXXXXX47@@@@@@@@@@@@@@@@@@@@@@@@@@@@@@@@@-                                                                     +++++++++++++++++++++++++++++++++++++++++++++++++++++++++++++++++++++OOOOOOOOOOOOOOOOOOOOOOOOOOOOOOOOOOOOOOOOOOOOOOOOOOOOOOOOOOOOOOOOOOOOO,                                  ",
"                                                                     w%%%%%%%%%%%%%%%%%%%%%%%%%%%%%%%%%%                                 &,OOOOOOOOOOOOOOOOOOOOOOOOOOOOOOOOOOOOOOOOOOOOOOOOOOOOOOOOOOOOOOOOOOOO:&                                &*XXXXXXXXXXXXXXXXXXXXXXXXXXXXXXXXX47@@@@@@@@@@@@@@@@@@@@@@@@@@@@@@@@@-                                                                     +++++++++++++++++++++++++++++++++++++++++++++++++++++++++++++++++++++OOOOOOOOOOOOOOOOOOOOOOOOOOOOOOOOOOOOOOOOOOOOOOOOOOOOOOOOOOOOOOOOOOOOO,                                  ",
"                                                                     w%%%%%%%%%%%%%%%%%%%%%%%%%%%%%%%%%%                                 &,OOOOOOOOOOOOOOOOOOOOOOOOOOOOOOOOOOOOOOOOOOOOOOOOOOOOOOOOOOOOOOOOOOOO:&                                &*XXXXXXXXXXXXXXXXXXXXXXXXXXXXXXXXX47@@@@@@@@@@@@@@@@@@@@@@@@@@@@@@@@@-                                                                     +++++++++++++++++++++++++++++++++++++++++++++++++++++++++++++++++++++OOOOOOOOOOOOOOOOOOOOOOOOOOOOOOOOOOOOOOOOOOOOOOOOOOOOOOOOOOOOOOOOOOOOO,                                  ",
"                                                                     w%%%%%%%%%%%%%%%%%%%%%%%%%%%%%%%%%%                                 &,OOOOOOOOOOOOOOOOOOOOOOOOOOOOOOOOOOOOOOOOOOOOOOOOOOOOOOOOOOOOOOOOOOOO:&                                &*XXXXXXXXXXXXXXXXXXXXXXXXXXXXXXXXX47@@@@@@@@@@@@@@@@@@@@@@@@@@@@@@@@@-                                                                     +++++++++++++++++++++++++++++++++++++++++++++++++++++++++++++++++++++:OOOOOOOOOOOOOOOOOOOOOOOOOOOOOOOOOOOOOOOOOOOOOOOOOOOOOOOOOOOOOOOOOOOO,                                  ",
"                                                                     w%%%%%%%%%%%%%%%%%%%%%%%%%%%%%%%%%%                                 &,OOOOOOOOOOOOOOOOOOOOOOOOOOOOOOOOOOOOOOOOOOOOOOOOOOOOOOOOOOOOOOOOOOOO:&                                &*XXXXXXXXXXXXXXXXXXXXXXXXXXXXXXXXX47@@@@@@@@@@@@@@@@@@@@@@@@@@@@@@@@@-                                                                     +++++++++++++++++++++++++++++++++++++++++++++++++++++++++++++++++++++OOOOOOOOOOOOOOOOOOOOOOOOOOOOOOOOOOOOOOOOOOOOOOOOOOOOOOOOOOOOOOOOOOOOO,                                  ",
"                                                                     w%%%%%%%%%%%%%%%%%%%%%%%%%%%%%%%%%%                                 &,OOOOOOOOOOOOOOOOOOOOOOOOOOOOOOOOOOOOOOOOOOOOOOOOOOOOOOOOOOOOOOOOOOOO:&                                &*XXXXXXXXXXXXXXXXXXXXXXXXXXXXXXXXX47@@@@@@@@@@@@@@@@@@@@@@@@@@@@@@@@@-                                                                     +++++++++++++++++++++++++++++++++++++++++++++++++++++++++++++++++++++:OOOOOOOOOOOOOOOOOOOOOOOOOOOOOOOOOOOOOOOOOOOOOOOOOOOOOOOOOOOOOOOOOOOO,                                  ",
"                                                                     w%%%%%%%%%%%%%%%%%%%%%%%%%%%%%%%%%%                                 &,OOOOOOOOOOOOOOOOOOOOOOOOOOOOOOOOOOOOOOOOOOOOOOOOOOOOOOOOOOOOOOOOOOOO:&                                &*XXXXXXXXXXXXXXXXXXXXXXXXXXXXXXXXX47@@@@@@@@@@@@@@@@@@@@@@@@@@@@@@@@@-                                                                     +++++++++++++++++++++++++++++++++++++++++++++++++++++++++++++++++++++OOOOOOOOOOOOOOOOOOOOOOOOOOOOOOOOOOOOOOOOOOOOOOOOOOOOOOOOOOOOOOOOOOOOO,                                  ",
"                                                                     w%%%%%%%%%%%%%%%%%%%%%%%%%%%%%%%%%%                                 &,OOOOOOOOOOOOOOOOOOOOOOOOOOOOOOOOOOOOOOOOOOOOOOOOOOOOOOOOOOOOOOOOOOOO:&                                &*XXXXXXXXXXXXXXXXXXXXXXXXXXXXXXXXX47@@@@@@@@@@@@@@@@@@@@@@@@@@@@@@@@@-                                                                     +++++++++++++++++++++++++++++++++++++++++++++++++++++++++++++++++++++OOOOOOOOOOOOOOOOOOOOOOOOOOOOOOOOOOOOOOOOOOOOOOOOOOOOOOOOOOOOOOOOOOOOO,                                  ",
"                                                                     w%%%%%%%%%%%%%%%%%%%%%%%%%%%%%%%%%%                                 &,OOOOOOOOOOOOOOOOOOOOOOOOOOOOOOOOOOOOOOOOOOOOOOOOOOOOOOOOOOOOOOOOOOOO:&                                &*XXXXXXXXXXXXXXXXXXXXXXXXXXXXXXXXX47@@@@@@@@@@@@@@@@@@@@@@@@@@@@@@@@@-                                                                     +++++++++++++++++++++++++++++++++++++++++++++++++++++++++++++++++++++:OOOOOOOOOOOOOOOOOOOOOOOOOOOOOOOOOOOOOOOOOOOOOOOOOOOOOOOOOOOOOOOOOOOO,                                  ",
"                                                                     w%%%%%%%%%%%%%%%%%%%%%%%%%%%%%%%%%%                                 &,OOOOOOOOOOOOOOOOOOOOOOOOOOOOOOOOOOOOOOOOOOOOOOOOOOOOOOOOOOOOOOOOOOOO:&                                &*XXXXXXXXXXXXXXXXXXXXXXXXXXXXXXXXX47@@@@@@@@@@@@@@@@@@@@@@@@@@@@@@@@@-                                                                     +++++++++++++++++++++++++++++++++++++++++++++++++++++++++++++++++++++OOOOOOOOOOOOOOOOOOOOOOOOOOOOOOOOOOOOOOOOOOOOOOOOOOOOOOOOOOOOOOOOOOOOO,                                  ",
"                                                                     w%%%%%%%%%%%%%%%%%%%%%%%%%%%%%%%%%%                                 &,OOOOOOOOOOOOOOOOOOOOOOOOOOOOOOOOOOOOOOOOOOOOOOOOOOOOOOOOOOOOOOOOOOOO:&                                &*XXXXXXXXXXXXXXXXXXXXXXXXXXXXXXXXX47@@@@@@@@@@@@@@@@@@@@@@@@@@@@@@@@@-                                                                     +++++++++++++++++++++++++++++++++++++++++++++++++++++++++++++++++++++OOOOOOOOOOOOOOOOOOOOOOOOOOOOOOOOOOOOOOOOOOOOOOOOOOOOOOOOOOOOOOOOOOOOO,                                  ",
"                                                                     w%%%%%%%%%%%%%%%%%%%%%%%%%%%%%%%%%%                                 &,OOOOOOOOOOOOOOOOOOOOOOOOOOOOOOOOOOOOOOOOOOOOOOOOOOOOOOOOOOOOOOOOOOOO:&                                &*XXXXXXXXXXXXXXXXXXXXXXXXXXXXXXXXX47@@@@@@@@@@@@@@@@@@@@@@@@@@@@@@@@@-                                                                     +++++++++++++++++++++++++++++++++++++++++++++++++++++++++++++++++++++:OOOOOOOOOOOOOOOOOOOOOOOOOOOOOOOOOOOOOOOOOOOOOOOOOOOOOOOOOOOOOOOOOOOO,                                  ",
"                                                                     w%%%%%%%%%%%%%%%%%%%%%%%%%%%%%%%%%%                                 &,OOOOOOOOOOOOOOOOOOOOOOOOOOOOOOOOOOOOOOOOOOOOOOOOOOOOOOOOOOOOOOOOOOOO:&                                &*XXXXXXXXXXXXXXXXXXXXXXXXXXXXXXXXX47@@@@@@@@@@@@@@@@@@@@@@@@@@@@@@@@@-                                                                     +++++++++++++++++++++++++++++++++++++++++++++++++++++++++++++++++++++OOOOOOOOOOOOOOOOOOOOOOOOOOOOOOOOOOOOOOOOOOOOOOOOOOOOOOOOOOOOOOOOOOOOO,                                  ",
"                                                                     w%%%%%%%%%%%%%%%%%%%%%%%%%%%%%%%%%%                                 &,OOOOOOOOOOOOOOOOOOOOOOOOOOOOOOOOOOOOOOOOOOOOOOOOOOOOOOOOOOOOOOOOOOOO:&                                &*XXXXXXXXXXXXXXXXXXXXXXXXXXXXXXXXX47@@@@@@@@@@@@@@@@@@@@@@@@@@@@@@@@@-                                                                     +++++++++++++++++++++++++++++++++++++++++++++++++++++++++++++++++++++OOOOOOOOOOOOOOOOOOOOOOOOOOOOOOOOOOOOOOOOOOOOOOOOOOOOOOOOOOOOOOOOOOOOO,                                  ",
"                                                                     w%%%%%%%%%%%%%%%%%%%%%%%%%%%%%%%%%%                                 &,OOOOOOOOOOOOOOOOOOOOOOOOOOOOOOOOOOOOOOOOOOOOOOOOOOOOOOOOOOOOOOOOOOOO:&                                &*XXXXXXXXXXXXXXXXXXXXXXXXXXXXXXXXX47@@@@@@@@@@@@@@@@@@@@@@@@@@@@@@@@@-                                                                     +++++++++++++++++++++++++++++++++++++++++++++++++++++++++++++++++++++OOOOOOOOOOOOOOOOOOOOOOOOOOOOOOOOOOOOOOOOOOOOOOOOOOOOOOOOOOOOOOOOOOOOO,                                  ",
"                                                                     w%%%%%%%%%%%%%%%%%%%%%%%%%%%%%%%%%%                                 &,OOOOOOOOOOOOOOOOOOOOOOOOOOOOOOOOOOOOOOOOOOOOOOOOOOOOOOOOOOOOOOOOOOOO:&                                &*XXXXXXXXXXXXXXXXXXXXXXXXXXXXXXXXX47@@@@@@@@@@@@@@@@@@@@@@@@@@@@@@@@@-                                                                     +++++++++++++++++++++++++++++++++++++++++++++++++++++++++++++++++++++:OOOOOOOOOOOOOOOOOOOOOOOOOOOOOOOOOOOOOOOOOOOOOOOOOOOOOOOOOOOOOOOOOOOO,                                  ",
"                                                                     w%%%%%%%%%%%%%%%%%%%%%%%%%%%%%%%%%%                                 &,OOOOOOOOOOOOOOOOOOOOOOOOOOOOOOOOOOOOOOOOOOOOOOOOOOOOOOOOOOOOOOOOOOOO:&                                &*XXXXXXXXXXXXXXXXXXXXXXXXXXXXXXXXX47@@@@@@@@@@@@@@@@@@@@@@@@@@@@@@@@@-                                                                     +++++++++++++++++++++++++++++++++++++++++++++++++++++++++++++++++++++OOOOOOOOOOOOOOOOOOOOOOOOOOOOOOOOOOOOOOOOOOOOOOOOOOOOOOOOOOOOOOOOOOOOO,                                  ",
"                                                                     w%%%%%%%%%%%%%%%%%%%%%%%%%%%%%%%%%%                                 &,OOOOOOOOOOOOOOOOOOOOOOOOOOOOOOOOOOOOOOOOOOOOOOOOOOOOOOOOOOOOOOOOOOOO:&                                &*XXXXXXXXXXXXXXXXXXXXXXXXXXXXXXXXX47@@@@@@@@@@@@@@@@@@@@@@@@@@@@@@@@@-                                                                     +++++++++++++++++++++++++++++++++++++++++++++++++++++++++++++++++++++OOOOOOOOOOOOOOOOOOOOOOOOOOOOOOOOOOOOOOOOOOOOOOOOOOOOOOOOOOOOOOOOOOOOO,                                  ",
"                                                                     w%%%%%%%%%%%%%%%%%%%%%%%%%%%%%%%%%%                                 &,OOOOOOOOOOOOOOOOOOOOOOOOOOOOOOOOOOOOOOOOOOOOOOOOOOOOOOOOOOOOOOOOOOOO:&                                &*XXXXXXXXXXXXXXXXXXXXXXXXXXXXXXXXX47@@@@@@@@@@@@@@@@@@@@@@@@@@@@@@@@@-                                                                     +++++++++++++++++++++++++++++++++++++++++++++++++++++++++++++++++++++:OOOOOOOOOOOOOOOOOOOOOOOOOOOOOOOOOOOOOOOOOOOOOOOOOOOOOOOOOOOOOOOOOOOO,                                  ",
"                                                                     w%%%%%%%%%%%%%%%%%%%%%%%%%%%%%%%%%%                                 &,OOOOOOOOOOOOOOOOOOOOOOOOOOOOOOOOOOOOOOOOOOOOOOOOOOOOOOOOOOOOOOOOOOOO:&                                &*XXXXXXXXXXXXXXXXXXXXXXXXXXXXXXXXX47@@@@@@@@@@@@@@@@@@@@@@@@@@@@@@@@@-                                                                     +++++++++++++++++++++++++++++++++++++++++++++++++++++++++++++++++++++OOOOOOOOOOOOOOOOOOOOOOOOOOOOOOOOOOOOOOOOOOOOOOOOOOOOOOOOOOOOOOOOOOOOO,                                  ",
"                                                                     w%%%%%%%%%%%%%%%%%%%%%%%%%%%%%%%%%%                                 &,OOOOOOOOOOOOOOOOOOOOOOOOOOOOOOOOOOOOOOOOOOOOOOOOOOOOOOOOOOOOOOOOOOOO:&                                &*XXXXXXXXXXXXXXXXXXXXXXXXXXXXXXXXX47@@@@@@@@@@@@@@@@@@@@@@@@@@@@@@@@@-                                                                     +++++++++++++++++++++++++++++++++++++++++++++++++++++++++++++++++++++OOOOOOOOOOOOOOOOOOOOOOOOOOOOOOOOOOOOOOOOOOOOOOOOOOOOOOOOOOOOOOOOOOOOO,                                  ",
"                                                                     w%%%%%%%%%%%%%%%%%%%%%%%%%%%%%%%%%%                                 &,OOOOOOOOOOOOOOOOOOOOOOOOOOOOOOOOOOOOOOOOOOOOOOOOOOOOOOOOOOOOOOOOOOOO:&                                &*XXXXXXXXXXXXXXXXXXXXXXXXXXXXXXXXX47@@@@@@@@@@@@@@@@@@@@@@@@@@@@@@@@@-                                                                     +++++++++++++++++++++++++++++++++++++++++++++++++++++++++++++++++++++OOOOOOOOOOOOOOOOOOOOOOOOOOOOOOOOOOOOOOOOOOOOOOOOOOOOOOOOOOOOOOOOOOOOO,                                  ",
"                                   &&&&&&&&&&&&&&&&&&&&&&&&&&&&&&&&&&wwwwwwwwwwwwwwwwwwwwwwwwwwwwwwwwwww                                  ,::::::::::::::::::::::::::::::::::::::::::::::::::::::::::::::::::::,&                                &*XXXXXXXXXXXXXXXXXXXXXXXXXXXXXXXXX4755555555555555555555555555555555@-                                                                     +++++++++++++++++++++++++++++++++++++++++++++++++++++++++++++++++++++:::::::::::::::::::::::::::::::::::::::::::::::::::::::::::::::::::::,                                  ",
"                                  &+++++++++++++++++++++++++++++++++++++++++++++++++++++++++++++++++++++                                   &&&&&&&&&&&&&&&&&&&&&&&&&&&&&&&&&&&&&&&&&&&&&&&&&&&&&&&&&&&&&&&&&&&&&                                 &*XXXXXXXXXXXXXXXXXXXXXXXXXXXXXXXXX4-.................................=                                                                                                                                          &&&&&&&&&&&&&&&&&&&&&&&&&&&&&&&&&&&&&&&&&&&&&&&&&&&&&&&&&&&&&&&&&&&&&                                   ",
"                                  &+++++++++++++++++++++++++++++++++++++++++++++++++++++++++++++++++++++                                                                                                                                         &*XXXXXXXXXXXXXXXXXXXXXXXXXXXXXXXXX4-.................................=                                                                                                                                                                                                                                                  ",
"                                  &+++++++++++++++++++++++++++++++++++++++++++++++++++++++++++++++++++++                                                                                                                                         &*XXXXXXXXXXXXXXXXXXXXXXXXXXXXXXXXX4-.................................=                                                                                                                                                                                                                                                  ",
"                                  &+++++++++++++++++++++++++++++++++++++++++++++++++++++++++++++++++++++                                                                                                                                         &*XXXXXXXXXXXXXXXXXXXXXXXXXXXXXXXXX4-.................................=                                                                                                                                                                                                                                                  ",
"                                  &+++++++++++++++++++++++++++++++++++++++++++++++++++++++++++++++++++++                                                                                                                                         &*XXXXXXXXXXXXXXXXXXXXXXXXXXXXXXXXX4-.................................=                                                                                                                                                                                                                                                  ",
"                                  &+++++++++++++++++++++++++++++++++++++++++++++++++++++++++++++++++++++                                                                                                                                         &*XXXXXXXXXXXXXXXXXXXXXXXXXXXXXXXXX4-.................................=                                                                                                                                                                                                                                                  ",
"                                  &+++++++++++++++++++++++++++++++++++++++++++++++++++++++++++++++++++++                                                                                                                                         &*XXXXXXXXXXXXXXXXXXXXXXXXXXXXXXXXX4-.................................=                                                                                                                                                                                                                                                  ",
"                                  &+++++++++++++++++++++++++++++++++++++++++++++++++++++++++++++++++++++                                                                                                                                         &*XXXXXXXXXXXXXXXXXXXXXXXXXXXXXXXXX4-.................................=                                                                                                                                                                                                                                                  ",
"                                  &+++++++++++++++++++++++++++++++++++++++++++++++++++++++++++++++++++++                                                                                                                                         &*XXXXXXXXXXXXXXXXXXXXXXXXXXXXXXXXX4-.................................=                                                                                                                                                                                                                                                  ",
"                                  &+++++++++++++++++++++++++++++++++++++++++++++++++++++++++++++++++++++                                                                                                                                         &*XXXXXXXXXXXXXXXXXXXXXXXXXXXXXXXXX4-.................................=                                                                                                                                                                                                                                                  ",
"                                  &+++++++++++++++++++++++++++++++++++++++++++++++++++++++++++++++++++++                                                                                                                                         &*XXXXXXXXXXXXXXXXXXXXXXXXXXXXXXXXX4-.................................=                                                                                                                                                                                                                                                  ",
"                                  &+++++++++++++++++++++++++++++++++++++++++++++++++++++++++++++++++++++                                                                                                                                         &*XXXXXXXXXXXXXXXXXXXXXXXXXXXXXXXXX4-.................................=                                                                                                                                                                                                                                                  ",
"                                  &+++++++++++++++++++++++++++++++++++++++++++++++++++++++++++++++++++++                                                                                                                                         &*XXXXXXXXXXXXXXXXXXXXXXXXXXXXXXXXX4-.................................=                                                                                                                                                                                                                                                  ",
"                                  &+++++++++++++++++++++++++++++++++++++++++++++++++++++++++++++++++++++                                                                                                                                         &*XXXXXXXXXXXXXXXXXXXXXXXXXXXXXXXXX4-.................................=                                                                                                                                                                                                                                                  ",
"                                  &+++++++++++++++++++++++++++++++++++++++++++++++++++++++++++++++++++++                                                                                                                                         &*XXXXXXXXXXXXXXXXXXXXXXXXXXXXXXXXX4-.................................=                                                                                                                                                                                                                                                  ",
"                                  &+++++++++++++++++++++++++++++++++++++++++++++++++++++++++++++++++++++                                                                                                                                         &*XXXXXXXXXXXXXXXXXXXXXXXXXXXXXXXXX4-.................................=                                                                                                                                                                                                                                                  ",
"                                  &+++++++++++++++++++++++++++++++++++++++++++++++++++++++++++++++++++++                                                                                                                                         &*XXXXXXXXXXXXXXXXXXXXXXXXXXXXXXXXX4-.................................=                                                                                                                                                                                                                                                  ",
"                                  &+++++++++++++++++++++++++++++++++++++++++++++++++++++++++++++++++++++                                                                                                                                         &*XXXXXXXXXXXXXXXXXXXXXXXXXXXXXXXXX4-.................................=                                                                                                                                                                                                                                                  ",
"                                  &+++++++++++++++++++++++++++++++++++++++++++++++++++++++++++++++++++++                                                                                                                                         &*XXXXXXXXXXXXXXXXXXXXXXXXXXXXXXXXX4-.................................=                                                                                                                                                                                                                                                  ",
"                                  &+++++++++++++++++++++++++++++++++++++++++++++++++++++++++++++++++++++                                                                                                                                         &*XXXXXXXXXXXXXXXXXXXXXXXXXXXXXXXXX4-.................................=                                                                                                                                                                                                                                                  ",
"                                  &+++++++++++++++++++++++++++++++++++++++++++++++++++++++++++++++++++++                                                                                                                                         &*XXXXXXXXXXXXXXXXXXXXXXXXXXXXXXXXX4-.................................=                                                                                                                                                                                                                                                  ",
"                                  &+++++++++++++++++++++++++++++++++++++++++++++++++++++++++++++++++++++                                                                                                                                         &*XXXXXXXXXXXXXXXXXXXXXXXXXXXXXXXXX4-.................................=                                                                                                                                                                                                                                                  ",
"                                  &+++++++++++++++++++++++++++++++++++++++++++++++++++++++++++++++++++++                                                                                                                                         &*XXXXXXXXXXXXXXXXXXXXXXXXXXXXXXXXX4-.................................=                                                                                                                                                                                                                                                  ",
"                                  &+++++++++++++++++++++++++++++++++++++++++++++++++++++++++++++++++++++                                                                                                                                         &*XXXXXXXXXXXXXXXXXXXXXXXXXXXXXXXXX4-.................................=                                                                                                                                                                                                                                                  ",
"                                  &+++++++++++++++++++++++++++++++++++++++++++++++++++++++++++++++++++++                                                                                                                                         &*XXXXXXXXXXXXXXXXXXXXXXXXXXXXXXXXX4-.................................=                                                                                                                                                                                                                                                  ",
"                                  &+++++++++++++++++++++++++++++++++++++++++++++++++++++++++++++++++++++                                                                                                                                         &*XXXXXXXXXXXXXXXXXXXXXXXXXXXXXXXXX4-.................................=                                                                                                                                                                                                                                                  ",
"                                  &+++++++++++++++++++++++++++++++++++++++++++++++++++++++++++++++++++++                                                                                                                                         &*XXXXXXXXXXXXXXXXXXXXXXXXXXXXXXXXX4-.................................=                                                                                                                                                                                                                                                  ",
"                                  &+++++++++++++++++++++++++++++++++++++++++++++++++++++++++++++++++++++                                                                                                                                         &*XXXXXXXXXXXXXXXXXXXXXXXXXXXXXXXXX4-.................................=                                                                                                                                                                                                                                                  ",
"                                  &+++++++++++++++++++++++++++++++++++++++++++++++++++++++++++++++++++++                                                                                                                                         &*XXXXXXXXXXXXXXXXXXXXXXXXXXXXXXXXX4-.................................=                                                                                                                                                                                                                                                  ",
"                                  &+++++++++++++++++++++++++++++++++++++++++++++++++++++++++++++++++++++                                                                                                                                         &*XXXXXXXXXXXXXXXXXXXXXXXXXXXXXXXXX4-.................................=                                                                                                                                                                                                                                                  ",
"                                  &+++++++++++++++++++++++++++++++++++++++++++++++++++++++++++++++++++++                                                                                                                                         &*XXXXXXXXXXXXXXXXXXXXXXXXXXXXXXXXX4-.................................=                                                                                                                                                                                                                                                  ",
"                                  &+++++++++++++++++++++++++++++++++++++++++++++++++++++++++++++++++++++                                                                                                                                         &*XXXXXXXXXXXXXXXXXXXXXXXXXXXXXXXXX4-.................................=                                                                                                                                                                                                                                                  ",
"                                  &+++++++++++++++++++++++++++++++++++++++++++++++++++++++++++++++++++++                                                                                                                                         &*XXXXXXXXXXXXXXXXXXXXXXXXXXXXXXXXX4-.................................=                                                                                                                                                                                                                                                  ",
"&&&&&&&&&&&&&&&&&&&&&&&&&&&&&&&&&&&+=================================++++++++++++++++++++++++++++++++++=&&&&&&&&&&&&&&&&&&&&&&&&&&&&&&&&&&&&&&&&&&&&&&&&&&&&&&&&&&&&&&&&&&&&&&&&&&&&&&&&&&&&&&&&&&&&&&&&&&&&&&&&&&&&&&&&&&&&&&&&&&&&&&&&&&&&&&&&&&*4XXXXXXXXXXXXXXXXXXXXXXXXXXXXXXXX45---------------------------------= &&&&&&&&&&&&&&&&&&&&&&&&&&&&&&&&&&&&&&&&&&&&&&&&&&&&&&&&&&&&&&&&&&&&&&&&&&&&&&&&&&&&&&&&&&&&&&&&&&&&&&&&&&&&&&&&&&&&&&&&&&&&&&&&&&&&&&&&&&&&&&&&&&&&&&&&&&&&&&&&&&&&&&&&&&&&&&&&&&&&&&&&&&&&&&&&&&&&&&&&&&&&&&&&&&&&&&&&&&&&&&&&&&&&&&&&&&&&&&&&&",
"0000000000000000000000000000000000033333333333333333333333333333333330>>>>>>>>>>>>>>>>>>>>>>>>>>>>>>>>>0********************************************************************************************************0000000000000000000000000000000000o6666666666666666666666666666666666333333333333333333333333333333333330000000000000000000000000000000000********************************************************************************************************000000000000000000000000000000000000000000000000000000000000000000000***********************************",
"oooooooooooooooooooooooooooooooooo64XXXXXXXXXXXXXXXXXXXXXXXXXXXXXXXXX;ooooooooooooooooooooooooooooooooo;XXXXXXXXXXXXXXXXXXXXXXXXXXXXXXXXXXXXXXXXXXXXXXXXXXXXXXXXXXXXXXXXXXXXXXXXXXXXXXXXXXXXXXXXXXXXXXXXXXXXXXX8oooooooooooooooooooooooooooooooooooooooooooooooooooooooooooooooooooooXXXXXXXXXXXXXXXXXXXXXXXXXXXXXXXXX41oooooooooooooooooooooooooooooooooo8XXXXXXXXXXXXXXXXXXXXXXXXXXXXXXXXXXXXXXXXXXXXXXXXXXXXXXXXXXXXXXXXXXXXXXXXXXXXXXXXXXXXXXXXXXXXXXXXXXXXXXX;oooooooooooooooooooooooooooooooooooooooooooooooooooooooooooooooooooo1XXXXXXXXXXXXXXXXXXXXXXXXXXXXXXXXXX",
"oooooooooooooooooooooooooooooooooo6XXXXXXXXXXXXXXXXXXXXXXXXXXXXXXXXXX;ooooooooooooooooooooooooooooooooooXXXXXXXXXXXXXXXXXXXXXXXXXXXXXXXXXXXXXXXXXXXXXXXXXXXXXXXXXXXXXXXXXXXXXXXXXXXXXXXXXXXXXXXXXXXXXXXXXXXXXXX1oooooooooooooooooooooooooooooooooooooooooooooooooooooooooooooooooooooXXXXXXXXXXXXXXXXXXXXXXXXXXXXXXXXXX1oooooooooooooooooooooooooooooooooo1XXXXXXXXXXXXXXXXXXXXXXXXXXXXXXXXXXXXXXXXXXXXXXXXXXXXXXXXXXXXXXXXXXXXXXXXXXXXXXXXXXXXXXXXXXXXXXXXXXXXXXXooooooooooooooooooooooooooooooooooooooooooooooooooooooooooooooooooooo1XXXXXXXXXXXXXXXXXXXXXXXXXXXXXXXXXX",
"oooooooooooooooooooooooooooooooooo6XXXXXXXXXXXXXXXXXXXXXXXXXXXXXXXXXX;ooooooooooooooooooooooooooooooooooXXXXXXXXXXXXXXXXXXXXXXXXXXXXXXXXXXXXXXXXXXXXXXXXXXXXXXXXXXXXXXXXXXXXXXXXXXXXXXXXXXXXXXXXXXXXXXXXXXXXXXX1oooooooooooooooooooooooooooooooooooooooooooooooooooooooooooooooooooooXXXXXXXXXXXXXXXXXXXXXXXXXXXXXXXXXX1oooooooooooooooooooooooooooooooooo1XXXXXXXXXXXXXXXXXXXXXXXXXXXXXXXXXXXXXXXXXXXXXXXXXXXXXXXXXXXXXXXXXXXXXXXXXXXXXXXXXXXXXXXXXXXXXXXXXXXXXXXooooooooooooooooooooooooooooooooooooooooooooooooooooooooooooooooooooo1XXXXXXXXXXXXXXXXXXXXXXXXXXXXXXXXXX",
"oooooooooooooooooooooooooooooooooo6XXXXXXXXXXXXXXXXXXXXXXXXXXXXXXXXXX;ooooooooooooooooooooooooooooooooooXXXXXXXXXXXXXXXXXXXXXXXXXXXXXXXXXXXXXXXXXXXXXXXXXXXXXXXXXXXXXXXXXXXXXXXXXXXXXXXXXXXXXXXXXXXXXXXXXXXXXXX1oooooooooooooooooooooooooooooooooooooooooooooooooooooooooooooooooooooXXXXXXXXXXXXXXXXXXXXXXXXXXXXXXXXXX1oooooooooooooooooooooooooooooooooo1XXXXXXXXXXXXXXXXXXXXXXXXXXXXXXXXXXXXXXXXXXXXXXXXXXXXXXXXXXXXXXXXXXXXXXXXXXXXXXXXXXXXXXXXXXXXXXXXXXXXXXXooooooooooooooooooooooooooooooooooooooooooooooooooooooooooooooooooooo1XXXXXXXXXXXXXXXXXXXXXXXXXXXXXXXXXX",
"oooooooooooooooooooooooooooooooooo6XXXXXXXXXXXXXXXXXXXXXXXXXXXXXXXXXX;ooooooooooooooooooooooooooooooooooXXXXXXXXXXXXXXXXXXXXXXXXXXXXXXXXXXXXXXXXXXXXXXXXXXXXXXXXXXXXXXXXXXXXXXXXXXXXXXXXXXXXXXXXXXXXXXXXXXXXXXX1oooooooooooooooooooooooooooooooooooooooooooooooooooooooooooooooooooooXXXXXXXXXXXXXXXXXXXXXXXXXXXXXXXXXX1oooooooooooooooooooooooooooooooooo1XXXXXXXXXXXXXXXXXXXXXXXXXXXXXXXXXXXXXXXXXXXXXXXXXXXXXXXXXXXXXXXXXXXXXXXXXXXXXXXXXXXXXXXXXXXXXXXXXXXXXXXooooooooooooooooooooooooooooooooooooooooooooooooooooooooooooooooooooo1XXXXXXXXXXXXXXXXXXXXXXXXXXXXXXXXXX",
"oooooooooooooooooooooooooooooooooo6XXXXXXXXXXXXXXXXXXXXXXXXXXXXXXXXXX;ooooooooooooooooooooooooooooooooooXXXXXXXXXXXXXXXXXXXXXXXXXXXXXXXXXXXXXXXXXXXXXXXXXXXXXXXXXXXXXXXXXXXXXXXXXXXXXXXXXXXXXXXXXXXXXXXXXXXXXXX1oooooooooooooooooooooooooooooooooooooooooooooooooooooooooooooooooooooXXXXXXXXXXXXXXXXXXXXXXXXXXXXXXXXXX1oooooooooooooooooooooooooooooooooo1XXXXXXXXXXXXXXXXXXXXXXXXXXXXXXXXXXXXXXXXXXXXXXXXXXXXXXXXXXXXXXXXXXXXXXXXXXXXXXXXXXXXXXXXXXXXXXXXXXXXXXXooooooooooooooooooooooooooooooooooooooooooooooooooooooooooooooooooooo1XXXXXXXXXXXXXXXXXXXXXXXXXXXXXXXXXX",
"oooooooooooooooooooooooooooooooooo6XXXXXXXXXXXXXXXXXXXXXXXXXXXXXXXXXX;ooooooooooooooooooooooooooooooooooXXXXXXXXXXXXXXXXXXXXXXXXXXXXXXXXXXXXXXXXXXXXXXXXXXXXXXXXXXXXXXXXXXXXXXXXXXXXXXXXXXXXXXXXXXXXXXXXXXXXXXX1oooooooooooooooooooooooooooooooooooooooooooooooooooooooooooooooooooooXXXXXXXXXXXXXXXXXXXXXXXXXXXXXXXXXX1oooooooooooooooooooooooooooooooooo1XXXXXXXXXXXXXXXXXXXXXXXXXXXXXXXXXXXXXXXXXXXXXXXXXXXXXXXXXXXXXXXXXXXXXXXXXXXXXXXXXXXXXXXXXXXXXXXXXXXXXXXooooooooooooooooooooooooooooooooooooooooooooooooooooooooooooooooooooo1XXXXXXXXXXXXXXXXXXXXXXXXXXXXXXXXXX",
"oooooooooooooooooooooooooooooooooo6XXXXXXXXXXXXXXXXXXXXXXXXXXXXXXXXXX;ooooooooooooooooooooooooooooooooooXXXXXXXXXXXXXXXXXXXXXXXXXXXXXXXXXXXXXXXXXXXXXXXXXXXXXXXXXXXXXXXXXXXXXXXXXXXXXXXXXXXXXXXXXXXXXXXXXXXXXXX1oooooooooooooooooooooooooooooooooooooooooooooooooooooooooooooooooooooXXXXXXXXXXXXXXXXXXXXXXXXXXXXXXXXXX1oooooooooooooooooooooooooooooooooo1XXXXXXXXXXXXXXXXXXXXXXXXXXXXXXXXXXXXXXXXXXXXXXXXXXXXXXXXXXXXXXXXXXXXXXXXXXXXXXXXXXXXXXXXXXXXXXXXXXXXXXXooooooooooooooooooooooooooooooooooooooooooooooooooooooooooooooooooooo1XXXXXXXXXXXXXXXXXXXXXXXXXXXXXXXXXX",
"oooooooooooooooooooooooooooooooooo6XXXXXXXXXXXXXXXXXXXXXXXXXXXXXXXXXX;ooooooooooooooooooooooooooooooooooXXXXXXXXXXXXXXXXXXXXXXXXXXXXXXXXXXXXXXXXXXXXXXXXXXXXXXXXXXXXXXXXXXXXXXXXXXXXXXXXXXXXXXXXXXXXXXXXXXXXXXX1oooooooooooooooooooooooooooooooooooooooooooooooooooooooooooooooooooooXXXXXXXXXXXXXXXXXXXXXXXXXXXXXXXXXX1oooooooooooooooooooooooooooooooooo1XXXXXXXXXXXXXXXXXXXXXXXXXXXXXXXXXXXXXXXXXXXXXXXXXXXXXXXXXXXXXXXXXXXXXXXXXXXXXXXXXXXXXXXXXXXXXXXXXXXXXXXooooooooooooooooooooooooooooooooooooooooooooooooooooooooooooooooooooo1XXXXXXXXXXXXXXXXXXXXXXXXXXXXXXXXXX",
"oooooooooooooooooooooooooooooooooo6XXXXXXXXXXXXXXXXXXXXXXXXXXXXXXXXXX;ooooooooooooooooooooooooooooooooooXXXXXXXXXXXXXXXXXXXXXXXXXXXXXXXXXXXXXXXXXXXXXXXXXXXXXXXXXXXXXXXXXXXXXXXXXXXXXXXXXXXXXXXXXXXXXXXXXXXXXXX1oooooooooooooooooooooooooooooooooooooooooooooooooooooooooooooooooooooXXXXXXXXXXXXXXXXXXXXXXXXXXXXXXXXXX1oooooooooooooooooooooooooooooooooo1XXXXXXXXXXXXXXXXXXXXXXXXXXXXXXXXXXXXXXXXXXXXXXXXXXXXXXXXXXXXXXXXXXXXXXXXXXXXXXXXXXXXXXXXXXXXXXXXXXXXXXXooooooooooooooooooooooooooooooooooooooooooooooooooooooooooooooooooooo1XXXXXXXXXXXXXXXXXXXXXXXXXXXXXXXXXX",
"oooooooooooooooooooooooooooooooooo6XXXXXXXXXXXXXXXXXXXXXXXXXXXXXXXXXX;ooooooooooooooooooooooooooooooooooXXXXXXXXXXXXXXXXXXXXXXXXXXXXXXXXXXXXXXXXXXXXXXXXXXXXXXXXXXXXXXXXXXXXXXXXXXXXXXXXXXXXXXXXXXXXXXXXXXXXXXX1oooooooooooooooooooooooooooooooooooooooooooooooooooooooooooooooooooooXXXXXXXXXXXXXXXXXXXXXXXXXXXXXXXXXX1oooooooooooooooooooooooooooooooooo1XXXXXXXXXXXXXXXXXXXXXXXXXXXXXXXXXXXXXXXXXXXXXXXXXXXXXXXXXXXXXXXXXXXXXXXXXXXXXXXXXXXXXXXXXXXXXXXXXXXXXXXooooooooooooooooooooooooooooooooooooooooooooooooooooooooooooooooooooo1XXXXXXXXXXXXXXXXXXXXXXXXXXXXXXXXXX",
"oooooooooooooooooooooooooooooooooo6XXXXXXXXXXXXXXXXXXXXXXXXXXXXXXXXXX;ooooooooooooooooooooooooooooooooooXXXXXXXXXXXXXXXXXXXXXXXXXXXXXXXXXXXXXXXXXXXXXXXXXXXXXXXXXXXXXXXXXXXXXXXXXXXXXXXXXXXXXXXXXXXXXXXXXXXXXXX1oooooooooooooooooooooooooooooooooooooooooooooooooooooooooooooooooooooXXXXXXXXXXXXXXXXXXXXXXXXXXXXXXXXXX1oooooooooooooooooooooooooooooooooo1XXXXXXXXXXXXXXXXXXXXXXXXXXXXXXXXXXXXXXXXXXXXXXXXXXXXXXXXXXXXXXXXXXXXXXXXXXXXXXXXXXXXXXXXXXXXXXXXXXXXXXXooooooooooooooooooooooooooooooooooooooooooooooooooooooooooooooooooooo1XXXXXXXXXXXXXXXXXXXXXXXXXXXXXXXXXX",
"oooooooooooooooooooooooooooooooooo6XXXXXXXXXXXXXXXXXXXXXXXXXXXXXXXXXX;ooooooooooooooooooooooooooooooooooXXXXXXXXXXXXXXXXXXXXXXXXXXXXXXXXXXXXXXXXXXXXXXXXXXXXXXXXXXXXXXXXXXXXXXXXXXXXXXXXXXXXXXXXXXXXXXXXXXXXXXX1oooooooooooooooooooooooooooooooooooooooooooooooooooooooooooooooooooooXXXXXXXXXXXXXXXXXXXXXXXXXXXXXXXXXX1oooooooooooooooooooooooooooooooooo1XXXXXXXXXXXXXXXXXXXXXXXXXXXXXXXXXXXXXXXXXXXXXXXXXXXXXXXXXXXXXXXXXXXXXXXXXXXXXXXXXXXXXXXXXXXXXXXXXXXXXXXooooooooooooooooooooooooooooooooooooooooooooooooooooooooooooooooooooo1XXXXXXXXXXXXXXXXXXXXXXXXXXXXXXXXXX",
"oooooooooooooooooooooooooooooooooo6XXXXXXXXXXXXXXXXXXXXXXXXXXXXXXXXXX;ooooooooooooooooooooooooooooooooooXXXXXXXXXXXXXXXXXXXXXXXXXXXXXXXXXXXXXXXXXXXXXXXXXXXXXXXXXXXXXXXXXXXXXXXXXXXXXXXXXXXXXXXXXXXXXXXXXXXXXXX1oooooooooooooooooooooooooooooooooooooooooooooooooooooooooooooooooooooXXXXXXXXXXXXXXXXXXXXXXXXXXXXXXXXXX1oooooooooooooooooooooooooooooooooo1XXXXXXXXXXXXXXXXXXXXXXXXXXXXXXXXXXXXXXXXXXXXXXXXXXXXXXXXXXXXXXXXXXXXXXXXXXXXXXXXXXXXXXXXXXXXXXXXXXXXXXXooooooooooooooooooooooooooooooooooooooooooooooooooooooooooooooooooooo1XXXXXXXXXXXXXXXXXXXXXXXXXXXXXXXXXX",
"oooooooooooooooooooooooooooooooooo6XXXXXXXXXXXXXXXXXXXXXXXXXXXXXXXXXX;ooooooooooooooooooooooooooooooooooXXXXXXXXXXXXXXXXXXXXXXXXXXXXXXXXXXXXXXXXXXXXXXXXXXXXXXXXXXXXXXXXXXXXXXXXXXXXXXXXXXXXXXXXXXXXXXXXXXXXXXX1oooooooooooooooooooooooooooooooooooooooooooooooooooooooooooooooooooooXXXXXXXXXXXXXXXXXXXXXXXXXXXXXXXXXX1oooooooooooooooooooooooooooooooooo1XXXXXXXXXXXXXXXXXXXXXXXXXXXXXXXXXXXXXXXXXXXXXXXXXXXXXXXXXXXXXXXXXXXXXXXXXXXXXXXXXXXXXXXXXXXXXXXXXXXXXXXooooooooooooooooooooooooooooooooooooooooooooooooooooooooooooooooooooo1XXXXXXXXXXXXXXXXXXXXXXXXXXXXXXXXXX",
"oooooooooooooooooooooooooooooooooo6XXXXXXXXXXXXXXXXXXXXXXXXXXXXXXXXXX;ooooooooooooooooooooooooooooooooooXXXXXXXXXXXXXXXXXXXXXXXXXXXXXXXXXXXXXXXXXXXXXXXXXXXXXXXXXXXXXXXXXXXXXXXXXXXXXXXXXXXXXXXXXXXXXXXXXXXXXXX1oooooooooooooooooooooooooooooooooooooooooooooooooooooooooooooooooooooXXXXXXXXXXXXXXXXXXXXXXXXXXXXXXXXXX1oooooooooooooooooooooooooooooooooo1XXXXXXXXXXXXXXXXXXXXXXXXXXXXXXXXXXXXXXXXXXXXXXXXXXXXXXXXXXXXXXXXXXXXXXXXXXXXXXXXXXXXXXXXXXXXXXXXXXXXXXXooooooooooooooooooooooooooooooooooooooooooooooooooooooooooooooooooooo1XXXXXXXXXXXXXXXXXXXXXXXXXXXXXXXXXX",
"oooooooooooooooooooooooooooooooooo6XXXXXXXXXXXXXXXXXXXXXXXXXXXXXXXXXX;ooooooooooooooooooooooooooooooooooXXXXXXXXXXXXXXXXXXXXXXXXXXXXXXXXXXXXXXXXXXXXXXXXXXXXXXXXXXXXXXXXXXXXXXXXXXXXXXXXXXXXXXXXXXXXXXXXXXXXXXX1oooooooooooooooooooooooooooooooooooooooooooooooooooooooooooooooooooooXXXXXXXXXXXXXXXXXXXXXXXXXXXXXXXXXX1oooooooooooooooooooooooooooooooooo1XXXXXXXXXXXXXXXXXXXXXXXXXXXXXXXXXXXXXXXXXXXXXXXXXXXXXXXXXXXXXXXXXXXXXXXXXXXXXXXXXXXXXXXXXXXXXXXXXXXXXXXooooooooooooooooooooooooooooooooooooooooooooooooooooooooooooooooooooo1XXXXXXXXXXXXXXXXXXXXXXXXXXXXXXXXXX",
"oooooooooooooooooooooooooooooooooo6XXXXXXXXXXXXXXXXXXXXXXXXXXXXXXXXXX;ooooooooooooooooooooooooooooooooooXXXXXXXXXXXXXXXXXXXXXXXXXXXXXXXXXXXXXXXXXXXXXXXXXXXXXXXXXXXXXXXXXXXXXXXXXXXXXXXXXXXXXXXXXXXXXXXXXXXXXXX1oooooooooooooooooooooooooooooooooooooooooooooooooooooooooooooooooooooXXXXXXXXXXXXXXXXXXXXXXXXXXXXXXXXXX1oooooooooooooooooooooooooooooooooo1XXXXXXXXXXXXXXXXXXXXXXXXXXXXXXXXXXXXXXXXXXXXXXXXXXXXXXXXXXXXXXXXXXXXXXXXXXXXXXXXXXXXXXXXXXXXXXXXXXXXXXXooooooooooooooooooooooooooooooooooooooooooooooooooooooooooooooooooooo1XXXXXXXXXXXXXXXXXXXXXXXXXXXXXXXXXX",
"oooooooooooooooooooooooooooooooooo6XXXXXXXXXXXXXXXXXXXXXXXXXXXXXXXXXX;ooooooooooooooooooooooooooooooooooXXXXXXXXXXXXXXXXXXXXXXXXXXXXXXXXXXXXXXXXXXXXXXXXXXXXXXXXXXXXXXXXXXXXXXXXXXXXXXXXXXXXXXXXXXXXXXXXXXXXXXX1oooooooooooooooooooooooooooooooooooooooooooooooooooooooooooooooooooooXXXXXXXXXXXXXXXXXXXXXXXXXXXXXXXXXX1oooooooooooooooooooooooooooooooooo1XXXXXXXXXXXXXXXXXXXXXXXXXXXXXXXXXXXXXXXXXXXXXXXXXXXXXXXXXXXXXXXXXXXXXXXXXXXXXXXXXXXXXXXXXXXXXXXXXXXXXXXooooooooooooooooooooooooooooooooooooooooooooooooooooooooooooooooooooo1XXXXXXXXXXXXXXXXXXXXXXXXXXXXXXXXXX",
"oooooooooooooooooooooooooooooooooo6XXXXXXXXXXXXXXXXXXXXXXXXXXXXXXXXXX;ooooooooooooooooooooooooooooooooooXXXXXXXXXXXXXXXXXXXXXXXXXXXXXXXXXXXXXXXXXXXXXXXXXXXXXXXXXXXXXXXXXXXXXXXXXXXXXXXXXXXXXXXXXXXXXXXXXXXXXXX1oooooooooooooooooooooooooooooooooooooooooooooooooooooooooooooooooooooXXXXXXXXXXXXXXXXXXXXXXXXXXXXXXXXXX1oooooooooooooooooooooooooooooooooo1XXXXXXXXXXXXXXXXXXXXXXXXXXXXXXXXXXXXXXXXXXXXXXXXXXXXXXXXXXXXXXXXXXXXXXXXXXXXXXXXXXXXXXXXXXXXXXXXXXXXXXXooooooooooooooooooooooooooooooooooooooooooooooooooooooooooooooooooooo1XXXXXXXXXXXXXXXXXXXXXXXXXXXXXXXXXX",
"oooooooooooooooooooooooooooooooooo6XXXXXXXXXXXXXXXXXXXXXXXXXXXXXXXXXX;ooooooooooooooooooooooooooooooooooXXXXXXXXXXXXXXXXXXXXXXXXXXXXXXXXXXXXXXXXXXXXXXXXXXXXXXXXXXXXXXXXXXXXXXXXXXXXXXXXXXXXXXXXXXXXXXXXXXXXXXX1oooooooooooooooooooooooooooooooooooooooooooooooooooooooooooooooooooooXXXXXXXXXXXXXXXXXXXXXXXXXXXXXXXXXX1oooooooooooooooooooooooooooooooooo1XXXXXXXXXXXXXXXXXXXXXXXXXXXXXXXXXXXXXXXXXXXXXXXXXXXXXXXXXXXXXXXXXXXXXXXXXXXXXXXXXXXXXXXXXXXXXXXXXXXXXXXooooooooooooooooooooooooooooooooooooooooooooooooooooooooooooooooooooo1XXXXXXXXXXXXXXXXXXXXXXXXXXXXXXXXXX",
"oooooooooooooooooooooooooooooooooo6XXXXXXXXXXXXXXXXXXXXXXXXXXXXXXXXXX;ooooooooooooooooooooooooooooooooooXXXXXXXXXXXXXXXXXXXXXXXXXXXXXXXXXXXXXXXXXXXXXXXXXXXXXXXXXXXXXXXXXXXXXXXXXXXXXXXXXXXXXXXXXXXXXXXXXXXXXXX1oooooooooooooooooooooooooooooooooooooooooooooooooooooooooooooooooooooXXXXXXXXXXXXXXXXXXXXXXXXXXXXXXXXXX1oooooooooooooooooooooooooooooooooo1XXXXXXXXXXXXXXXXXXXXXXXXXXXXXXXXXXXXXXXXXXXXXXXXXXXXXXXXXXXXXXXXXXXXXXXXXXXXXXXXXXXXXXXXXXXXXXXXXXXXXXXooooooooooooooooooooooooooooooooooooooooooooooooooooooooooooooooooooo1XXXXXXXXXXXXXXXXXXXXXXXXXXXXXXXXXX",
"oooooooooooooooooooooooooooooooooo6XXXXXXXXXXXXXXXXXXXXXXXXXXXXXXXXXX;ooooooooooooooooooooooooooooooooooXXXXXXXXXXXXXXXXXXXXXXXXXXXXXXXXXXXXXXXXXXXXXXXXXXXXXXXXXXXXXXXXXXXXXXXXXXXXXXXXXXXXXXXXXXXXXXXXXXXXXXX1oooooooooooooooooooooooooooooooooooooooooooooooooooooooooooooooooooooXXXXXXXXXXXXXXXXXXXXXXXXXXXXXXXXXX1oooooooooooooooooooooooooooooooooo1XXXXXXXXXXXXXXXXXXXXXXXXXXXXXXXXXXXXXXXXXXXXXXXXXXXXXXXXXXXXXXXXXXXXXXXXXXXXXXXXXXXXXXXXXXXXXXXXXXXXXXXooooooooooooooooooooooooooooooooooooooooooooooooooooooooooooooooooooo1XXXXXXXXXXXXXXXXXXXXXXXXXXXXXXXXXX",
"oooooooooooooooooooooooooooooooooo6XXXXXXXXXXXXXXXXXXXXXXXXXXXXXXXXXX;ooooooooooooooooooooooooooooooooooXXXXXXXXXXXXXXXXXXXXXXXXXXXXXXXXXXXXXXXXXXXXXXXXXXXXXXXXXXXXXXXXXXXXXXXXXXXXXXXXXXXXXXXXXXXXXXXXXXXXXXX1oooooooooooooooooooooooooooooooooooooooooooooooooooooooooooooooooooooXXXXXXXXXXXXXXXXXXXXXXXXXXXXXXXXXX1oooooooooooooooooooooooooooooooooo1XXXXXXXXXXXXXXXXXXXXXXXXXXXXXXXXXXXXXXXXXXXXXXXXXXXXXXXXXXXXXXXXXXXXXXXXXXXXXXXXXXXXXXXXXXXXXXXXXXXXXXXooooooooooooooooooooooooooooooooooooooooooooooooooooooooooooooooooooo1XXXXXXXXXXXXXXXXXXXXXXXXXXXXXXXXXX",
"oooooooooooooooooooooooooooooooooo6XXXXXXXXXXXXXXXXXXXXXXXXXXXXXXXXXX;ooooooooooooooooooooooooooooooooooXXXXXXXXXXXXXXXXXXXXXXXXXXXXXXXXXXXXXXXXXXXXXXXXXXXXXXXXXXXXXXXXXXXXXXXXXXXXXXXXXXXXXXXXXXXXXXXXXXXXXXX1oooooooooooooooooooooooooooooooooooooooooooooooooooooooooooooooooooooXXXXXXXXXXXXXXXXXXXXXXXXXXXXXXXXXX1oooooooooooooooooooooooooooooooooo1XXXXXXXXXXXXXXXXXXXXXXXXXXXXXXXXXXXXXXXXXXXXXXXXXXXXXXXXXXXXXXXXXXXXXXXXXXXXXXXXXXXXXXXXXXXXXXXXXXXXXXXooooooooooooooooooooooooooooooooooooooooooooooooooooooooooooooooooooo1XXXXXXXXXXXXXXXXXXXXXXXXXXXXXXXXXX",
"oooooooooooooooooooooooooooooooooo6XXXXXXXXXXXXXXXXXXXXXXXXXXXXXXXXXX;ooooooooooooooooooooooooooooooooooXXXXXXXXXXXXXXXXXXXXXXXXXXXXXXXXXXXXXXXXXXXXXXXXXXXXXXXXXXXXXXXXXXXXXXXXXXXXXXXXXXXXXXXXXXXXXXXXXXXXXXX1oooooooooooooooooooooooooooooooooooooooooooooooooooooooooooooooooooooXXXXXXXXXXXXXXXXXXXXXXXXXXXXXXXXXX1oooooooooooooooooooooooooooooooooo1XXXXXXXXXXXXXXXXXXXXXXXXXXXXXXXXXXXXXXXXXXXXXXXXXXXXXXXXXXXXXXXXXXXXXXXXXXXXXXXXXXXXXXXXXXXXXXXXXXXXXXXooooooooooooooooooooooooooooooooooooooooooooooooooooooooooooooooooooo1XXXXXXXXXXXXXXXXXXXXXXXXXXXXXXXXXX",
"oooooooooooooooooooooooooooooooooo6XXXXXXXXXXXXXXXXXXXXXXXXXXXXXXXXXX;ooooooooooooooooooooooooooooooooooXXXXXXXXXXXXXXXXXXXXXXXXXXXXXXXXXXXXXXXXXXXXXXXXXXXXXXXXXXXXXXXXXXXXXXXXXXXXXXXXXXXXXXXXXXXXXXXXXXXXXXX1oooooooooooooooooooooooooooooooooooooooooooooooooooooooooooooooooooooXXXXXXXXXXXXXXXXXXXXXXXXXXXXXXXXXX1oooooooooooooooooooooooooooooooooo1XXXXXXXXXXXXXXXXXXXXXXXXXXXXXXXXXXXXXXXXXXXXXXXXXXXXXXXXXXXXXXXXXXXXXXXXXXXXXXXXXXXXXXXXXXXXXXXXXXXXXXXooooooooooooooooooooooooooooooooooooooooooooooooooooooooooooooooooooo1XXXXXXXXXXXXXXXXXXXXXXXXXXXXXXXXXX",
"oooooooooooooooooooooooooooooooooo6XXXXXXXXXXXXXXXXXXXXXXXXXXXXXXXXXX;ooooooooooooooooooooooooooooooooooXXXXXXXXXXXXXXXXXXXXXXXXXXXXXXXXXXXXXXXXXXXXXXXXXXXXXXXXXXXXXXXXXXXXXXXXXXXXXXXXXXXXXXXXXXXXXXXXXXXXXXX1oooooooooooooooooooooooooooooooooooooooooooooooooooooooooooooooooooooXXXXXXXXXXXXXXXXXXXXXXXXXXXXXXXXXX1oooooooooooooooooooooooooooooooooo1XXXXXXXXXXXXXXXXXXXXXXXXXXXXXXXXXXXXXXXXXXXXXXXXXXXXXXXXXXXXXXXXXXXXXXXXXXXXXXXXXXXXXXXXXXXXXXXXXXXXXXXooooooooooooooooooooooooooooooooooooooooooooooooooooooooooooooooooooo1XXXXXXXXXXXXXXXXXXXXXXXXXXXXXXXXXX",
"oooooooooooooooooooooooooooooooooo6XXXXXXXXXXXXXXXXXXXXXXXXXXXXXXXXXX;ooooooooooooooooooooooooooooooooooXXXXXXXXXXXXXXXXXXXXXXXXXXXXXXXXXXXXXXXXXXXXXXXXXXXXXXXXXXXXXXXXXXXXXXXXXXXXXXXXXXXXXXXXXXXXXXXXXXXXXXX1oooooooooooooooooooooooooooooooooooooooooooooooooooooooooooooooooooooXXXXXXXXXXXXXXXXXXXXXXXXXXXXXXXXXX1oooooooooooooooooooooooooooooooooo1XXXXXXXXXXXXXXXXXXXXXXXXXXXXXXXXXXXXXXXXXXXXXXXXXXXXXXXXXXXXXXXXXXXXXXXXXXXXXXXXXXXXXXXXXXXXXXXXXXXXXXXooooooooooooooooooooooooooooooooooooooooooooooooooooooooooooooooooooo1XXXXXXXXXXXXXXXXXXXXXXXXXXXXXXXXXX",
"oooooooooooooooooooooooooooooooooo6XXXXXXXXXXXXXXXXXXXXXXXXXXXXXXXXXX;ooooooooooooooooooooooooooooooooooXXXXXXXXXXXXXXXXXXXXXXXXXXXXXXXXXXXXXXXXXXXXXXXXXXXXXXXXXXXXXXXXXXXXXXXXXXXXXXXXXXXXXXXXXXXXXXXXXXXXXXX1oooooooooooooooooooooooooooooooooooooooooooooooooooooooooooooooooooooXXXXXXXXXXXXXXXXXXXXXXXXXXXXXXXXXX1oooooooooooooooooooooooooooooooooo1XXXXXXXXXXXXXXXXXXXXXXXXXXXXXXXXXXXXXXXXXXXXXXXXXXXXXXXXXXXXXXXXXXXXXXXXXXXXXXXXXXXXXXXXXXXXXXXXXXXXXXXooooooooooooooooooooooooooooooooooooooooooooooooooooooooooooooooooooo1XXXXXXXXXXXXXXXXXXXXXXXXXXXXXXXXXX",
"oooooooooooooooooooooooooooooooooo6XXXXXXXXXXXXXXXXXXXXXXXXXXXXXXXXXX;ooooooooooooooooooooooooooooooooooXXXXXXXXXXXXXXXXXXXXXXXXXXXXXXXXXXXXXXXXXXXXXXXXXXXXXXXXXXXXXXXXXXXXXXXXXXXXXXXXXXXXXXXXXXXXXXXXXXXXXXX1oooooooooooooooooooooooooooooooooooooooooooooooooooooooooooooooooooooXXXXXXXXXXXXXXXXXXXXXXXXXXXXXXXXXX1oooooooooooooooooooooooooooooooooo1XXXXXXXXXXXXXXXXXXXXXXXXXXXXXXXXXXXXXXXXXXXXXXXXXXXXXXXXXXXXXXXXXXXXXXXXXXXXXXXXXXXXXXXXXXXXXXXXXXXXXXXooooooooooooooooooooooooooooooooooooooooooooooooooooooooooooooooooooo1XXXXXXXXXXXXXXXXXXXXXXXXXXXXXXXXXX",
"oooooooooooooooooooooooooooooooooo6XXXXXXXXXXXXXXXXXXXXXXXXXXXXXXXXXX;ooooooooooooooooooooooooooooooooooXXXXXXXXXXXXXXXXXXXXXXXXXXXXXXXXXXXXXXXXXXXXXXXXXXXXXXXXXXXXXXXXXXXXXXXXXXXXXXXXXXXXXXXXXXXXXXXXXXXXXXX1oooooooooooooooooooooooooooooooooooooooooooooooooooooooooooooooooooooXXXXXXXXXXXXXXXXXXXXXXXXXXXXXXXXXX1oooooooooooooooooooooooooooooooooo1XXXXXXXXXXXXXXXXXXXXXXXXXXXXXXXXXXXXXXXXXXXXXXXXXXXXXXXXXXXXXXXXXXXXXXXXXXXXXXXXXXXXXXXXXXXXXXXXXXXXXXXooooooooooooooooooooooooooooooooooooooooooooooooooooooooooooooooooooo1XXXXXXXXXXXXXXXXXXXXXXXXXXXXXXXXXX",
"oooooooooooooooooooooooooooooooooo6XXXXXXXXXXXXXXXXXXXXXXXXXXXXXXXXXX;ooooooooooooooooooooooooooooooooooXXXXXXXXXXXXXXXXXXXXXXXXXXXXXXXXXXXXXXXXXXXXXXXXXXXXXXXXXXXXXXXXXXXXXXXXXXXXXXXXXXXXXXXXXXXXXXXXXXXXXXX1oooooooooooooooooooooooooooooooooooooooooooooooooooooooooooooooooooooXXXXXXXXXXXXXXXXXXXXXXXXXXXXXXXXXX1oooooooooooooooooooooooooooooooooo1XXXXXXXXXXXXXXXXXXXXXXXXXXXXXXXXXXXXXXXXXXXXXXXXXXXXXXXXXXXXXXXXXXXXXXXXXXXXXXXXXXXXXXXXXXXXXXXXXXXXXXXooooooooooooooooooooooooooooooooooooooooooooooooooooooooooooooooooooo1XXXXXXXXXXXXXXXXXXXXXXXXXXXXXXXXXX",
"oooooooooooooooooooooooooooooooooo6XXXXXXXXXXXXXXXXXXXXXXXXXXXXXXXXXX;ooooooooooooooooooooooooooooooooooXXXXXXXXXXXXXXXXXXXXXXXXXXXXXXXXXXXXXXXXXXXXXXXXXXXXXXXXXXXXXXXXXXXXXXXXXXXXXXXXXXXXXXXXXXXXXXXXXXXXXXX1oooooooooooooooooooooooooooooooooooooooooooooooooooooooooooooooooooooXXXXXXXXXXXXXXXXXXXXXXXXXXXXXXXXXX1oooooooooooooooooooooooooooooooooo1XXXXXXXXXXXXXXXXXXXXXXXXXXXXXXXXXXXXXXXXXXXXXXXXXXXXXXXXXXXXXXXXXXXXXXXXXXXXXXXXXXXXXXXXXXXXXXXXXXXXXXXooooooooooooooooooooooooooooooooooooooooooooooooooooooooooooooooooooo1XXXXXXXXXXXXXXXXXXXXXXXXXXXXXXXXXX"
};
