/* XPM */
static char *dirt_xpm[] = {
"64 64 4 1",
"_ c #5C3A1E",
". c #6B4526",
"+ c #7A502E",
"# c #8B5C36",
"_.+.+#_.+.+#_.+.+#_.+.+#_.+.+#_.+.+#_.+.+#_.+.+#_.+.+#_.+.+#",
".+.+#_.+.+#_.+.+#_.+.+#_.+.+#_.+.+#_.+.+#_.+.+#_.+.+#_.+.+#",
"+.+#_.+.+#_.+.+#_.+.+#_.+.+#_.+.+#_.+.+#_.+.+#_.+.+#_.+.+#",
"_.+.+#_.+.+#_.+.+#_.+.+#_.+.+#_.+.+#_.+.+#_.+.+#_.+.+#_.+.+#",
".+.+#_.+.+#_.+.+#_.+.+#_.+.+#_.+.+#_.+.+#_.+.+#_.+.+#_.+.+#",
"+.+#_.+.+#_.+.+#_.+.+#_.+.+#_.+.+#_.+.+#_.+.+#_.+.+#_.+.+#",
"_.+.+#_.+.+#_.+.+#_.+.+#_.+.+#_.+.+#_.+.+#_.+.+#_.+.+#_.+.+#",
".+.+#_.+.+#_.+.+#_.+.+#_.+.+#_.+.+#_.+.+#_.+.+#_.+.+#_.+.+#",
"+.+#_.+.+#_.+.+#_.+.+#_.+.+#_.+.+#_.+.+#_.+.+#_.+.+#_.+.+#",
"_.+.+#_.+.+#_.+.+#_.+.+#_.+.+#_.+.+#_.+.+#_.+.+#_.+.+#_.+.+#",
".+.+#_.+.+#_.+.+#_.+.+#_.+.+#_.+.+#_.+.+#_.+.+#_.+.+#_.+.+#",
"+.+#_.+.+#_.+.+#_.+.+#_.+.+#_.+.+#_.+.+#_.+.+#_.+.+#_.+.+#",
"_.+.+#_.+.+#_.+.+#_.+.+#_.+.+#_.+.+#_.+.+#_.+.+#_.+.+#_.+.+#",
".+.+#_.+.+#_.+.+#_.+.+#_.+.+#_.+.+#_.+.+#_.+.+#_.+.+#_.+.+#",
"+.+#_.+.+#_.+.+#_.+.+#_.+.+#_.+.+#_.+.+#_.+.+#_.+.+#_.+.+#",
"_.+.+#_.+.+#_.+.+#_.+.+#_.+.+#_.+.+#_.+.+#_.+.+#_.+.+#_.+.+#",
".+.+#_.+.+#_.+.+#_.+.+#_.+.+#_.+.+#_.+.+#_.+.+#_.+.+#_.+.+#",
"+.+#_.+.+#_.+.+#_.+.+#_.+.+#_.+.+#_.+.+#_.+.+#_.+.+#_.+.+#",
"_.+.+#_.+.+#_.+.+#_.+.+#_.+.+#_.+.+#_.+.+#_.+.+#_.+.+#_.+.+#",
".+.+#_.+.+#_.+.+#_.+.+#_.+.+#_.+.+#_.+.+#_.+.+#_.+.+#_.+.+#",
"+.+#_.+.+#_.+.+#_.+.+#_.+.+#_.+.+#_.+.+#_.+.+#_.+.+#_.+.+#",
"_.+.+#_.+.+#_.+.+#_.+.+#_.+.+#_.+.+#_.+.+#_.+.+#_.+.+#_.+.+#",
".+.+#_.+.+#_.+.+#_.+.+#_.+.+#_.+.+#_.+.+#_.+.+#_.+.+#_.+.+#",
"+.+#_.+.+#_.+.+#_.+.+#_.+.+#_.+.+#_.+.+#_.+.+#_.+.+#_.+.+#",
"_.+.+#_.+.+#_.+.+#_.+.+#_.+.+#_.+.+#_.+.+#_.+.+#_.+.+#_.+.+#",
".+.+#_.+.+#_.+.+#_.+.+#_.+.+#_.+.+#_.+.+#_.+.+#_.+.+#_.+.+#",
"+.+#_.+.+#_.+.+#_.+.+#_.+.+#_.+.+#_.+.+#_.+.+#_.+.+#_.+.+#",
"_.+.+#_.+.+#_.+.+#_.+.+#_.+.+#_.+.+#_.+.+#_.+.+#_.+.+#_.+.+#",
".+.+#_.+.+#_.+.+#_.+.+#_.+.+#_.+.+#_.+.+#_.+.+#_.+.+#_.+.+#",
"+.+#_.+.+#_.+.+#_.+.+#_.+.+#_.+.+#_.+.+#_.+.+#_.+.+#_.+.+#",
"_.+.+#_.+.+#_.+.+#_.+.+#_.+.+#_.+.+#_.+.+#_.+.+#_.+.+#_.+.+#",
".+.+#_.+.+#_.+.+#_.+.+#_.+.+#_.+.+#_.+.+#_.+.+#_.+.+#_.+.+#",
"+.+#_.+.+#_.+.+#_.+.+#_.+.+#_.+.+#_.+.+#_.+.+#_.+.+#_.+.+#",
"_.+.+#_.+.+#_.+.+#_.+.+#_.+.+#_.+.+#_.+.+#_.+.+#_.+.+#_.+.+#",
".+.+#_.+.+#_.+.+#_.+.+#_.+.+#_.+.+#_.+.+#_.+.+#_.+.+#_.+.+#",
"+.+#_.+.+#_.+.+#_.+.+#_.+.+#_.+.+#_.+.+#_.+.+#_.+.+#_.+.+#",
"_.+.+#_.+.+#_.+.+#_.+.+#_.+.+#_.+.+#_.+.+#_.+.+#_.+.+#_.+.+#",
".+.+#_.+.+#_.+.+#_.+.+#_.+.+#_.+.+#_.+.+#_.+.+#_.+.+#_.+.+#",
"+.+#_.+.+#_.+.+#_.+.+#_.+.+#_.+.+#_.+.+#_.+.+#_.+.+#_.+.+#",
"_.+.+#_.+.+#_.+.+#_.+.+#_.+.+#_.+.+#_.+.+#_.+.+#_.+.+#_.+.+#",
".+.+#_.+.+#_.+.+#_.+.+#_.+.+#_.+.+#_.+.+#_.+.+#_.+.+#_.+.+#",
"+.+#_.+.+#_.+.+#_.+.+#_.+.+#_.+.+#_.+.+#_.+.+#_.+.+#_.+.+#",
"_.+.+#_.+.+#_.+.+#_.+.+#_.+.+#_.+.+#_.+.+#_.+.+#_.+.+#_.+.+#",
".+.+#_.+.+#_.+.+#_.+.+#_.+.+#_.+.+#_.+.+#_.+.+#_.+.+#_.+.+#",
"+.+#_.+.+#_.+.+#_.+.+#_.+.+#_.+.+#_.+.+#_.+.+#_.+.+#_.+.+#",
"_.+.+#_.+.+#_.+.+#_.+.+#_.+.+#_.+.+#_.+.+#_.+.+#_.+.+#_.+.+#",
".+.+#_.+.+#_.+.+#_.+.+#_.+.+#_.+.+#_.+.+#_.+.+#_.+.+#_.+.+#",
"+.+#_.+.+#_.+.+#_.+.+#_.+.+#_.+.+#_.+.+#_.+.+#_.+.+#_.+.+#",
"_.+.+#_.+.+#_.+.+#_.+.+#_.+.+#_.+.+#_.+.+#_.+.+#_.+.+#_.+.+#",
".+.+#_.+.+#_.+.+#_.+.+#_.+.+#_.+.+#_.+.+#_.+.+#_.+.+#_.+.+#",
"+.+#_.+.+#_.+.+#_.+.+#_.+.+#_.+.+#_.+.+#_.+.+#_.+.+#_.+.+#",
"_.+.+#_.+.+#_.+.+#_.+.+#_.+.+#_.+.+#_.+.+#_.+.+#_.+.+#_.+.+#",
".+.+#_.+.+#_.+.+#_.+.+#_.+.+#_.+.+#_.+.+#_.+.+#_.+.+#_.+.+#",
"+.+#_.+.+#_.+.+#_.+.+#_.+.+#_.+.+#_.+.+#_.+.+#_.+.+#_.+.+#",
"_.+.+#_.+.+#_.+.+#_.+.+#_.+.+#_.+.+#_.+.+#_.+.+#_.+.+#_.+.+#",
".+.+#_.+.+#_.+.+#_.+.+#_.+.+#_.+.+#_.+.+#_.+.+#_.+.+#_.+.+#",
"+.+#_.+.+#_.+.+#_.+.+#_.+.+#_.+.+#_.+.+#_.+.+#_.+.+#_.+.+#",
"_.+.+#_.+.+#_.+.+#_.+.+#_.+.+#_.+.+#_.+.+#_.+.+#_.+.+#_.+.+#",
".+.+#_.+.+#_.+.+#_.+.+#_.+.+#_.+.+#_.+.+#_.+.+#_.+.+#_.+.+#",
"+.+#_.+.+#_.+.+#_.+.+#_.+.+#_.+.+#_.+.+#_.+.+#_.+.+#_.+.+#",
"_.+.+#_.+.+#_.+.+#_.+.+#_.+.+#_.+.+#_.+.+#_.+.+#_.+.+#_.+.+#",
".+.+#_.+.+#_.+.+#_.+.+#_.+.+#_.+.+#_.+.+#_.+.+#_.+.+#_.+.+#",
"+.+#_.+.+#_.+.+#_.+.+#_.+.+#_.+.+#_.+.+#_.+.+#_.+.+#_.+.+#"
};