/* XPM */
static char *_0a3e370635544d5e51521328a4b8c06M0d3YHugXwKEvL0P[] = {
/* columns rows colors chars-per-pixel */
"554 554 256 2 ",
"   c #4B3C1D",
".  c #473C18",
"X  c #553B1D",
"o  c #5B3B1D",
"O  c #573619",
"+  c #40370E",
"@  c #613D1E",
"#  c #703E1D",
"$  c #4E3E22",
"%  c #563D24",
"&  c #5B3E24",
"*  c #553E29",
"=  c #5A3F2A",
"-  c #573624",
";  c #5A3E31",
":  c #623E23",
">  c #613E2C",
",  c #673C26",
"<  c #613D32",
"1  c #3C4813",
"2  c #4B421D",
"3  c #464517",
"4  c #58411E",
"5  c #4C551B",
"6  c #4E4925",
"7  c #554225",
"8  c #5B4125",
"9  c #56422A",
"0  c #5A422A",
"q  c #564929",
"w  c #565423",
"e  c #575628",
"r  c #595829",
"t  c #5C4431",
"y  c #5B4D3D",
"u  c #574837",
"i  c #5B523C",
"p  c #4D5327",
"a  c #634225",
"s  c #62442B",
"d  c #69462B",
"f  c #64492C",
"g  c #6B4A2D",
"h  c #694726",
"j  c #724D2E",
"k  c #784E2D",
"l  c #76512D",
"z  c #644B31",
"x  c #6C4D33",
"c  c #624E3C",
"v  c #654633",
"b  c #734E33",
"n  c #764E38",
"m  c #6E5134",
"M  c #64543E",
"N  c #6C533B",
"B  c #68583D",
"V  c #745237",
"C  c #795235",
"Z  c #745339",
"A  c #7A553A",
"S  c #7D5B3C",
"D  c #785A39",
"F  c #67512D",
"G  c #5C662E",
"H  c #5A682C",
"J  c #596D2F",
"K  c #657A3D",
"L  c #677538",
"P  c #706539",
"I  c #5B541F",
"U  c #4E564C",
"Y  c #555445",
"T  c #5B5344",
"R  c #56564E",
"E  c #5A554B",
"W  c #54584B",
"Q  c #5B584D",
"!  c #595946",
"~  c #4E5852",
"^  c #545551",
"/  c #595551",
"(  c #555953",
")  c #595956",
"_  c #584E43",
"`  c #624F41",
"'  c #635443",
"]  c #6A5A44",
"[  c #6B5D4B",
"{  c #665747",
"}  c #7D5C41",
"|  c #755C48",
" . c #645855",
".. c #7E6144",
"X. c #7C624B",
"o. c #756249",
"O. c #756852",
"+. c #626162",
"@. c #3D4C2C",
"#. c #815C3F",
"$. c #895F3E",
"%. c #835936",
"&. c #8A563B",
"*. c #85603E",
"=. c #8B613E",
"-. c #8D683C",
";. c #92653E",
":. c #95683E",
">. c #815D42",
",. c #8A5E41",
"<. c #825D4B",
"1. c #846143",
"2. c #8B6444",
"3. c #8D6A45",
"4. c #846249",
"5. c #8A6649",
"6. c #8E6B4B",
"7. c #846A4E",
"8. c #946643",
"9. c #996745",
"0. c #956A46",
"q. c #996B45",
"w. c #926649",
"e. c #966B48",
"r. c #996C4A",
"t. c #99664B",
"y. c #8E7049",
"u. c #8E7045",
"i. c #95704B",
"p. c #9C714D",
"a. c #967146",
"s. c #8C6D54",
"d. c #866B55",
"f. c #936D51",
"g. c #9B6D52",
"h. c #956A57",
"j. c #897154",
"k. c #8A725A",
"l. c #947152",
"z. c #9C7353",
"x. c #98755A",
"c. c #A16E4C",
"v. c #A3744E",
"b. c #A9764F",
"n. c #A47552",
"m. c #A87653",
"M. c #AB7954",
"N. c #A57B5C",
"B. c #AC7E5B",
"V. c #A57854",
"C. c #B47D56",
"Z. c #B57E5A",
"A. c #B97E5B",
"S. c #B87E56",
"D. c #A16D55",
"F. c #9D7C64",
"G. c #8B7163",
"H. c #A97E62",
"J. c #B77E61",
"K. c #C07F5E",
"L. c #6BA83E",
"P. c #68863B",
"I. c #768845",
"U. c #79944E",
"Y. c #799650",
"T. c #6EAC46",
"R. c #6EAD49",
"E. c #6CA644",
"W. c #72AD46",
"Q. c #72AE4A",
"!. c #79A84C",
"~. c #6EB04A",
"^. c #6EB146",
"/. c #74B14C",
"(. c #79B34B",
"). c #75B247",
"_. c #75A657",
"`. c #74AE50",
"'. c #7BAB53",
"]. c #7AA858",
"[. c #6CB252",
"{. c #74B151",
"}. c #7CB454",
"|. c #7EB459",
" X c #7EBA55",
".X c #839B59",
"XX c #82924F",
"oX c #AE825D",
"OX c #AF8053",
"+X c #B48156",
"@X c #BB8156",
"#X c #B5815C",
"$X c #B8825E",
"%X c #B5885F",
"&X c #82AB56",
"*X c #84A75A",
"=X c #81B657",
"-X c #82BB53",
";X c #81B65A",
":X c #83BA5B",
">X c #89BD5D",
",X c #8BB55B",
"<X c #84B64E",
"1X c #AD8363",
"2X c #AB876B",
"3X c #B48462",
"4X c #BA8362",
"5X c #B68966",
"6X c #BA8963",
"7X c #B38569",
"8X c #B58A69",
"9X c #BB886A",
"0X c #B68D71",
"qX c #9BAC6C",
"wX c #92A266",
"eX c #8ABB62",
"rX c #8AB962",
"tX c #8BBC63",
"yX c #88B962",
"uX c #95B369",
"iX c #A1AD71",
"pX c #C1845B",
"aX c #C18666",
"sX c #8DC55B",
"dX c #8EC95B",
"fX c #8CC856",
"gX c #94C65A",
"hX c #92CA5B",
"jX c #92CB5A",
"kX c #91C95A",
"lX c #92CA5B",
"zX c #96C758",
"xX c #92D058",
"cX c #8ACD54",
"vX c #8DC662",
"bX c #93CC62",
"nX c #99C86A",
"mX c #97D16B",
"MX c #9FD673",
"NX c #98C972",
"BX c #A2C86C",
"VX c #A3D575",
"CX c #A6D47A",
"ZX c #ACD57D",
"AX c #A6D97B",
"SX c #A9D87A",
"DX c #A7D775",
"FX c #A5CC74",
"GX c #A3E176",
"HX c #B4C785",
"JX c #B5C987",
"KX c #ADD483",
"LX c #ABDA81",
"PX c #B0CE86",
"IX c #AAE184",
"UX c #B1BF87",
/* pixels */
"Q.Q.Q.Q.Q.Q.Q.Q.Q.Q.Q.Q.Q.Q.Q.Q.Q.Q.Q.Q.Q.Q.Q.Q.Q.Q.Q.Q.Q.Q.Q.Q.Q.Q.Q.Q.Q.Q.Q.Q.Q.Q.Q.Q.Q.Q.Q.Q.Q.Q.Q.Q.Q.Q.Q.Q.Q.Q.Q.Q.Q.Q.Q.Q.Q.Q.Q.Q.Q.Q.Q.Q.Q.Q.Q.Q.Q.Q.Q.Q.Q.Q.Q.Q.Q.Q.Q.Q.Q.Q.Q.Q.Q.Q.Q.Q.Q.Q.Q.Q.Q.Q.Q.Q.Q.Q.Q.Q.Q.Q.Q.Q.Q.Q.Q.Q.Q.Q.Q.Q.Q.Q.Q.Q.Q.Q.Q.Q.Q.Q.Q.Q.Q.Q.Q.Q.Q.Q.Q.Q.Q.Q.Q.Q.Q.Q.Q.Q.Q.Q.Q.Q.Q.Q.Q.Q.Q.Q.Q.Q.Q.Q.Q.Q.Q.Q.Q.Q.Q.Q.Q.Q.Q.Q.Q.Q.Q.Q.Q.Q.Q.Q.Q.Q.Q.Q.Q.Q.Q.Q.Q.Q.Q.Q.Q.Q.Q.Q.Q.Q.Q.Q.Q.Q.Q.Q.Q.Q.Q.Q.Q.Q.Q.Q.Q.Q.Q.Q.Q.Q.Q.Q.Q.Q.Q.Q.Q.Q.Q.Q.Q.Q.Q.Q.Q.Q.Q.Q.Q.Q.Q.Q.Q.Q.Q.Q.Q.Q.Q.Q.Q.Q.Q.Q.Q.Q.Q.Q.Q.Q.Q.Q.Q.Q.Q.Q.Q.Q.Q.Q.Q.Q.Q.Q.Q.Q.Q.Q.Q.Q.Q.Q.Q.Q.Q.Q.Q.Q.Q.Q.Q.Q.Q.Q.Q.Q.Q.Q.Q.Q.Q.Q.Q.Q.Q.Q.Q.Q.Q.Q.Q.Q.Q.Q.Q.Q.Q.Q.Q.Q.Q.Q.Q.Q.Q.Q.Q.Q.Q.Q.Q.Q.Q.Q.Q.Q.Q.Q.Q.Q.Q.Q.Q.Q.Q.Q.Q.Q.Q.Q.Q.Q.Q.Q.Q.Q.Q.Q.Q.Q.Q.Q.Q.Q.Q.Q.Q.Q.Q.Q.Q.Q.Q.Q.Q.Q.Q.Q.Q.Q.Q.Q.Q.Q.Q.Q.Q.Q.Q.Q.Q.Q.Q.Q.Q.Q.Q.Q.Q.Q.Q.Q.Q.Q.Q.Q.Q.Q.Q.Q.Q.Q.Q.Q.Q.Q.Q.Q.Q.Q.Q.Q.Q.Q.Q.Q.Q.Q.Q.Q.Q.Q.Q.Q.Q.Q.Q.Q.Q.Q.Q.Q.Q.Q.Q.Q.Q.Q.Q.Q.Q.Q.Q.Q.Q.Q.Q.Q.Q.Q.Q.Q.Q.Q.Q.Q.Q.Q.Q.Q.Q.Q.Q.Q.Q.Q.Q.Q.Q.Q.Q.Q.Q.Q.Q.Q.Q.Q.Q.Q.Q.Q.Q.Q.Q.Q.Q.Q.Q.Q.Q.Q.Q.Q.Q.Q.Q.Q.Q.Q.Q.Q.Q.Q.Q.Q.Q.Q.Q.Q.Q.Q.Q.Q.Q.Q.Q.Q.Q.Q.Q.Q.Q.Q.Q.Q.Q.Q.Q.Q.Q.Q.Q.Q.Q.Q.Q.Q.Q.Q.Q.Q.Q.Q.",
"Q.Q.Q.Q.Q.Q.Q.Q.Q.Q.Q.Q.Q.Q.Q.Q.Q.Q.Q.Q.Q.Q.Q.Q.Q.Q.Q.Q.Q.Q.Q.Q.Q.Q.Q.Q.Q.Q.Q.Q.Q.Q.Q.Q.Q.Q.Q.Q.Q.Q.Q.Q.Q.Q.Q.Q.Q.Q.Q.Q.Q.Q.Q.Q.Q.Q.Q.Q.Q.Q.Q.Q.Q.Q.Q.Q.Q.Q.Q.Q.Q.Q.Q.Q.Q.Q.Q.Q.Q.Q.Q.Q.Q.Q.Q.Q.Q.Q.Q.Q.Q.Q.Q.Q.Q.Q.Q.Q.Q.Q.Q.Q.Q.Q.Q.Q.Q.Q.Q.Q.Q.Q.Q.Q.Q.Q.Q.Q.Q.Q.Q.Q.Q.Q.Q.Q.Q.Q.Q.Q.Q.Q.Q.Q.Q.Q.Q.Q.Q.Q.Q.Q.Q.Q.Q.Q.Q.Q.Q.Q.Q.Q.Q.Q.Q.Q.Q.Q.Q.Q.Q.Q.Q.Q.Q.Q.Q.Q.Q.Q.Q.Q.Q.Q.Q.Q.Q.Q.Q.Q.Q.Q.Q.Q.Q.Q.Q.Q.Q.Q.Q.Q.Q.Q.Q.Q.Q.Q.Q.Q.Q.Q.Q.Q.Q.Q.Q.Q.Q.Q.Q.Q.Q.Q.Q.Q.Q.Q.Q.Q.Q.Q.Q.Q.Q.Q.Q.Q.Q.Q.Q.Q.Q.Q.Q.Q.Q.Q.Q.Q.Q.Q.Q.Q.Q.Q.Q.Q.Q.Q.Q.Q.Q.Q.Q.Q.Q.Q.Q.Q.Q.Q.Q.Q.Q.Q.Q.Q.Q.Q.Q.Q.Q.Q.Q.Q.Q.Q.Q.Q.Q.Q.Q.Q.Q.Q.Q.Q.Q.Q.Q.Q.Q.Q.Q.Q.Q.Q.Q.Q.Q.Q.Q.Q.Q.Q.Q.Q.Q.Q.Q.Q.Q.Q.Q.Q.Q.Q.Q.Q.Q.Q.Q.Q.Q.Q.Q.Q.Q.Q.Q.Q.Q.Q.Q.Q.Q.Q.Q.Q.Q.Q.Q.Q.Q.Q.Q.Q.Q.Q.Q.Q.Q.Q.Q.Q.Q.Q.Q.Q.Q.Q.Q.Q.Q.Q.Q.Q.Q.Q.Q.Q.Q.Q.Q.Q.Q.Q.Q.Q.Q.Q.Q.Q.Q.Q.Q.Q.Q.Q.Q.Q.Q.Q.Q.Q.Q.Q.Q.Q.Q.Q.Q.Q.Q.Q.Q.Q.Q.Q.Q.Q.Q.Q.Q.Q.Q.Q.Q.Q.Q.Q.Q.Q.Q.Q.Q.Q.Q.Q.Q.Q.Q.Q.Q.Q.Q.Q.Q.Q.Q.Q.Q.Q.Q.Q.Q.Q.Q.Q.Q.Q.Q.Q.Q.Q.Q.Q.Q.Q.Q.Q.Q.Q.Q.Q.Q.Q.Q.Q.Q.Q.Q.Q.Q.Q.Q.Q.Q.Q.Q.Q.Q.Q.Q.Q.Q.Q.Q.Q.Q.Q.Q.Q.Q.Q.Q.Q.Q.Q.Q.Q.Q.Q.Q.Q.Q.Q.Q.Q.Q.Q.Q.Q.Q.Q.Q.Q.Q.Q.Q.Q.Q.Q.Q.Q.Q.Q.Q.Q.Q.Q.Q.Q.Q.Q.Q.Q.Q.Q.Q.Q.Q.Q.",
"Q.Q.Q.Q.Q.Q.Q.Q.Q.Q.Q.Q.Q.Q.Q.Q.Q.Q.Q.Q.Q.Q.Q.Q.Q.Q.Q.Q.Q.Q.Q.Q.Q.Q.Q.Q.Q.Q.Q.Q.Q.Q.Q.Q.Q.Q.Q.Q.Q.Q.Q.Q.Q.Q.Q.Q.Q.Q.Q.Q.Q.Q.Q.Q.Q.Q.Q.Q.Q.Q.Q.Q.Q.Q.Q.Q.Q.Q.Q.Q.Q.Q.Q.Q.Q.Q.Q.Q.Q.Q.Q.Q.Q.Q.Q.Q.Q.Q.Q.Q.Q.Q.Q.Q.Q.Q.Q.Q.Q.Q.Q.Q.Q.Q.Q.Q.Q.Q.Q.Q.Q.Q.Q.Q.Q.Q.Q.Q.Q.Q.Q.Q.Q.Q.Q.Q.Q.Q.Q.Q.Q.Q.Q.Q.Q.Q.Q.Q.Q.Q.Q.Q.Q.Q.Q.Q.Q.Q.Q.Q.Q.Q.Q.Q.Q.Q.Q.Q.Q.Q.Q.Q.Q.Q.Q.Q.Q.Q.Q.Q.Q.Q.Q.Q.Q.Q.Q.Q.Q.Q.Q.Q.Q.Q.Q.Q.Q.Q.Q.Q.Q.Q.Q.Q.Q.Q.Q.Q.Q.Q.Q.Q.Q.Q.Q.Q.Q.Q.Q.Q.Q.Q.Q.Q.Q.Q.Q.Q.Q.Q.Q.Q.Q.Q.Q.Q.Q.Q.Q.Q.Q.Q.Q.Q.Q.Q.Q.Q.Q.Q.Q.Q.Q.Q.Q.Q.Q.Q.Q.Q.Q.Q.Q.Q.Q.Q.Q.Q.Q.Q.Q.Q.Q.Q.Q.Q.Q.Q.Q.Q.Q.Q.Q.Q.Q.Q.Q.Q.Q.Q.Q.Q.Q.Q.Q.Q.Q.Q.Q.Q.Q.Q.Q.Q.Q.Q.Q.Q.Q.Q.Q.Q.Q.Q.Q.Q.Q.Q.Q.Q.Q.Q.Q.Q.Q.Q.Q.Q.Q.Q.Q.Q.Q.Q.Q.Q.Q.Q.Q.Q.Q.Q.Q.Q.Q.Q.Q.Q.Q.Q.Q.Q.Q.Q.Q.Q.Q.Q.Q.Q.Q.Q.Q.Q.Q.Q.Q.Q.Q.Q.Q.Q.Q.Q.Q.Q.Q.Q.Q.Q.Q.Q.Q.Q.Q.Q.Q.Q.Q.Q.Q.Q.Q.Q.Q.Q.Q.Q.Q.Q.Q.Q.Q.Q.Q.Q.Q.Q.Q.Q.Q.Q.Q.Q.Q.Q.Q.Q.Q.Q.Q.Q.Q.Q.Q.Q.Q.Q.Q.Q.Q.Q.Q.Q.Q.Q.Q.Q.Q.Q.Q.Q.Q.Q.Q.Q.Q.Q.Q.Q.Q.Q.Q.Q.Q.Q.Q.Q.Q.Q.Q.Q.Q.Q.Q.Q.Q.Q.Q.Q.Q.Q.Q.Q.Q.Q.Q.Q.Q.Q.Q.Q.Q.Q.Q.Q.Q.Q.Q.Q.Q.Q.Q.Q.Q.Q.Q.Q.Q.Q.Q.Q.Q.Q.Q.Q.Q.Q.Q.Q.Q.Q.Q.Q.Q.Q.Q.Q.Q.Q.Q.Q.Q.Q.Q.Q.Q.Q.Q.Q.Q.Q.Q.Q.Q.Q.Q.Q.Q.Q.Q.Q.Q.Q.Q.Q.Q.Q.Q.Q.Q.Q.Q.Q.",
"Q.Q.Q.Q.Q.Q.Q.Q.Q.Q.Q.Q.Q.Q.Q.Q.Q.Q.Q.Q.Q.Q.Q.Q.Q.Q.Q.Q.Q.Q.Q.Q.Q.Q.Q.Q.Q.Q.Q.Q.Q.Q.Q.Q.Q.Q.Q.Q.Q.Q.Q.Q.Q.Q.Q.Q.Q.Q.Q.Q.Q.Q.Q.Q.Q.Q.Q.Q.Q.Q.Q.Q.Q.Q.Q.Q.Q.Q.Q.Q.Q.Q.Q.Q.Q.Q.Q.Q.Q.Q.Q.Q.Q.Q.Q.Q.Q.Q.Q.Q.Q.Q.Q.Q.Q.Q.Q.Q.Q.Q.Q.Q.Q.Q.Q.Q.Q.Q.Q.Q.Q.Q.Q.Q.Q.Q.Q.Q.Q.Q.Q.Q.Q.Q.Q.Q.Q.Q.Q.Q.Q.Q.Q.Q.Q.Q.Q.Q.Q.Q.Q.Q.Q.Q.Q.Q.Q.Q.Q.Q.Q.Q.Q.Q.Q.Q.Q.Q.Q.Q.Q.Q.Q.Q.Q.Q.Q.Q.Q.Q.Q.Q.Q.Q.Q.Q.Q.Q.Q.Q.Q.Q.Q.Q.Q.Q.Q.Q.Q.Q.Q.Q.Q.Q.Q.Q.Q.Q.Q.Q.Q.Q.Q.Q.Q.Q.Q.Q.Q.Q.Q.Q.Q.Q.Q.Q.Q.Q.Q.Q.Q.Q.Q.Q.Q.Q.Q.Q.Q.Q.Q.Q.Q.Q.Q.Q.Q.Q.Q.Q.Q.Q.Q.Q.Q.Q.Q.Q.Q.Q.Q.Q.Q.Q.Q.Q.Q.Q.Q.Q.Q.Q.Q.Q.Q.Q.Q.Q.Q.Q.Q.Q.Q.Q.Q.Q.Q.Q.Q.Q.Q.Q.Q.Q.Q.Q.Q.Q.Q.Q.Q.Q.Q.Q.Q.Q.Q.Q.Q.Q.Q.Q.Q.Q.Q.Q.Q.Q.Q.Q.Q.Q.Q.Q.Q.Q.Q.Q.Q.Q.Q.Q.Q.Q.Q.Q.Q.Q.Q.Q.Q.Q.Q.Q.Q.Q.Q.Q.Q.Q.Q.Q.Q.Q.Q.Q.Q.Q.Q.Q.Q.Q.Q.Q.Q.Q.Q.Q.Q.Q.Q.Q.Q.Q.Q.Q.Q.Q.Q.Q.Q.Q.Q.Q.Q.Q.Q.Q.Q.Q.Q.Q.Q.Q.Q.Q.Q.Q.Q.Q.Q.Q.Q.Q.Q.Q.Q.Q.Q.Q.Q.Q.Q.Q.Q.Q.Q.Q.Q.Q.Q.Q.Q.Q.Q.Q.Q.Q.Q.Q.Q.Q.Q.Q.Q.Q.Q.Q.Q.Q.Q.Q.Q.Q.Q.Q.Q.Q.Q.Q.Q.Q.Q.Q.Q.Q.Q.Q.Q.Q.Q.Q.Q.Q.Q.Q.Q.Q.Q.Q.Q.Q.Q.Q.Q.Q.Q.Q.Q.Q.Q.Q.Q.Q.Q.Q.Q.Q.Q.Q.Q.Q.Q.Q.Q.Q.Q.Q.Q.Q.Q.Q.Q.Q.Q.Q.Q.Q.Q.Q.Q.Q.Q.Q.Q.Q.Q.Q.Q.Q.Q.Q.Q.Q.Q.Q.Q.Q.Q.Q.Q.Q.Q.Q.Q.Q.Q.Q.Q.Q.Q.Q.Q.Q.Q.Q.Q.Q.Q.Q.Q.Q.Q.Q.",
"Q.Q.Q.Q.Q.Q.Q.Q.Q.Q.Q.Q.Q.Q.Q.Q.Q.Q.Q.Q.Q.Q.Q.Q.Q.Q.Q.Q.Q.Q.Q.Q.Q.Q.Q.Q.Q.Q.Q.Q.Q.Q.Q.Q.Q.Q.Q.Q.Q.Q.Q.Q.Q.Q.Q.Q.Q.Q.Q.Q.Q.Q.Q.Q.Q.Q.Q.Q.Q.Q.Q.Q.Q.Q.Q.Q.Q.Q.Q.Q.Q.Q.Q.Q.Q.Q.Q.Q.Q.Q.Q.Q.Q.Q.Q.Q.Q.Q.Q.Q.Q.Q.Q.Q.Q.Q.Q.Q.Q.Q.Q.Q.Q.Q.Q.Q.Q.Q.Q.Q.Q.Q.Q.Q.Q.Q.Q.Q.Q.Q.Q.Q.Q.Q.Q.Q.Q.Q.Q.Q.Q.Q.Q.Q.Q.Q.Q.Q.Q.Q.Q.Q.Q.Q.Q.Q.Q.Q.Q.Q.Q.Q.Q.Q.Q.Q.Q.Q.Q.Q.Q.Q.Q.Q.Q.Q.Q.Q.Q.Q.Q.Q.Q.Q.Q.Q.Q.Q.Q.Q.Q.Q.Q.Q.Q.Q.Q.Q.Q.Q.Q.Q.Q.Q.Q.Q.Q.Q.Q.Q.Q.Q.Q.Q.Q.Q.Q.Q.Q.Q.Q.Q.Q.Q.Q.Q.Q.Q.Q.Q.Q.Q.Q.Q.Q.Q.Q.Q.Q.Q.Q.Q.Q.Q.Q.Q.Q.Q.Q.Q.Q.Q.Q.Q.Q.Q.Q.Q.Q.Q.Q.Q.Q.Q.Q.Q.Q.Q.Q.Q.Q.Q.Q.Q.Q.Q.Q.Q.Q.Q.Q.Q.Q.Q.Q.Q.Q.Q.Q.Q.Q.Q.Q.Q.Q.Q.Q.Q.Q.Q.Q.Q.Q.Q.Q.Q.Q.Q.Q.Q.Q.Q.Q.Q.Q.Q.Q.Q.Q.Q.Q.Q.Q.Q.Q.Q.Q.Q.Q.Q.Q.Q.Q.Q.Q.Q.Q.Q.Q.Q.Q.Q.Q.Q.Q.Q.Q.Q.Q.Q.Q.Q.Q.Q.Q.Q.Q.Q.Q.Q.Q.Q.Q.Q.Q.Q.Q.Q.Q.Q.Q.Q.Q.Q.Q.Q.Q.Q.Q.Q.Q.Q.Q.Q.Q.Q.Q.Q.Q.Q.Q.Q.Q.Q.Q.Q.Q.Q.Q.Q.Q.Q.Q.Q.Q.Q.Q.Q.Q.Q.Q.Q.Q.Q.Q.Q.Q.Q.Q.Q.Q.Q.Q.Q.Q.Q.Q.Q.Q.Q.Q.Q.Q.Q.Q.Q.Q.Q.Q.Q.Q.Q.Q.Q.Q.Q.Q.Q.Q.Q.Q.Q.Q.Q.Q.Q.Q.Q.Q.Q.Q.Q.Q.Q.Q.Q.Q.Q.Q.Q.Q.Q.Q.Q.Q.Q.Q.Q.Q.Q.Q.Q.Q.Q.Q.Q.Q.Q.Q.Q.Q.Q.Q.Q.Q.Q.Q.Q.Q.Q.Q.Q.Q.Q.Q.Q.Q.Q.Q.Q.Q.Q.Q.Q.Q.Q.Q.Q.Q.Q.Q.Q.Q.Q.Q.Q.Q.Q.Q.Q.Q.Q.Q.Q.Q.Q.Q.Q.Q.Q.Q.Q.Q.Q.Q.Q.Q.Q.Q.Q.Q.Q.Q.Q.",
"Q.Q.Q.Q.Q.Q.Q.Q.Q.Q.Q.Q.Q.Q.Q.Q.Q.Q.Q.Q.Q.Q.Q.Q.Q.Q.Q.Q.Q.Q.Q.Q.Q.Q.Q.Q.Q.Q.Q.Q.Q.Q.Q.Q.Q.Q.Q.Q.Q.Q.Q.Q.Q.Q.Q.Q.Q.Q.Q.Q.Q.Q.Q.Q.Q.Q.Q.Q.Q.Q.Q.Q.Q.Q.Q.Q.Q.Q.Q.Q.Q.Q.Q.Q.Q.Q.Q.Q.Q.Q.Q.Q.Q.Q.Q.Q.Q.Q.Q.Q.Q.Q.Q.Q.Q.Q.Q.Q.Q.Q.Q.Q.Q.Q.Q.Q.Q.Q.Q.Q.Q.Q.Q.Q.Q.Q.Q.Q.Q.Q.Q.Q.Q.Q.Q.Q.Q.Q.Q.Q.Q.Q.Q.Q.Q.Q.Q.Q.Q.Q.Q.Q.Q.Q.Q.Q.Q.Q.Q.Q.Q.Q.Q.Q.Q.Q.Q.Q.Q.Q.Q.Q.Q.Q.Q.Q.Q.Q.Q.Q.Q.Q.Q.Q.Q.Q.Q.Q.Q.Q.Q.Q.Q.Q.Q.Q.Q.Q.Q.Q.Q.Q.Q.Q.Q.Q.Q.Q.Q.Q.Q.Q.Q.Q.Q.Q.Q.Q.Q.Q.Q.Q.Q.Q.Q.Q.Q.Q.Q.Q.Q.Q.Q.Q.Q.Q.Q.Q.Q.Q.Q.Q.Q.Q.Q.Q.Q.Q.Q.Q.Q.Q.Q.Q.Q.Q.Q.Q.Q.Q.Q.Q.Q.Q.Q.Q.Q.Q.Q.Q.Q.Q.Q.Q.Q.Q.Q.Q.Q.Q.Q.Q.Q.Q.Q.Q.Q.Q.Q.Q.Q.Q.Q.Q.Q.Q.Q.Q.Q.Q.Q.Q.Q.Q.Q.Q.Q.Q.Q.Q.Q.Q.Q.Q.Q.Q.Q.Q.Q.Q.Q.Q.Q.Q.Q.Q.Q.Q.Q.Q.Q.Q.Q.Q.Q.Q.Q.Q.Q.Q.Q.Q.Q.Q.Q.Q.Q.Q.Q.Q.Q.Q.Q.Q.Q.Q.Q.Q.Q.Q.Q.Q.Q.Q.Q.Q.Q.Q.Q.Q.Q.Q.Q.Q.Q.Q.Q.Q.Q.Q.Q.Q.Q.Q.Q.Q.Q.Q.Q.Q.Q.Q.Q.Q.Q.Q.Q.Q.Q.Q.Q.Q.Q.Q.Q.Q.Q.Q.Q.Q.Q.Q.Q.Q.Q.Q.Q.Q.Q.Q.Q.Q.Q.Q.Q.Q.Q.Q.Q.Q.Q.Q.Q.Q.Q.Q.Q.Q.Q.Q.Q.Q.Q.Q.Q.Q.Q.Q.Q.Q.Q.Q.Q.Q.Q.Q.Q.Q.Q.Q.Q.Q.Q.Q.Q.Q.Q.Q.Q.Q.Q.Q.Q.Q.Q.Q.Q.Q.Q.Q.Q.Q.Q.Q.Q.Q.Q.Q.Q.Q.Q.Q.Q.Q.Q.Q.Q.Q.Q.Q.Q.Q.Q.Q.Q.Q.Q.Q.Q.Q.Q.Q.Q.Q.Q.Q.Q.Q.Q.Q.Q.Q.Q.Q.Q.Q.Q.Q.Q.Q.Q.Q.Q.Q.Q.Q.Q.Q.Q.Q.Q.Q.Q.Q.Q.Q.Q.Q.Q.Q.Q.Q.Q.Q.",
"Q.Q.Q.Q.Q.Q.Q.Q.Q.Q.Q.Q.Q.Q.Q.Q.Q.Q.Q.Q.Q.Q.Q.Q.Q.Q.Q.Q.Q.Q.Q.Q.Q.Q.Q.Q.Q.Q.Q.Q.Q.Q.Q.Q.Q.Q.Q.Q.Q.Q.Q.Q.Q.Q.Q.Q.Q.Q.Q.Q.Q.Q.Q.Q.Q.Q.Q.Q.Q.Q.Q.Q.Q.Q.Q.Q.Q.Q.Q.Q.Q.Q.Q.Q.Q.Q.Q.Q.Q.Q.Q.Q.Q.Q.Q.Q.Q.Q.Q.Q.Q.Q.Q.Q.Q.Q.Q.Q.Q.Q.Q.Q.Q.Q.Q.Q.Q.Q.Q.Q.Q.Q.Q.Q.Q.Q.Q.Q.Q.Q.Q.Q.Q.Q.Q.Q.Q.Q.Q.Q.Q.Q.Q.Q.Q.Q.Q.Q.Q.Q.Q.Q.Q.Q.Q.Q.Q.Q.Q.Q.Q.Q.Q.Q.Q.Q.Q.Q.Q.Q.Q.Q.Q.Q.Q.Q.Q.Q.Q.Q.Q.Q.Q.Q.Q.Q.Q.Q.Q.Q.Q.Q.Q.Q.Q.Q.Q.Q.Q.Q.Q.Q.Q.Q.Q.Q.Q.Q.Q.Q.Q.Q.Q.Q.Q.Q.Q.Q.Q.Q.Q.Q.Q.Q.Q.Q.Q.Q.Q.Q.Q.Q.Q.Q.Q.Q.Q.Q.Q.Q.Q.Q.Q.Q.Q.Q.Q.Q.Q.Q.Q.Q.Q.Q.Q.Q.Q.Q.Q.Q.Q.Q.Q.Q.Q.Q.Q.Q.Q.Q.Q.Q.Q.Q.Q.Q.Q.Q.Q.Q.Q.Q.Q.Q.Q.Q.Q.Q.Q.Q.Q.Q.Q.Q.Q.Q.Q.Q.Q.Q.Q.Q.Q.Q.Q.Q.Q.Q.Q.Q.Q.Q.Q.Q.Q.Q.Q.Q.Q.Q.Q.Q.Q.Q.Q.Q.Q.Q.Q.Q.Q.Q.Q.Q.Q.Q.Q.Q.Q.Q.Q.Q.Q.Q.Q.Q.Q.Q.Q.Q.Q.Q.Q.Q.Q.Q.Q.Q.Q.Q.Q.Q.Q.Q.Q.Q.Q.Q.Q.Q.Q.Q.Q.Q.Q.Q.Q.Q.Q.Q.Q.Q.Q.Q.Q.Q.Q.Q.Q.Q.Q.Q.Q.Q.Q.Q.Q.Q.Q.Q.Q.Q.Q.Q.Q.Q.Q.Q.Q.Q.Q.Q.Q.Q.Q.Q.Q.Q.Q.Q.Q.Q.Q.Q.Q.Q.Q.Q.Q.Q.Q.Q.Q.Q.Q.Q.Q.Q.Q.Q.Q.Q.Q.Q.Q.Q.Q.Q.Q.Q.Q.Q.Q.Q.Q.Q.Q.Q.Q.Q.Q.Q.Q.Q.Q.Q.Q.Q.Q.Q.Q.Q.Q.Q.Q.Q.Q.Q.Q.Q.Q.Q.Q.Q.Q.Q.Q.Q.Q.Q.Q.Q.Q.Q.Q.Q.Q.Q.Q.Q.Q.Q.Q.Q.Q.Q.Q.Q.Q.Q.Q.Q.Q.Q.Q.Q.Q.Q.Q.Q.Q.Q.Q.Q.Q.Q.Q.Q.Q.Q.Q.Q.Q.Q.Q.Q.Q.Q.Q.Q.Q.Q.Q.Q.Q.Q.Q.Q.Q.Q.Q.Q.Q.Q.",
"Q.Q.Q.Q.Q.Q.Q.Q.Q.Q.Q.Q.Q.Q.Q.Q.Q.Q.Q.Q.Q.Q.Q.Q.Q.Q.Q.Q.Q.Q.Q.Q.Q.Q.Q.Q.Q.Q.Q.Q.Q.Q.Q.Q.Q.Q.Q.Q.Q.Q.Q.Q.Q.Q.Q.Q.Q.Q.Q.Q.Q.Q.Q.Q.Q.Q.Q.Q.Q.Q.Q.Q.Q.Q.Q.Q.Q.Q.Q.Q.Q.Q.Q.Q.Q.Q.Q.Q.Q.Q.Q.Q.Q.Q.Q.Q.Q.Q.Q.Q.Q.Q.Q.Q.Q.Q.Q.Q.Q.Q.Q.Q.Q.Q.Q.Q.Q.Q.Q.Q.Q.Q.Q.Q.Q.Q.Q.Q.Q.Q.Q.Q.Q.Q.Q.Q.Q.Q.Q.Q.Q.Q.Q.Q.Q.Q.Q.Q.Q.Q.Q.Q.Q.Q.Q.Q.Q.Q.Q.Q.Q.Q.Q.Q.Q.Q.Q.Q.Q.Q.Q.Q.Q.Q.Q.Q.Q.Q.Q.Q.Q.Q.Q.Q.Q.Q.Q.Q.Q.Q.Q.Q.Q.Q.Q.Q.Q.Q.Q.Q.Q.Q.Q.Q.Q.Q.Q.Q.Q.Q.Q.Q.Q.Q.Q.Q.Q.Q.Q.Q.Q.Q.Q.Q.Q.Q.Q.Q.Q.Q.Q.Q.Q.Q.Q.Q.Q.Q.Q.Q.Q.Q.Q.Q.Q.Q.Q.Q.Q.Q.Q.Q.Q.Q.Q.Q.Q.Q.Q.Q.Q.Q.Q.Q.Q.Q.Q.Q.Q.Q.Q.Q.Q.Q.Q.Q.Q.Q.Q.Q.Q.Q.Q.Q.Q.Q.Q.Q.Q.Q.Q.Q.Q.Q.Q.Q.Q.Q.Q.Q.Q.Q.Q.Q.Q.Q.Q.Q.Q.Q.Q.Q.Q.Q.Q.Q.Q.Q.Q.Q.Q.Q.Q.Q.Q.Q.Q.Q.Q.Q.Q.Q.Q.Q.Q.Q.Q.Q.Q.Q.Q.Q.Q.Q.Q.Q.Q.Q.Q.Q.Q.Q.Q.Q.Q.Q.Q.Q.Q.Q.Q.Q.Q.Q.Q.Q.Q.Q.Q.Q.Q.Q.Q.Q.Q.Q.Q.Q.Q.Q.Q.Q.Q.Q.Q.Q.Q.Q.Q.Q.Q.Q.Q.Q.Q.Q.Q.Q.Q.Q.Q.Q.Q.Q.Q.Q.Q.Q.Q.Q.Q.Q.Q.Q.Q.Q.Q.Q.Q.Q.Q.Q.Q.Q.Q.Q.Q.Q.Q.Q.Q.Q.Q.Q.Q.Q.Q.Q.Q.Q.Q.Q.Q.Q.Q.Q.Q.Q.Q.Q.Q.Q.Q.Q.Q.Q.Q.Q.Q.Q.Q.Q.Q.Q.Q.Q.Q.Q.Q.Q.Q.Q.Q.Q.Q.Q.Q.Q.Q.Q.Q.Q.Q.Q.Q.Q.Q.Q.Q.Q.Q.Q.Q.Q.Q.Q.Q.Q.Q.Q.Q.Q.Q.Q.Q.Q.Q.Q.Q.Q.Q.Q.Q.Q.Q.Q.Q.Q.Q.Q.Q.Q.Q.Q.Q.Q.Q.Q.Q.Q.Q.Q.Q.Q.Q.Q.Q.Q.Q.Q.Q.Q.Q.Q.Q.Q.Q.Q.Q.Q.Q.Q.Q.Q.",
"Q.Q.Q.Q.Q.Q.Q.Q.Q.Q.Q.Q.Q.Q.Q.Q.Q.Q.Q.Q.Q.Q.Q.Q.Q.Q.Q.Q.Q.Q.Q.Q.Q.Q.Q.Q.Q.Q.Q.Q.Q.Q.Q.Q.Q.Q.Q.Q.Q.Q.Q.Q.Q.Q.Q.Q.Q.Q.Q.Q.Q.Q.Q.Q.Q.Q.Q.Q.Q.Q.Q.Q.Q.Q.Q.Q.Q.Q.Q.Q.Q.Q.Q.Q.Q.Q.Q.Q.Q.Q.Q.Q.Q.Q.Q.Q.Q.Q.Q.Q.Q.Q.Q.Q.Q.Q.Q.Q.Q.Q.Q.Q.Q.Q.Q.Q.Q.Q.Q.Q.Q.Q.Q.Q.Q.Q.Q.Q.Q.Q.Q.Q.Q.Q.Q.Q.Q.Q.Q.Q.Q.Q.Q.Q.Q.Q.Q.Q.Q.Q.Q.Q.Q.Q.Q.Q.Q.Q.Q.Q.Q.Q.Q.Q.Q.Q.Q.Q.Q.Q.Q.Q.Q.Q.Q.Q.Q.Q.Q.Q.Q.Q.Q.Q.Q.Q.Q.Q.Q.Q.Q.Q.Q.Q.Q.Q.Q.Q.Q.Q.Q.Q.Q.Q.Q.Q.Q.Q.Q.Q.Q.Q.Q.Q.Q.Q.Q.Q.Q.Q.Q.Q.Q.Q.Q.Q.Q.Q.Q.Q.Q.Q.Q.Q.Q.Q.Q.Q.Q.Q.Q.Q.Q.Q.Q.Q.Q.Q.Q.Q.Q.Q.Q.Q.Q.Q.Q.Q.Q.Q.Q.Q.Q.Q.Q.Q.Q.Q.Q.Q.Q.Q.Q.Q.Q.Q.Q.Q.Q.Q.Q.Q.Q.Q.Q.Q.Q.Q.Q.Q.Q.Q.Q.Q.Q.Q.Q.Q.Q.Q.Q.Q.Q.Q.Q.Q.Q.Q.Q.Q.Q.Q.Q.Q.Q.Q.Q.Q.Q.Q.Q.Q.Q.Q.Q.Q.Q.Q.Q.Q.Q.Q.Q.Q.Q.Q.Q.Q.Q.Q.Q.Q.Q.Q.Q.Q.Q.Q.Q.Q.Q.Q.Q.Q.Q.Q.Q.Q.Q.Q.Q.Q.Q.Q.Q.Q.Q.Q.Q.Q.Q.Q.Q.Q.Q.Q.Q.Q.Q.Q.Q.Q.Q.Q.Q.Q.Q.Q.Q.Q.Q.Q.Q.Q.Q.Q.Q.Q.Q.Q.Q.Q.Q.Q.Q.Q.Q.Q.Q.Q.Q.Q.Q.Q.Q.Q.Q.Q.Q.Q.Q.Q.Q.Q.Q.Q.Q.Q.Q.Q.Q.Q.Q.Q.Q.Q.Q.Q.Q.Q.Q.Q.Q.Q.Q.Q.Q.Q.Q.Q.Q.Q.Q.Q.Q.Q.Q.Q.Q.Q.Q.Q.Q.Q.Q.Q.Q.Q.Q.Q.Q.Q.Q.Q.Q.Q.Q.Q.Q.Q.Q.Q.Q.Q.Q.Q.Q.Q.Q.Q.Q.Q.Q.Q.Q.Q.Q.Q.Q.Q.Q.Q.Q.Q.Q.Q.Q.Q.Q.Q.Q.Q.Q.Q.Q.Q.Q.Q.Q.Q.Q.Q.Q.Q.Q.Q.Q.Q.Q.Q.Q.Q.Q.Q.Q.Q.Q.Q.Q.Q.Q.Q.Q.Q.Q.Q.Q.Q.Q.Q.Q.Q.Q.Q.",
"Q.Q.Q.Q.Q.Q.Q.Q.Q.Q.Q.Q.Q.Q.Q.Q.Q.Q.Q.Q.Q.Q.Q.Q.Q.Q.Q.Q.Q.Q.Q.Q.Q.Q.Q.Q.Q.Q.Q.Q.Q.Q.Q.Q.Q.Q.Q.Q.Q.Q.Q.Q.Q.Q.Q.Q.Q.Q.Q.Q.Q.Q.Q.Q.Q.Q.Q.Q.Q.Q.Q.Q.Q.Q.Q.Q.Q.Q.Q.Q.Q.Q.Q.Q.Q.Q.Q.Q.Q.Q.Q.Q.Q.Q.Q.Q.Q.Q.Q.Q.Q.Q.Q.Q.Q.Q.Q.Q.Q.Q.Q.Q.Q.Q.Q.Q.Q.Q.Q.Q.Q.Q.Q.Q.Q.Q.Q.Q.Q.Q.Q.Q.Q.Q.Q.Q.Q.Q.Q.Q.Q.Q.Q.Q.Q.Q.Q.Q.Q.Q.Q.Q.Q.Q.Q.Q.Q.Q.Q.Q.Q.Q.Q.Q.Q.Q.Q.Q.Q.Q.Q.Q.Q.Q.Q.Q.Q.Q.Q.Q.Q.Q.Q.Q.Q.Q.Q.Q.Q.Q.Q.Q.Q.Q.Q.Q.Q.Q.Q.Q.Q.Q.Q.Q.Q.Q.Q.Q.Q.Q.Q.Q.Q.Q.Q.Q.Q.Q.Q.Q.Q.Q.Q.Q.Q.Q.Q.Q.Q.Q.Q.Q.Q.Q.Q.Q.Q.Q.Q.Q.Q.Q.Q.Q.Q.Q.Q.Q.Q.Q.Q.Q.Q.Q.Q.Q.Q.Q.Q.Q.Q.Q.Q.Q.Q.Q.Q.Q.Q.Q.Q.Q.Q.Q.Q.Q.Q.Q.Q.Q.Q.Q.Q.Q.Q.Q.Q.Q.Q.Q.Q.Q.Q.Q.Q.Q.Q.Q.Q.Q.Q.Q.Q.Q.Q.Q.Q.Q.Q.Q.Q.Q.Q.Q.Q.Q.Q.Q.Q.Q.Q.Q.Q.Q.Q.Q.Q.Q.Q.Q.Q.Q.Q.Q.Q.Q.Q.Q.Q.Q.Q.Q.Q.Q.Q.Q.Q.Q.Q.Q.Q.Q.Q.Q.Q.Q.Q.Q.Q.Q.Q.Q.Q.Q.Q.Q.Q.Q.Q.Q.Q.Q.Q.Q.Q.Q.Q.Q.Q.Q.Q.Q.Q.Q.Q.Q.Q.Q.Q.Q.Q.Q.Q.Q.Q.Q.Q.Q.Q.Q.Q.Q.Q.Q.Q.Q.Q.Q.Q.Q.Q.Q.Q.Q.Q.Q.Q.Q.Q.Q.Q.Q.Q.Q.Q.Q.Q.Q.Q.Q.Q.Q.Q.Q.Q.Q.Q.Q.Q.Q.Q.Q.Q.Q.Q.Q.Q.Q.Q.Q.Q.Q.Q.Q.Q.Q.Q.Q.Q.Q.Q.Q.Q.Q.Q.Q.Q.Q.Q.Q.Q.Q.Q.Q.Q.Q.Q.Q.Q.Q.Q.Q.Q.Q.Q.Q.Q.Q.Q.Q.Q.Q.Q.Q.Q.Q.Q.Q.Q.Q.Q.Q.Q.Q.Q.Q.Q.Q.Q.Q.Q.Q.Q.Q.Q.Q.Q.Q.Q.Q.Q.Q.Q.Q.Q.Q.Q.Q.Q.Q.Q.Q.Q.Q.Q.Q.Q.Q.Q.Q.Q.Q.Q.Q.Q.Q.Q.Q.Q.Q.Q.Q.Q.Q.",
"Q.Q.Q.Q.Q.Q.Q.Q.Q.Q.Q.Q.Q.Q.Q.Q.Q.Q.Q.Q.Q.Q.Q.Q.Q.Q.Q.Q.Q.Q.Q.Q.Q.Q.Q.Q.Q.Q.Q.Q.Q.Q.Q.Q.Q.Q.Q.Q.Q.Q.Q.Q.Q.Q.Q.Q.Q.Q.Q.Q.Q.Q.Q.Q.Q.Q.Q.Q.Q.Q.Q.Q.Q.Q.Q.Q.Q.Q.Q.Q.Q.Q.Q.Q.Q.Q.Q.Q.Q.Q.Q.Q.Q.Q.Q.Q.Q.Q.Q.Q.Q.Q.Q.Q.Q.Q.Q.Q.Q.Q.Q.Q.Q.Q.Q.Q.Q.Q.Q.Q.Q.Q.Q.Q.Q.Q.Q.Q.Q.Q.Q.Q.Q.Q.Q.Q.Q.Q.Q.Q.Q.Q.Q.Q.Q.Q.Q.Q.Q.Q.Q.Q.Q.Q.Q.Q.Q.Q.Q.Q.Q.Q.Q.Q.Q.Q.Q.Q.Q.Q.Q.Q.Q.Q.Q.Q.Q.Q.Q.Q.Q.Q.Q.Q.Q.Q.Q.Q.Q.Q.Q.Q.Q.Q.Q.Q.Q.Q.Q.Q.Q.Q.Q.Q.Q.Q.Q.Q.Q.Q.Q.Q.Q.Q.Q.Q.Q.Q.Q.Q.Q.Q.Q.Q.Q.Q.Q.Q.Q.Q.Q.Q.Q.Q.Q.Q.Q.Q.Q.Q.Q.Q.Q.Q.Q.Q.Q.Q.Q.Q.Q.Q.Q.Q.Q.Q.Q.Q.Q.Q.Q.Q.Q.Q.Q.Q.Q.Q.Q.Q.Q.Q.Q.Q.Q.Q.Q.Q.Q.Q.Q.Q.Q.Q.Q.Q.Q.Q.Q.Q.Q.Q.Q.Q.Q.Q.Q.Q.Q.Q.Q.Q.Q.Q.Q.Q.Q.Q.Q.Q.Q.Q.Q.Q.Q.Q.Q.Q.Q.Q.Q.Q.Q.Q.Q.Q.Q.Q.Q.Q.Q.Q.Q.Q.Q.Q.Q.Q.Q.Q.Q.Q.Q.Q.Q.Q.Q.Q.Q.Q.Q.Q.Q.Q.Q.Q.Q.Q.Q.Q.Q.Q.Q.Q.Q.Q.Q.Q.Q.Q.Q.Q.Q.Q.Q.Q.Q.Q.Q.Q.Q.Q.Q.Q.Q.Q.Q.Q.Q.Q.Q.Q.Q.Q.Q.Q.Q.Q.Q.Q.Q.Q.Q.Q.Q.Q.Q.Q.Q.Q.Q.Q.Q.Q.Q.Q.Q.Q.Q.Q.Q.Q.Q.Q.Q.Q.Q.Q.Q.Q.Q.Q.Q.Q.Q.Q.Q.Q.Q.Q.Q.Q.Q.Q.Q.Q.Q.Q.Q.Q.Q.Q.Q.Q.Q.Q.Q.Q.Q.Q.Q.Q.Q.Q.Q.Q.Q.Q.Q.Q.Q.Q.Q.Q.Q.Q.Q.Q.Q.Q.Q.Q.Q.Q.Q.Q.Q.Q.Q.Q.Q.Q.Q.Q.Q.Q.Q.Q.Q.Q.Q.Q.Q.Q.Q.Q.Q.Q.Q.Q.Q.Q.Q.Q.Q.Q.Q.Q.Q.Q.Q.Q.Q.Q.Q.Q.Q.Q.Q.Q.Q.Q.Q.Q.Q.Q.Q.Q.Q.Q.Q.Q.Q.Q.Q.Q.Q.Q.Q.Q.Q.Q.Q.Q.",
"Q.Q.Q.Q.Q.Q.Q.Q.Q.Q.Q.Q.Q.Q.Q.Q.Q.Q.Q.Q.Q.Q.Q.Q.Q.Q.Q.Q.Q.Q.Q.Q.Q.Q.Q.Q.Q.Q.Q.Q.Q.Q.Q.Q.Q.Q.Q.Q.Q.Q.Q.Q.Q.Q.Q.Q.Q.Q.Q.Q.Q.Q.Q.Q.Q.Q.Q.Q.Q.Q.Q.Q.Q.Q.Q.Q.Q.Q.Q.Q.Q.Q.Q.Q.Q.Q.Q.Q.Q.Q.Q.Q.Q.Q.Q.Q.Q.Q.Q.Q.Q.Q.Q.Q.Q.Q.Q.Q.Q.Q.Q.Q.Q.Q.Q.Q.Q.Q.Q.Q.Q.Q.Q.Q.Q.Q.Q.Q.Q.Q.Q.Q.Q.Q.Q.Q.Q.Q.Q.Q.Q.Q.Q.Q.Q.Q.Q.Q.Q.Q.Q.Q.Q.Q.Q.Q.Q.Q.Q.Q.Q.Q.Q.Q.Q.Q.Q.Q.Q.Q.Q.Q.Q.Q.Q.Q.Q.Q.Q.Q.Q.Q.Q.Q.Q.Q.Q.Q.Q.Q.Q.Q.Q.Q.Q.Q.Q.Q.Q.Q.Q.Q.Q.Q.Q.Q.Q.Q.Q.Q.Q.Q.Q.Q.Q.Q.Q.Q.Q.Q.Q.Q.Q.Q.Q.Q.Q.Q.Q.Q.Q.Q.Q.Q.Q.Q.Q.Q.Q.Q.Q.Q.Q.Q.Q.Q.Q.Q.Q.Q.Q.Q.Q.Q.Q.Q.Q.Q.Q.Q.Q.Q.Q.Q.Q.Q.Q.Q.Q.Q.Q.Q.Q.Q.Q.Q.Q.Q.Q.Q.Q.Q.Q.Q.Q.Q.Q.Q.Q.Q.Q.Q.Q.Q.Q.Q.Q.Q.Q.Q.Q.Q.Q.Q.Q.Q.Q.Q.Q.Q.Q.Q.Q.Q.Q.Q.Q.Q.Q.Q.Q.Q.Q.Q.Q.Q.Q.Q.Q.Q.Q.Q.Q.Q.Q.Q.Q.Q.Q.Q.Q.Q.Q.Q.Q.Q.Q.Q.Q.Q.Q.Q.Q.Q.Q.Q.Q.Q.Q.Q.Q.Q.Q.Q.Q.Q.Q.Q.Q.Q.Q.Q.Q.Q.Q.Q.Q.Q.Q.Q.Q.Q.Q.Q.Q.Q.Q.Q.Q.Q.Q.Q.Q.Q.Q.Q.Q.Q.Q.Q.Q.Q.Q.Q.Q.Q.Q.Q.Q.Q.Q.Q.Q.Q.Q.Q.Q.Q.Q.Q.Q.Q.Q.Q.Q.Q.Q.Q.Q.Q.Q.Q.Q.Q.Q.Q.Q.Q.Q.Q.Q.Q.Q.Q.Q.Q.Q.Q.Q.Q.Q.Q.Q.Q.Q.Q.Q.Q.Q.Q.Q.Q.Q.Q.Q.Q.Q.Q.Q.Q.Q.Q.Q.Q.Q.Q.Q.Q.Q.Q.Q.Q.Q.Q.Q.Q.Q.Q.Q.Q.Q.Q.Q.Q.Q.Q.Q.Q.Q.Q.Q.Q.Q.Q.Q.Q.Q.Q.Q.Q.Q.Q.Q.Q.Q.Q.Q.Q.Q.Q.Q.Q.Q.Q.Q.Q.Q.Q.Q.Q.Q.Q.Q.Q.Q.Q.Q.Q.Q.Q.Q.Q.Q.Q.Q.Q.Q.Q.Q.Q.Q.Q.Q.Q.",
"Q.Q.Q.Q.Q.Q.Q.Q.Q.Q.Q.Q.Q.Q.Q.Q.Q.Q.Q.Q.Q.Q.Q.Q.Q.Q.Q.Q.Q.Q.Q.Q.Q.Q.Q.Q.Q.Q.Q.Q.Q.Q.Q.Q.Q.Q.Q.Q.Q.Q.Q.Q.Q.Q.Q.Q.Q.Q.Q.Q.Q.Q.Q.Q.Q.Q.Q.Q.Q.Q.Q.Q.Q.Q.Q.Q.Q.Q.Q.Q.Q.Q.Q.Q.Q.Q.Q.Q.Q.Q.Q.Q.Q.Q.Q.Q.Q.Q.Q.Q.Q.Q.Q.Q.Q.Q.Q.Q.Q.Q.Q.Q.Q.Q.Q.Q.Q.Q.Q.Q.Q.Q.Q.Q.Q.Q.Q.Q.Q.Q.Q.Q.Q.Q.Q.Q.Q.Q.Q.Q.Q.Q.Q.Q.Q.Q.Q.Q.Q.Q.Q.Q.Q.Q.Q.Q.Q.Q.Q.Q.Q.Q.Q.Q.Q.Q.Q.Q.Q.Q.Q.Q.Q.Q.Q.Q.Q.Q.Q.Q.Q.Q.Q.Q.Q.Q.Q.Q.Q.Q.Q.Q.Q.Q.Q.Q.Q.Q.Q.Q.Q.Q.Q.Q.Q.Q.Q.Q.Q.Q.Q.Q.Q.Q.Q.Q.Q.Q.Q.Q.Q.Q.Q.Q.Q.Q.Q.Q.Q.Q.Q.Q.Q.Q.Q.Q.Q.Q.Q.Q.Q.Q.Q.Q.Q.Q.Q.Q.Q.Q.Q.Q.Q.Q.Q.Q.Q.Q.Q.Q.Q.Q.Q.Q.Q.Q.Q.Q.Q.Q.Q.Q.Q.Q.Q.Q.Q.Q.Q.Q.Q.Q.Q.Q.Q.Q.Q.Q.Q.Q.Q.Q.Q.Q.Q.Q.Q.Q.Q.Q.Q.Q.Q.Q.Q.Q.Q.Q.Q.Q.Q.Q.Q.Q.Q.Q.Q.Q.Q.Q.Q.Q.Q.Q.Q.Q.Q.Q.Q.Q.Q.Q.Q.Q.Q.Q.Q.Q.Q.Q.Q.Q.Q.Q.Q.Q.Q.Q.Q.Q.Q.Q.Q.Q.Q.Q.Q.Q.Q.Q.Q.Q.Q.Q.Q.Q.Q.Q.Q.Q.Q.Q.Q.Q.Q.Q.Q.Q.Q.Q.Q.Q.Q.Q.Q.Q.Q.Q.Q.Q.Q.Q.Q.Q.Q.Q.Q.Q.Q.Q.Q.Q.Q.Q.Q.Q.Q.Q.Q.Q.Q.Q.Q.Q.Q.Q.Q.Q.Q.Q.Q.Q.Q.Q.Q.Q.Q.Q.Q.Q.Q.Q.Q.Q.Q.Q.Q.Q.Q.Q.Q.Q.Q.Q.Q.Q.Q.Q.Q.Q.Q.Q.Q.Q.Q.Q.Q.Q.Q.Q.Q.Q.Q.Q.Q.Q.Q.Q.Q.Q.Q.Q.Q.Q.Q.Q.Q.Q.Q.Q.Q.Q.Q.Q.Q.Q.Q.Q.Q.Q.Q.Q.Q.Q.Q.Q.Q.Q.Q.Q.Q.Q.Q.Q.Q.Q.Q.Q.Q.Q.Q.Q.Q.Q.Q.Q.Q.Q.Q.Q.Q.Q.Q.Q.Q.Q.Q.Q.Q.Q.Q.Q.Q.Q.Q.Q.Q.Q.Q.Q.Q.Q.Q.Q.Q.Q.Q.Q.Q.Q.Q.Q.Q.Q.",
"Q.Q.Q.Q.Q.Q.Q.Q.Q.Q.Q.Q.Q.Q.Q.Q.Q.Q.Q.Q.Q.Q.Q.Q.Q.Q.Q.Q.Q.Q.Q.Q.Q.Q.Q.Q.Q.Q.Q.Q.Q.Q.Q.Q.Q.Q.Q.Q.Q.Q.Q.Q.Q.Q.Q.Q.Q.Q.Q.Q.Q.Q.Q.Q.Q.Q.Q.Q.Q.Q.Q.Q.Q.Q.Q.Q.Q.Q.Q.Q.Q.Q.Q.Q.Q.Q.Q.Q.Q.Q.Q.Q.Q.Q.Q.Q.Q.Q.Q.Q.Q.Q.Q.Q.Q.Q.Q.Q.Q.Q.Q.Q.Q.Q.Q.Q.Q.Q.Q.Q.Q.Q.Q.Q.Q.Q.Q.Q.Q.Q.Q.Q.Q.Q.Q.Q.Q.Q.Q.Q.Q.Q.Q.Q.Q.Q.Q.Q.Q.Q.Q.Q.Q.Q.Q.Q.Q.Q.Q.Q.Q.Q.Q.Q.Q.Q.Q.Q.Q.Q.Q.Q.Q.Q.Q.Q.Q.Q.Q.Q.Q.Q.Q.Q.Q.Q.Q.Q.Q.Q.Q.Q.Q.Q.Q.Q.Q.Q.Q.Q.Q.Q.Q.Q.Q.Q.Q.Q.Q.Q.Q.Q.Q.Q.Q.Q.Q.Q.Q.Q.Q.Q.Q.Q.Q.Q.Q.Q.Q.Q.Q.Q.Q.Q.Q.Q.Q.Q.Q.Q.Q.Q.Q.Q.Q.Q.Q.Q.Q.Q.Q.Q.Q.Q.Q.Q.Q.Q.Q.Q.Q.Q.Q.Q.Q.Q.Q.Q.Q.Q.Q.Q.Q.Q.Q.Q.Q.Q.Q.Q.Q.Q.Q.Q.Q.Q.Q.Q.Q.Q.Q.Q.Q.Q.Q.Q.Q.Q.Q.Q.Q.Q.Q.Q.Q.Q.Q.Q.Q.Q.Q.Q.Q.Q.Q.Q.Q.Q.Q.Q.Q.Q.Q.Q.Q.Q.Q.Q.Q.Q.Q.Q.Q.Q.Q.Q.Q.Q.Q.Q.Q.Q.Q.Q.Q.Q.Q.Q.Q.Q.Q.Q.Q.Q.Q.Q.Q.Q.Q.Q.Q.Q.Q.Q.Q.Q.Q.Q.Q.Q.Q.Q.Q.Q.Q.Q.Q.Q.Q.Q.Q.Q.Q.Q.Q.Q.Q.Q.Q.Q.Q.Q.Q.Q.Q.Q.Q.Q.Q.Q.Q.Q.Q.Q.Q.Q.Q.Q.Q.Q.Q.Q.Q.Q.Q.Q.Q.Q.Q.Q.Q.Q.Q.Q.Q.Q.Q.Q.Q.Q.Q.Q.Q.Q.Q.Q.Q.Q.Q.Q.Q.Q.Q.Q.Q.Q.Q.Q.Q.Q.Q.Q.Q.Q.Q.Q.Q.Q.Q.Q.Q.Q.Q.Q.Q.Q.Q.Q.Q.Q.Q.Q.Q.Q.Q.Q.Q.Q.Q.Q.Q.Q.Q.Q.Q.Q.Q.Q.Q.Q.Q.Q.Q.Q.Q.Q.Q.Q.Q.Q.Q.Q.Q.Q.Q.Q.Q.Q.Q.Q.Q.Q.Q.Q.Q.Q.Q.Q.Q.Q.Q.Q.Q.Q.Q.Q.Q.Q.Q.Q.Q.Q.Q.Q.Q.Q.Q.Q.Q.Q.Q.Q.Q.Q.Q.Q.Q.Q.Q.Q.Q.Q.Q.Q.",
"Q.Q.Q.Q.Q.Q.Q.Q.Q.Q.Q.Q.Q.Q.Q.Q.Q.Q.Q.Q.Q.Q.Q.Q.Q.Q.Q.Q.Q.Q.Q.Q.Q.Q.Q.Q.Q.Q.Q.Q.Q.Q.Q.Q.Q.Q.Q.Q.Q.Q.Q.Q.Q.Q.Q.Q.Q.Q.Q.Q.Q.Q.Q.Q.Q.Q.Q.Q.Q.Q.Q.Q.Q.Q.Q.Q.Q.Q.Q.Q.Q.Q.Q.Q.Q.Q.Q.Q.Q.Q.Q.Q.Q.Q.Q.Q.Q.Q.Q.Q.Q.Q.Q.Q.Q.Q.Q.Q.Q.Q.Q.Q.Q.Q.Q.Q.Q.Q.Q.Q.Q.Q.Q.Q.Q.Q.Q.Q.Q.Q.Q.Q.Q.Q.Q.Q.Q.Q.Q.Q.Q.Q.Q.Q.Q.Q.Q.Q.Q.Q.Q.Q.Q.Q.Q.Q.Q.Q.Q.Q.Q.Q.Q.Q.Q.Q.Q.Q.Q.Q.Q.Q.Q.Q.Q.Q.Q.Q.Q.Q.Q.Q.Q.Q.Q.Q.Q.Q.Q.Q.Q.Q.Q.Q.Q.Q.Q.Q.Q.Q.Q.Q.Q.Q.Q.Q.Q.Q.Q.Q.Q.Q.Q.Q.Q.Q.Q.Q.Q.Q.Q.Q.Q.Q.Q.Q.Q.Q.Q.Q.Q.Q.Q.Q.Q.Q.Q.Q.Q.Q.Q.Q.Q.Q.Q.Q.Q.Q.Q.Q.Q.Q.Q.Q.Q.Q.Q.Q.Q.Q.Q.Q.Q.Q.Q.Q.Q.Q.Q.Q.Q.Q.Q.Q.Q.Q.Q.Q.Q.Q.Q.Q.Q.Q.Q.Q.Q.Q.Q.Q.Q.Q.Q.Q.Q.Q.Q.Q.Q.Q.Q.Q.Q.Q.Q.Q.Q.Q.Q.Q.Q.Q.Q.Q.Q.Q.Q.Q.Q.Q.Q.Q.Q.Q.Q.Q.Q.Q.Q.Q.Q.Q.Q.Q.Q.Q.Q.Q.Q.Q.Q.Q.Q.Q.Q.Q.Q.Q.Q.Q.Q.Q.Q.Q.Q.Q.Q.Q.Q.Q.Q.Q.Q.Q.Q.Q.Q.Q.Q.Q.Q.Q.Q.Q.Q.Q.Q.Q.Q.Q.Q.Q.Q.Q.Q.Q.Q.Q.Q.Q.Q.Q.Q.Q.Q.Q.Q.Q.Q.Q.Q.Q.Q.Q.Q.Q.Q.Q.Q.Q.Q.Q.Q.Q.Q.Q.Q.Q.Q.Q.Q.Q.Q.Q.Q.Q.Q.Q.Q.Q.Q.Q.Q.Q.Q.Q.Q.Q.Q.Q.Q.Q.Q.Q.Q.Q.Q.Q.Q.Q.Q.Q.Q.Q.Q.Q.Q.Q.Q.Q.Q.Q.Q.Q.Q.Q.Q.Q.Q.Q.Q.Q.Q.Q.Q.Q.Q.Q.Q.Q.Q.Q.Q.Q.Q.Q.Q.Q.Q.Q.Q.Q.Q.Q.Q.Q.Q.Q.Q.Q.Q.Q.Q.Q.Q.Q.Q.Q.Q.Q.Q.Q.Q.Q.Q.Q.Q.Q.Q.Q.Q.Q.Q.Q.Q.Q.Q.Q.Q.Q.Q.Q.Q.Q.Q.Q.Q.Q.Q.Q.Q.Q.Q.Q.Q.Q.Q.Q.Q.Q.Q.Q.Q.Q.",
"Q.Q.Q.Q.Q.Q.Q.Q.Q.Q.Q.Q.Q.Q.Q.Q.Q.Q.Q.Q.Q.Q.Q.Q.Q.Q.Q.Q.Q.Q.Q.Q.Q.Q.Q.Q.Q.Q.Q.Q.Q.Q.Q.Q.Q.Q.Q.Q.Q.Q.Q.Q.Q.Q.Q.Q.Q.Q.Q.Q.Q.Q.Q.Q.Q.Q.Q.Q.Q.Q.Q.Q.Q.Q.Q.Q.Q.Q.Q.Q.Q.Q.Q.Q.Q.Q.Q.Q.Q.Q.Q.Q.Q.Q.Q.Q.Q.Q.Q.Q.Q.Q.Q.Q.Q.Q.Q.Q.Q.Q.Q.Q.Q.Q.Q.Q.Q.Q.Q.Q.Q.Q.Q.Q.Q.Q.Q.Q.Q.Q.Q.Q.Q.Q.Q.Q.Q.Q.Q.Q.Q.Q.Q.Q.Q.Q.Q.Q.Q.Q.Q.Q.Q.Q.Q.Q.Q.Q.Q.Q.Q.Q.Q.Q.Q.Q.Q.Q.Q.Q.Q.Q.Q.Q.Q.Q.Q.Q.Q.Q.Q.Q.Q.Q.Q.Q.Q.Q.Q.Q.Q.Q.Q.Q.Q.Q.Q.Q.Q.Q.Q.Q.Q.Q.Q.Q.Q.Q.Q.Q.Q.Q.Q.Q.Q.Q.Q.Q.Q.Q.Q.Q.Q.Q.Q.Q.Q.Q.Q.Q.Q.Q.Q.Q.Q.Q.Q.Q.Q.Q.Q.Q.Q.Q.Q.Q.Q.Q.Q.Q.Q.Q.Q.Q.Q.Q.Q.Q.Q.Q.Q.Q.Q.Q.Q.Q.Q.Q.Q.Q.Q.Q.Q.Q.Q.Q.Q.Q.Q.Q.Q.Q.Q.Q.Q.Q.Q.Q.Q.Q.Q.Q.Q.Q.Q.Q.Q.Q.Q.Q.Q.Q.Q.Q.Q.Q.Q.Q.Q.Q.Q.Q.Q.Q.Q.Q.Q.Q.Q.Q.Q.Q.Q.Q.Q.Q.Q.Q.Q.Q.Q.Q.Q.Q.Q.Q.Q.Q.Q.Q.Q.Q.Q.Q.Q.Q.Q.Q.Q.Q.Q.Q.Q.Q.Q.Q.Q.Q.Q.Q.Q.Q.Q.Q.Q.Q.Q.Q.Q.Q.Q.Q.Q.Q.Q.Q.Q.Q.Q.Q.Q.Q.Q.Q.Q.Q.Q.Q.Q.Q.Q.Q.Q.Q.Q.Q.Q.Q.Q.Q.Q.Q.Q.Q.Q.Q.Q.Q.Q.Q.Q.Q.Q.Q.Q.Q.Q.Q.Q.Q.Q.Q.Q.Q.Q.Q.Q.Q.Q.Q.Q.Q.Q.Q.Q.Q.Q.Q.Q.Q.Q.Q.Q.Q.Q.Q.Q.Q.Q.Q.Q.Q.Q.Q.Q.Q.Q.Q.Q.Q.Q.Q.Q.Q.Q.Q.Q.Q.Q.Q.Q.Q.Q.Q.Q.Q.Q.Q.Q.Q.Q.Q.Q.Q.Q.Q.Q.Q.Q.Q.Q.Q.Q.Q.Q.Q.Q.Q.Q.Q.Q.Q.Q.Q.Q.Q.Q.Q.Q.Q.Q.Q.Q.Q.Q.Q.Q.Q.Q.Q.Q.Q.Q.Q.Q.Q.Q.Q.Q.Q.Q.Q.Q.Q.Q.Q.Q.Q.Q.Q.Q.Q.Q.Q.Q.Q.Q.Q.Q.Q.Q.Q.Q.Q.",
"Q.Q.Q.Q.Q.Q.Q.Q.Q.Q.Q.Q.Q.Q.Q.Q.Q.Q.Q.Q.Q.Q.Q.Q.Q.Q.Q.Q.Q.Q.Q.Q.Q.Q.Q.Q.Q.Q.Q.Q.Q.Q.Q.Q.Q.Q.Q.Q.Q.Q.Q.Q.Q.Q.Q.Q.Q.Q.Q.Q.Q.Q.Q.Q.Q.Q.Q.Q.Q.Q.Q.Q.Q.Q.Q.Q.Q.Q.Q.Q.Q.Q.Q.Q.Q.Q.Q.Q.Q.Q.Q.Q.Q.Q.Q.Q.Q.Q.Q.Q.Q.Q.Q.Q.Q.Q.Q.Q.Q.Q.Q.Q.Q.Q.Q.Q.Q.Q.Q.Q.Q.Q.Q.Q.Q.Q.Q.Q.Q.Q.Q.Q.Q.Q.Q.Q.Q.Q.Q.Q.Q.Q.Q.Q.Q.Q.Q.Q.Q.Q.Q.Q.Q.Q.Q.Q.Q.Q.Q.Q.Q.Q.Q.Q.Q.Q.Q.Q.Q.Q.Q.Q.Q.Q.Q.Q.Q.Q.Q.Q.Q.Q.Q.Q.Q.Q.Q.Q.Q.Q.Q.Q.Q.Q.Q.Q.Q.Q.Q.Q.Q.Q.Q.Q.Q.Q.Q.Q.Q.Q.Q.Q.Q.Q.Q.Q.Q.Q.Q.Q.Q.Q.Q.Q.Q.Q.Q.Q.Q.Q.Q.Q.Q.Q.Q.Q.Q.Q.Q.Q.Q.Q.Q.Q.Q.Q.Q.Q.Q.Q.Q.Q.Q.Q.Q.Q.Q.Q.Q.Q.Q.Q.Q.Q.Q.Q.Q.Q.Q.Q.Q.Q.Q.Q.Q.Q.Q.Q.Q.Q.Q.Q.Q.Q.Q.Q.Q.Q.Q.Q.Q.Q.Q.Q.Q.Q.Q.Q.Q.Q.Q.Q.Q.Q.Q.Q.Q.Q.Q.Q.Q.Q.Q.Q.Q.Q.Q.Q.Q.Q.Q.Q.Q.Q.Q.Q.Q.Q.Q.Q.Q.Q.Q.Q.Q.Q.Q.Q.Q.Q.Q.Q.Q.Q.Q.Q.Q.Q.Q.Q.Q.Q.Q.Q.Q.Q.Q.Q.Q.Q.Q.Q.Q.Q.Q.Q.Q.Q.Q.Q.Q.Q.Q.Q.Q.Q.Q.Q.Q.Q.Q.Q.Q.Q.Q.Q.Q.Q.Q.Q.Q.Q.Q.Q.Q.Q.Q.Q.Q.Q.Q.Q.Q.Q.Q.Q.Q.Q.Q.Q.Q.Q.Q.Q.Q.Q.Q.Q.Q.Q.Q.Q.Q.Q.Q.Q.Q.Q.Q.Q.Q.Q.Q.Q.Q.Q.Q.Q.Q.Q.Q.Q.Q.Q.Q.Q.Q.Q.Q.Q.Q.Q.Q.Q.Q.Q.Q.Q.Q.Q.Q.Q.Q.Q.Q.Q.Q.Q.Q.Q.Q.Q.Q.Q.Q.Q.Q.Q.Q.Q.Q.Q.Q.Q.Q.Q.Q.Q.Q.Q.Q.Q.Q.Q.Q.Q.Q.Q.Q.Q.Q.Q.Q.Q.Q.Q.Q.Q.Q.Q.Q.Q.Q.Q.Q.Q.Q.Q.Q.Q.Q.Q.Q.Q.Q.Q.Q.Q.Q.Q.Q.Q.Q.Q.Q.Q.Q.Q.Q.Q.Q.Q.Q.Q.Q.Q.Q.Q.Q.Q.Q.Q.Q.Q.",
"Q.Q.Q.Q.Q.Q.Q.Q.Q.Q.Q.Q.Q.Q.Q.Q.Q.Q.Q.Q.Q.Q.Q.Q.Q.Q.Q.Q.Q.Q.Q.Q.Q.Q.Q.Q.Q.Q.Q.Q.Q.Q.Q.Q.Q.Q.Q.Q.Q.Q.Q.Q.Q.Q.Q.Q.Q.Q.Q.Q.Q.Q.Q.Q.Q.Q.Q.Q.Q.Q.Q.Q.Q.Q.Q.Q.Q.Q.Q.Q.Q.Q.Q.Q.Q.Q.Q.Q.Q.Q.Q.Q.Q.Q.Q.Q.Q.Q.Q.Q.Q.Q.Q.Q.Q.Q.Q.Q.Q.Q.Q.Q.Q.Q.Q.Q.Q.Q.Q.Q.Q.Q.Q.Q.Q.Q.Q.Q.Q.Q.Q.Q.Q.Q.Q.Q.Q.Q.Q.Q.Q.Q.Q.Q.Q.Q.Q.Q.Q.Q.Q.Q.Q.Q.Q.Q.Q.Q.Q.Q.Q.Q.Q.Q.Q.Q.Q.Q.Q.Q.Q.Q.Q.Q.Q.Q.Q.Q.Q.Q.Q.Q.Q.Q.Q.Q.Q.Q.Q.Q.Q.Q.Q.Q.Q.Q.Q.Q.Q.Q.Q.Q.Q.Q.Q.Q.Q.Q.Q.Q.Q.Q.Q.Q.Q.Q.Q.Q.Q.Q.Q.Q.Q.Q.Q.Q.Q.Q.Q.Q.Q.Q.Q.Q.Q.Q.Q.Q.Q.Q.Q.Q.Q.Q.Q.Q.Q.Q.Q.Q.Q.Q.Q.Q.Q.Q.Q.Q.Q.Q.Q.Q.Q.Q.Q.Q.Q.Q.Q.Q.Q.Q.Q.Q.Q.Q.Q.Q.Q.Q.Q.Q.Q.Q.Q.Q.Q.Q.Q.Q.Q.Q.Q.Q.Q.Q.Q.Q.Q.Q.Q.Q.Q.Q.Q.Q.Q.Q.Q.Q.Q.Q.Q.Q.Q.Q.Q.Q.Q.Q.Q.Q.Q.Q.Q.Q.Q.Q.Q.Q.Q.Q.Q.Q.Q.Q.Q.Q.Q.Q.Q.Q.Q.Q.Q.Q.Q.Q.Q.Q.Q.Q.Q.Q.Q.Q.Q.Q.Q.Q.Q.Q.Q.Q.Q.Q.Q.Q.Q.Q.Q.Q.Q.Q.Q.Q.Q.Q.Q.Q.Q.Q.Q.Q.Q.Q.Q.Q.Q.Q.Q.Q.Q.Q.Q.Q.Q.Q.Q.Q.Q.Q.Q.Q.Q.Q.Q.Q.Q.Q.Q.Q.Q.Q.Q.Q.Q.Q.Q.Q.Q.Q.Q.Q.Q.Q.Q.Q.Q.Q.Q.Q.Q.Q.Q.Q.Q.Q.Q.Q.Q.Q.Q.Q.Q.Q.Q.Q.Q.Q.Q.Q.Q.Q.Q.Q.Q.Q.Q.Q.Q.Q.Q.Q.Q.Q.Q.Q.Q.Q.Q.Q.Q.Q.Q.Q.Q.Q.Q.Q.Q.Q.Q.Q.Q.Q.Q.Q.Q.Q.Q.Q.Q.Q.Q.Q.Q.Q.Q.Q.Q.Q.Q.Q.Q.Q.Q.Q.Q.Q.Q.Q.Q.Q.Q.Q.Q.Q.Q.Q.Q.Q.Q.Q.Q.Q.Q.Q.Q.Q.Q.Q.Q.Q.Q.Q.Q.Q.Q.Q.Q.Q.Q.Q.Q.Q.Q.Q.Q.Q.Q.Q.Q.Q.",
"Q.Q.Q.Q.Q.Q.Q.Q.Q.Q.Q.Q.Q.Q.Q.Q.Q.Q.Q.Q.Q.Q.Q.Q.Q.Q.Q.Q.Q.Q.Q.Q.Q.Q.Q.Q.Q.Q.Q.Q.Q.Q.Q.Q.Q.Q.Q.Q.Q.Q.Q.Q.Q.Q.Q.Q.Q.Q.Q.Q.Q.Q.Q.Q.Q.Q.Q.Q.Q.Q.Q.Q.Q.Q.Q.Q.Q.Q.Q.Q.Q.Q.Q.Q.Q.Q.Q.Q.Q.Q.Q.Q.Q.Q.Q.Q.Q.Q.Q.Q.Q.Q.Q.Q.Q.Q.Q.Q.Q.Q.Q.Q.Q.Q.Q.Q.Q.Q.Q.Q.Q.Q.Q.Q.Q.Q.Q.Q.Q.Q.Q.Q.Q.Q.Q.Q.Q.Q.Q.Q.Q.Q.Q.Q.Q.Q.Q.Q.Q.Q.Q.Q.Q.Q.Q.Q.Q.Q.Q.Q.Q.Q.Q.Q.Q.Q.Q.Q.Q.Q.Q.Q.Q.Q.Q.Q.Q.Q.Q.Q.Q.Q.Q.Q.Q.Q.Q.Q.Q.Q.Q.Q.Q.Q.Q.Q.Q.Q.Q.Q.Q.Q.Q.Q.Q.Q.Q.Q.Q.Q.Q.Q.Q.Q.Q.Q.Q.Q.Q.Q.Q.Q.Q.Q.Q.Q.Q.Q.Q.Q.Q.Q.Q.Q.Q.Q.Q.Q.Q.Q.Q.Q.Q.Q.Q.Q.Q.Q.Q.Q.Q.Q.Q.Q.Q.Q.Q.Q.Q.Q.Q.Q.Q.Q.Q.Q.Q.Q.Q.Q.Q.Q.Q.Q.Q.Q.Q.Q.Q.Q.Q.Q.Q.Q.Q.Q.Q.Q.Q.Q.Q.Q.Q.Q.Q.Q.Q.Q.Q.Q.Q.Q.Q.Q.Q.Q.Q.Q.Q.Q.Q.Q.Q.Q.Q.Q.Q.Q.Q.Q.Q.Q.Q.Q.Q.Q.Q.Q.Q.Q.Q.Q.Q.Q.Q.Q.Q.Q.Q.Q.Q.Q.Q.Q.Q.Q.Q.Q.Q.Q.Q.Q.Q.Q.Q.Q.Q.Q.Q.Q.Q.Q.Q.Q.Q.Q.Q.Q.Q.Q.Q.Q.Q.Q.Q.Q.Q.Q.Q.Q.Q.Q.Q.Q.Q.Q.Q.Q.Q.Q.Q.Q.Q.Q.Q.Q.Q.Q.Q.Q.Q.Q.Q.Q.Q.Q.Q.Q.Q.Q.Q.Q.Q.Q.Q.Q.Q.Q.Q.Q.Q.Q.Q.Q.Q.Q.Q.Q.Q.Q.Q.Q.Q.Q.Q.Q.Q.Q.Q.Q.Q.Q.Q.Q.Q.Q.Q.Q.Q.Q.Q.Q.Q.Q.Q.Q.Q.Q.Q.Q.Q.Q.Q.Q.Q.Q.Q.Q.Q.Q.Q.Q.Q.Q.Q.Q.Q.Q.Q.Q.Q.Q.Q.Q.Q.Q.Q.Q.Q.Q.Q.Q.Q.Q.Q.Q.Q.Q.Q.Q.Q.Q.Q.Q.Q.Q.Q.Q.Q.Q.Q.Q.Q.Q.Q.Q.Q.Q.Q.Q.Q.Q.Q.Q.Q.Q.Q.Q.Q.Q.Q.Q.Q.Q.Q.Q.Q.Q.Q.Q.Q.Q.Q.Q.Q.Q.Q.Q.Q.Q.Q.Q.Q.Q.",
"Q.Q.Q.Q.Q.Q.Q.Q.Q.Q.Q.Q.Q.Q.Q.Q.Q.Q.Q.Q.Q.Q.Q.Q.Q.Q.Q.Q.Q.Q.Q.Q.Q.Q.Q.Q.Q.Q.Q.Q.Q.Q.Q.Q.Q.Q.Q.Q.Q.Q.Q.Q.Q.Q.Q.Q.Q.Q.Q.Q.Q.Q.Q.Q.Q.Q.Q.Q.Q.Q.Q.Q.Q.Q.Q.Q.Q.Q.Q.Q.Q.Q.Q.Q.Q.Q.Q.Q.Q.Q.Q.Q.Q.Q.Q.Q.Q.Q.Q.Q.Q.Q.Q.Q.Q.Q.Q.Q.Q.Q.Q.Q.Q.Q.Q.Q.Q.Q.Q.Q.Q.Q.Q.Q.Q.Q.Q.Q.Q.Q.Q.Q.Q.Q.Q.Q.Q.Q.Q.Q.Q.Q.Q.Q.Q.Q.Q.Q.Q.Q.Q.Q.Q.Q.Q.Q.Q.Q.Q.Q.Q.Q.Q.Q.Q.Q.Q.Q.Q.Q.Q.Q.Q.Q.Q.Q.Q.Q.Q.Q.Q.Q.Q.Q.Q.Q.Q.Q.Q.Q.Q.Q.Q.Q.Q.Q.Q.Q.Q.Q.Q.Q.Q.Q.Q.Q.Q.Q.Q.Q.Q.Q.Q.Q.Q.Q.Q.Q.Q.Q.Q.Q.Q.Q.Q.Q.Q.Q.Q.Q.Q.Q.Q.Q.Q.Q.Q.Q.Q.Q.Q.Q.Q.Q.Q.Q.Q.Q.Q.Q.Q.Q.Q.Q.Q.Q.Q.Q.Q.Q.Q.Q.Q.Q.Q.Q.Q.Q.Q.Q.Q.Q.Q.Q.Q.Q.Q.Q.Q.Q.Q.Q.Q.Q.Q.Q.Q.Q.Q.Q.Q.Q.Q.Q.Q.Q.Q.Q.Q.Q.Q.Q.Q.Q.Q.Q.Q.Q.Q.Q.Q.Q.Q.Q.Q.Q.Q.Q.Q.Q.Q.Q.Q.Q.Q.Q.Q.Q.Q.Q.Q.Q.Q.Q.Q.Q.Q.Q.Q.Q.Q.Q.Q.Q.Q.Q.Q.Q.Q.Q.Q.Q.Q.Q.Q.Q.Q.Q.Q.Q.Q.Q.Q.Q.Q.Q.Q.Q.Q.Q.Q.Q.Q.Q.Q.Q.Q.Q.Q.Q.Q.Q.Q.Q.Q.Q.Q.Q.Q.Q.Q.Q.Q.Q.Q.Q.Q.Q.Q.Q.Q.Q.Q.Q.Q.Q.Q.Q.Q.Q.Q.Q.Q.Q.Q.Q.Q.Q.Q.Q.Q.Q.Q.Q.Q.Q.Q.Q.Q.Q.Q.Q.Q.Q.Q.Q.Q.Q.Q.Q.Q.Q.Q.Q.Q.Q.Q.Q.Q.Q.Q.Q.Q.Q.Q.Q.Q.Q.Q.Q.Q.Q.Q.Q.Q.Q.Q.Q.Q.Q.Q.Q.Q.Q.Q.Q.Q.Q.Q.Q.Q.Q.Q.Q.Q.Q.Q.Q.Q.Q.Q.Q.Q.Q.Q.Q.Q.Q.Q.Q.Q.Q.Q.Q.Q.Q.Q.Q.Q.Q.Q.Q.Q.Q.Q.Q.Q.Q.Q.Q.Q.Q.Q.Q.Q.Q.Q.Q.Q.Q.Q.Q.Q.Q.Q.Q.Q.Q.Q.Q.Q.Q.Q.Q.Q.Q.Q.Q.Q.Q.Q.Q.Q.Q.",
"Q.Q.Q.Q.Q.Q.Q.Q.Q.Q.Q.Q.Q.Q.Q.Q.Q.Q.Q.Q.Q.Q.Q.Q.Q.Q.Q.Q.Q.Q.Q.Q.Q.Q.Q.Q.Q.Q.Q.Q.Q.Q.Q.Q.Q.Q.Q.Q.Q.Q.Q.Q.Q.Q.Q.Q.Q.Q.Q.Q.Q.Q.Q.Q.Q.Q.Q.Q.Q.Q.Q.Q.Q.Q.Q.Q.Q.Q.Q.Q.Q.Q.Q.Q.Q.Q.Q.Q.Q.Q.Q.Q.Q.Q.Q.Q.Q.Q.Q.Q.Q.Q.Q.Q.Q.Q.Q.Q.Q.Q.Q.Q.Q.Q.Q.Q.Q.Q.Q.Q.Q.Q.Q.Q.Q.Q.Q.Q.Q.Q.Q.Q.Q.Q.Q.Q.Q.Q.Q.Q.Q.Q.Q.Q.Q.Q.Q.Q.Q.Q.Q.Q.Q.Q.Q.Q.Q.Q.Q.Q.Q.Q.Q.Q.Q.Q.Q.Q.Q.Q.Q.Q.Q.Q.Q.Q.Q.Q.Q.Q.Q.Q.Q.Q.Q.Q.Q.Q.Q.Q.Q.Q.Q.Q.Q.Q.Q.Q.Q.Q.Q.Q.Q.Q.Q.Q.Q.Q.Q.Q.Q.Q.Q.Q.Q.Q.Q.Q.Q.Q.Q.Q.Q.Q.Q.Q.Q.Q.Q.Q.Q.Q.Q.Q.Q.Q.Q.Q.Q.Q.Q.Q.Q.Q.Q.Q.Q.Q.Q.Q.Q.Q.Q.Q.Q.Q.Q.Q.Q.Q.Q.Q.Q.Q.Q.Q.Q.Q.Q.Q.Q.Q.Q.Q.Q.Q.Q.Q.Q.Q.Q.Q.Q.Q.Q.Q.Q.Q.Q.Q.Q.Q.Q.Q.Q.Q.Q.Q.Q.Q.Q.Q.Q.Q.Q.Q.Q.Q.Q.Q.Q.Q.Q.Q.Q.Q.Q.Q.Q.Q.Q.Q.Q.Q.Q.Q.Q.Q.Q.Q.Q.Q.Q.Q.Q.Q.Q.Q.Q.Q.Q.Q.Q.Q.Q.Q.Q.Q.Q.Q.Q.Q.Q.Q.Q.Q.Q.Q.Q.Q.Q.Q.Q.Q.Q.Q.Q.Q.Q.Q.Q.Q.Q.Q.Q.Q.Q.Q.Q.Q.Q.Q.Q.Q.Q.Q.Q.Q.Q.Q.Q.Q.Q.Q.Q.Q.Q.Q.Q.Q.Q.Q.Q.Q.Q.Q.Q.Q.Q.Q.Q.Q.Q.Q.Q.Q.Q.Q.Q.Q.Q.Q.Q.Q.Q.Q.Q.Q.Q.Q.Q.Q.Q.Q.Q.Q.Q.Q.Q.Q.Q.Q.Q.Q.Q.Q.Q.Q.Q.Q.Q.Q.Q.Q.Q.Q.Q.Q.Q.Q.Q.Q.Q.Q.Q.Q.Q.Q.Q.Q.Q.Q.Q.Q.Q.Q.Q.Q.Q.Q.Q.Q.Q.Q.Q.Q.Q.Q.Q.Q.Q.Q.Q.Q.Q.Q.Q.Q.Q.Q.Q.Q.Q.Q.Q.Q.Q.Q.Q.Q.Q.Q.Q.Q.Q.Q.Q.Q.Q.Q.Q.Q.Q.Q.Q.Q.Q.Q.Q.Q.Q.Q.Q.Q.Q.Q.Q.Q.Q.Q.Q.Q.Q.Q.Q.Q.Q.Q.Q.Q.Q.Q.Q.Q.",
"Q.Q.Q.Q.Q.Q.Q.Q.Q.Q.Q.Q.Q.Q.Q.Q.Q.Q.Q.Q.Q.Q.Q.Q.Q.Q.Q.Q.Q.Q.Q.Q.Q.Q.Q.Q.Q.Q.Q.Q.Q.Q.Q.Q.Q.Q.Q.Q.Q.Q.Q.Q.Q.Q.Q.Q.Q.Q.Q.Q.Q.Q.Q.Q.Q.Q.Q.Q.Q.Q.Q.Q.Q.Q.Q.Q.Q.Q.Q.Q.Q.Q.Q.Q.Q.Q.Q.Q.Q.Q.Q.Q.Q.Q.Q.Q.Q.Q.Q.Q.Q.Q.Q.Q.Q.Q.Q.Q.Q.Q.Q.Q.Q.Q.Q.Q.Q.Q.Q.Q.Q.Q.Q.Q.Q.Q.Q.Q.Q.Q.Q.Q.Q.Q.Q.Q.Q.Q.Q.Q.Q.Q.Q.Q.Q.Q.Q.Q.Q.Q.Q.Q.Q.Q.Q.Q.Q.Q.Q.Q.Q.Q.Q.Q.Q.Q.Q.Q.Q.Q.Q.Q.Q.Q.Q.Q.Q.Q.Q.Q.Q.Q.Q.Q.Q.Q.Q.Q.Q.Q.Q.Q.Q.Q.Q.Q.Q.Q.Q.Q.Q.Q.Q.Q.Q.Q.Q.Q.Q.Q.Q.Q.Q.Q.Q.Q.Q.Q.Q.Q.Q.Q.Q.Q.Q.Q.Q.Q.Q.Q.Q.Q.Q.Q.Q.Q.Q.Q.Q.Q.Q.Q.Q.Q.Q.Q.Q.Q.Q.Q.Q.Q.Q.Q.Q.Q.Q.Q.Q.Q.Q.Q.Q.Q.Q.Q.Q.Q.Q.Q.Q.Q.Q.Q.Q.Q.Q.Q.Q.Q.Q.Q.Q.Q.Q.Q.Q.Q.Q.Q.Q.Q.Q.Q.Q.Q.Q.Q.Q.Q.Q.Q.Q.Q.Q.Q.Q.Q.Q.Q.Q.Q.Q.Q.Q.Q.Q.Q.Q.Q.Q.Q.Q.Q.Q.Q.Q.Q.Q.Q.Q.Q.Q.Q.Q.Q.Q.Q.Q.Q.Q.Q.Q.Q.Q.Q.Q.Q.Q.Q.Q.Q.Q.Q.Q.Q.Q.Q.Q.Q.Q.Q.Q.Q.Q.Q.Q.Q.Q.Q.Q.Q.Q.Q.Q.Q.Q.Q.Q.Q.Q.Q.Q.Q.Q.Q.Q.Q.Q.Q.Q.Q.Q.Q.Q.Q.Q.Q.Q.Q.Q.Q.Q.Q.Q.Q.Q.Q.Q.Q.Q.Q.Q.Q.Q.Q.Q.Q.Q.Q.Q.Q.Q.Q.Q.Q.Q.Q.Q.Q.Q.Q.Q.Q.Q.Q.Q.Q.Q.Q.Q.Q.Q.Q.Q.Q.Q.Q.Q.Q.Q.Q.Q.Q.Q.Q.Q.Q.Q.Q.Q.Q.Q.Q.Q.Q.Q.Q.Q.Q.Q.Q.Q.Q.Q.Q.Q.Q.Q.Q.Q.Q.Q.Q.Q.Q.Q.Q.Q.Q.Q.Q.Q.Q.Q.Q.Q.Q.Q.Q.Q.Q.Q.Q.Q.Q.Q.Q.Q.Q.Q.Q.Q.Q.Q.Q.Q.Q.Q.Q.Q.Q.Q.Q.Q.Q.Q.Q.Q.Q.Q.Q.Q.Q.Q.Q.Q.Q.Q.Q.Q.Q.Q.Q.Q.Q.Q.Q.Q.Q.Q.Q.Q.Q.",
"Q.Q.Q.Q.Q.Q.Q.Q.Q.Q.Q.Q.Q.Q.Q.Q.Q.Q.Q.Q.Q.Q.Q.Q.Q.Q.Q.Q.Q.Q.Q.Q.Q.Q.Q.Q.Q.Q.Q.Q.Q.Q.Q.Q.Q.Q.Q.Q.Q.Q.Q.Q.Q.Q.Q.Q.Q.Q.Q.Q.Q.Q.Q.Q.Q.Q.Q.Q.Q.Q.Q.Q.Q.Q.Q.Q.Q.Q.Q.Q.Q.Q.Q.Q.Q.Q.Q.Q.Q.Q.Q.Q.Q.Q.Q.Q.Q.Q.Q.Q.Q.Q.Q.Q.Q.Q.Q.Q.Q.Q.Q.Q.Q.Q.Q.Q.Q.Q.Q.Q.Q.Q.Q.Q.Q.Q.Q.Q.Q.Q.Q.Q.Q.Q.Q.Q.Q.Q.Q.Q.Q.Q.Q.Q.Q.Q.Q.Q.Q.Q.Q.Q.Q.Q.Q.Q.Q.Q.Q.Q.Q.Q.Q.Q.Q.Q.Q.Q.Q.Q.Q.Q.Q.Q.Q.Q.Q.Q.Q.Q.Q.Q.Q.Q.Q.Q.Q.Q.Q.Q.Q.Q.Q.Q.Q.Q.Q.Q.Q.Q.Q.Q.Q.Q.Q.Q.Q.Q.Q.Q.Q.Q.Q.Q.Q.Q.Q.Q.Q.Q.Q.Q.Q.Q.Q.Q.Q.Q.Q.Q.Q.Q.Q.Q.Q.Q.Q.Q.Q.Q.Q.Q.Q.Q.Q.Q.Q.Q.Q.Q.Q.Q.Q.Q.Q.Q.Q.Q.Q.Q.Q.Q.Q.Q.Q.Q.Q.Q.Q.Q.Q.Q.Q.Q.Q.Q.Q.Q.Q.Q.Q.Q.Q.Q.Q.Q.Q.Q.Q.Q.Q.Q.Q.Q.Q.Q.Q.Q.Q.Q.Q.Q.Q.Q.Q.Q.Q.Q.Q.Q.Q.Q.Q.Q.Q.Q.Q.Q.Q.Q.Q.Q.Q.Q.Q.Q.Q.Q.Q.Q.Q.Q.Q.Q.Q.Q.Q.Q.Q.Q.Q.Q.Q.Q.Q.Q.Q.Q.Q.Q.Q.Q.Q.Q.Q.Q.Q.Q.Q.Q.Q.Q.Q.Q.Q.Q.Q.Q.Q.Q.Q.Q.Q.Q.Q.Q.Q.Q.Q.Q.Q.Q.Q.Q.Q.Q.Q.Q.Q.Q.Q.Q.Q.Q.Q.Q.Q.Q.Q.Q.Q.Q.Q.Q.Q.Q.Q.Q.Q.Q.Q.Q.Q.Q.Q.Q.Q.Q.Q.Q.Q.Q.Q.Q.Q.Q.Q.Q.Q.Q.Q.Q.Q.Q.Q.Q.Q.Q.Q.Q.Q.Q.Q.Q.Q.Q.Q.Q.Q.Q.Q.Q.Q.Q.Q.Q.Q.Q.Q.Q.Q.Q.Q.Q.Q.Q.Q.Q.Q.Q.Q.Q.Q.Q.Q.Q.Q.Q.Q.Q.Q.Q.Q.Q.Q.Q.Q.Q.Q.Q.Q.Q.Q.Q.Q.Q.Q.Q.Q.Q.Q.Q.Q.Q.Q.Q.Q.Q.Q.Q.Q.Q.Q.Q.Q.Q.Q.Q.Q.Q.Q.Q.Q.Q.Q.Q.Q.Q.Q.Q.Q.Q.Q.Q.Q.Q.Q.Q.Q.Q.Q.Q.Q.Q.Q.Q.Q.Q.Q.Q.Q.Q.Q.Q.",
"Q.Q.Q.Q.Q.Q.Q.Q.Q.Q.Q.Q.Q.Q.Q.Q.Q.Q.Q.Q.Q.Q.Q.Q.Q.Q.Q.Q.Q.Q.Q.Q.Q.Q.Q.Q.Q.Q.Q.Q.Q.Q.Q.Q.Q.Q.Q.Q.Q.Q.Q.Q.Q.Q.Q.Q.Q.Q.Q.Q.Q.Q.Q.Q.Q.Q.Q.Q.Q.Q.Q.Q.Q.Q.Q.Q.Q.Q.Q.Q.Q.Q.Q.Q.Q.Q.Q.Q.Q.Q.Q.Q.Q.Q.Q.Q.Q.Q.Q.Q.Q.Q.Q.Q.Q.Q.Q.Q.Q.Q.Q.Q.Q.Q.Q.Q.Q.Q.Q.Q.Q.Q.Q.Q.Q.Q.Q.Q.Q.Q.Q.Q.Q.Q.Q.Q.Q.Q.Q.Q.Q.Q.Q.Q.Q.Q.Q.Q.Q.Q.Q.Q.Q.Q.Q.Q.Q.Q.Q.Q.Q.Q.Q.Q.Q.Q.Q.Q.Q.Q.Q.Q.Q.Q.Q.Q.Q.Q.Q.Q.Q.Q.Q.Q.Q.Q.Q.Q.Q.Q.Q.Q.Q.Q.Q.Q.Q.Q.Q.Q.Q.Q.Q.Q.Q.Q.Q.Q.Q.Q.Q.Q.Q.Q.Q.Q.Q.Q.Q.Q.Q.Q.Q.Q.Q.Q.Q.Q.Q.Q.Q.Q.Q.Q.Q.Q.Q.Q.Q.Q.Q.Q.Q.Q.Q.Q.Q.Q.Q.Q.Q.Q.Q.Q.Q.Q.Q.Q.Q.Q.Q.Q.Q.Q.Q.Q.Q.Q.Q.Q.Q.Q.Q.Q.Q.Q.Q.Q.Q.Q.Q.Q.Q.Q.Q.Q.Q.Q.Q.Q.Q.Q.Q.Q.Q.Q.Q.Q.Q.Q.Q.Q.Q.Q.Q.Q.Q.Q.Q.Q.Q.Q.Q.Q.Q.Q.Q.Q.Q.Q.Q.Q.Q.Q.Q.Q.Q.Q.Q.Q.Q.Q.Q.Q.Q.Q.Q.Q.Q.Q.Q.Q.Q.Q.Q.Q.Q.Q.Q.Q.Q.Q.Q.Q.Q.Q.Q.Q.Q.Q.Q.Q.Q.Q.Q.Q.Q.Q.Q.Q.Q.Q.Q.Q.Q.Q.Q.Q.Q.Q.Q.Q.Q.Q.Q.Q.Q.Q.Q.Q.Q.Q.Q.Q.Q.Q.Q.Q.Q.Q.Q.Q.Q.Q.Q.Q.Q.Q.Q.Q.Q.Q.Q.Q.Q.Q.Q.Q.Q.Q.Q.Q.Q.Q.Q.Q.Q.Q.Q.Q.Q.Q.Q.Q.Q.Q.Q.Q.Q.Q.Q.Q.Q.Q.Q.Q.Q.Q.Q.Q.Q.Q.Q.Q.Q.Q.Q.Q.Q.Q.Q.Q.Q.Q.Q.Q.Q.Q.Q.Q.Q.Q.Q.Q.Q.Q.Q.Q.Q.Q.Q.Q.Q.Q.Q.Q.Q.Q.Q.Q.Q.Q.Q.Q.Q.Q.Q.Q.Q.Q.Q.Q.Q.Q.Q.Q.Q.Q.Q.Q.Q.Q.Q.Q.Q.Q.Q.Q.Q.Q.Q.Q.Q.Q.Q.Q.Q.Q.Q.Q.Q.Q.Q.Q.Q.Q.Q.Q.Q.Q.Q.Q.Q.Q.Q.Q.Q.Q.Q.Q.Q.Q.Q.Q.",
"Q.Q.Q.Q.Q.Q.Q.Q.Q.Q.Q.Q.Q.Q.Q.Q.Q.Q.Q.Q.Q.Q.Q.Q.Q.Q.Q.Q.Q.Q.Q.Q.Q.Q.Q.Q.Q.Q.Q.Q.Q.Q.Q.Q.Q.Q.Q.Q.Q.Q.Q.Q.Q.Q.Q.Q.Q.Q.Q.Q.Q.Q.Q.Q.Q.Q.Q.Q.Q.Q.Q.Q.Q.Q.Q.Q.Q.Q.Q.Q.Q.Q.Q.Q.Q.Q.Q.Q.Q.Q.Q.Q.Q.Q.Q.Q.Q.Q.Q.Q.Q.Q.Q.Q.Q.Q.Q.Q.Q.Q.Q.Q.Q.Q.Q.Q.Q.Q.Q.Q.}.(./.Q.Q.Q././.(.(.(.(.(.(././././././.(.(.(.(././././././././.Q.Q.Q.Q.Q./././.Q.Q.Q.Q.Q.Q.Q.Q.Q.Q.Q.Q.Q.Q.Q.Q.Q.Q.Q.Q.Q.Q.Q.Q.Q.Q.Q.Q.Q.Q.R.R././././././././././././././././././././././.Q./.Q.Q.Q.Q.Q.Q.Q.Q.Q.Q.Q.Q.Q.Q.Q.Q.Q.Q.Q.Q.Q.Q.Q.Q.Q.Q.Q.Q.Q.Q.Q.Q.Q.Q.Q.Q.Q.Q.Q.Q.Q.Q.Q.Q.Q.Q.Q.Q.Q.Q.Q.Q.Q.Q.Q.Q.Q.Q.Q.Q.Q.Q.Q.Q.Q.Q.Q.Q.Q.Q.Q.Q.Q.Q.Q.Q.Q.Q.Q.Q.Q.Q.Q.Q.Q.Q.Q.Q.Q.Q.Q.Q.Q.Q.Q.Q.Q.Q.Q.Q.Q.Q.Q.Q.Q.Q.Q.Q.Q.Q.Q.Q.Q.Q.Q.Q.Q.Q.Q.Q.Q.Q.Q.Q.Q.Q.Q.Q.Q.Q.Q.Q.Q.Q.Q.Q.Q.Q.Q.Q.Q.Q.Q.Q.Q.Q.Q.Q.Q.Q.Q.Q.Q.Q.Q.Q.Q.Q.Q.Q.Q.Q.Q.Q.Q.Q.Q.Q.Q.Q.Q.Q.Q.Q.Q.Q.Q.Q.Q.Q.Q.Q.Q.Q.Q.Q.Q.Q.Q.Q.Q.Q.Q.Q.Q.Q.Q.Q.Q.Q.Q.Q.Q.Q.Q.Q.Q.Q.Q.Q.Q.Q.Q.Q.Q.Q.Q.Q.Q.Q.Q.Q.Q.Q.Q.Q.Q.Q.Q.Q.Q.Q.Q.Q.Q.Q.Q.Q.Q.Q.`.`.Q.Q.Q.Q.Q.Q././././.(.(.(.(.(./././.(.(.(.(././././././././.T.T.W.W.W.Q.Q.).Q.Q.Q.Q.Q.Q.Q.Q.Q.Q.Q.Q.Q.Q.Q.Q.Q.Q.Q.Q.Q.Q.Q.Q.Q.Q.Q.Q.Q.Q.Q.Q.Q.Q.Q.Q.Q.Q.Q.Q.Q.Q.Q.Q.Q.Q.Q.Q.Q.Q.Q.Q.Q.Q.Q.Q.Q.Q.",
"Q.Q.Q.Q.Q.Q.Q.Q.Q.Q.Q.Q.Q.Q.Q.Q.Q.Q.Q.Q.Q.Q.Q.Q.Q.Q.Q.Q.Q.Q.Q.Q.Q.Q.Q.Q.Q.Q.Q.Q.Q.Q.Q.Q.Q.Q.Q.Q.Q.Q.Q.Q.Q.Q.Q.Q.Q.Q.Q.Q.Q.Q././.Q.Q.Q.Q.Q.Q.Q.Q.Q.Q.Q.Q.Q.Q.Q.Q.Q.Q.Q.Q.Q.Q.Q.Q.Q.Q.Q.Q.Q.Q.Q.Q.Q.Q.Q.Q.Q.Q.Q.Q.Q.Q.Q.Q.Q.Q.Q.Q.Q.Q.Q.Q.Q.Q.Q.Q.}.}./.Q.Q.Q.Q.Q.W.W.W.W.W.W.W.W.W.W.W.W.W.W.W.W.W.W.W.W.W.W.W.W././.Q.Q.Q.Q.Q.Q.Q.Q.Q.Q.Q.Q.Q.Q.Q.Q.Q.Q.Q.Q.Q.Q.Q.Q.Q.Q.Q.Q.Q.Q.Q.Q.Q.Q.Q.Q.Q.Q./././././././././.Q.Q././././././././././.Q.Q./.Q.Q.Q.Q.Q.Q.Q.Q.Q.Q.Q.Q.Q.Q.Q.Q.Q.Q.Q.Q.Q.Q.Q.Q.Q.Q.Q.Q.Q.Q.Q.Q.Q.Q.Q.Q.Q.Q.Q.Q.Q.Q.Q.Q.Q.Q.Q.Q.Q.Q.Q.Q.Q.Q.Q.Q.Q.Q.Q.Q.Q.Q.Q.Q.Q.Q.Q.Q.Q.Q.Q.Q.Q.Q.Q.Q.Q.Q.Q.Q.Q.Q.Q.Q.Q.Q.Q.Q.Q.Q.Q.Q.Q.Q.Q.Q.Q.Q.Q.Q.Q.Q.Q.Q.Q.Q.Q.Q.Q.Q.Q.Q.Q.Q.Q.Q.Q.Q.Q.Q.Q.Q.Q.Q.Q.Q.Q.Q.Q.Q.Q.Q.Q.Q.Q.Q.Q.Q.Q.Q.Q.Q.Q.Q.Q.Q.Q.Q.Q.Q.Q.Q.Q.Q.Q.Q.Q.Q.Q.Q.Q.Q.Q.Q.Q.Q.Q.Q.Q.Q.Q.Q.Q.Q.Q.Q.Q.Q.Q.Q.Q.Q.Q.Q.Q.Q.Q.Q.Q.Q.Q.Q.Q.Q.Q.Q.Q.Q.Q.Q.Q.Q.Q.Q.Q.Q.Q.Q.Q.Q.Q.Q.Q.Q.Q.Q.Q.Q.Q.Q.Q.Q.Q.Q.Q.Q.Q.Q.Q.Q.Q.Q.Q.Q.Q.Q.Q.Q.Q.Q.`.`.Q.Q.Q.Q.Q.Q.W.W.W.W.Q.W.W.W.W.W.W.W.Q.W.W.W.W.W.W.W.W.W.W.W.Q.Q.Q.Q.Q.Q.Q.Q.Q.Q.Q.Q.Q.Q.Q.Q.Q.Q.Q.Q.Q.Q.Q.Q.Q.Q.Q.Q.Q.Q.Q.Q.Q.Q.Q.Q.Q.Q.Q.Q.Q.Q.Q.Q.Q.Q.Q.Q.Q.Q.Q.Q.Q.Q.Q.Q.Q.Q.Q.Q.Q.Q.Q.Q.Q.Q.",
"Q.Q.Q.Q.Q.Q.Q.Q.Q.Q.Q.Q.Q.Q.Q.Q.Q.Q.Q.Q.Q.Q.Q.Q.Q.Q.Q.Q.Q.Q.Q.Q.Q.Q.Q.Q.Q.Q.Q.Q.Q.Q.Q.Q.Q.Q.Q.Q.Q.Q.Q.Q.Q.Q.Q.Q.Q.Q.Q.Q.Q./.Q.Q.Q.Q.Q.Q.Q.Q.Q.Q.Q.Q.Q.Q.Q.Q.Q.Q.Q.Q.Q.Q.Q.Q.Q.Q.Q.Q.Q.Q.Q.Q.Q.Q.Q.Q.Q.Q.Q.Q.Q.Q.Q.Q.Q.Q.Q.Q.Q.Q.Q.Q.Q.Q.Q.Q.Q.Q./.Q.Q.W.W.W.Q.Q.Q.Q.Q.Q.Q.Q.Q.Q.Q.Q.Q.Q.Q.Q.Q.Q.Q.Q.Q.Q.Q.Q.Q.Q././.Q.W.W.W.Q.Q.Q.Q.Q.Q.Q.Q.Q.Q.Q.Q.Q.Q.Q.Q.Q.Q.Q.Q.Q.Q.Q.Q.Q.Q.Q.Q.Q.Q.Q.Q.Q.Q.Q.Q.Q.Q.R.R.R.Q.Q.Q.Q.Q.Q.R.Q.R.Q.Q.R.Q.Q.Q.Q.Q.Q.Q.Q.Q.Q.Q.Q.Q.Q.Q.Q.Q.Q.Q.Q.Q.Q.Q.Q.Q.Q.Q.Q.Q.Q.Q.Q.Q.Q.Q.Q.Q.Q.Q.Q.Q.Q.Q.Q.Q.Q.Q.Q.Q.Q.Q.Q.Q.Q.Q.Q.Q.Q.Q.Q.Q.Q.Q.Q.Q.Q.Q.Q.Q.Q.Q.Q.Q.Q.Q.Q.Q.Q.Q.Q.Q.Q.Q.Q.Q.Q.Q.Q.Q.Q.Q.Q.Q.Q.Q.Q.Q.Q.Q.Q.Q.Q.Q.Q.Q.Q.Q.Q.Q.Q.Q.Q.Q.Q.Q.Q.Q.Q.Q.Q.Q.Q.Q.Q.Q.Q.Q.Q.Q.Q.Q.Q.Q.Q.Q.Q.Q.Q.Q.Q.Q.Q.Q.Q.Q.Q.Q.Q.Q.Q.Q.Q.Q.Q.Q.Q.Q.Q.Q.Q.Q.Q.Q.Q.Q.Q.Q.Q.Q.Q.Q.Q.Q.Q.Q.Q.Q.Q.Q.Q.Q.Q.Q.Q.Q.Q.Q.Q.Q.Q.Q.Q.Q.Q.Q.Q.Q.Q.Q.Q.Q.Q.Q.Q.Q.Q.Q.Q.Q.Q.Q.Q.Q.Q.Q.Q.Q.Q.Q.Q.Q.Q.Q.Q.Q.Q.Q.Q.Q.Q.Q.Q.Q.Q.Q.Q.Q.Q.Q.Q.Q.Q.Q.Q.Q.Q.Q.Q.Q.Q.Q.Q.Q.Q.Q.Q.Q.Q.Q.Q.Q.Q.Q.Q.Q.Q.Q.Q.Q.Q.Q.Q.Q.Q.Q.Q.Q.W.W.W.W.W.W.Q.Q.Q.Q.Q.Q.Q.Q.Q.Q.Q.Q.Q.Q.Q.Q.Q.Q.Q.Q.Q.Q.Q.Q.Q.Q.Q.Q.Q.Q.Q.Q.Q.Q.Q.Q.Q.Q.Q.Q.Q.Q.Q.Q.Q.Q.Q.Q.Q.Q.Q.Q.Q.Q.Q.Q.Q.Q.Q.Q.",
"Q.Q.Q.Q.Q.Q.Q.Q.Q.Q.Q.Q.Q.Q.Q.Q.Q.Q.Q.Q.Q.Q.Q.Q.Q.Q.Q.Q.Q.Q././.Q.Q.Q.Q.Q.Q.Q.Q.Q.Q.Q.Q.Q.Q.Q.Q.Q.Q.Q.Q.Q.Q.Q.Q.Q.Q.Q.Q.Q.Q.Q.Q.Q.Q.Q.Q.Q.Q.Q.Q.Q.Q.Q.Q.Q.Q.Q.Q.Q.Q.Q.Q.Q.Q.Q.Q.Q.Q.Q.Q.Q.Q.Q.Q.Q.Q.Q.Q.Q.Q.Q.Q.Q.Q.Q.Q.Q.Q.Q.Q.Q.Q.Q.Q.Q.Q.Q.Q.W.W.W.Q.Q.Q.Q.Q.W.W.W.W.W.W.Q.Q.W.W.W.W.W.W.W.W.W.W.W.W.W.W.W.W.Q.Q.Q.W.W.W.Q.Q.Q.Q.Q.Q.Q.Q.Q.Q.Q.Q.Q.Q.Q.Q.Q.Q.Q.Q.Q.Q.Q.Q.Q.Q.Q.Q.Q.Q.Q.Q.Q.Q.T.T.T.T.T.T.T.T.T.T.T.T.T.T.T.T.T.T.T.T.T.T.T.T.Q.Q.Q.Q.Q.Q.Q.Q.Q.Q.Q.Q.Q.Q.Q.Q.Q.Q.Q.Q.Q.Q.Q.Q.Q.Q.Q.Q.Q.Q.Q.Q.Q.Q.Q.Q.Q.Q.Q.Q.Q.Q.Q.Q.Q.Q.Q.Q.Q.Q.Q.Q.Q.Q.Q.Q.Q.Q.Q.Q.Q.Q.Q.Q.Q.Q.Q.Q.Q.Q.Q.Q.Q.Q.Q.Q.Q.Q.Q.Q.Q.Q.Q.Q.Q.Q.Q.Q.Q.Q.Q.Q.Q.Q.Q.Q.Q.Q.Q.Q.Q.Q.Q.Q.Q.Q.Q.Q.Q.Q.Q.Q.Q.Q.Q.Q.Q.Q.Q.Q.Q.Q.Q.Q.Q.Q.Q.Q.Q.Q.Q.Q.Q.Q.Q.Q.Q.Q.Q.Q.Q.Q.Q.Q.Q.Q.Q.Q.Q.Q.Q.Q.Q.Q.Q.Q.Q.Q.Q.Q.Q.Q.Q.Q.Q.Q.Q.Q.Q.Q.Q.Q.Q.Q.Q.Q.Q.Q.Q.Q.Q.Q.Q.Q.Q.Q.Q.Q.Q.Q.Q.Q.Q.Q.Q.Q.Q.Q.Q.Q.Q.Q.Q.Q.Q.Q.Q.Q.Q.Q.Q.Q.Q.Q.Q.Q.Q.Q.Q.Q.Q.Q.Q.Q.Q.Q.Q.Q.Q.Q.Q.Q.Q.Q.Q.Q.Q.Q.Q.Q.`.`.`.`.Q.Q.Q.Q.W.W.W.W.Q.W.W.W.W.Q.Q.Q.Q.W.W.W.W.W.W.W.W.W.W.W.W.W.Q.Q.Q.W.Q.Q.Q.Q.Q.Q.Q.Q.Q.Q.Q.Q.Q.Q.Q.Q.Q.Q.Q.Q.Q.Q.Q.Q.Q.Q.Q.Q.Q.Q.Q.Q.Q.Q.Q.Q.Q.Q.Q.Q.Q.Q.Q.Q.Q.Q.Q.Q.Q.Q.Q.Q.Q.Q.Q.Q.Q.Q.Q.Q.",
"Q.Q.Q.Q.Q.Q.Q.Q.Q.Q.Q.Q.Q.Q.Q.Q.Q.Q.Q.Q.Q.Q.Q.Q.Q.Q.Q.Q.Q./././.(.{.{./.{./.Q.`.`.Q.Q.Q.Q.`.`.Q.`.Q.`.`.Q.Q.Q.Q.Q.Q.Q.Q.Q.Q.Q.T.Q.Q.Q.Q.Q.Q.Q.Q.Q.Q.Q.Q.Q.Q.Q.Q.Q.Q.Q.Q.Q.Q.Q.Q.Q.Q.Q.Q.Q.Q.Q.Q.Q.Q.Q.Q.Q.Q.Q.Q.Q.Q.Q.Q.Q.Q.Q.Q.Q.Q.Q.Q.Q.Q.Q.Q.Q.Q.Q./././././.W.W.W.Q.Q.W.W.W.W.W.Q.Q.W.W.W.Q.Q.Q.W.W.W.W.W.W.W.W.Q.Q.Q.Q.Q.Q.Q.Q.Q.Q.Q.Q.Q.Q.Q.Q.Q.Q.Q.Q.Q.Q.Q.Q.Q.Q.Q.Q.Q.Q.{.{.{.}.}.}.`.`.Q.Q.Q.Q.Q.Q.Q.Q.Q.Q.Q.Q.Q.Q.Q.Q.Q.Q.Q.Q.Q.Q.Q.Q.Q.Q.Q.Q.Q.Q.Q.Q.Q.Q.Q.Q.Q.Q.Q.Q.Q.Q.Q.Q.Q.Q.Q.Q.Q.Q.Q.Q.Q.Q.Q.Q.Q.Q.Q.Q.Q.Q.Q.Q.Q.Q.Q.Q.Q.Q.Q.Q.Q.Q.Q.Q.Q.Q.Q.Q.Q.Q.Q.Q.Q.Q.Q.Q.Q.Q.Q.Q.Q.Q.Q.Q.Q.Q.Q.Q.Q.Q.Q.Q.Q.Q.Q.Q.Q.Q.Q.Q.Q.Q.Q.Q.Q.Q.Q.Q.Q.Q.Q.Q.Q.Q.Q.Q.Q.Q.Q.Q.Q.Q.Q.Q.Q.Q.Q.Q.Q.Q.Q.Q.Q.Q.Q.Q.Q.Q.Q.Q.Q.Q.Q.Q.Q.Q.Q.Q.Q.Q.Q.Q.Q.Q.Q.Q.Q.Q.Q.Q.Q.Q.Q.Q.Q.Q.Q.Q.Q.Q.Q.Q.Q.Q.Q.Q.Q.Q.Q.Q.Q.Q.Q.Q.Q.Q.Q.Q.Q.Q.Q.Q.Q.Q.Q.Q.Q.Q.Q.Q.Q.Q.Q.Q.Q.Q.Q.Q.Q.Q.Q.Q.Q.Q.Q.Q.Q.Q.Q.Q.Q.Q.Q.Q.Q.Q.Q.Q.`.Q.`.`.Q.Q.Q.Q.Q.`.Q.`.`.`.`.`.Q.Q.`.`.`.`.Q.Q. X X}.}.Q.Q./.Q.W.W.W.W.W.W.W.W.W.W.W.W.W.W.W.W.Q.Q.W.W.W.W.W.W.(.(.(.(.).Q.Q.W.Q.Q.Q.Q.Q.Q.Q.Q.Q.Q.Q.Q.Q.Q.Q.Q.Q.Q.Q.Q.Q.Q.Q.Q.Q.Q.Q.Q.Q.Q.Q.Q.Q.Q.Q.Q.Q.Q.Q.Q.Q.Q.Q.Q.Q.Q.Q.Q.Q.Q.Q.Q.Q.Q.Q.Q.Q.Q.",
"Q.Q.Q.Q.Q.Q.Q.Q.Q.Q.Q.Q.Q.Q.Q.Q.Q.Q.Q.Q.Q.Q.Q.Q.Q.Q.Q.Q././.(.(.Q.Q.Q.Q.Q.Q.Q.Q.Q.Q.Q.Q.Q.Q.Q.Q.Q.Q.Q.Q.Q.Q.Q.Q.Q.`.Q.Q.Q.Q.Q.T.Q.Q.Q.Q.Q.Q.Q.Q.Q.Q.Q.Q.Q.Q.Q.Q.Q.Q.Q.Q.Q.Q.Q.Q.Q.Q.Q.Q.Q.Q.Q.Q.Q.Q.Q.Q.Q.Q.Q.Q.Q.Q.Q.Q.Q.Q.Q.Q.Q.Q.Q.Q.Q.Q.Q.Q.Q.Q.Q.Q.Q.Q.Q.W.W.W.W.Q.Q.W.W.W.W.W.W.W.W.W.W.Q.Q.W.W.W.W.W.W.W.Q.Q.Q.Q.Q.Q././.Q.Q.Q.Q.Q.Q.Q.Q.Q.Q.Q.Q.Q.Q.Q.Q.Q.Q.Q.Q.Q.Q.Q.Q.Q.Q.Q.Q.Q.Q.Q.Q.Q.Q.Q.Q.Q.Q.Q.Q.Q.Q.Q.Q.Q.Q.Q.Q.Q.Q.Q.Q.Q.Q.Q.Q.Q.Q.Q.Q.Q.Q.Q.Q.Q.Q.Q.Q.Q.Q.Q.Q.Q.Q.Q.Q.Q.Q.Q.Q.Q.Q.Q.Q.Q.Q.Q.Q.Q.Q.Q.Q.Q.Q.Q.Q.Q.Q.Q.Q.Q.Q.Q.Q.Q.Q.Q.Q.Q.Q.Q.Q.Q.Q.Q.Q.Q.Q.Q.Q.Q.Q.Q.Q.Q.Q.Q.Q.Q.Q.Q.Q.Q.Q.Q.Q.Q.Q.Q.Q.Q.Q.Q.Q.Q.Q.Q.Q.Q.Q.Q.Q.Q.Q.Q.Q.Q.Q.Q.Q.Q.Q.Q.Q.Q.Q.Q.Q.Q.Q.Q.Q.Q.Q.Q.Q.Q.Q.Q.Q.Q.Q.Q.Q.Q.Q.Q.Q.Q.Q.Q.Q.Q.Q.Q.Q.Q.Q.Q.Q.Q.Q.Q.Q.Q.Q.Q.Q.Q.Q.Q.Q.Q.Q.Q.Q.Q.Q.Q.Q.Q.Q.Q.Q.Q.Q.Q.Q.Q.Q.Q.Q.Q.Q.Q.Q.Q.Q.Q.Q.Q.Q.Q.Q.Q.Q.Q.Q.Q.Q.Q.Q.Q.Q.Q.Q.Q.Q.Q.Q.Q.Q.Q.Q.Q.Q.Q.Q.Q.Q.Q.Q.Q.Q.Q.Q.Q.Q.Q.Q.Q.Q.Q.Q.Q.Q.Q.Q.Q.Q.Q.Q.Q.Q.Q.Q.`.`.`.`.Q.Q.Q.Q.W.W.W.W.W.W.W.W.W.W.W.W.W.W.W.W.Q.W.W.W.W.W.W.W.W.W.W.W.Q.Q.Q.Q.Q.Q.Q.Q.Q.Q.Q.Q.Q.Q.Q.Q.Q.Q.Q.Q.Q.Q.Q.Q.Q.Q.Q.Q.Q.Q.Q.Q.Q.Q.Q.Q.Q.Q.Q.Q.Q.Q.Q.Q.Q.Q.Q.Q.Q.Q.Q.Q.Q.Q.Q.Q.Q.Q.Q.Q.Q.Q.",
"Q.Q.Q.Q.Q.Q.Q.Q.Q.Q.Q.Q.Q.Q.Q.Q.Q.Q.Q.Q.Q.Q.Q.Q.Q.Q.Q././.(.(.(.Q.Q.Q.Q.Q.Q.Q.Q.}.}.}.}.}.}.}.}.{.{.}.}.}.}.}.}.}.}.}.}.`.`.Q.`.Q.Q.Q.Q.Q.Q.Q.Q.Q.Q.Q.Q.Q.Q.Q.Q.Q.Q.Q.Q.Q.Q.Q.Q.Q.Q.Q.Q.Q.Q.Q.Q.Q.Q.Q.Q.Q.Q.Q.Q.Q.Q.Q.Q.Q.Q.Q.Q.Q.Q.Q.Q.Q.Q.Q.Q.W.Q./.}.}.}.}.}.(.(.(.(.(.(.(.(.(.(.(.(.(.(.(.(.(.(.(.(.(.(.(.(.>X=X(.Q.W.Q.Q.(.Q.Q.Q.Q.Q.Q.Q.Q.Q.Q.Q.Q.Q.Q.Q.Q.Q.Q.Q.Q.Q.Q.Q.Q.`.`.`.`.'.'.'.`.(.(.(.(.(.(.(.!.(.(.!.(.(.(.(.(.(.(.(.!.(.(.(.(.Q.Q.Q.Q.Q.Q.Q.Q.Q.Q.Q.Q.Q.Q.Q.Q.Q.Q.Q.Q.Q.Q.Q.Q.Q.Q.Q.Q.Q.Q.Q.Q.Q.Q.Q.Q.Q.Q.Q.Q.Q.Q.Q.Q.Q.Q.Q.Q.Q.Q.Q.Q.Q.Q.Q.Q.Q.Q.Q.Q.Q.Q.Q.Q.Q.Q.Q.Q.Q.Q.Q.Q.Q.Q.Q.Q.Q.Q.Q.Q.Q.Q.Q.Q.Q.Q.Q.Q.Q.Q.Q.Q.Q.Q.Q.Q.Q.Q.Q.Q.Q.Q.Q.Q.Q.Q.Q.Q.Q.Q.Q.Q.Q.Q.Q.Q.Q.Q.Q.Q.Q.Q.Q.Q.Q.Q.Q.Q.Q.Q.Q.Q.Q.Q.Q.Q.Q.Q.Q.Q.Q.Q.Q.Q.Q.Q.Q.Q.Q.Q.Q.Q.Q.Q.Q.Q.Q.Q.Q.Q.Q.Q.Q.Q.Q.Q.Q.Q.Q.Q.Q.Q.Q.Q.Q.Q.Q.Q.Q.Q.Q.Q.Q.Q.Q.Q.Q.Q.Q.Q.Q.Q.Q.Q.Q.Q.Q.Q.Q.Q.Q.Q.Q.Q.Q.Q.Q.Q.Q.Q.Q.Q.Q.Q.Q.Q.{.{.}.}.}.}.}.}.}.}.{.{.}.}.}.}.}.}.}.}.{.}.}.}.Q.`.`.{.}.}.}.}.(.(.(.(.(.(.(.(.(.(.(.(.(.(.(.(.(.(.(.(.(.(.(.(.(.(.(.(.).Q.Q.Q.Q.Q.Q.Q.Q.Q.Q.Q.Q.Q.Q.Q.Q.Q.Q.Q.Q.Q.Q.Q.Q.Q.Q.Q.Q.Q.Q.Q.Q.Q.Q.Q.Q.Q.Q.Q.Q.Q.Q.Q.Q.Q.Q.Q.Q.Q.Q.Q.Q.Q.Q.Q.Q.Q.Q.Q.Q.Q.",
"Q.Q.Q.Q.Q.Q.Q.Q.Q.Q.Q.Q.Q.Q.Q.Q.Q.Q.Q.Q.Q.Q.Q.Q.Q.Q./././.(.(.(.:X:X:X:X:X:X:X:X:X:X:X:X:X:X:X:X:X:X:X:X:X:X:X:X:X:X|.|.|.}.}.}.Q.Q.Q.Q.Q.Q.Q.Q.Q.Q.Q.Q.Q.Q.Q.Q.Q.Q.Q.Q.Q.Q.Q.Q.Q.Q.Q.Q.Q.Q.Q.Q.Q.Q.Q.Q.Q.Q.Q.Q.Q.Q.Q.Q.Q.Q.Q.Q.Q.Q.Q.Q.Q.Q.Q.Q.Q.(.=XsXvXbXmXmXbXbXbXbXbXbXbXbXbXbXbXbXbXbXbXbXbXbXbXbXbXbXbXbXbXsX}.W.E.W.Q.}.Q.Q.Q.Q.Q.Q.Q.Q.Q.Q.Q.Q.Q.Q.Q.Q.Q.Q.Q.Q.Q.Q.Q.Q.:X:X:X:X:X:X:X:X>X>X>X>X>X>X>X>X>X>X>X>X>X>X>X>X>X>X>X>X>X>X>X>XQ.Q.Q.Q.Q.Q.Q.Q.Q.Q.Q.Q.Q.Q.Q.Q.Q.Q.Q.Q.Q.Q.Q.Q.Q.Q.Q.Q.Q.Q.Q.Q.Q.Q.Q.Q.Q.Q.Q.Q.Q.Q.Q.Q.Q.Q.Q.Q.Q.Q.Q.Q.Q.Q.Q.Q.Q.Q.Q.Q.Q.Q.Q.Q.Q.Q.Q.Q.Q.Q.Q.Q.Q.Q.Q.Q.Q.Q.Q.Q.Q.Q.Q.Q.Q.Q.Q.Q.Q.Q.Q.Q.Q.Q.Q.Q.Q.Q.Q.Q.Q.Q.Q.Q.Q.Q.Q.Q.Q.Q.Q.Q.Q.Q.Q.Q.Q.Q.Q.Q.Q.Q.Q.Q.Q.Q.Q.Q.Q.Q.Q.Q.Q.Q.Q.Q.Q.Q.Q.Q.Q.Q.Q.Q.Q.Q.Q.Q.Q.Q.Q.Q.Q.Q.Q.Q.Q.Q.Q.Q.Q.Q.Q.Q.Q.Q.Q.Q.Q.Q.Q.Q.Q.Q.Q.Q.Q.Q.Q.Q.Q.Q.Q.Q.Q.Q.Q.Q.Q.Q.Q.Q.Q.Q.Q.Q.Q.Q.Q.Q.Q.Q.Q.Q.Q.Q.Q.Q.Q.Q.Q.Q.Q.Q.Q.Q.:X:X:X:X:X:X:X:X:X:X:X:X:X:X:X:X:X:X:X:X:X:X:X:X X|.:X:X>XvXvXvXbXbXbXbXbXbXbXbXbXbXbXbXbXbXbXbXbXbXbXbXbXbXbXbXmXbXvXsX=X(.Q.W.Q.Q.Q.Q.Q.Q.Q.Q.Q.Q.Q.Q.Q.Q.Q.Q.Q.Q.Q.Q.Q.Q.Q.Q.Q.Q.Q.Q.Q.Q.Q.Q.Q.Q.Q.Q.Q.Q.Q.Q.Q.Q.Q.Q.Q.Q.Q.Q.Q.Q.Q.Q.Q.Q.Q.Q.Q.Q.",
"Q.Q.Q.Q.Q.Q.Q.Q.Q.Q.Q.Q.Q.Q.Q.Q.Q.Q.Q.Q.Q.Q.Q.Q.Q.Q.Q.Q./.Q.Q.:X=X=X=X=X=X=X=X=X=X=X=X=X=X=X=X=X;X;X;X;X=X=X=X=X=X:X;X|.=X}.Q.`.Q.Q.Q.Q.Q.Q.Q.Q.Q.Q.Q.Q.Q.Q.Q.Q.Q.Q.Q.Q.Q.Q.Q.Q.Q.Q.Q.Q.Q.Q.Q.Q.Q.Q.Q.Q.Q.Q.Q.Q.Q.Q.Q.Q.Q.Q.Q.Q.Q.Q.Q.Q.Q.Q.Q.Q.W.Q.W.dXlXlXkXlXkXkXkXlXlXlXkXkXkXkXlXlXkXkXkXkXkXkXlXlXlXkXkXkXdXdX(.Q.Q.Q.Q.W.Q.Q.Q.Q.Q.Q.Q.Q.Q.Q.Q.Q.Q.Q.Q.Q.Q.Q.Q.Q.Q.Q.Q.Q.}.eXtXyXrXeXrXrXrXrXrXrXrXrXrXrXrXrXeXeXrXrXrXrXrXrXrXtXtXtX>X:XQ.Q.Q.Q.Q.Q.Q.Q.Q.Q.Q.Q.Q.Q.Q.Q.Q.Q.Q.Q.Q.Q.Q.Q.Q.Q.Q.Q.Q.Q.Q.Q.Q.Q.Q.Q.Q.Q.Q.Q.Q.Q.Q.Q.Q.Q.Q.Q.Q.Q.Q.Q.Q.Q.Q.Q.Q.Q.Q.Q.Q.Q.Q.Q.Q.Q.Q.Q.Q.Q.Q.Q.Q.Q.Q.Q.Q.Q.Q.Q.Q.Q.Q.Q.Q.Q.Q.Q.Q.Q.Q.Q.Q.Q.Q.Q.Q.Q.Q.Q.Q.Q.Q.Q.Q.Q.Q.Q.Q.Q.Q.Q.Q.Q.Q.Q.Q.Q.Q.Q.Q.Q.Q.Q.Q.Q.Q.Q.Q.Q.Q.Q.Q.Q.Q.Q.Q.Q.Q.Q.Q.Q.Q.Q.Q.Q.Q.Q.Q.Q.Q.Q.Q.Q.Q.Q.Q.Q.Q.Q.Q.Q.Q.Q.Q.Q.Q.Q.Q.Q.Q.Q.Q.Q.Q.Q.Q.Q.Q.Q.Q.Q.Q.Q.Q.Q.Q.Q.Q.Q.Q.Q.Q.Q.Q.Q.Q.Q.Q.Q.Q.Q.Q.Q.Q.Q.Q.Q./.Q.Q./.Q.Q.}.:X=X=X=X=X=X=X=X=X=X=X=X=X=X=X=X=X=X=X=X=X;X;X=X=X:X X|.=X=X>XlXkXlXlXlXlXlXlXlXlXkXkXkXkXkXkXkXkXkXkXlXlXlXkXkXkXkXkXkXbX-XW.).Q.Q.Q.Q.Q.Q.Q.Q.Q.Q.Q.Q.Q.Q.Q.Q.Q.Q.Q.Q.Q.Q.Q.Q.Q.Q.Q.Q.Q.Q.Q.Q.Q.Q.Q.Q.Q.Q.Q.Q.Q.Q.Q.Q.Q.Q.Q.Q.Q.Q.Q.Q.Q.Q.Q.Q.Q.Q.Q.",
"Q.Q.Q.Q.Q.Q.Q.Q.Q.Q.Q.Q.Q.Q.Q.Q.Q.Q.Q.Q.Q.Q.Q.Q.Q.Q.Q.Q./.Q.Q.:X=X=X=X=X=X=X=X=X=X=X=X=X=X=X=X=X=X=X;X;X=X=X=X=X=X:X=X|.=X}.Q.`.Q.Q.Q.Q.Q.Q.Q.Q.Q.Q.Q.Q.Q.Q.Q.Q.Q.Q.Q.Q.Q.Q.Q.Q.Q.Q.Q.Q.Q.Q.Q.Q.Q.Q.Q.Q.Q.Q.Q.Q.Q.Q.Q.Q.Q.Q.Q.Q.Q.Q.Q.Q.Q.Q.Q.Q.W.Q.W.dXlXlXkXlXkXkXlXlXlXlXkXkXkXkXlXlXlXlXkXkXkXkXlXlXkXkXkXkXdXdX(.Q.Q.Q.Q.W.Q.Q.Q.Q.Q.Q.Q.Q.Q.Q.Q.Q.Q.Q.Q.Q.Q.Q.Q.Q.Q.Q.Q.Q.}.eXtXyXrXeXrXrXrXrXrXrXrXrXrXrXeXeXeXeXrXrXrXrXrXrXrXtXtXtX>X:XQ.Q.Q.Q.Q.Q.Q.Q.Q.Q.Q.Q.Q.Q.Q.Q.Q.Q.Q.Q.Q.Q.Q.Q.Q.Q.Q.Q.Q.Q.Q.Q.Q.Q.Q.Q.Q.Q.Q.Q.Q.Q.Q.Q.Q.Q.Q.Q.Q.Q.Q.Q.Q.Q.Q.Q.Q.Q.Q.Q.Q.Q.Q.Q.Q.Q.Q.Q.Q.Q.Q.Q.Q.Q.Q.Q.Q.Q.Q.Q.Q.Q.Q.Q.Q.Q.Q.Q.Q.Q.Q.Q.Q.Q.Q.Q.Q.Q.Q.Q.Q.Q.Q.Q.Q.Q.Q.Q.Q.Q.Q.Q.Q.Q.Q.Q.Q.Q.Q.Q.Q.Q.Q.Q.Q.Q.Q.Q.Q.Q.Q.Q.Q.Q.Q.Q.Q.Q.Q.Q.Q.Q.Q.Q.Q.Q.Q.Q.Q.Q.Q.Q.Q.Q.Q.Q.Q.Q.Q.Q.Q.Q.Q.Q.Q.Q.Q.Q.Q.Q.Q.Q.Q.Q.Q.Q.Q.Q.Q.Q.Q.Q.Q.Q.Q.Q.Q.Q.Q.Q.Q.Q.Q.Q.Q.Q.Q.Q.Q.Q.Q.Q.Q.Q.Q.Q.Q.Q./.Q.Q./.Q.Q.}.:X=X=X=X=X=X=X=X=X=X=X=X=X=X=X=X=X=X=X=X=X;X=X=X=X:X X|.=X=X>XlXkXlXlXlXlXlXlXlXlXkXkXkXkXlXkXkXkXkXkXlXkXlXkXkXkXkXkXkXbX-XW.).Q.Q.Q.Q.Q.Q.Q.Q.Q.Q.Q.Q.Q.Q.Q.Q.Q.Q.Q.Q.Q.Q.Q.Q.Q.Q.Q.Q.Q.Q.Q.Q.Q.Q.Q.Q.Q.Q.Q.Q.Q.Q.Q.Q.Q.Q.Q.Q.Q.Q.Q.Q.Q.Q.Q.Q.Q.Q.Q.",
"Q.Q.Q.Q.Q.Q.Q.Q.Q.Q.Q.Q.Q.Q.Q.Q.Q.Q.Q.Q.Q.Q.Q.Q.Q.Q.Q.Q.}.Q.Q.:X=X=X=X=X=X=X=X=X=X=X=X=X;X;X=X=X=X=X=X=X=X=X=X=X=X:X=X|.=X}.`.`.Q.Q.Q.Q.Q.Q.Q.Q.Q.Q.Q.Q.Q.Q.Q.Q.Q.Q.Q.Q.Q.Q.Q.Q.Q.Q.Q.Q.Q.Q.Q.Q.Q.Q.Q.Q.Q.Q.Q.Q.Q.Q.Q.Q.Q.Q.Q.Q.Q.Q.Q.Q.Q.Q.Q.Q.W.Q.W.dXlXlXkXlXkXkXkXkXlXkXkXkXkXkXlXlXlXlXlXkXkXkXkXlXkXkXkXkXdXdX(.Q.Q.Q.Q.W.Q.Q.Q.Q.Q.Q.Q.Q.Q.Q.Q.Q.Q.Q.Q.Q.Q.Q.Q.Q.Q.Q.Q.Q.}.eXtXrXrXtXrXrXeXrXrXrXrXrXeXeXeXeXeXeXeXeXrXrXrXrXrXtXtXtX>X:XQ.Q.Q.Q.Q.Q.Q.Q.Q.Q.Q.Q.Q.Q.Q.Q.Q.Q.Q.Q.Q.Q.Q.Q.Q.Q.Q.Q.Q.Q.Q.Q.Q.Q.Q.Q.Q.Q.Q.Q.Q.Q.Q.Q.Q.Q.Q.Q.Q.Q.Q.Q.Q.Q.Q.Q.Q.Q.Q.Q.Q.Q.Q.Q.Q.Q.Q.Q.Q.Q.Q.Q.Q.Q.Q.Q.Q.Q.Q.Q.Q.Q.Q.Q.Q.Q.Q.Q.Q.Q.Q.Q.Q.Q.Q.Q.Q.Q.Q.Q.Q.Q.Q.Q.Q.Q.Q.Q.Q.Q.Q.Q.Q.Q.Q.Q.Q.Q.Q.Q.Q.Q.Q.Q.Q.Q.Q.Q.Q.Q.Q.Q.Q.Q.Q.Q.Q.Q.Q.Q.Q.Q.Q.Q.Q.Q.Q.Q.Q.Q.Q.Q.Q.Q.Q.Q.Q.Q.Q.Q.Q.Q.Q.Q.Q.Q.Q.Q.Q.Q.Q.Q.Q.Q.Q.Q.Q.Q.Q.Q.Q.Q.Q.Q.Q.Q.Q.Q.Q.Q.Q.Q.Q.Q.Q.Q.Q.Q.Q.Q.Q.Q.Q.Q.Q.Q.Q.Q./.Q.Q./.Q.Q.}.:X=X=X=X=X=X=X=X=X=X=X=X=X;X=X=X=X=X=X=X=X;X;X=X=X:X X|.=X=X>XlXkXlXlXlXlXlXlXlXlXkXkXlXkXlXlXkXkXkXkXkXkXkXkXkXkXkXkXkXbX-XW.).Q.Q.Q.Q.Q.Q.Q.Q.Q.Q.Q.Q.Q.Q.Q.Q.Q.Q.Q.Q.Q.Q.Q.Q.Q.Q.Q.Q.Q.Q.Q.Q.Q.Q.Q.Q.Q.Q.Q.Q.Q.Q.Q.Q.Q.Q.Q.Q.Q.Q.Q.Q.Q.Q.Q.Q.Q.Q.Q.",
"Q.Q.Q.Q.Q.Q.Q.Q.Q.Q.Q.Q.Q.Q.Q.Q.Q.Q.Q.Q.Q.Q.Q.Q.Q.Q.Q.Q.Q.Q.Q.:X=X=X=X=X=X=X=X=X=X=X=X=X;X;X;X=X=X=X=X=X=X=X=X=X=X:X=X|.=X}.`.`.Q.Q.Q.Q.Q.Q.Q.Q.Q.Q.Q.Q.Q.Q.Q.Q.Q.Q.Q.Q.Q.Q.Q.Q.Q.Q.Q.Q.Q.Q.Q.Q.Q.Q.Q.Q.Q.Q.Q.Q.Q.Q.Q.Q.Q.Q.Q.Q.Q.Q.Q.Q.Q.Q.Q.Q.W.Q.W.dXbXlXlXlXkXkXkXkXkXkXkXkXkXkXlXlXlXlXlXkXkXkXlXlXkXkXkXkXdXdX(.Q.Q.Q.Q.W.Q.Q.Q.Q.Q.Q.Q.Q.Q.Q.Q.Q.Q.Q.Q.Q.Q.Q.Q.Q.Q.Q.Q.Q.}.eXtXrXrXtXrXrXeXrXrXrXrXeXeXeXeXeXeXeXeXrXrXrXrXrXrXtXvXtX>X:XQ.Q.Q.Q.Q.Q.Q.Q.Q.Q.Q.Q.Q.Q.Q.Q.Q.Q.Q.Q.Q.Q.Q.Q.Q.Q.Q.Q.Q.Q.Q.Q.Q.Q.Q.Q.Q.Q.Q.Q.Q.Q.Q.Q.Q.Q.Q.Q.Q.Q.Q.Q.Q.Q.Q.Q.Q.Q.Q.Q.Q.Q.Q.Q.Q.Q.Q.Q.Q.Q.Q.Q.Q.Q.Q.Q.Q.Q.Q.Q.Q.Q.Q.Q.Q.Q.Q.Q.Q.Q.Q.Q.Q.Q.Q.Q.Q.Q.Q.Q.Q.Q.Q.Q.Q.Q.Q.Q.Q.Q.Q.Q.Q.Q.Q.Q.Q.Q.Q.Q.Q.Q.Q.Q.Q.Q.Q.Q.Q.Q.Q.Q.Q.Q.Q.Q.Q.Q.Q.Q.Q.Q.Q.Q.Q.Q.Q.Q.Q.Q.Q.Q.Q.Q.Q.Q.Q.Q.Q.Q.Q.Q.Q.Q.Q.Q.Q.Q.Q.Q.Q.Q.Q.Q.Q.Q.Q.Q.Q.Q.Q.Q.Q.Q.Q.Q.Q.Q.Q.Q.Q.Q.Q.Q.Q.Q.Q.Q.Q.Q.Q.Q.Q.Q.Q.Q.Q.Q./.Q.Q./.Q.Q.}.:X=X=X=X=X=X=X=X=X=X=X=X=X;X;X;X=X=X=X=X;X;X;X=X=X:X X|.=X=X>XlXkXlXlXlXlXlXlXlXlXkXkXlXlXlXlXkXkXkXkXkXkXkXkXkXkXkXkXkXbX-XW.).Q.Q.Q.Q.Q.Q.Q.Q.Q.Q.Q.Q.Q.Q.Q.Q.Q.Q.Q.Q.Q.Q.Q.Q.Q.Q.Q.Q.Q.Q.Q.Q.Q.Q.Q.Q.Q.Q.Q.Q.Q.Q.Q.Q.Q.Q.Q.Q.Q.Q.Q.Q.Q.Q.Q.Q.Q.Q.Q.",
"Q.Q.Q.Q.Q.Q.Q.Q.Q.Q.Q.Q.Q.Q.Q.Q.Q.Q.Q.Q.Q.Q.Q.Q.Q.Q.Q.Q.}.Q.Q.:X=X=X=X=X=X=X=X=X=X=X;X;X;X=X=X=X=X=X=X=X=X=X=X=X=X:X=X|.=X}.`.`.Q.Q.Q.Q.Q.Q.Q.Q.Q.Q.Q.Q.Q.Q.Q.Q.Q.Q.Q.Q.Q.Q.Q.Q.Q.Q.Q.Q.Q.Q.Q.Q.Q.Q.Q.Q.Q.Q.Q.Q.Q.Q.Q.Q.Q.Q.Q.Q.Q.Q.Q.Q.Q.Q.Q.Q.W.Q.W.vXbXlXlXlXlXlXlXkXkXkXlXlXkXkXlXlXlXlXkXkXlXlXkXkXlXlXlXlXlXdX(.Q.Q.Q.Q.W.Q.Q.Q.Q.Q.Q.Q.Q.Q.Q.Q.Q.Q.Q.Q.Q.Q.Q.Q.Q.Q.Q.Q.Q.}.eXtXyXrXtXrXrXeXeXrXrXrXrXeXeXeXeXrXrXeXeXeXeXtXrXrXeXtXtX>X:XQ.Q.Q.Q.Q.Q.Q.Q.Q.Q.Q.Q.Q.Q.Q.Q.Q.Q.Q.Q.Q.Q.Q.Q.Q.Q.Q.Q.Q.Q.Q.Q.Q.Q.Q.Q.Q.Q.Q.Q.Q.Q.Q.Q.Q.Q.Q.Q.Q.Q.Q.Q.Q.Q.Q.Q.Q.Q.Q.Q.Q.Q.Q.Q.Q.Q.Q.Q.Q.Q.Q.Q.Q.Q.Q.Q.Q.Q.Q.Q.Q.Q.Q.Q.Q.Q.Q.Q.Q.Q.Q.Q.Q.Q.Q.Q.Q.Q.Q.Q.Q.Q.Q.Q.Q.Q.Q.Q.Q.Q.Q.Q.Q.Q.Q.Q.Q.Q.Q.Q.Q.Q.Q.Q.Q.Q.Q.Q.Q.Q.Q.Q.Q.Q.Q.Q.Q.Q.Q.Q.Q.Q.Q.Q.Q.Q.Q.Q.Q.Q.Q.Q.Q.Q.Q.Q.Q.Q.Q.Q.Q.Q.Q.Q.Q.Q.Q.Q.Q.Q.Q.Q.Q.Q.Q.Q.Q.Q.Q.Q.Q.Q.Q.Q.Q.Q.Q.Q.Q.Q.Q.Q.Q.Q.Q.Q.Q.Q.Q.Q.Q.Q.Q.Q.Q.Q.Q.Q./.Q.Q./.Q.Q.Q.=X=X=X=X=X=X=X=X=X=X=X;X;X;X;X=X=X=X;X;X=X=X=X=X=X:X X|.=X=X>XlXkXlXlXlXlXlXlXlXlXkXlXlXlXlXlXkXkXlXlXkXkXkXlXlXlXkXkXkXbX-XW.).Q.Q.Q.Q.Q.Q.Q.Q.Q.Q.Q.Q.Q.Q.Q.Q.Q.Q.Q.Q.Q.Q.Q.Q.Q.Q.Q.Q.Q.Q.Q.Q.Q.Q.Q.Q.Q.Q.Q.Q.Q.Q.Q.Q.Q.Q.Q.Q.Q.Q.Q.Q.Q.Q.Q.Q.Q.Q.Q.",
"Q.Q.Q.Q.Q.Q.Q.Q.Q.Q.Q.Q.Q.Q.Q.Q.Q.Q.Q.Q.Q.Q.Q.Q.Q.Q.Q.Q.}.Q.Q.:X=X=X=X=X=X=X=X=X=X=X=X;X;X;X=X=X;X;X=X=X=X=X=X=X=X:X=X|.=X}.`.`.Q.Q.Q.Q.Q.Q.Q.Q.Q.Q.Q.Q.Q.Q.Q.Q.Q.Q.Q.Q.Q.Q.Q.Q.Q.Q.Q.Q.Q.Q.Q.Q.Q.Q.Q.Q.Q.Q.Q.Q.Q.Q.Q.Q.Q.Q.Q.Q.Q.Q.Q.Q.Q.Q.Q.Q.W.Q.W.vXbXlXlXlXlXlXlXkXkXkXkXlXkXkXlXlXkXlXkXkXlXlXlXkXlXlXlXlXlXdX(.Q.Q.Q.Q.W.Q.Q.Q.Q.Q.Q.Q.Q.Q.Q.Q.Q.Q.Q.Q.Q.Q.Q.Q.Q.Q.Q.Q.Q.}.eXtXyXrXtXrXrXeXeXrXrXrXrXeXeXeXeXrXrXeXeXeXeXtXrXrXeXtXtX>X:XQ.Q.Q.Q.Q.Q.Q.Q.Q.Q.Q.Q.Q.Q.Q.Q.Q.Q.Q.Q.Q.Q.Q.Q.Q.Q.Q.Q.Q.Q.Q.Q.Q.Q.Q.Q.Q.Q.Q.Q.Q.Q.Q.Q.Q.Q.Q.Q.Q.Q.Q.Q.Q.Q.Q.Q.Q.Q.Q.Q.Q.Q.Q.Q.Q.Q.Q.Q.Q.Q.Q.Q.Q.Q.Q.Q.Q.Q.Q.Q.Q.Q.Q.Q.Q.Q.Q.Q.Q.Q.Q.Q.Q.Q.Q.Q.Q.Q.Q.Q.Q.Q.Q.Q.Q.Q.Q.Q.Q.Q.Q.Q.Q.Q.Q.Q.Q.Q.Q.Q.Q.Q.Q.Q.Q.Q.Q.Q.Q.Q.Q.Q.Q.Q.Q.Q.Q.Q.Q.Q.Q.Q.Q.Q.Q.Q.Q.Q.Q.Q.Q.Q.Q.Q.Q.Q.Q.Q.Q.Q.Q.Q.Q.Q.Q.Q.Q.Q.Q.Q.Q.Q.Q.Q.Q.Q.Q.Q.Q.Q.Q.Q.Q.Q.Q.Q.Q.Q.Q.Q.Q.Q.Q.Q.Q.Q.Q.Q.Q.Q.Q.Q.Q.Q.Q.Q.Q.Q./.Q.Q./.Q.Q.Q.=X=X=X=X=X=X=X=X=X=X=X;X;X=X;X=X=X;X;X=X=X=X=X=X=X:X X|.=X=X>XlXlXlXlXlXlXlXlXlXlXkXlXlXlXlXlXkXkXlXkXkXkXlXlXlXlXkXkXkXbX-XW.).Q.Q.Q.Q.Q.Q.Q.Q.Q.Q.Q.Q.Q.Q.Q.Q.Q.Q.Q.Q.Q.Q.Q.Q.Q.Q.Q.Q.Q.Q.Q.Q.Q.Q.Q.Q.Q.Q.Q.Q.Q.Q.Q.Q.Q.Q.Q.Q.Q.Q.Q.Q.Q.Q.Q.Q.Q.Q.Q.",
"Q.Q.Q.Q.Q.Q.Q.Q.Q.Q.Q.Q.Q.Q.Q.Q.Q.Q.Q.Q.Q.Q.Q.Q.Q.Q.Q.Q.}.Q.Q.:X=X=X=X=X=X=X=X=X=X=X=X;X=X=X=X=X;X;X=X=X=X=X;X;X=X:X=X|.=X}.`.`.Q.Q.Q.Q.Q.Q.Q.Q.Q.Q.Q.Q.Q.Q.Q.Q.Q.Q.Q.Q.Q.Q.Q.Q.Q.Q.Q.Q.Q.Q.Q.Q.Q.Q.Q.Q.Q.Q.Q.Q.Q.Q.Q.Q.Q.Q.Q.Q.Q.Q.Q.Q.Q.Q.Q.Q.W.Q.W.vXlXlXlXlXlXlXkXkXkXkXlXlXkXkXkXlXkXkXkXkXlXlXkXkXkXkXkXkXlXdX(.Q.Q.Q.Q.W.Q.Q.Q.Q.Q.Q.Q.Q.Q.Q.Q.Q.Q.Q.Q.Q.Q.Q.Q.Q.Q.Q.Q.Q.}.eXtXyXrXtXrXrXeXeXeXrXrXeXeXeXeXeXrXrXrXrXeXeXrXrXrXrXtXtX>X:XQ.Q.Q.Q.Q.Q.Q.Q.Q.Q.Q.Q.Q.Q.Q.Q.Q.Q.Q.Q.Q.Q.Q.Q.Q.Q.Q.Q.Q.Q.Q.Q.Q.Q.Q.Q.Q.Q.Q.Q.Q.Q.Q.Q.Q.Q.Q.Q.Q.Q.Q.Q.Q.Q.Q.Q.Q.Q.Q.Q.Q.Q.Q.Q.Q.Q.Q.Q.Q.Q.Q.Q.Q.Q.Q.Q.Q.Q.Q.Q.Q.Q.Q.Q.Q.Q.Q.Q.Q.Q.Q.Q.Q.Q.Q.Q.Q.Q.Q.Q.Q.Q.Q.Q.Q.Q.Q.Q.Q.Q.Q.Q.Q.Q.Q.Q.Q.Q.Q.Q.Q.Q.Q.Q.Q.Q.Q.Q.Q.Q.Q.Q.Q.Q.Q.Q.Q.Q.Q.Q.Q.Q.Q.Q.Q.Q.Q.Q.Q.Q.Q.Q.Q.Q.Q.Q.Q.Q.Q.Q.Q.Q.Q.Q.Q.Q.Q.Q.Q.Q.Q.Q.Q.Q.Q.Q.Q.Q.Q.Q.Q.Q.Q.Q.Q.Q.Q.Q.Q.Q.Q.Q.Q.Q.Q.Q.Q.Q.Q.Q.Q.Q.Q.Q.Q.Q.Q.Q./.Q.Q./.Q.Q.!.:X=X=X=X=X=X=X=X=X=X=X=X;X=X=X=X=X=X=X=X=X=X=X=X=X:X}.|.=X=X>XlXkXlXlXlXlXlXlXlXlXkXkXlXlXlXlXkXkXlXlXkXkXkXkXlXlXkXkXkXbX-XW.).Q.Q.Q.Q.Q.Q.Q.Q.Q.Q.Q.Q.Q.Q.Q.Q.Q.Q.Q.Q.Q.Q.Q.Q.Q.Q.Q.Q.Q.Q.Q.Q.Q.Q.Q.Q.Q.Q.Q.Q.Q.Q.Q.Q.Q.Q.Q.Q.Q.Q.Q.Q.Q.Q.Q.Q.Q.Q.Q.",
"Q.Q.Q.Q.Q.Q.Q.Q.Q.Q.Q.Q.Q.Q.Q.Q.Q.Q.Q.Q.Q.Q.Q.Q.Q.Q.Q.Q.}.Q.Q.:X=X=X=X=X=X=X=X=X=X=X=X=X=X=X=X=X;X;X=X=X=X=X;X;X=X:X=X|.=X}.`.`.Q.Q.Q.Q.Q.Q.Q.Q.Q.Q.Q.Q.Q.Q.Q.Q.Q.Q.Q.Q.Q.Q.Q.Q.Q.Q.Q.Q.Q.Q.Q.Q.Q.Q.Q.Q.Q.Q.Q.Q.Q.Q.Q.Q.Q.Q.Q.Q.Q.Q.Q.Q.Q.Q.Q.Q.W.Q.W.dXlXlXkXlXkXkXkXkXkXkXlXlXkXkXkXkXkXkXkXkXkXlXkXkXkXkXkXkXlXdX(.Q.Q.Q.Q.W.Q.Q.Q.Q.Q.Q.Q.Q.Q.Q.Q.Q.Q.Q.Q.Q.Q.Q.Q.Q.Q.Q.Q.Q.}.eXtXyXrXeXrXrXeXeXeXrXrXrXeXeXeXeXrXrXrXrXrXeXrXrXrXrXtXtX>X:XQ.Q.Q.Q.Q.Q.Q.Q.Q.Q.Q.Q.Q.Q.Q.Q.Q.Q.Q.Q.Q.Q.Q.Q.Q.Q.Q.Q.Q.Q.Q.Q.Q.Q.Q.Q.Q.Q.Q.Q.Q.Q.Q.Q.Q.Q.Q.Q.Q.Q.Q.Q.Q.Q.Q.Q.Q.Q.Q.Q.Q.Q.Q.Q.Q.Q.Q.Q.Q.Q.Q.Q.Q.Q.Q.Q.Q.Q.Q.Q.Q.Q.Q.Q.Q.Q.Q.Q.Q.Q.Q.Q.Q.Q.Q.Q.Q.Q.Q.Q.Q.Q.Q.Q.Q.Q.Q.Q.Q.Q.Q.Q.Q.Q.Q.Q.Q.Q.Q.Q.Q.Q.Q.Q.Q.Q.Q.Q.Q.Q.Q.Q.Q.Q.Q.Q.Q.Q.Q.Q.Q.Q.Q.Q.Q.Q.Q.Q.Q.Q.Q.Q.Q.Q.Q.Q.Q.Q.Q.Q.Q.Q.Q.Q.Q.Q.Q.Q.Q.Q.Q.Q.Q.Q.Q.Q.Q.Q.Q.Q.Q.Q.Q.Q.Q.Q.Q.Q.Q.Q.Q.Q.Q.Q.Q.Q.Q.Q.Q.Q.Q.Q.Q.Q.Q.Q.Q.Q./.Q.Q./.Q.Q.!.:X=X=X=X=X=X=X=X=X=X=X=X=X=X=X=X=X=X=X=X=X=X=X=X=X:X}.|.=X=X>XlXkXlXlXlXlXlXlXlXlXkXkXkXkXlXlXkXkXlXlXkXkXkXkXkXkXkXkXkXbX-XW.).Q.Q.Q.Q.Q.Q.Q.Q.Q.Q.Q.Q.Q.Q.Q.Q.Q.Q.Q.Q.Q.Q.Q.Q.Q.Q.Q.Q.Q.Q.Q.Q.Q.Q.Q.Q.Q.Q.Q.Q.Q.Q.Q.Q.Q.Q.Q.Q.Q.Q.Q.Q.Q.Q.Q.Q.Q.Q.Q.",
"Q.Q.Q.Q.Q.Q.Q.Q.Q.Q.Q.Q.Q.Q.Q.Q.Q.Q.Q.Q.Q.Q.Q.Q.Q.Q.Q.Q.{.Q.`.:X=X=X=X=X=X=X=X=X=X=X=X=X=X=X=X=X;X;X;X=X=X=X=X;X=X:X=X|.=X}.`.`.Q.Q.Q.Q.Q.Q.Q.Q.Q.Q.Q.Q.Q.Q.Q.Q.Q.Q.Q.Q.Q.Q.Q.Q.Q.Q.Q.Q.Q.Q.Q.Q.Q.Q.Q.Q.Q.Q.Q.Q.Q.Q.Q.Q.Q.Q.Q.Q.Q.Q.Q.Q.Q.Q.Q.Q.W.W.W.dXlXlXkXlXlXlXlXlXkXkXkXlXlXlXlXlXkXkXkXkXkXkXkXkXkXkXlXlXdXdX(.Q.Q.Q.Q.Q.Q.Q.Q.Q.Q.Q.Q.Q.Q.Q.Q.Q.Q.Q.Q.Q.Q.Q.Q.Q.Q.Q.Q.Q.'.yXtXyXrXeXrXrXeXeXeXeXrXrXeXeXeXeXrXrXrXeXeXeX>XrXtXtXtXrXyX:XQ.Q.Q.Q.Q.Q.Q.Q.Q.Q.Q.Q.Q.Q.Q.Q.Q.Q.Q.Q.Q.Q.Q.Q.Q.Q.Q.Q.Q.Q.Q.Q.Q.Q.Q.Q.Q.Q.Q.Q.Q.Q.Q.Q.Q.Q.Q.Q.Q.Q.Q.Q.Q.Q.Q.Q.Q.Q.Q.Q.Q.Q.Q.Q.Q.Q.Q.Q.Q.Q.Q.Q.Q.Q.Q.Q.Q.Q.Q.Q.Q.Q.Q.Q.Q.Q.Q.Q.Q.Q.Q.Q.Q.Q.Q.Q.Q.Q.Q.Q.Q.Q.Q.Q.Q.Q.Q.Q.Q.Q.Q.Q.Q.Q.Q.Q.Q.Q.Q.Q.Q.Q.Q.Q.Q.Q.Q.Q.Q.Q.Q.Q.Q.Q.Q.Q.Q.Q.Q.Q.Q.Q.Q.Q.Q.Q.Q.Q.Q.Q.Q.Q.Q.Q.Q.Q.Q.Q.Q.Q.Q.Q.Q.Q.Q.Q.Q.Q.Q.Q.Q.Q.Q.Q.Q.Q.Q.Q.Q.Q.Q.Q.Q.Q.Q.Q.Q.Q.Q.Q.Q.Q.Q.Q.Q.Q.Q.Q.Q.Q.Q.Q.Q.Q.Q.Q.Q.Q./.R.Q./.Q.R.{. X=X=X=X=X=X=X=X=X=X=X=X=X=X=X=X=X=X=X=X=X=X=X=X=X:X X|.=X=X>XlXkXlXlXlXlXkXkXkXkXkXkXkXlXlXlXkXkXkXkXkXkXkXkXkXlXkXkXkXbX-XW.).Q.Q.Q.Q.Q.Q.Q.Q.Q.Q.Q.Q.Q.Q.Q.Q.Q.Q.Q.Q.Q.Q.Q.Q.Q.Q.Q.Q.Q.Q.Q.Q.Q.Q.Q.Q.Q.Q.Q.Q.Q.Q.Q.Q.Q.Q.Q.Q.Q.Q.Q.Q.Q.Q.Q.Q.Q.Q.Q.",
"Q.Q.Q.Q.Q.Q.Q.Q.Q.Q.Q.Q.Q.Q.Q.Q.Q.Q.Q.Q.Q.Q.Q.Q.Q.Q.Q.Q.{.Q.`.:X=X=X=X;X=X=X=X=X=X=X;X;X=X=X=X=X;X;X;X;X=X=X=X=X=X:X=X|.=X}.`.`.Q.Q.Q.Q.Q.Q.Q.Q.Q.Q.Q.Q.Q.Q.Q.Q.Q.Q.Q.Q.Q.Q.Q.Q.Q.Q.Q.Q.Q.Q.Q.Q.Q.Q.Q.Q.Q.Q.Q.Q.Q.Q.Q.Q.Q.Q.Q.Q.Q.Q.Q.Q.Q.Q.Q.Q.W.W.W.dXlXlXkXlXlXlXlXlXkXkXkXkXkXlXlXlXkXkXkXkXkXkXkXkXkXkXlXlXdXdX(.Q.Q.Q.Q.Q.Q.Q.Q.Q.Q.Q.Q.Q.Q.Q.Q.Q.Q.Q.Q.Q.Q.Q.Q.Q.Q.Q.Q.Q.'.yXtXyXeXeXrXrXeXeXeXeXrXrXrXeXeXeXrXrXrXrXeXeX>XeXtXtXtXrXyX:XQ.Q.Q.Q.Q.Q.Q.Q.Q.Q.Q.Q.Q.Q.Q.Q.Q.Q.Q.Q.Q.Q.Q.Q.Q.Q.Q.Q.Q.Q.Q.Q.Q.Q.Q.Q.Q.Q.Q.Q.Q.Q.Q.Q.Q.Q.Q.Q.Q.Q.Q.Q.Q.Q.Q.Q.Q.Q.Q.Q.Q.Q.Q.Q.Q.Q.Q.Q.Q.Q.Q.Q.Q.Q.Q.Q.Q.Q.Q.Q.Q.Q.Q.Q.Q.Q.Q.Q.Q.Q.Q.Q.Q.Q.Q.Q.Q.Q.Q.Q.Q.Q.Q.Q.Q.Q.Q.Q.Q.Q.Q.Q.Q.Q.Q.Q.Q.Q.Q.Q.Q.Q.Q.Q.Q.Q.Q.Q.Q.Q.Q.Q.Q.Q.Q.Q.Q.Q.Q.Q.Q.Q.Q.Q.Q.Q.Q.Q.Q.Q.Q.Q.Q.Q.Q.Q.Q.Q.Q.Q.Q.Q.Q.Q.Q.Q.Q.Q.Q.Q.Q.Q.Q.Q.Q.Q.Q.Q.Q.Q.Q.Q.Q.Q.Q.Q.Q.Q.Q.Q.Q.Q.Q.Q.Q.Q.Q.Q.Q.Q.Q.Q.Q.Q.Q.Q.Q.Q./.R.Q./.Q.R.{.:X=X=X=X=X=X=X=X=X=X=X=X;X=X=X=X=X=X=X=X=X=X=X=X=X:X}.|.=X=X>XlXkXlXlXlXlXkXkXkXkXkXkXlXlXlXlXkXkXkXkXkXkXkXkXlXlXkXkXkXbX-XW./.Q.Q.Q.Q.Q.Q.Q.Q.Q.Q.Q.Q.Q.Q.Q.Q.Q.Q.Q.Q.Q.Q.Q.Q.Q.Q.Q.Q.Q.Q.Q.Q.Q.Q.Q.Q.Q.Q.Q.Q.Q.Q.Q.Q.Q.Q.Q.Q.Q.Q.Q.Q.Q.Q.Q.Q.Q.Q.Q.",
"Q.Q.Q.Q.Q.Q.Q.Q.Q.Q.Q.Q.Q.Q.Q.Q.Q.Q.Q.Q.Q.Q.Q.Q.Q./.Q.Q.{.Q.`.:X=X=X;X;X=X=X=X=X=X;X;X;X;X=X=X=X=X=X=X=X=X=X=X=X=X:X=X|.=X}.`.`.Q.Q.Q.Q.Q.Q.Q.Q.Q.Q.Q.Q.Q.Q.Q.Q.Q.Q.Q.Q.Q.Q.Q.Q.Q.Q.Q.Q.Q.Q.Q.Q.Q.Q.Q.Q.Q.Q.Q.Q.Q.Q.Q.Q.Q.Q.Q.Q.Q.Q.Q.Q.Q.Q.Q.Q.W.Q.W.dXbXlXkXlXkXkXkXkXkXkXkXkXkXkXkXlXkXkXlXlXlXkXkXkXkXkXkXkXdXsX(.Q.Q.Q.Q.Q.Q.Q.Q.Q.Q.Q.Q.Q.Q.Q.Q.Q.Q.Q.Q.Q.Q.Q.Q.Q.Q.Q.Q.Q.'.yXtXyXeXeXrXtXeXeXrXrXrXrXeXeXeXrXrXrXeXeXeXeX>XeXtXtXtXrXyX:XQ.Q.Q.Q.Q.Q.Q.Q.Q.Q.Q.Q.Q.Q.Q.Q.Q.Q.Q.Q.Q.Q.Q.Q.Q.Q.Q.Q.Q.Q.Q.Q.Q.Q.Q.Q.Q.Q.Q.Q.Q.Q.Q.Q.Q.Q.Q.Q.Q.Q.Q.Q.Q.Q.Q.Q.Q.Q.Q.Q.Q.Q.Q.Q.Q.Q.Q.Q.Q.Q.Q.Q.Q.Q.Q.Q.Q.Q.Q.Q.Q.Q.Q.Q.Q.Q.Q.Q.Q.Q.Q.Q.Q.Q.Q.Q.Q.Q.Q.Q.Q.Q.Q.Q.Q.Q.Q.Q.Q.Q.Q.Q.Q.Q.Q.Q.Q.Q.Q.Q.Q.Q.Q.Q.Q.Q.Q.Q.Q.Q.Q.Q.Q.Q.Q.Q.Q.Q.Q.Q.Q.Q.Q.Q.Q.Q.Q.Q.Q.Q.Q.Q.Q.Q.Q.Q.Q.Q.Q.Q.Q.Q.Q.Q.Q.Q.Q.Q.Q.Q.Q.Q.Q.Q.Q.Q.Q.Q.Q.Q.Q.Q.Q.Q.Q.Q.Q.Q.Q.Q.Q.Q.Q.Q.Q.Q.Q.Q.Q.Q.Q.Q.Q.Q.Q.Q.Q.Q./.R.Q./.Q.Q.{.:X=X=X=X=X=X=X=X=X=X=X;X;X=X=X=X=X=X;X;X;X;X;X=X=X:X}.|.=X=X>XlXkXlXlXlXlXkXkXkXkXkXkXkXkXlXkXkXkXkXkXkXkXkXkXkXkXkXkXkXbX-XW.).Q.Q.Q.Q.Q.Q.Q.Q.Q.Q.Q.Q.Q.Q.Q.Q.Q.Q.Q.Q.Q.Q.Q.Q.Q.Q.Q.Q.Q.Q.Q.Q.Q.Q.Q.Q.Q.Q.Q.Q.Q.Q.Q.Q.Q.Q.Q.Q.Q.Q.Q.Q.Q.Q.Q.Q.Q.Q.Q.",
"Q.Q.Q.Q.Q.Q.Q.Q.Q.Q.Q.Q.Q.Q.Q.Q.Q.Q.Q.Q.Q.Q.Q.Q.Q./.Q.Q.{.Q.`.:X=X=X;X;X;X=X=X=X=X=X;X;X;X=X=X=X=X=X=X=X=X=X=X=X=X:X=X|.=X}.Q.`.Q.Q.Q.Q.Q.Q.Q.Q.Q.Q.Q.Q.Q.Q.Q.Q.Q.Q.Q.Q.Q.Q.Q.Q.Q.Q.Q.Q.Q.Q.Q.Q.Q.Q.Q.Q.Q.Q.Q.Q.Q.Q.Q.Q.Q.Q.Q.Q.Q.Q.Q.Q.Q.Q.Q.Q.W.W.W.dXbXlXlXlXkXkXkXkXkXkXkXkXkXkXkXkXkXkXlXlXlXkXkXkXkXkXkXkXdXsX(.Q.Q.Q.Q.Q.Q.Q.Q.Q.Q.Q.Q.Q.Q.Q.Q.Q.Q.Q.Q.Q.Q.Q.Q.Q.Q.Q.Q.Q.}.yXtXyXeXeXrXtXeXeXrXrXrXrXeXeXeXrXrXrXeXeXeXeX>XeXtXtXtXrXyX:XQ.Q.Q.Q.Q.Q.Q.Q.Q.Q.Q.Q.Q.Q.Q.Q.Q.Q.Q.Q.Q.Q.Q.Q.Q.Q.Q.Q.Q.Q.Q.Q.Q.Q.Q.Q.Q.Q.Q.Q.Q.Q.Q.Q.Q.Q.Q.Q.Q.Q.Q.Q.Q.Q.Q.Q.Q.Q.Q.Q.Q.Q.Q.Q.Q.Q.Q.Q.Q.Q.Q.Q.Q.Q.Q.Q.Q.Q.Q.Q.Q.Q.Q.Q.Q.Q.Q.Q.Q.Q.Q.Q.Q.Q.Q.Q.Q.Q.Q.Q.Q.Q.Q.Q.Q.Q.Q.Q.Q.Q.Q.Q.Q.Q.Q.Q.Q.Q.Q.Q.Q.Q.Q.Q.Q.Q.Q.Q.Q.Q.Q.Q.Q.Q.Q.Q.Q.Q.Q.Q.Q.Q.Q.Q.Q.Q.Q.Q.Q.Q.Q.Q.Q.Q.Q.Q.Q.Q.Q.Q.Q.Q.Q.Q.Q.Q.Q.Q.Q.Q.Q.Q.Q.Q.Q.Q.Q.Q.Q.Q.Q.Q.Q.Q.Q.Q.Q.Q.Q.Q.Q.Q.Q.Q.Q.Q.Q.Q.Q.Q.Q.Q.Q.Q.Q.Q.Q.Q./.R.Q./.Q.Q.{.:X=X=X=X=X=X=X=X=X=X=X;X;X;X=X=X=X;X;X;X;X;X;X=X=X:X}.|.=X=X>XlXkXlXlXlXlXkXkXkXkXkXkXkXkXkXkXkXkXlXkXkXkXkXkXkXkXkXkXkXbX-XW.).Q.Q.Q.Q.Q.Q.Q.Q.Q.Q.Q.Q.Q.Q.Q.Q.Q.Q.Q.Q.Q.Q.Q.Q.Q.Q.Q.Q.Q.Q.Q.Q.Q.Q.Q.Q.Q.Q.Q.Q.Q.Q.Q.Q.Q.Q.Q.Q.Q.Q.Q.Q.Q.Q.Q.Q.Q.Q.Q.",
"Q.Q.Q.Q.Q.Q.Q.Q.Q.Q.Q.Q.Q.Q.Q.Q.Q.Q.Q.Q.Q.Q.Q.Q.Q./.Q.Q.{.Q.`.:X=X=X=X;X;X;X;X=X=X=X;X;X;X=X=X=X=X=X=X=X=X=X=X=X=X:X=X|.=X}.Q.`.Q.Q.Q.Q.Q.Q.Q.Q.Q.Q.Q.Q.Q.Q.Q.Q.Q.Q.Q.Q.Q.Q.Q.Q.Q.Q.Q.Q.Q.Q.Q.Q.Q.Q.Q.Q.Q.Q.Q.Q.Q.Q.Q.Q.Q.Q.Q.Q.Q.Q.Q.Q.Q.Q.Q.Q.W.Q.W.vXbXlXlXlXkXkXkXkXkXkXkXkXkXkXkXkXkXkXlXlXlXlXkXkXkXkXkXkXdXsX(.Q.Q.Q.Q.Q.Q.Q.Q.Q.Q.Q.Q.Q.Q.Q.Q.Q.Q.Q.Q.Q.Q.Q.Q.Q.Q.Q.Q.Q.}.yXtXyXrXtXrXrXeXrXrXrXeXeXeXeXeXeXeXeXeXrXrXrX>XeXtXtXtXrX>X:XQ.Q.Q.Q.Q.Q.Q.Q.Q.Q.Q.Q.Q.Q.Q.Q.Q.Q.Q.Q.Q.Q.Q.Q.Q.Q.Q.Q.Q.Q.Q.Q.Q.Q.Q.Q.Q.Q.Q.Q.Q.Q.Q.Q.Q.Q.Q.Q.Q.Q.Q.Q.Q.Q.Q.Q.Q.Q.Q.Q.Q.Q.Q.Q.Q.Q.Q.Q.Q.Q.Q.Q.Q.Q.Q.Q.Q.Q.Q.Q.Q.Q.Q.Q.Q.Q.Q.Q.Q.Q.Q.Q.Q.Q.Q.Q.Q.Q.Q.Q.Q.Q.Q.Q.Q.Q.Q.Q.Q.Q.Q.Q.Q.Q.Q.Q.Q.Q.Q.Q.Q.Q.Q.Q.Q.Q.Q.Q.Q.Q.Q.Q.Q.Q.Q.Q.Q.Q.Q.Q.Q.Q.Q.Q.Q.Q.Q.Q.Q.Q.Q.Q.Q.Q.Q.Q.Q.Q.Q.Q.Q.Q.Q.Q.Q.Q.Q.Q.Q.Q.Q.Q.Q.Q.Q.Q.Q.Q.Q.Q.Q.Q.Q.Q.Q.Q.Q.Q.Q.Q.Q.Q.Q.Q.Q.Q.Q.Q.Q.Q.Q.Q.Q.Q.Q.Q.Q.Q./.R.Q./.Q.Q./.:X=X=X=X=X=X=X=X=X=X=X=X;X;X;X;X=X=X=X;X;X;X=X=X=X:X X|.=X=X>XlXkXlXlXlXkXjXjXjXjXlXlXlXkXkXkXlXlXlXlXkXkXkXkXkXkXkXkXkXbX-XW.).Q.Q.Q.Q.Q.Q.Q.Q.Q.Q.Q.Q.Q.Q.Q.Q.Q.Q.Q.Q.Q.Q.Q.Q.Q.Q.Q.Q.Q.Q.Q.Q.Q.Q.Q.Q.Q.Q.Q.Q.Q.Q.Q.Q.Q.Q.Q.Q.Q.Q.Q.Q.Q.Q.Q.Q.Q.Q.Q.",
"Q.Q.Q.Q.Q.Q.Q.Q.Q.Q.Q.Q.Q.Q.Q.Q.Q.Q.Q.Q.Q.Q.Q.Q.Q./.Q.Q.{.Q.`.:X=X=X;X;X;X=X;X;X=X;X;X;X;X;X=X=X=X=X=X=X=X=X=X=X=X:X=X|.=X}.Q.`.Q.Q.Q.Q.Q.Q.Q.Q.Q.Q.Q.Q.Q.Q.Q.Q.Q.Q.Q.Q.Q.Q.Q.Q.Q.Q.Q.Q.Q.Q.Q.Q.Q.Q.Q.Q.Q.Q.Q.Q.Q.Q.Q.Q.Q.Q.Q.Q.Q.Q.Q.Q.Q.Q.Q.Q.W.Q.W.vXbXlXkXlXkXlXkXkXkXkXkXkXkXkXkXkXkXkXlXlXlXlXkXkXkXkXkXlXdXsX(.Q.Q.Q.Q.Q.Q.Q.Q.Q.Q.Q.Q.Q.Q.Q.Q.Q.Q.Q.Q.Q.Q.Q.Q.Q.Q.Q.Q.Q.}.yXtXyXrXeXrXrXeXrXrXrXeXrXeXeXeXeXeXeXrXrXrXrX>XeXtXtXtXrX>X:XQ.Q.Q.Q.Q.Q.Q.Q.Q.Q.Q.Q.Q.Q.Q.Q.Q.Q.Q.Q.Q.Q.Q.Q.Q.Q.Q.Q.Q.Q.Q.Q.Q.Q.Q.Q.Q.Q.Q.Q.Q.Q.Q.Q.Q.Q.Q.Q.Q.Q.Q.Q.Q.Q.Q.Q.Q.Q.Q.Q.Q.Q.Q.Q.Q.Q.Q.Q.Q.Q.Q.Q.Q.Q.Q.Q.Q.Q.Q.Q.Q.Q.Q.Q.Q.Q.Q.Q.Q.Q.Q.Q.Q.Q.Q.Q.Q.Q.Q.Q.Q.Q.Q.Q.Q.Q.Q.Q.Q.Q.Q.Q.Q.Q.Q.Q.Q.Q.Q.Q.Q.Q.Q.Q.Q.Q.Q.Q.Q.Q.Q.Q.Q.Q.Q.Q.Q.Q.Q.Q.Q.Q.Q.Q.Q.Q.Q.Q.Q.Q.Q.Q.Q.Q.Q.Q.Q.Q.Q.Q.Q.Q.Q.Q.Q.Q.Q.Q.Q.Q.Q.Q.Q.Q.Q.Q.Q.Q.Q.Q.Q.Q.Q.Q.Q.Q.Q.Q.Q.Q.Q.Q.Q.Q.Q.Q.Q.Q.Q.Q.Q.Q.Q.Q.Q.Q.Q.Q./.R.Q./.Q.Q./.:X=X=X=X=X=X=X=X=X=X=X;X;X;X=X;X;X=X=X=X;X=X=X=X=X:X X|.=X=X>XlXkXlXlXlXkXjXjXjXjXlXlXlXkXkXkXkXlXlXlXkXkXkXkXlXlXkXkXkXbX-XW.).Q.Q.Q.Q.Q.Q.Q.Q.Q.Q.Q.Q.Q.Q.Q.Q.Q.Q.Q.Q.Q.Q.Q.Q.Q.Q.Q.Q.Q.Q.Q.Q.Q.Q.Q.Q.Q.Q.Q.Q.Q.Q.Q.Q.Q.Q.Q.Q.Q.Q.Q.Q.Q.Q.Q.Q.Q.Q.Q.",
"Q.Q.Q.Q.Q.Q.Q.Q.Q.Q.Q.Q.Q.Q.Q.Q.Q.Q.Q.Q.Q.Q.Q.Q.Q./.Q.Q.{.Q.`.:X=X=X;X;X=X=X=X=X=X=X=X;X=X=X=X=X;X;X=X=X=X=X=X=X=X:X=X|.=X}.`.`.Q.Q.Q.Q.Q.Q.Q.Q.Q.Q.Q.Q.Q.Q.Q.Q.Q.Q.Q.Q.Q.Q.Q.Q.Q.Q.Q.Q.Q.Q.Q.Q.Q.Q.Q.Q.Q.Q.Q.Q.Q.Q.Q.Q.Q.Q.Q.Q.Q.Q.Q.Q.Q.Q.Q.Q.W.Q.W.vXlXlXkXlXlXlXlXlXkXkXkXkXlXlXkXkXkXkXkXkXlXkXkXkXkXlXlXlXdXsX(.Q.Q.Q.Q.Q.Q.Q.Q.Q.Q.Q.Q.Q.Q.Q.Q.Q.Q.Q.Q.Q.Q.Q.Q.Q.Q.Q.Q.Q.'.yXtXrXrXtXrXrXrXrXrXrXrXrXrXrXrXrXeXeXeXrXrXrX>XeXrXtXtXrX>X:XQ.Q.Q.Q.Q.Q.Q.Q.Q.Q.Q.Q.Q.Q.Q.Q.Q.Q.Q.Q.Q.Q.Q.Q.Q.Q.Q.Q.Q.Q.Q.Q.Q.Q.Q.Q.Q.Q.Q.Q.Q.Q.Q.Q.Q.Q.Q.Q.Q.Q.Q.Q.Q.Q.Q.Q.Q.Q.Q.Q.Q.Q.Q.Q.Q.Q.Q.Q.Q.Q.Q.Q.Q.Q.Q.Q.Q.Q.Q.Q.Q.Q.Q.Q.Q.Q.Q.Q.Q.Q.Q.Q.Q.Q.Q.Q.Q.Q.Q.Q.Q.Q.Q.Q.Q.Q.Q.Q.Q.Q.Q.Q.Q.Q.Q.Q.Q.Q.Q.Q.Q.Q.Q.Q.Q.Q.Q.Q.Q.Q.Q.Q.Q.Q.Q.Q.Q.Q.Q.Q.Q.Q.Q.Q.Q.Q.Q.Q.Q.Q.Q.Q.Q.Q.Q.Q.Q.Q.Q.Q.Q.Q.Q.Q.Q.Q.Q.Q.Q.Q.Q.Q.Q.Q.Q.Q.Q.Q.Q.Q.Q.Q.Q.Q.Q.Q.Q.Q.Q.Q.Q.Q.Q.Q.Q.Q.Q.Q.Q.Q.Q.Q.Q.Q.Q.Q.Q.Q./.R.Q./.Q.Q./.:X=X=X=X=X=X=X=X=X=X=X;X;X=X=X=X=X=X=X;X;X=X=X=X=X:X X|.=X=X>XlXkXlXlXlXkXkXkXjXjXlXlXkXkXkXkXlXlXlXkXkXkXkXlXlXlXkXkXkXbX-XW.).Q.Q.Q.Q.Q.Q.Q.Q.Q.Q.Q.Q.Q.Q.Q.Q.Q.Q.Q.Q.Q.Q.Q.Q.Q.Q.Q.Q.Q.Q.Q.Q.Q.Q.Q.Q.Q.Q.Q.Q.Q.Q.Q.Q.Q.Q.Q.Q.Q.Q.Q.Q.Q.Q.Q.Q.Q.Q.Q.",
"Q.Q.Q.Q.Q.Q.Q.Q.Q.Q.Q.Q.Q.Q.Q.Q.Q.Q.Q.Q.Q.Q.Q.Q.Q./.Q.Q.{.Q.`.:X=X=X=X;X=X=X=X=X=X=X=X=X=X=X=X=X=X=X;X;X=X=X=X=X=X:X=X|.=X}.`.`.Q.Q.Q.Q.Q.Q.Q.Q.Q.Q.Q.Q.Q.Q.Q.Q.Q.Q.Q.Q.Q.Q.Q.Q.Q.Q.Q.Q.Q.Q.Q.Q.Q.Q.Q.Q.Q.Q.Q.Q.Q.Q.Q.Q.Q.Q.Q.Q.Q.Q.Q.Q.Q.Q.Q.Q.W.Q.W.dXlXlXkXlXlXlXlXkXkXkXlXlXlXlXlXlXkXkXkXkXlXkXkXkXlXlXlXlXdXsX(.Q.Q.Q.Q.Q.Q.Q.Q.Q.Q.Q.Q.Q.Q.Q.Q.Q.Q.Q.Q.Q.Q.Q.Q.Q.Q.Q.Q.Q.'.eXtXrXrXtXrXtXeXrXrXrXrXrXrXrXrXrXeXeXeXrXrXrX>XeXtXtXrXyX>X:XQ.Q.Q.Q.Q.Q.Q.Q.Q.Q.Q.Q.Q.Q.Q.Q.Q.Q.Q.Q.Q.Q.Q.Q.Q.Q.Q.Q.Q.Q.Q.Q.Q.Q.Q.Q.Q.Q.Q.Q.Q.Q.Q.Q.Q.Q.Q.Q.Q.Q.Q.Q.Q.Q.Q.Q.Q.Q.Q.Q.Q.Q.Q.Q.Q.Q.Q.Q.Q.Q.Q.Q.Q.Q.Q.Q.Q.Q.Q.Q.Q.Q.Q.Q.Q.Q.Q.Q.Q.Q.Q.Q.Q.Q.Q.Q.Q.Q.Q.Q.Q.Q.Q.Q.Q.Q.Q.Q.Q.Q.Q.Q.Q.Q.Q.Q.Q.Q.Q.Q.Q.Q.Q.Q.Q.Q.Q.Q.Q.Q.Q.Q.Q.Q.Q.Q.Q.Q.Q.Q.Q.Q.Q.Q.Q.Q.Q.Q.Q.Q.Q.Q.Q.Q.Q.Q.Q.Q.Q.Q.Q.Q.Q.Q.Q.Q.Q.Q.Q.Q.Q.Q.Q.Q.Q.Q.Q.Q.Q.Q.Q.Q.Q.Q.Q.Q.Q.Q.Q.Q.Q.Q.Q.Q.Q.Q.Q.Q.Q.Q.Q.Q.Q.Q.Q.Q.Q.Q./.R.Q./.Q.Q./.:X=X=X=X=X=X=X=X=X=X=X=X;X=X=X=X=X=X=X;X=X=X=X=X=X:X X|.=X=X>XlXkXlXlXlXkXkXjXjXjXkXkXkXkXkXkXlXlXlXlXkXkXkXlXlXlXkXkXkXbX-XW.).Q.Q.Q.Q.Q.Q.Q.Q.Q.Q.Q.Q.Q.Q.Q.Q.Q.Q.Q.Q.Q.Q.Q.Q.Q.Q.Q.Q.Q.Q.Q.Q.Q.Q.Q.Q.Q.Q.Q.Q.Q.Q.Q.Q.Q.Q.Q.Q.Q.Q.Q.Q.Q.Q.Q.Q.Q.Q.Q.",
"Q.Q.Q.Q.Q.Q.Q.Q.Q.Q.Q.Q.Q.Q.Q.Q.Q.Q.Q.Q.Q.Q.Q.Q.Q./.Q.Q.}.Q.`.:X=X=X;X;X;X=X=X=X=X=X=X=X=X=X=X=X=X=X;X=X=X=X=X=X=X:X=X|.=X}.`.`.Q.Q.Q.Q.Q.Q.Q.Q.Q.Q.Q.Q.Q.Q.Q.Q.Q.Q.Q.Q.Q.Q.Q.Q.Q.Q.Q.Q.Q.Q.Q.Q.Q.Q.Q.Q.Q.Q.Q.Q.Q.Q.Q.Q.Q.Q.Q.Q.Q.Q.Q.Q.Q.Q.Q.Q.W.Q.W.dXlXlXkXlXkXkXkXkXkXlXkXkXkXkXkXkXlXlXlXkXlXlXkXkXkXkXlXlXkXsX(.Q.Q.Q.Q.Q.Q.Q.Q.Q.Q.Q.Q.Q.Q.Q.Q.Q.Q.Q.Q.Q.Q.Q.Q.Q.Q.Q.Q.Q.'.yXtXyXeXtXrXtXeXeXrXrXrXrXrXrXrXrXeXeXeXeXrXrXsX>X>XrXtXeX:X XQ.Q.Q.Q.Q.Q.Q.Q.Q.Q.Q.Q.Q.Q.Q.Q.Q.Q.Q.Q.Q.Q.Q.Q.Q.Q.Q.Q.Q.Q.Q.Q.Q.Q.Q.Q.Q.Q.Q.Q.Q.Q.Q.Q.Q.Q.Q.Q.Q.Q.Q.Q.Q.Q.Q.Q.Q.Q.Q.Q.Q.Q.Q.Q.Q.Q.Q.Q.Q.Q.Q.Q.Q.Q.Q.Q.Q.Q.Q.Q.Q.Q.Q.Q.Q.Q.Q.Q.Q.Q.Q.Q.Q.Q.Q.Q.Q.Q.Q.Q.Q.Q.Q.Q.Q.Q.Q.Q.Q.Q.Q.Q.Q.Q.Q.Q.Q.Q.Q.Q.Q.Q.Q.Q.Q.Q.Q.Q.Q.Q.Q.Q.Q.Q.Q.Q.Q.Q.Q.Q.Q.Q.Q.Q.Q.Q.Q.Q.Q.Q.Q.Q.Q.Q.Q.Q.Q.Q.Q.Q.Q.Q.Q.Q.Q.Q.Q.Q.Q.Q.Q.Q.Q.Q.Q.Q.Q.Q.Q.Q.Q.Q.Q.Q.Q.Q.Q.Q.Q.Q.Q.Q.Q.Q.Q.Q.Q.Q.Q.Q.Q.Q.Q.Q.Q.Q.Q.Q.Q.Q.Q./.Q.Q.(.=X=X=X=X=X=X=X=X=X=X=X=X=X=X=X=X=X=X=X=X=X=X=X=X=X:X X|.=X=X>XlXlXlXkXkXkXkXkXlXlXlXkXkXkXkXkXkXlXkXkXkXkXlXlXlXkXkXkXkXbX-XW.).Q.Q.Q.Q.Q.Q.Q.Q.Q.Q.Q.Q.Q.Q.Q.Q.Q.Q.Q.Q.Q.Q.Q.Q.Q.Q.Q.Q.Q.Q.Q.Q.Q.Q.Q.Q.Q.Q.Q.Q.Q.Q.Q.Q.Q.Q.Q.Q.Q.Q.Q.Q.Q.Q.Q.Q.Q.Q.Q.",
"Q.Q.Q.Q.Q.Q.Q.Q.Q.Q.Q.Q.Q.Q.Q.Q.Q.Q.Q.Q.Q.Q.Q.Q.Q./.Q.Q.}.Q.`.:X=X=X;X;X=X=X=X=X=X=X=X=X=X=X=X=X=X=X;X;X=X=X=X=X=X:X=X|.=X}.`.`.Q.Q.Q.Q.Q.Q.Q.Q.Q.Q.Q.Q.Q.Q.Q.Q.Q.Q.Q.Q.Q.Q.Q.Q.Q.Q.Q.Q.Q.Q.Q.Q.Q.Q.Q.Q.Q.Q.Q.Q.Q.Q.Q.Q.Q.Q.Q.Q.Q.Q.Q.Q.Q.Q.Q.Q.W.Q.W.dXlXlXkXlXkXkXkXkXlXlXkXkXkXkXlXkXlXlXkXkXlXlXlXkXkXkXlXlXkXsX(.Q.Q.Q.Q.Q.Q.Q.Q.Q.Q.Q.Q.Q.Q.Q.Q.Q.Q.Q.Q.Q.Q.Q.Q.Q.Q.Q.Q.Q.'.yXtXyXeXtXrXtXeXeXrXeXrXrXrXrXrXrXeXeXeXeXrXrXsX>X>XrXtXeX:X XQ.Q.Q.Q.Q.Q.Q.Q.Q.Q.Q.Q.Q.Q.Q.Q.Q.Q.Q.Q.Q.Q.Q.Q.Q.Q.Q.Q.Q.Q.Q.Q.Q.Q.Q.Q.Q.Q.Q.Q.Q.Q.Q.Q.Q.Q.Q.Q.Q.Q.Q.Q.Q.Q.Q.Q.Q.Q.Q.Q.Q.Q.Q.Q.Q.Q.Q.Q.Q.Q.Q.Q.Q.Q.Q.Q.Q.Q.Q.Q.Q.Q.Q.Q.Q.Q.Q.Q.Q.Q.Q.Q.Q.Q.Q.Q.Q.Q.Q.Q.Q.Q.Q.Q.Q.Q.Q.Q.Q.Q.Q.Q.Q.Q.Q.Q.Q.Q.Q.Q.Q.Q.Q.Q.Q.Q.Q.Q.Q.Q.Q.Q.Q.Q.Q.Q.Q.Q.Q.Q.Q.Q.Q.Q.Q.Q.Q.Q.Q.Q.Q.Q.Q.Q.Q.Q.Q.Q.Q.Q.Q.Q.Q.Q.Q.Q.Q.Q.Q.Q.Q.Q.Q.Q.Q.Q.Q.Q.Q.Q.Q.Q.Q.Q.Q.Q.Q.Q.Q.Q.Q.Q.Q.Q.Q.Q.Q.Q.Q.Q.Q.Q.Q.Q.Q.Q.Q.Q.Q.Q.Q./.Q.Q.(.=X=X=X=X=X=X=X=X=X=X=X=X=X=X=X=X=X=X=X;X=X=X;X=X=X:X X|.=X=X>XlXlXlXlXkXkXkXkXlXlXlXkXkXkXkXkXkXkXkXkXkXkXlXlXlXkXkXkXkXbX-XW.).Q.Q.Q.Q.Q.Q.Q.Q.Q.Q.Q.Q.Q.Q.Q.Q.Q.Q.Q.Q.Q.Q.Q.Q.Q.Q.Q.Q.Q.Q.Q.Q.Q.Q.Q.Q.Q.Q.Q.Q.Q.Q.Q.Q.Q.Q.Q.Q.Q.Q.Q.Q.Q.Q.Q.Q.Q.Q.Q.",
"Q.Q.Q.Q.Q.Q.Q.Q.Q.Q.Q.Q.Q.Q.Q.Q.Q.Q.Q.Q.Q.Q.Q.Q.Q./.Q.Q.}.Q.`.:X=X=X=X;X=X=X=X=X=X=X;X;X;X;X;X=X=X=X=X;X=X=X=X=X=X:X=X|.=X}.`.`.Q.Q.Q.Q.Q.Q.Q.Q.Q.Q.Q.Q.Q.Q.Q.Q.Q.Q.Q.Q.Q.Q.Q.Q.Q.Q.Q.Q.Q.Q.Q.Q.Q.Q.Q.Q.Q.Q.Q.Q.Q.Q.Q.Q.Q.Q.Q.Q.Q.Q.Q.Q.Q.Q.Q.Q.W.Q.W.dXlXlXkXlXkXkXkXlXlXlXkXkXlXlXlXlXlXlXkXkXlXlXkXkXkXkXlXlXdXsX(.Q.!.Q.Q.Q.Q.Q.Q.Q.Q.Q.Q.Q.Q.Q.Q.Q.Q.Q.Q.Q.Q.Q.Q.Q.Q.Q.Q.Q.}.yXtXyXrXtXrXrXeXeXeXeXeXeXrXrXrXrXrXrXeXeXeXrXsX>X>XrXtXtX:X=XQ.Q.Q.Q.Q.Q.Q.Q.Q.Q.Q.Q.Q.Q.Q.Q.Q.Q.Q.Q.Q.Q.Q.Q.Q.Q.Q.Q.Q.Q.Q.Q.Q.Q.Q.Q.Q.Q.Q.Q.Q.Q.Q.Q.Q.Q.Q.Q.Q.Q.Q.Q.Q.Q.Q.Q.Q.Q.Q.Q.Q.Q.Q.Q.Q.Q.Q.Q.Q.Q.Q.Q.Q.Q.Q.Q.Q.Q.Q.Q.Q.Q.Q.Q.Q.Q.Q.Q.Q.Q.Q.Q.Q.Q.Q.Q.Q.Q.Q.Q.Q.Q.Q.Q.Q.Q.Q.Q.Q.Q.Q.Q.Q.Q.Q.Q.Q.Q.Q.Q.Q.Q.Q.Q.Q.Q.Q.Q.Q.Q.Q.Q.Q.Q.Q.Q.Q.Q.Q.Q.Q.Q.Q.Q.Q.Q.Q.Q.Q.Q.Q.Q.Q.Q.Q.Q.Q.Q.Q.Q.Q.Q.Q.Q.Q.Q.Q.Q.Q.Q.Q.Q.Q.Q.Q.Q.Q.Q.Q.Q.Q.Q.Q.Q.Q.Q.Q.Q.Q.Q.Q.Q.Q.Q.Q.Q.Q.Q.Q.Q.Q.Q.Q.Q.Q.Q.Q.Q.Q.Q.Q./.Q.Q.(.=X=X=X=X=X=X=X=X=X=X=X;X;X;X;X;X=X=X=X;X;X;X;X=X=X:X X|.=X=X>XlXlXlXlXkXkXkXkXkXlXkXkXkXkXkXkXkXkXkXkXkXkXlXlXkXkXkXkXkXbX-XW.).Q.Q.Q.Q.Q.Q.Q.Q.Q.Q.Q.Q.Q.Q.Q.Q.Q.Q.Q.Q.Q.Q.Q.Q.Q.Q.Q.Q.Q.Q.Q.Q.Q.Q.Q.Q.Q.Q.Q.Q.Q.Q.Q.Q.Q.Q.Q.Q.Q.Q.Q.Q.Q.Q.Q.Q.Q.Q.Q.",
"Q.Q.Q.Q.Q.Q.Q.Q.Q.Q.Q.Q.Q.Q.Q.Q.Q.Q.Q.Q.Q.Q.Q.Q.Q./.Q.Q.}.Q.`.:X=X=X=X=X=X=X=X=X=X=X;X;X;X;X=X=X=X=X;X;X;X=X=X=X;X:X=X|.=X}.`.`.Q.Q.Q.Q.Q.Q.Q.Q.Q.Q.Q.Q.Q.Q.Q.Q.Q.Q.Q.Q.Q.Q.Q.Q.Q.Q.Q.Q.Q.Q.Q.Q.Q.Q.Q.Q.Q.Q.Q.Q.Q.Q.Q.Q.Q.Q.Q.Q.Q.Q.Q.Q.Q.Q.Q.Q.W.Q.W.dXbXlXlXlXkXkXkXlXlXlXkXkXkXlXlXlXlXkXkXkXkXkXkXkXkXkXlXlXdXsX(.Q.!.Q.Q.Q.Q.Q.Q.Q.Q.Q.Q.Q.Q.Q.Q.Q.Q.Q.Q.Q.Q.Q.Q.Q.Q.Q.Q.Q.}.yXtXyXrXeXrXrXeXeXeXeXeXeXeXeXrXrXrXrXeXeXeXrXsX>X>XrXtXtX:X=XQ.Q.Q.Q.Q.Q.Q.Q.Q.Q.Q.Q.Q.Q.Q.Q.Q.Q.Q.Q.Q.Q.Q.Q.Q.Q.Q.Q.Q.Q.Q.Q.Q.Q.Q.Q.Q.Q.Q.Q.Q.Q.Q.Q.Q.Q.Q.Q.Q.Q.Q.Q.Q.Q.Q.Q.Q.Q.Q.Q.Q.Q.Q.Q.Q.Q.Q.Q.Q.Q.Q.Q.Q.Q.Q.Q.Q.Q.Q.Q.Q.Q.Q.Q.Q.Q.Q.Q.Q.Q.Q.Q.Q.Q.Q.Q.Q.Q.Q.Q.Q.Q.Q.Q.Q.Q.Q.Q.Q.Q.Q.Q.Q.Q.Q.Q.Q.Q.Q.Q.Q.Q.Q.Q.Q.Q.Q.Q.Q.Q.Q.Q.Q.Q.Q.Q.Q.Q.Q.Q.Q.Q.Q.Q.Q.Q.Q.Q.Q.Q.Q.Q.Q.Q.Q.Q.Q.Q.Q.Q.Q.Q.Q.Q.Q.Q.Q.Q.Q.Q.Q.Q.Q.Q.Q.Q.Q.Q.Q.Q.Q.Q.Q.Q.Q.Q.Q.Q.Q.Q.Q.Q.Q.Q.Q.Q.Q.Q.Q.Q.Q.Q.Q.Q.Q.Q.Q.Q.Q.Q.Q./.Q.Q.(.=X=X=X=X=X=X=X=X=X=X=X;X;X;X;X=X=X=X;X;X;X;X;X;X=X:X X|.=X=X>XlXlXlXlXkXkXkXkXkXlXkXkXkXkXkXkXkXkXlXkXkXkXlXlXkXkXkXkXkXbX-XW.).Q.Q.Q.Q.Q.Q.Q.Q.Q.Q.Q.Q.Q.Q.Q.Q.Q.Q.Q.Q.Q.Q.Q.Q.Q.Q.Q.Q.Q.Q.Q.Q.Q.Q.Q.Q.Q.Q.Q.Q.Q.Q.Q.Q.Q.Q.Q.Q.Q.Q.Q.Q.Q.Q.Q.Q.Q.Q.Q.",
"Q.Q.Q.Q.Q.Q.Q.Q.Q.Q.Q.Q.Q.Q.Q.Q.Q.Q.Q.Q.Q.Q.Q.Q.Q./.Q.Q.{.Q.`.:X;X;X=X=X=X;X;X;X=X=X=X;X=X=X=X=X;X;X;X;X;X;X;X=X=X:X=X|.=X}.`.`.Q.Q.Q.Q.Q.Q.Q.Q.Q.Q.Q.Q.Q.Q.Q.Q.Q.Q.Q.Q.Q.Q.Q.Q.Q.Q.Q.Q.Q.Q.Q.Q.Q.Q.Q.Q.Q.Q.Q.Q.Q.Q.Q.Q.Q.Q.Q.Q.Q.Q.Q.Q.Q.Q.Q.Q.W.Q.W.vXbXlXlXlXlXlXlXlXkXkXkXkXkXkXlXlXlXlXkXkXkXkXkXkXkXkXkXlXkXsX(.Q.Q.Q.Q.Q.Q.Q.Q.Q.Q.Q.Q.Q.Q.Q.Q.Q.Q.Q.Q.Q.Q.Q.Q.Q.Q.Q.Q.Q.}.yXtXyXeXeXrXrXeXeXeXeXeXeXeXeXeXeXeXrXrXrXrXrXsXrX>XrXtXtX>X XQ.Q.Q.Q.Q.Q.Q.Q.Q.Q.Q.Q.Q.Q.Q.Q.Q.Q.Q.Q.Q.Q.Q.Q.Q.Q.Q.Q.Q.Q.Q.Q.Q.Q.Q.Q.Q.Q.Q.Q.Q.Q.Q.Q.Q.Q.Q.Q.Q.Q.Q.Q.Q.Q.Q.Q.Q.Q.Q.Q.Q.Q.Q.Q.Q.Q.Q.Q.Q.Q.Q.Q.Q.Q.Q.Q.Q.Q.Q.Q.Q.Q.Q.Q.Q.Q.Q.Q.Q.Q.Q.Q.Q.Q.Q.Q.Q.Q.Q.Q.Q.Q.Q.Q.Q.Q.Q.Q.Q.Q.Q.Q.Q.Q.Q.Q.Q.Q.Q.Q.Q.Q.Q.Q.Q.Q.Q.Q.Q.Q.Q.Q.Q.Q.Q.Q.Q.Q.Q.Q.Q.Q.Q.Q.Q.Q.Q.Q.Q.Q.Q.Q.Q.Q.Q.Q.Q.Q.Q.Q.Q.Q.Q.Q.Q.Q.Q.Q.Q.Q.Q.Q.Q.Q.Q.Q.Q.Q.Q.Q.Q.Q.Q.Q.Q.Q.Q.Q.Q.Q.Q.Q.Q.Q.Q.Q.Q.Q.Q.Q.Q.Q.Q.Q.Q.Q.Q.Q.Q.Q.Q./.Q.Q./.=X=X=X=X=X=X=X=X=X=X=X=X;X=X=X=X=X=X=X;X;X;X;X=X=X:X X|.=X=X>XlXkXkXkXkXkXkXkXkXkXkXlXkXkXkXkXlXlXlXlXlXlXkXkXkXkXkXkXkXbX-XW.).Q.Q.Q.Q.Q.Q.Q.Q.Q.Q.Q.Q.Q.Q.Q.Q.Q.Q.Q.Q.Q.Q.Q.Q.Q.Q.Q.Q.Q.Q.Q.Q.Q.Q.Q.Q.Q.Q.Q.Q.Q.Q.Q.Q.Q.Q.Q.Q.Q.Q.Q.Q.Q.Q.Q.Q.Q.Q.Q.",
"Q.Q.Q.Q.Q.Q.Q.Q.Q.Q.Q.Q.Q.Q.Q.Q.Q.Q.Q.Q.Q.Q.Q.Q.Q./.Q.Q.{.Q.`.:X;X;X;X=X;X;X=X;X=X=X;X;X=X=X=X=X=X;X;X=X;X;X=X=X=X:X=X|.=X}.Q.`.Q.Q.Q.Q.Q.Q.Q.Q.Q.Q.Q.Q.Q.Q.Q.Q.Q.Q.Q.Q.Q.Q.Q.Q.Q.Q.Q.Q.Q.Q.Q.Q.Q.Q.Q.Q.Q.Q.Q.Q.Q.Q.Q.Q.Q.Q.Q.Q.Q.Q.Q.Q.Q.Q.Q.Q.W.Q.W.vXbXlXlXlXlXlXlXlXkXkXkXkXkXkXkXkXlXlXkXkXkXkXkXkXkXkXkXkXkXsX(.Q.Q.Q.Q.Q.Q.Q.Q.Q.Q.Q.Q.Q.Q.Q.Q.Q.Q.Q.Q.Q.Q.Q.Q.Q.Q.Q.Q.Q.'.yXtXyXeXeXrXrXeXeXeXrXeXeXeXeXeXeXeXeXrXrXrXrXsXrX>XrXtXeX>X XQ.Q.Q.Q.Q.Q.Q.Q.Q.Q.Q.Q.Q.Q.Q.Q.Q.Q.Q.Q.Q.Q.Q.Q.Q.Q.Q.Q.Q.Q.Q.Q.Q.Q.Q.Q.Q.Q.Q.Q.Q.Q.Q.Q.Q.Q.Q.Q.Q.Q.Q.Q.Q.Q.Q.Q.Q.Q.Q.Q.Q.Q.Q.Q.Q.Q.Q.Q.Q.Q.Q.Q.Q.Q.Q.Q.Q.Q.Q.Q.Q.Q.Q.Q.Q.Q.Q.Q.Q.Q.Q.Q.Q.Q.Q.Q.Q.Q.Q.Q.Q.Q.Q.Q.Q.Q.Q.Q.Q.Q.Q.Q.Q.Q.Q.Q.Q.Q.Q.Q.Q.Q.Q.Q.Q.Q.Q.Q.Q.Q.Q.Q.Q.Q.Q.Q.Q.Q.Q.Q.Q.Q.Q.Q.Q.Q.Q.Q.Q.Q.Q.Q.Q.Q.Q.Q.Q.Q.Q.Q.Q.Q.Q.Q.Q.Q.Q.Q.Q.Q.Q.Q.Q.Q.Q.Q.Q.Q.Q.Q.Q.Q.Q.Q.Q.Q.Q.Q.Q.Q.Q.Q.Q.Q.Q.Q.Q.Q.Q.Q.Q.Q.Q.Q.Q.Q.Q.Q.Q.Q.Q./.Q.Q./.=X=X=X=X=X=X=X=X=X=X=X;X;X=X=X=X=X=X=X;X=X=X;X=X=X:X X|.=X=X>XlXkXkXkXkXkXkXkXkXkXlXlXkXkXkXkXlXlXlXlXkXkXkXkXkXkXkXkXkXbX-XW.).Q.Q.Q.Q.Q.Q.Q.Q.Q.Q.Q.Q.Q.Q.Q.Q.Q.Q.Q.Q.Q.Q.Q.Q.Q.Q.Q.Q.Q.Q.Q.Q.Q.Q.Q.Q.Q.Q.Q.Q.Q.Q.Q.Q.Q.Q.Q.Q.Q.Q.Q.Q.Q.Q.Q.Q.Q.Q.Q.",
"Q.Q.Q.Q.Q.Q.Q.Q.Q.Q.Q.Q.Q.Q.Q.Q.Q.Q.Q.Q.Q.Q.Q.Q.Q./.Q.Q.{.Q.`.:X;X=X=X=X=X=X=X=X=X=X=X=X=X=X=X=X=X=X=X=X=X=X=X=X=X:X=X|.=X}.`.`.Q.Q.Q.Q.Q.Q.Q.Q.Q.Q.Q.Q.Q.Q.Q.Q.Q.Q.Q.Q.Q.Q.Q.Q.Q.Q.Q.Q.Q.Q.Q.Q.Q.Q.Q.Q.Q.Q.Q.Q.Q.Q.Q.Q.Q.Q.Q.Q.Q.Q.Q.Q.Q.Q.Q.Q.W.Q.W.vXlXlXlXlXkXkXkXkXkXkXkXkXkXkXkXkXlXkXkXkXlXlXkXkXkXkXkXkXdXsX(.Q.Q.Q.Q.Q.Q.Q.Q.Q.Q.Q.Q.Q.Q.Q.Q.Q.Q.Q.Q.Q.Q.Q.Q.Q.Q.Q.Q.Q.'.yXtXyXeXeXrXrXeXeXrXrXrXrXrXrXeXeXeXeXrXrXeXeXsX>X>XrXtXeX>X XQ.Q.Q.Q.Q.Q.Q.Q.Q.Q.Q.Q.Q.Q.Q.Q.Q.Q.Q.Q.Q.Q.Q.Q.Q.Q.Q.Q.Q.Q.Q.Q.Q.Q.Q.Q.Q.Q.Q.Q.Q.Q.Q.Q.Q.Q.Q.Q.Q.Q.Q.Q.Q.Q.Q.Q.Q.Q.Q.Q.Q.Q.Q.Q.Q.Q.Q.Q.Q.Q.Q.Q.Q.Q.Q.Q.Q.Q.Q.Q.Q.Q.Q.Q.Q.Q.Q.Q.Q.Q.Q.Q.Q.Q.Q.Q.Q.Q.Q.Q.Q.Q.Q.Q.Q.Q.Q.Q.Q.Q.Q.Q.Q.Q.Q.Q.Q.Q.Q.Q.Q.Q.Q.Q.Q.Q.Q.Q.Q.Q.Q.Q.Q.Q.Q.Q.Q.Q.Q.Q.Q.Q.Q.Q.Q.Q.Q.Q.Q.Q.Q.Q.Q.Q.Q.Q.Q.Q.Q.Q.Q.Q.Q.Q.Q.Q.Q.Q.Q.Q.Q.Q.Q.Q.Q.Q.Q.Q.Q.Q.Q.Q.Q.Q.Q.Q.Q.Q.Q.Q.Q.Q.Q.Q.Q.Q.Q.Q.Q.Q.Q.Q.Q.Q.Q.Q.Q.Q.Q.Q.Q./.Q.Q./.=X=X=X=X=X=X=X=X=X=X=X=X=X=X=X=X=X=X=X=X=X=X=X=X=X:X X|.=X=X>XlXkXkXkXlXlXlXlXkXkXlXlXlXkXkXkXlXlXkXkXkXkXkXkXkXkXkXkXkXbX-XW.).Q.Q.Q.Q.Q.Q.Q.Q.Q.Q.Q.Q.Q.Q.Q.Q.Q.Q.Q.Q.Q.Q.Q.Q.Q.Q.Q.Q.Q.Q.Q.Q.Q.Q.Q.Q.Q.Q.Q.Q.Q.Q.Q.Q.Q.Q.Q.Q.Q.Q.Q.Q.Q.Q.Q.Q.Q.Q.Q.",
"Q.Q.Q.Q.Q.Q.Q.Q.Q.Q.Q.Q.Q.Q.Q.Q.Q.Q.Q.Q.Q.Q.Q.Q.Q./.Q.Q.{.Q.`.:X=X=X=X=X=X=X=X=X=X=X=X=X=X=X=X=X=X=X=X=X=X=X=X=X=X:X=X|.=X}.`.`.Q.Q.Q.Q.Q.Q.Q.Q.Q.Q.Q.Q.Q.Q.Q.Q.Q.Q.Q.Q.Q.Q.Q.Q.Q.Q.Q.Q.Q.Q.Q.Q.Q.Q.Q.Q.Q.Q.Q.Q.Q.Q.Q.Q.Q.Q.Q.Q.Q.Q.Q.Q.Q.Q.Q.Q.W.Q.W.dXlXlXkXlXkXkXkXkXkXkXkXkXkXkXkXkXlXkXkXkXlXkXkXkXkXkXkXkXdXsX(.Q.Q.Q.Q.Q.Q.Q.Q.Q.Q.Q.Q.Q.Q.Q.Q.Q.Q.Q.Q.Q.Q.Q.Q.Q.Q.Q.Q.Q.'.yXtXyXeXeXrXrXeXeXrXrXrXrXrXrXeXeXeXrXrXrXeXeX>XrX>XrXtXeX>X XQ.Q.Q.Q.Q.Q.Q.Q.Q.Q.Q.Q.Q.Q.Q.Q.Q.Q.Q.Q.Q.Q.Q.Q.Q.Q.Q.Q.Q.Q.Q.Q.Q.Q.Q.Q.Q.Q.Q.Q.Q.Q.Q.Q.Q.Q.Q.Q.Q.Q.Q.Q.Q.Q.Q.Q.Q.Q.Q.Q.Q.Q.Q.Q.Q.Q.Q.Q.Q.Q.Q.Q.Q.Q.Q.Q.Q.Q.Q.Q.Q.Q.Q.Q.Q.Q.Q.Q.Q.Q.Q.Q.Q.Q.Q.Q.Q.Q.Q.Q.Q.Q.Q.Q.Q.Q.Q.Q.Q.Q.Q.Q.Q.Q.Q.Q.Q.Q.Q.Q.Q.Q.Q.Q.Q.Q.Q.Q.Q.Q.Q.Q.Q.Q.Q.Q.Q.Q.Q.Q.Q.Q.Q.Q.Q.Q.Q.Q.Q.Q.Q.Q.Q.Q.Q.Q.Q.Q.Q.Q.Q.Q.Q.Q.Q.Q.Q.Q.Q.Q.Q.Q.Q.Q.Q.Q.Q.Q.Q.Q.Q.Q.Q.Q.Q.Q.Q.Q.Q.Q.Q.Q.Q.Q.Q.Q.Q.Q.Q.Q.Q.Q.Q.Q.Q.Q.Q.Q.Q.Q.Q./.Q.Q./.=X=X=X=X=X=X=X=X=X=X=X=X=X=X=X=X=X=X=X=X=X=X=X=X=X:X X|.=X=X>XlXkXkXlXlXlXlXlXkXkXlXlXkXkXkXkXlXlXkXkXkXkXkXkXkXkXkXkXkXbX-XW.).Q.Q.Q.Q.Q.Q.Q.Q.Q.Q.Q.Q.Q.Q.Q.Q.Q.Q.Q.Q.Q.Q.Q.Q.Q.Q.Q.Q.Q.Q.Q.Q.Q.Q.Q.Q.Q.Q.Q.Q.Q.Q.Q.Q.Q.Q.Q.Q.Q.Q.Q.Q.Q.Q.Q.Q.Q.Q.Q.",
"Q.Q.Q.Q.Q.Q.Q.Q.Q.Q.Q.Q.Q.Q.Q.Q.Q.Q.Q.Q.Q.Q.Q.Q.Q././.{.{.{.}. X=X=X=X=X=X=X=X=X=X=X=X=X=X=X=X=X=X=X=X=X=X=X=X=X'.=X=X;X|.}.`.Q.Q.Q.Q.Q.Q.Q.Q.Q.Q.Q.Q.Q.Q.Q.Q.Q.Q.Q.Q.Q.Q.Q.Q.Q.Q.R.T.R./././.T././././././././././././././././././././././././.W.W.).dXfXjXfXxXdXdXdXdXdXdXdXdXdXdXdXdXdXfXdXdXdXdXdXdXdXdXdXdXdXsXQ.W.(.Q.Q.T.Q.Q.Q.Q.Q.Q.Q.Q.Q.Q.Q.Q.Q.Q.Q.Q.Q.Q.Q.Q.Q.Q.Q.Q.}.tXtXrXtXtXrXtXtXtXtXtXtXtXtXtXtXtXtXtXtXtXtXtXyXvXyXrXnXvXsX(.!.!.!.!.!.!.!.!.!.!.!.!.!.!.!.!.!.!.!.!.!.!.!.!.].}.}.W.W.(.W.W././.Q././.Q.Q.!.Q.Q.Q.Q.Q.Q.Q.Q.Q.Q.Q.Q.Q.Q.Q.Q.Q.Q.Q.Q.Q.Q.Q.Q.Q.Q.Q.Q.Q.Q.Q.Q.Q.Q.Q.Q.Q.Q.Q.Q.Q.Q.Q.Q.Q.Q.Q.Q.(.).Q.Q.Q.Q.Q.E./././././././././././././././././././././././././././././././././././././././././././././././././././././././././.(.Q.E.Q.}.}.Q.Q.Q.Q.Q.Q.Q.Q.Q.Q.Q.Q.Q.Q.Q.Q.Q.W.W.W.Q.Q.Q.Q.`.!.!.Q.Q.Q.Q.Q.Q.!.!.!.!.!.!.!.!.!.!.!.!.!.!.!.!.Q.E.W.T.L.Q.}.yX=X=X=X=X=X=X=X=X=X=X=X=X=X=X=X=X=X=X=X;X=X=X=X=X}.>X'.,X>X-XkXfXlXlXlXlXlXlXlXlXkXkXkXkXkXkXkXkXkXkXkXkXkXkXkXkXlXlXsXmX-XQ.|.Q.Q.Q.Q.Q.Q.Q.Q.Q.Q.Q.Q.Q.Q.Q.Q.Q.Q.Q.Q.Q.Q.Q.Q.Q.Q.Q.Q.Q.Q.Q.Q.Q.Q.Q.Q.Q.Q.Q.Q.Q.Q.Q.Q.Q.Q.Q.Q.Q.Q.Q.Q.Q.Q.Q.Q.Q.Q.Q.",
"Q.Q.Q.Q.Q.Q.Q.Q.Q.Q.Q.Q.Q.Q.Q.Q.Q.Q.Q.Q.Q.Q.Q.Q./.Q.Q./.Q.Q./.{.:X:X:X:X:X:X:X:X:X:X:X:X:X:X:X:X:X:X:X:X:X:X:X:X=X=X:X:X=X}.`.R.Q.Q.Q.Q.Q.Q.Q.Q.Q.Q.Q.Q.Q.Q.Q.Q.Q.Q.Q.Q.Q.Q.Q.Q./.Q.R.R.Q.W.T.T.Q.Q.Q.Q.R.R.Q.Q.Q.Q.Q.Q.R.R.Q.Q.R.Q.Q.Q.Q.Q.Q.Q.L.W.W.dXkXlXfXxXjXjXjXjXjXjXjXjXjXjXjXjXjXjXjXjXlXlXjXjXjXjXjXjXvXdX).W.(.Q.Q.W.Q.Q.Q.Q.Q.Q.Q.Q.Q.Q.Q.Q.Q.Q.Q.Q.Q.Q.Q.Q.Q.Q.Q.Q.`.yXrX,XrXrXyXrXrXrXrXrXrXrXrXrXrXrXrXrXrXrXrXrXyXtXyXrXtXtX>X XQ.Q.W.Q.W.W.W.Q.Q.Q.Q.Q.Q.Q.Q.Q.Q.Q.Q.Q.Q.Q.Q.Q.`.}.Q.E.T.).W.W.R.R.Q.Q.Q.Q.Q.Q.Q.Q.Q.Q.Q.Q.Q.Q.Q.Q.Q.Q.Q.Q.Q.Q.Q.Q.Q.Q.Q.Q.Q.Q.Q.Q.Q.Q.Q.Q.Q.Q.Q.Q.Q.Q.Q.Q.Q.Q.Q.Q.Q.Q.Q.Q.Q.Q.W.W.W.Q.Q.Q.Q.Q.Q.Q.Q.Q.R.R.Q.Q.Q.Q.Q.Q.Q.Q.R.R.R.R.R.R.Q.Q.Q.Q.Q.Q.Q.Q.R.R.Q.R.Q.Q.Q.Q.Q.Q.R.R.Q.Q.Q.Q.Q.Q.Q.Q.Q.Q.Q.Q.R.R.Q.Q.Q.Q.Q.Q.Q.{.}.Q.Q.Q.Q.Q.Q.Q.Q.Q.Q.Q.Q.Q.Q.Q.Q.Q.W.Q.Q.Q.Q.Q.Q.Q.Q.Q.Q.Q.Q.R.Q.Q.Q.Q.Q.Q.Q.Q.Q.Q.Q.Q.Q.Q.Q.Q.Q.Q.}.R./.^.L./.Q.}.:X:X:X:X=X=X=X=X:X:X:X:X:X:X:X:X:X:X:X;X:X:X:X:X=XeX'.=X:X>XmXmXlXlXlXlXlXlXlXlXjXjXjXjXjXjXjXjXjXjXjXjXjXjXjXjXjXkXdXbX-XE.Q.Q.Q.Q.Q.Q.Q.Q.Q.Q.Q.Q.Q.Q.Q.Q.Q.Q.Q.Q.Q.Q.Q.Q.Q.Q.Q.Q.Q.Q.Q.Q.Q.Q.Q.Q.Q.Q.Q.Q.Q.Q.Q.Q.Q.Q.Q.Q.Q.Q.Q.Q.Q.Q.Q.Q.Q.Q.Q.Q.",
"/./././././././.{.{.{.{././././././././././././.Q.T.T.Q.Q.T.Q.}.:X:X:X:X:X:X:X:X=X=X=X=X=X=X=X=X:X:X:X:X:X:X:X:X:X:X:X:X X}.Q.T.Q.Q.Q.Q.Q.Q.Q.Q.Q.Q.Q.Q.Q.Q.Q.Q.Q.Q.Q.Q.Q.Q.Q.Q.Q.Q.Q.Q./././.).Q.Q.Q.Q.Q.Q.Q.Q.Q.Q././.Q.Q.Q.Q.Q.Q.Q.Q.Q.Q.Q.Q.W.W.W.dXbXlXdXlXjXkXkXkXkXkXkXkXjXkXjXkXkXkXkXkXkXkXkXkXkXkXkXkXbXdX(.W./.Q.Q.Q.Q.Q.Q.Q.Q.Q.Q.Q.Q.Q.Q.Q.Q.Q.Q.Q.Q.Q.Q.Q.Q.Q.Q.Q.}.yXtXrXtXtXrXrXeXeXeXeXeXeXrXeXeXeXeXeXeXeXrXeXyXyXyXrXtXyXeX:X^.^.R.R.T.T.T.T.~.~.~.~.~.~.~.~.~.~.~.~.~.~.~.~.^.~./.T./.).(.).Q.Q.Q.Q.Q.Q.Q.Q.Q.Q.Q.Q.Q.Q.Q.Q.Q.Q.Q.Q.Q.Q.Q.Q.Q.Q.Q.Q.Q.Q.Q.Q.Q.Q.Q.Q.Q.Q.Q.Q.Q.Q.Q.Q.Q.Q.Q.Q.Q.Q.Q.Q.Q.Q.Q.Q.Q.Q.Q./.Q.Q././.Q.Q.Q.Q.Q.Q.Q.Q.Q.Q.Q.Q.Q.Q.Q.Q.W.Q.Q.Q.Q./.Q.Q.Q.Q.Q.Q.Q.Q.Q.Q.Q.Q.Q.Q.Q.Q.Q.Q.Q.Q.Q.Q.Q.Q././.Q.Q.Q.Q.Q.Q.Q.Q.T.W.Q.Q.Q.Q.Q.Q.Q.Q.Q.Q.Q.Q.Q.Q.Q.Q.Q.Q.Q.Q.Q.Q.Q.Q.Q.Q.R.^.^.^././.^.^.^.W.W.W.~.~.~.~.~.~.~.~.~.~.~.~.~.~.~.~.[.^./.^.T.).). X:X:X:X:X:X:X:X=X:X:X:X:X:X:X:X:X=X=X=X=X=X=X=X=X;X,X=X X(.-XjXfXfXfXfXfXfXfXfXfXfXfXfXfXfXfXfXfXfXfXfXfXfXfXfXfXfXfXjXmXfXT./.{.Q.Q.Q.Q.Q.Q.Q.Q.Q.Q.Q.Q.Q.Q.Q.Q.Q.Q.Q.Q.Q.Q.Q.Q.Q.Q.Q.Q.Q.Q.Q.Q.Q.Q.Q.Q.Q.Q.Q.Q.Q.Q.Q.Q.Q.Q.Q.Q.Q.Q.Q.Q.Q.Q.Q.Q.Q.Q.",
"R.R.R.R.R.R.T.T.R.R.T.T.R.R.T.T.R.R.R.R.R.R.T.T.E.E.E.Q.Q.Q.{. X X X X X X X X X X X X X X X X X X X X X X X X X:X:X:X:X|.}.Q.R.Q.Q.Q.Q.Q.Q.Q.Q.Q.Q.Q.Q.Q.Q.Q.Q.Q.Q.Q.Q.Q.Q.Q.Q.Q.Q./.W.W.T.W.W.W.W.W.W.W.T.W.T.W.W.W.W.W.W.T.W.R.R.Q.Q.Q.Q.Q.Q.W.L.W.sXbXbXdXbXbXbXbXbXbXbXbXbXbXbXbXbXbXbXbXbXbXbXbXbXbXbXbXbXbXdX(.W.).Q./.Q.Q.Q.Q.Q.Q.Q.Q.Q.Q.Q.Q.Q.Q.Q.Q.Q.Q.Q.Q.Q.Q.Q.Q.Q.|.tXtXtXtXtXtXtXtXtXtXtXtXtXtXtXtXtXtXtXtXtXtXtXyXyXyXtXrXyXrX;X/./././././././.{.{.{.{.{.{.{.{.{.{.{.{.{.{.{.{.^.^././.}.Q.}.W././././.Q.Q.Q.Q.Q.Q.Q.Q.Q.Q.Q.Q.Q.Q.Q.Q.Q.Q.Q.Q.Q.Q.Q.Q.Q.Q.Q.Q.Q.Q.Q.Q.Q.Q.Q.Q.Q.Q.Q.Q.Q.Q.Q.Q.Q.Q.Q.Q.Q.Q.Q.Q./././.Q.Q.W.W.W.W.W.W.W.W.T.W.T.Q.W.W.Q.W.Q.T.W.W.W.W.W.W.W.W.W.Q.Q.Q.Q.W.W.Q.T.Q.W.W.Q.W.Q.T.W.W.W.T.T.T.W.W.W.W.W.W.W.W.T.W.T.T.W.W.Q.Q.Q.Q.Q.Q.Q.Q.Q.Q.Q.Q.Q.Q.Q.Q.Q.Q.Q.Q.Q.`.Q.Q.Q.^.^.^.^././.(.(.!.Q.).).{.{.{.{.{.{.{.{.{.{.{.{.{.{.{.{.~.R.~.T.W.).W.-X:X:X:X:X:X:X:X:X X X X X X X X X|.|.|.|.|.|.|.|.,X,X:X X).-XlXkXlXlXlXlXlXlXlXlXjXjXjXjXjXjXjXjXjXlXjXjXjXjXjXjXkXlXbXbX-XT.T./.Q.Q.Q.Q.Q.Q.Q.Q.Q.Q.Q.Q.Q.Q.Q.Q.Q.Q.Q.Q.Q.Q.Q.Q.Q.Q.Q.Q.Q.Q.Q.Q.Q.Q.Q.Q.Q.Q.Q.Q.Q.Q.Q.Q.Q.Q.Q.Q.Q.Q.Q.Q.Q.Q.Q.Q.Q.Q.",
"T.T.T.T.T.T.T.T.T.T.T.T.T.T.T.T.T.T.T.T.T.T.T.T.Q.E.Q.'.}.}.!.}.=X=X=X=X=X=X=X=X=X=X=X=X=X=X=X=X=X=X=X=X=X=X=X=X:X:X:X X}.{./.Q.Q.Q.Q.Q.Q.Q.Q.Q.Q.Q.Q.Q.Q.Q.Q.Q.Q.Q.Q.Q.Q.Q.Q.Q./.Q.W.W.W.W.T.L.).).).).W.W.W.W.).).).).).).).).Q.Q.Q.Q.Q.Q.Q.Q.W.L.).fXbXdXlXbXbXbXbXbXbXbXbXbXbXbXbXbXbXbXbXbXbXbXbXbXbXbXbXbXdXsX).W.Q.W././.Q.Q.Q.Q.Q.Q.Q.Q.Q.Q.Q.Q.Q.Q.Q.Q.Q.Q.Q.Q.Q.Q.Q.Q.{.yXeX>XrXrX>XeX>X>X>X>X>X>X>X>X>X>X>X>X>X>X>X>XeX:X:XvXtXtXtX*X'.'.'.'.'.'.'.'.].].].].].].].].].].].].].].].].!.'.&X*X].E.=X/.Q.Q.Q.Q.Q.Q.Q.Q.Q.Q.Q.Q.Q.Q.Q.Q.Q.Q.Q.Q.Q.Q.Q.Q.Q.Q.Q.Q.Q.Q.Q.Q.Q.Q.Q.Q.Q.Q.Q.Q.Q.Q.Q.Q.Q.Q.Q.Q.Q.Q.Q.Q.Q.Q.Q.Q.Q.W.Q.W.W.).).).).).).).W.W.W.W.Q.Q.Q.Q.Q.Q.Q.Q.W.W.W.W.).).).W.Q.Q.Q.Q.Q.Q.Q.Q.Q.Q.Q.Q.Q.Q.Q.Q.W.W.W.W.).).).).).).).).W.W.W.W.).W.W.W.Q.Q.Q.Q.Q.Q.Q.Q.Q.Q.Q.Q.Q.Q.Q.Q.Q.Q.Q.Q.`.Q.Q.Q./.^.^.^.}.'.'.&X&X&X&X'.].].].].].].].].].].].].].].].].|.'.'.].'.!.Q.sX X X X X X X X X=X=X=X=X=X=X=X=X=X=X=X=X=X|.=X=XyX:X:X}.}.sXnXFXBXBXBXBXBXBXBXBXBXBXBXBXBXBXBXBXBXBXBXBXBXBXBXBXBXBXnXvX-XQ.E.Q.Q.Q.Q.Q.Q.Q.Q.Q.Q.Q.Q.Q.Q.Q.Q.Q.Q.Q.Q.Q.Q.Q.Q.Q.Q.Q.Q.Q.Q.Q.Q.Q.Q.Q.Q.Q.Q.Q.Q.Q.Q.Q.Q.Q.Q.Q.Q.Q.Q.Q.Q.Q.Q.Q.Q.Q.Q.Q.",
"vXvXvXvXvXvXvXvXvXvXvXvXvXvXvXvXvXvXvXvXvXvXvXvXvXvXvXvXvXvX:X!.}.}.}.}.}.}.}.}.}.}.}.}.}.}.}.}.}.}.}.}.}.}.}.}.}.}.}.}.(././.~.Q.Q.Q.Q.Q.Q.Q.Q.Q.Q.Q.Q.Q.Q.Q.Q.Q.Q.Q.Q.Q.Q.Q.Q.Q.W.W.(.-X-X-X-X-X-X-X-X-X-X-X-X-X-X-X-X-X-X-X-X-X-X-X-X-X-X-X-X-X-X-X-X>X(.-X=X X X X X X X X X X X X X X X X X X X X X X X X X-X-XQ.W.Q.W.Q.Q.Q.Q.Q.Q.Q.Q.Q.Q.Q.Q.Q.Q.Q.Q.Q.Q.Q.Q.Q.Q.Q.Q.Q.Q. XsXvX>XgXgXsXgXdXdXdXdXvXvXvXvXdXdXdXdXvXvXvXvXvXsXsXbXvXtXuXY.K K K K K K K K K K K K K K K o.K K K K K K K o.P.K O.O.K J &X=X{.{.{.{.}.}.}.}.}.}.}.}.}.}.}.}.}.}.}.}.}.}.}.}.}.}.}.{./.Q.Q.Q.Q.Q.Q.Q.Q.Q.Q.Q.Q.Q.Q.Q.Q.Q.Q.Q.Q.Q.Q.Q.Q.Q.Q.Q.Q.Q.Q.(.-XfXfXfX-X-X-X-X-X-X-X-X-X-X-X-X-X-X-X-X-X-X-X-X-X-X-X-X-X-X-X-X-X-X-X-X-X-X-X-X-X-X-X-X-X-X-X-X-X-X-X-X-X-X-X-X-X-X-X-X-X(.W.W.Q.Q.Q.Q.Q.Q.Q.Q.Q.Q.Q.Q.Q.Q.Q.Q.Q.Q.Q.Q.Q.Q.Q.Q.Q.Q.Q.W.P.P.K L L L L K K K K K K K K o.K K K K K K K o.P.K L L O.K P.,X}.}.}.}.}.}.}.}.}.}.}.}.}.}.}.}.}.}.}.}.}.}.}.}.}.}. X}.=X&XI.I.I.I.I.I.I.I.I.I.I.I.I.I.I.I.I.I.I.I.I.I.I.I.I.I.I.I.I.I.Y.'.Q.(.Q.Q.Q.Q.Q.Q.Q.Q.Q.Q.Q.Q.Q.Q.Q.Q.Q.Q.Q.Q.Q.Q.Q.Q.Q.Q.Q.Q.Q.Q.Q.Q.Q.Q.Q.Q.Q.Q.Q.Q.Q.Q.Q.Q.Q.Q.Q.Q.Q.Q.Q.Q.Q.Q.Q.Q.Q.Q.",
"SXSXSXSXSXSXSXSXSXSXSXSXSXSXSXSXSXSXSXSXSXSXSXSXSXAXVXVXAXCXvX!.Q.Q.Q.Q.Q.Q.Q.Q.Q.Q.Q.Q.Q.Q.Q.Q.Q.Q.Q.Q.Q.Q.Q.Q././././././././.Q.Q.Q.Q.Q.Q.Q.Q.Q.Q.Q.Q.Q.Q.Q.Q.Q.Q.Q.Q.Q.Q.Q.Q.W.W.W.(.sXbXbXbXlXlXlXlXlXlXlXlXlXlXlXlXlXlXlXlXlXlXlXlXlXlXlXlXlXlXlX(.(.E.Q.W.T.T.^.^.^.^.T.T.T.T.W.W.T.W.^.^.^.^.T.T.T.T.^.^.).(.W.W.).W.Q.Q.Q.Q.Q.Q.Q.Q.Q.Q.Q.Q.Q.Q.Q.Q.Q.Q.Q.Q.Q.Q.Q.Q.Q.Q.fXbXbXgXbXbXlXbXbXbXbXbXbXbXbXbXbXbXbXbXbXbXbXbXlXkXdXlXbXnXuXI.2 2 2 2       2 2 2 2 2 2 2 2 2 2 2 2 2 2 2 2 2 2   9 9 6 1 ].&X X X X X X=X=X=X:X:X:X:X X X X X X X X X X=X:X:X:X X X X}./.Q.Q.Q.Q.Q.Q.Q.Q.Q.Q.Q.Q.Q.Q.Q.Q.Q.Q.Q.Q.Q.Q.Q.Q.Q.Q.}.Q.Q.}.sXbXlXdXlXlXlXlXlXlXlXlXlXlXlXlXlXlXlXlXlXlXlXlXlXlXlXlXlXlXjXjXlXlXlXlXlXlXlXlXlXlXlXlXlXlXlXlXlXlXlXlXlXlXlXlXlXlXlXlXbX-XW.W.).Q.Q.W.Q.Q.Q.Q.Q.Q.Q.Q.Q.Q.Q.Q.Q.Q.Q.Q.^.Q.Q.Q.!.'.'.'.@.6 6 7 7 2 6 2 2 2 2 2 2 2 2 2 2 2 2 2 2 2 2 2 2 .   7 6 3 5 Y.Q.Q.Q.Q.Q.Q.Q.Q.Q.Q.Q.Q.Q.Q.Q.Q.`.`.`.`.`.`.Q.Q.T./.{.`.*XI.3 2 2 2 2 2 2 2 2 2 2 2 2 2 2 2 2 2 2 2 2 2 2 2 2 2 % 7 2 3 L '.E.Q.Q.Q.Q.Q.Q.Q.Q.Q.Q.Q.Q.Q.Q.Q.Q.Q.Q.Q.Q.Q.Q.Q.Q.Q.Q.Q.Q.Q.Q.Q.Q.Q.Q.Q.Q.Q.Q.Q.Q.Q.Q.Q.Q.Q.Q.Q.Q.Q.Q.Q.Q.Q.Q.Q.Q.Q.Q.Q.",
"ZXZXZXZXZXZXZXZXZXZXZXZXZXZXZXZXZXZXZXZXZXZXZXZXSXSXCXVXSXSXnX!.Q.Q.Q.Q.Q.Q.Q.Q.Q.Q.Q.Q././././.Q.Q.Q.Q.Q.Q.Q.Q.Q.Q.Q.Q.Q.~.~.~.Q.Q.Q.Q.Q.Q.Q.Q.Q.Q.Q.Q.Q.Q.Q.Q.Q.Q.Q.Q.Q.Q.Q.Q.Q.E.L.W.-XlXsXfXkXkXjXjXjXjXkXkXkXkXkXkXkXkXlXlXkXkXkXkXkXkXkXkXdXdXlX).W.L.Q.Q.Q.Q.Q./././.Q.Q.Q.Q.Q.Q.Q.Q.Q./././.Q.Q.Q.Q.Q.Q.L.).W.W.).W.Q.Q.Q.Q.Q.Q.Q.Q.Q.Q.Q.Q.Q.Q.Q.Q.Q.Q.Q.Q.Q.Q.Q.Q.Q.Q.fXlXlXgXzXlXkXlXbXbXbXbXbXbXbXbXbXbXbXbXbXbXbXbXlXjXxXbXlXBXuXP.0 0 0 0 = = 0 0 > > > > > > > > > > > > > > > > * = v v 9 3 *X,X}.}.}.}.|.|.|.|. X X X X X X X X X X X X X X X X>X>X:X X X}.Q.Q.Q.Q.Q.Q.Q.Q.Q.Q.Q.Q.Q.Q.Q.Q.Q.Q.Q.Q.Q.Q.Q.Q.Q.Q.`.Q.E.(.fXjXdXfXkXkXjXjXjXjXkXkXjXjXjXjXjXjXjXjXjXjXjXkXkXjXjXkXjXjXxXxXjXjXjXjXjXjXjXjXjXjXjXjXjXjXkXkXkXkXkXkXkXkXjXjXjXjXkXkXmX-XW.W.).Q.Q.W.Q.Q.Q.Q.Q.Q.Q.Q.Q.Q.Q.Q.Q.Q.Q.Q.^.^.Q.Q.'.&X&X&Xp u t t v t t t > > > > > > > > > > > > > > > > 8 & = > z 3 p wXQ.Q.Q.Q.Q.Q.Q.Q.Q.Q.Q.Q.Q.Q.Q.Q.`.`.`.`.`.`.`.`./.(.Q.E.*XO.. = 0 0 0 0 0 0 0 0 0 0 0 0 0 0 0 0 0 0 0 0 0 0 0 0 < < * 3 L *X!.Q.Q.Q.Q.Q.Q.Q.Q.Q.Q.Q.Q.Q.Q.Q.Q.Q.Q.Q.Q.Q.Q.Q.Q.Q.Q.Q.Q.Q.Q.Q.Q.Q.Q.Q.Q.Q.Q.Q.Q.Q.Q.Q.Q.Q.Q.Q.Q.Q.Q.Q.Q.Q.Q.Q.Q.Q.Q.Q.",
"CXCXCXCXCXCXCXCXCXCXCXCXCXCXCXCXCXCXCXCXCXCXCXCXCXSXVXCXCXCXnXQ.Q.Q.Q.Q.Q.Q.Q.Q.Q.Q.Q.Q.Q.Q.Q.Q.Q.Q.Q.Q.Q.Q.Q.Q.Q.Q.Q.Q.Q.Q.Q.Q.Q.Q.Q.Q.Q.Q.Q.Q.Q.Q.Q.Q.Q.Q.Q.Q.Q.Q.Q.Q.Q.Q.Q.Q.Q.W.W.W.sXfXjXkXkXkXkXkXlXlXlXlXkXkXkXkXkXkXkXkXkXkXkXkXkXlXlXlXlXdXbX(.).W.Q.Q.Q.Q.Q.Q.Q.Q.Q.Q.Q.Q.Q.Q.Q.Q.Q.Q.Q.Q.Q.Q.Q.Q.Q.Q.Q.Q.Q.Q.Q.Q.Q.Q.Q.Q.Q.Q.Q.Q.Q.Q.Q.Q.Q.Q.Q.Q.Q.Q.Q.Q.Q.Q.Q.Q.Q.Q.(.bXbXlXlXdXlXdXlXlXkXkXkXlXlXlXlXlXlXlXkXkXkXkXcXlXzXgXxXfXnXI.  0 0 0 0 0 0 0 0 0 0 0 0 0 0 0 0 0 0 0 0 0 0 0 = 0 0 = 0 $ .X;X:X:X:X:X|.|.=X=X=X=X=X=X=X=X=X=X=X=X=X=X=X=X;X=X,X|.|.:X X/.Q.Q.Q.Q.Q.Q.Q.Q.Q.Q.Q.Q.Q.Q.Q.Q.Q.Q.Q.Q.Q.Q.Q.Q.Q.Q.Q.Q.).(.bXlXlXkXkXkXkXkXkXkXlXkXkXkXlXlXlXlXlXlXkXkXkXkXkXkXkXkXkXkXkXkXlXlXlXlXlXkXkXkXlXlXlXlXkXkXlXlXlXlXkXkXkXlXlXlXkXkXkXkXbX-XW.W.W.Q./.Q.Q.Q.Q.Q.Q.Q.Q.Q.Q.Q.Q.Q.Q.Q.Q.Q.Q.Q.Q./.Q.Q.'.'.6 q 8 & 7 7 0 0 0 0 0 0 0 0 0 0 0 0 0 0 0 0 0 0 0 : 8 q 9 v q ].Q.Q.Q.Q.Q.Q.Q.Q.Q.Q.Q.Q.Q.Q.Q.Q.Q.Q.Q.Q.Q.Q.Q.Q.Q.Q./.Q.*XI.3 7 0 0 0 9 9 0 0 0 0 0 0 0 0 0 0 0 0 0 0 0 0 0 0 0 0 0 0 2 K ;XQ.T.Q.Q.Q.Q.Q.Q.Q.Q.Q.Q.Q.Q.Q.Q.Q.Q.Q.Q.Q.Q.Q.Q.Q.Q.Q.Q.Q.Q.Q.Q.Q.Q.Q.Q.Q.Q.Q.Q.Q.Q.Q.Q.Q.Q.Q.Q.Q.Q.Q.Q.Q.Q.Q.Q.Q.Q.Q.Q.",
"CXCXCXCXCXCXCXCXCXCXCXCXCXCXCXCXCXCXCXCXCXCXCXCXCXSXVXCXCXCXnXQ.Q.Q.Q.Q.Q.Q.Q.Q.Q.Q.Q.Q.Q.Q.Q.Q.Q.Q.Q.Q.Q.Q.Q.Q.Q.Q.Q.Q.Q.Q.Q.Q.Q.Q.Q.Q.Q.Q.Q.Q.Q.Q.Q.Q.Q.Q.Q.Q.Q.Q.Q.Q.Q.Q.Q.Q.Q.W.W.W.sXfXjXkXkXkXkXkXlXlXlXlXkXkXkXkXkXkXlXlXkXkXkXkXkXkXlXlXlXdXbX(.).W.Q.Q.Q.Q.Q.Q.Q.Q.Q.Q.Q.Q.Q.Q.Q.Q.Q.Q.Q.Q.Q.Q.Q.Q.Q.Q.Q.Q.Q.Q.Q.Q.Q.Q.Q.Q.Q.Q.Q.Q.Q.Q.Q.Q.Q.Q.Q.Q.Q.Q.Q.Q.Q.Q.Q.Q.Q.Q.(.bXbXlXlXdXlXdXlXkXkXkXkXlXlXlXlXlXlXlXkXkXkXlXcXlXzXgXxXfXnXI.  0 0 0 0 0 0 0 0 0 0 0 0 0 0 0 0 0 0 0 0 0 0 0 = 0 0 = 0   .X;X:X:X:X:X|.|.|.=X=X=X=X=X=X=X=X=X=X;X=X=X=X=X;X;X,X|.|.:X XQ.Q.Q.Q.Q.Q.Q.Q.Q.Q.Q.Q.Q.Q.Q.Q.Q.Q.Q.Q.Q.Q.Q.Q.Q.Q.Q.Q.Q.).(.bXlXlXkXkXkXkXkXkXkXlXlXkXkXkXkXlXlXkXkXkXkXkXkXkXkXkXkXkXkXkXkXlXkXlXlXkXkXkXkXlXlXlXlXkXkXlXlXlXlXkXkXkXkXlXlXkXlXkXkXbX-XW.W.W.Q./.Q.Q.Q.Q.Q.Q.Q.Q.Q.Q.Q.Q.Q.Q.Q.Q.Q.Q.Q.Q./.Q.Q.'.'.6 q 8 & 7 7 0 0 0 0 0 0 0 0 0 0 0 0 0 0 0 0 0 0 0 : 8 q 9 v q ].Q.Q.Q.Q.Q.Q.Q.Q.Q.Q.Q.Q.Q.Q.Q.Q.Q.Q.Q.Q.Q.Q.Q.Q.Q.Q./.Q.*XI.3 7 0 0 0 9 9 0 0 0 0 0 0 0 0 0 0 0 0 0 0 0 0 0 0 0 0 0 0 2 K ;XQ.^.Q.Q.Q.Q.Q.Q.Q.Q.Q.Q.Q.Q.Q.Q.Q.Q.Q.Q.Q.Q.Q.Q.Q.Q.Q.Q.Q.Q.Q.Q.Q.Q.Q.Q.Q.Q.Q.Q.Q.Q.Q.Q.Q.Q.Q.Q.Q.Q.Q.Q.Q.Q.Q.Q.Q.Q.Q.Q.",
"CXCXCXCXCXCXCXCXCXCXCXCXCXCXCXCXCXCXCXCXCXCXCXCXCXSXVXCXCXCXnXQ.Q.Q.Q.Q.Q.Q.Q.Q.Q.Q.Q.Q.Q.Q.Q.Q.Q.Q.Q.Q.Q.Q.Q.Q.Q.Q.Q.Q.Q.Q.Q.Q.Q.Q.Q.Q.Q.Q.Q.Q.Q.Q.Q.Q.Q.Q.Q.Q.Q.Q.Q.Q.Q.Q.Q.Q.Q.W.W.W.sXfXjXkXkXkXkXkXkXkXkXkXlXkXlXlXkXlXlXlXlXlXkXkXkXkXkXkXlXdXbX(.).W.Q.Q.Q.Q.Q.Q.Q.Q.Q.Q.Q.Q.Q.Q.Q.Q.Q.Q.Q.Q.Q.Q.Q.Q.Q.Q.Q.Q.Q.Q.Q.Q.Q.Q.Q.Q.Q.Q.Q.Q.Q.Q.Q.Q.Q.Q.Q.Q.Q.Q.Q.Q.Q.Q.Q.Q.Q.Q.(.bXbXlXlXdXlXdXlXlXkXkXkXkXlXlXkXkXkXkXkXkXlXlXcXlXzXgXxXfXnXI.  0 0 0 0 0 0 0 0 0 0 0 0 0 0 0 0 0 0 0 0 0 0 0 = 0 0 = 0 $ .X;X=X=X=X:X|.|.:X=X=X=X=X=X;X;X=X=X;X;X=X=X=X=X=X;X=X|.|.:X X/.Q.Q.Q.Q.Q.Q.Q.Q.Q.Q.Q.Q.Q.Q.Q.Q.Q.Q.Q.Q.Q.Q.Q.Q.Q.Q.Q.Q.).(.bXlXlXkXlXlXlXlXkXlXlXlXkXkXkXkXkXkXkXkXkXkXlXlXlXlXlXlXlXlXkXkXkXkXkXkXkXkXkXkXkXkXkXkXkXkXkXkXkXkXkXkXkXkXlXlXlXlXlXlXbX-XW.W.W.Q./.Q.Q.Q.Q.Q.Q.Q.Q.Q.Q.Q.Q.Q.Q.Q.Q.Q.Q.Q.Q.Q.Q.Q.'.'.6 q 8 & 7 7 0 0 0 0 0 0 0 0 0 0 0 0 0 0 0 0 0 0 0 & 8 q 9 d q ].Q.Q.Q.Q.Q.Q.Q.Q.Q.Q.Q.Q.Q.Q.Q.Q.Q.Q.Q.Q.Q.Q.Q.Q.Q.Q./.Q.'.I.3 7 0 0 0 9 9 0 0 0 0 0 0 0 0 0 0 0 0 0 0 0 0 0 0 0 0 0 0 2 K |.Q.^.Q.Q.Q.Q.Q.Q.Q.Q.Q.Q.Q.Q.Q.Q.Q.Q.Q.Q.Q.Q.Q.Q.Q.Q.Q.Q.Q.Q.Q.Q.Q.Q.Q.Q.Q.Q.Q.Q.Q.Q.Q.Q.Q.Q.Q.Q.Q.Q.Q.Q.Q.Q.Q.Q.Q.Q.Q.Q.",
"CXCXCXCXCXCXCXCXCXCXCXCXCXCXCXCXCXCXCXCXCXCXCXCXCXSXVXCXCXCXnXQ.Q.Q.Q.Q.Q.Q.Q.Q.Q.Q.Q.Q.Q.Q.Q.Q.Q.Q.Q.Q.Q.Q.Q.Q.Q.Q.Q.Q.Q.Q.Q.Q.Q.Q.Q.Q.Q.Q.Q.Q.Q.Q.Q.Q.Q.Q.Q.Q.Q.Q.Q.Q.Q.Q.Q.Q.Q.W.W.W.sXfXjXkXkXkXkXkXkXkXkXkXlXlXlXlXkXlXlXlXlXkXkXkXkXkXkXkXlXdXbX(.).W.Q.Q.Q.Q.Q.Q.Q.Q.Q.Q.Q.Q.Q.Q.Q.Q.Q.Q.Q.Q.Q.Q.Q.Q.Q.Q.Q.Q.Q.Q.Q.Q.Q.Q.Q.Q.Q.Q.Q.Q.Q.Q.Q.Q.Q.Q.Q.Q.Q.Q.Q.Q.Q.Q.Q.Q.Q.Q.(.bXbXlXlXdXlXdXlXlXkXkXkXkXkXkXkXkXkXkXkXkXlXlXcXlXzXgXxXfXnXI.  0 0 0 0 0 0 0 0 0 0 0 0 0 0 0 0 0 0 0 0 0 0 0 = 0 0 = 0 $ .X;X=X=X=X|.|.|.:X:X=X=X=X=X;X=X=X=X;X;X;X=X=X=X;X;X=X|.|.:X XQ.Q.Q.Q.Q.Q.Q.Q.Q.Q.Q.Q.Q.Q.Q.Q.Q.Q.Q.Q.Q.Q.Q.Q.Q.Q.Q.Q.Q.).(.bXlXlXkXlXlXlXlXkXkXlXlXkXkXkXkXkXkXkXkXkXlXlXlXlXlXlXlXlXlXlXkXkXkXkXkXkXkXkXkXkXkXkXkXkXkXkXkXkXkXkXkXkXkXkXlXlXlXlXkXbX-XW.W.W.Q./.Q.Q.Q.Q.Q.Q.Q.Q.Q.Q.Q.Q.Q.Q.Q.Q.Q.Q.Q.Q.Q.Q.Q.'.!.6 q 8 & 7 7 0 0 0 0 0 0 0 0 0 0 0 0 0 0 0 0 0 0 0 & 8 q 9 d q ].Q.Q.Q.Q.Q.Q.Q.Q.Q.Q.Q.Q.Q.Q.Q.Q.Q.Q.Q.Q.Q.Q.Q.Q.Q.Q./.Q.'.I.3 7 0 0 0 9 9 0 0 0 0 0 0 0 0 0 0 0 0 0 0 0 0 0 0 0 0 0 0 2 K |.Q.^.Q.Q.Q.Q.Q.Q.Q.Q.Q.Q.Q.Q.Q.Q.Q.Q.Q.Q.Q.Q.Q.Q.Q.Q.Q.Q.Q.Q.Q.Q.Q.Q.Q.Q.Q.Q.Q.Q.Q.Q.Q.Q.Q.Q.Q.Q.Q.Q.Q.Q.Q.Q.Q.Q.Q.Q.Q.Q.",
"CXCXCXCXCXCXCXCXCXCXCXCXCXCXCXCXCXCXCXCXCXCXCXCXCXSXVXCXCXCXnXQ.Q.Q.Q.Q.Q.Q.Q.Q.Q.Q.Q.Q.Q.Q.Q.Q.Q.Q.Q.Q.Q.Q.Q.Q.Q.Q.Q.Q.Q.Q.Q.Q.Q.Q.Q.Q.Q.Q.Q.Q.Q.Q.Q.Q.Q.Q.Q.Q.Q.Q.Q.Q.Q.Q.Q.Q.Q.W.W.W.sXfXkXkXkXkXkXkXkXkXkXkXkXkXkXlXlXlXkXkXlXlXkXkXkXkXkXkXlXdXbX).).T.Q.Q.Q.Q.Q.Q.Q.Q.Q.Q.Q.Q.Q.Q.Q.Q.Q.Q.Q.Q.Q.Q.Q.Q.Q.Q.Q.Q.Q.Q.Q.Q.Q.Q.Q.Q.Q.Q.Q.Q.Q.Q.Q.Q.Q.Q.Q.Q.Q.Q.Q.Q.Q.Q.Q.Q.Q.Q.(.bXbXlXlXdXlXdXlXkXkXkXkXkXkXkXkXkXkXkXkXkXkXlXcXlXzXgXxXfXnXI.$ 0 0 0 0 0 0 0 0 0 0 0 0 0 0 0 0 0 0 0 0 0 0 0 = 0 0 0 0 $ .X;X|.|.|.|.:X:X:X:X=X=X;X;X;X;X=X=X=X=X=X=X=X=X=X=X=X|.|.:X XQ.Q.Q.Q.Q.Q.Q.Q.Q.Q.Q.Q.Q.Q.Q.Q.Q.Q.Q.Q.Q.Q.Q.Q.Q.Q.Q.Q.Q.).(.bXlXbXlXkXkXkXkXlXlXkXkXkXkXkXkXkXkXkXlXkXkXkXlXlXlXlXkXlXlXkXkXkXkXkXkXkXkXkXkXkXkXkXkXlXlXlXkXkXkXkXlXkXkXlXlXlXlXkXkXbX-XW.W.W.Q./.Q.Q.Q.Q.Q.Q.Q.Q.Q.Q.Q.Q.Q.Q.Q.Q.Q.Q.Q.Q./.Q.Q.'.!.6 q 8 8 7 7 0 0 0 0 0 0 0 0 0 0 0 0 0 0 0 0 0 0 0 & 8 q 9 v w ].Q.Q.Q.Q.Q.Q.Q.Q.Q.Q.Q.Q.Q.Q.Q.Q.Q.Q.Q.Q.Q.Q.Q.Q.Q.Q./.Q.'.I.3 9 0 0 0 9 9 0 0 0 0 0 0 0 0 0 0 0 0 0 0 0 0 0 0 0 0 0 0 2 K |.R.T.Q.Q.Q.Q.Q.Q.Q.Q.Q.Q.Q.Q.Q.Q.Q.Q.Q.Q.Q.Q.Q.Q.Q.Q.Q.Q.Q.Q.Q.Q.Q.Q.Q.Q.Q.Q.Q.Q.Q.Q.Q.Q.Q.Q.Q.Q.Q.Q.Q.Q.Q.Q.Q.Q.Q.Q.Q.Q.",
"CXCXCXCXCXCXCXCXCXCXCXCXCXCXCXCXCXCXCXCXCXCXCXCXCXSXVXCXCXCXnXQ.Q.Q.Q.Q.Q.Q.Q.Q.Q.Q.Q.Q.Q.Q.Q.Q.Q.Q.Q.Q.Q.Q.Q.Q.Q.Q.Q.Q.Q.Q.Q.Q.Q.Q.Q.Q.Q.Q.Q.Q.Q.Q.Q.Q.Q.Q.Q.Q.Q.Q.Q.Q.Q.Q.Q.Q.Q.W.W.W.sXfXkXkXkXkXkXkXkXkXlXkXkXkXkXkXlXlXkXkXlXlXkXkXkXkXkXkXlXdXbX).).T.Q.Q.Q.Q.Q.Q.Q.Q.Q.Q.Q.Q.Q.Q.Q.Q.Q.Q.Q.Q.Q.Q.Q.Q.Q.Q.Q.Q.Q.Q.Q.Q.Q.Q.Q.Q.Q.Q.Q.Q.Q.Q.Q.Q.Q.Q.Q.Q.Q.Q.Q.Q.Q.Q.Q.Q.Q.Q.(.bXbXlXlXdXlXdXkXkXkXkXkXkXkXkXkXkXkXkXkXkXlXlXcXlXzXgXxXdXnXI.% 0 0 0 0 0 0 0 0 0 0 0 0 0 0 0 0 0 0 0 0 0 0 0 0 0 0 0 0 $ .X;X|.|.|.|.=X=X:X:X=X;X;X;X;X;X=X=X=X=X=X=X=X=X=X=X:X|.|.:X XQ.Q.Q.Q.Q.Q.Q.Q.Q.Q.Q.Q.Q.Q.Q.Q.Q.Q.Q.Q.Q.Q.Q.Q.Q.Q.Q.Q.Q.).(.bXlXbXlXkXkXkXkXlXkXkXkXkXkXkXkXkXkXlXlXkXkXlXlXlXlXlXkXkXlXkXkXlXlXkXkXkXkXkXkXkXkXlXkXlXlXkXkXkXkXkXlXkXkXlXlXkXkXkXkXbX-XW.W.W.Q./.Q.Q.Q.Q.Q.Q.Q.Q.Q.Q.Q.Q.Q.Q.Q.Q.Q.Q.Q.Q./.Q.Q.'.!.6 q 8 8 7 7 0 0 0 0 0 0 0 0 0 0 0 0 0 0 0 0 0 0 0 & 8 q 9 d w ].Q.Q.Q.Q.Q.Q.Q.Q.Q.Q.Q.Q.Q.Q.Q.Q.Q.Q.Q.Q.Q.Q.Q.Q.Q.Q./.Q.'.I.3 9 0 0 0 9 9 0 0 0 0 0 0 0 0 0 0 0 0 0 0 0 0 0 0 0 0 = 0 2 K |.R.T.Q.Q.Q.Q.Q.Q.Q.Q.Q.Q.Q.Q.Q.Q.Q.Q.Q.Q.Q.Q.Q.Q.Q.Q.Q.Q.Q.Q.Q.Q.Q.Q.Q.Q.Q.Q.Q.Q.Q.Q.Q.Q.Q.Q.Q.Q.Q.Q.Q.Q.Q.Q.Q.Q.Q.Q.Q.Q.",
"CXCXCXCXCXCXCXCXCXCXCXCXCXCXCXCXCXCXCXCXCXCXCXCXCXSXVXCXCXCXnXQ.Q.Q.Q.Q.Q.Q.Q.Q.Q.Q.Q.Q.Q.Q.Q.Q.Q.Q.Q.Q.Q.Q.Q.Q.Q.Q.Q.Q.Q.Q.Q.Q.Q.Q.Q.Q.Q.Q.Q.Q.Q.Q.Q.Q.Q.Q.Q.Q.Q.Q.Q.Q.Q.Q.Q.Q.Q.W.W.W.sXfXkXkXkXkXkXkXlXlXlXlXkXkXkXkXlXlXkXkXlXkXkXkXlXlXlXlXlXdXbX(.).W.Q.Q.Q.Q.Q.Q.Q.Q.Q.Q.Q.Q.Q.Q.Q.Q.Q.Q.Q.Q.Q.Q.Q.Q.Q.Q.Q.Q.Q.Q.Q.Q.Q.Q.Q.Q.Q.Q.Q.Q.Q.Q.Q.Q.Q.Q.Q.Q.Q.Q.Q.Q.Q.Q.Q.Q.Q.Q.(.bXbXlXlXdXlXdXkXkXkXkXkXkXlXlXlXlXkXkXkXkXkXkXcXlXzXgXxXdXnXI.X 0 0 0 0 0 0 0 0 0 0 0 0 0 0 0 0 0 0 0 0 0 0 0 = 0 0 = 0 $ .X;X:X:X|.|.|.|.|.|.=X=X=X=X=X=X=X=X=X=X;X;X=X;X=X=X:X|. X:X XQ.Q.Q.Q.Q.Q.Q.Q.Q.Q.Q.Q.Q.Q.Q.Q.Q.Q.Q.Q.Q.Q.Q.Q.Q.Q.Q.Q.Q.).).vXlXbXkXkXkXkXkXlXlXkXkXlXlXkXkXkXkXlXlXkXkXkXkXlXlXkXkXkXkXkXkXlXlXlXkXkXkXkXkXlXlXlXlXlXlXkXkXkXkXlXlXkXkXkXlXkXkXkXkXbX-XW.W.W.Q./.Q.Q.Q.Q.Q.Q.Q.Q.Q.Q.Q.Q.Q.Q.Q.Q.Q.Q.Q.Q./.Q.Q.'.'.p q 8 8 7 7 0 0 0 0 0 0 0 0 0 0 0 0 0 0 0 0 0 0 0 : 8 q 9 d w ].Q.Q.Q.Q.Q.Q.Q.Q.Q.Q.Q.Q.Q.Q.Q.Q.Q.Q.Q.Q.Q.Q.Q.Q.Q.Q./.Q.&XI.3 7 0 0 0 9 9 0 0 0 0 0 0 0 0 0 0 0 0 0 0 0 0 0 0 0 0 0 0 2 K |.R.T.Q.Q.Q.Q.Q.Q.Q.Q.Q.Q.Q.Q.Q.Q.Q.Q.Q.Q.Q.Q.Q.Q.Q.Q.Q.Q.Q.Q.Q.Q.Q.Q.Q.Q.Q.Q.Q.Q.Q.Q.Q.Q.Q.Q.Q.Q.Q.Q.Q.Q.Q.Q.Q.Q.Q.Q.Q.Q.",
"CXCXCXCXCXCXCXCXCXCXCXCXCXCXCXCXCXCXCXCXCXCXCXCXCXSXVXCXCXCXnXQ.Q.Q.Q.Q.Q.Q.Q.Q.Q.Q.Q.Q.Q.Q.Q.Q.Q.Q.Q.Q.Q.Q.Q.Q.Q.Q.Q.Q.Q.Q.Q.Q.Q.Q.Q.Q.Q.Q.Q.Q.Q.Q.Q.Q.Q.Q.Q.Q.Q.Q.Q.Q.Q.Q.Q.Q.Q.W.W.W.sXfXkXkXlXlXkXkXkXlXlXlXkXkXkXkXlXlXkXkXkXkXkXkXlXlXlXlXlXdXbX(.).W.Q.Q.Q.Q.Q.Q.Q.Q.Q.Q.Q.Q.Q.Q.Q.Q.Q.Q.Q.Q.Q.Q.Q.Q.Q.Q.Q.Q.Q.Q.Q.Q.Q.Q.Q.Q.Q.Q.Q.Q.Q.Q.Q.Q.Q.Q.Q.Q.Q.Q.Q.Q.Q.Q.Q.Q.Q.Q.(.bXbXlXlXdXlXdXkXkXkXkXkXkXkXlXlXlXlXkXkXkXkXkXcXlXzXgXxXdXnXI.  0 0 0 0 0 0 0 0 0 0 0 0 0 0 0 0 0 0 0 0 0 0 0 = 0 0 = 0 6 .X;X:X:X=X=X|.|.|.|.=X=X=X=X=X=X=X=X=X=X=X;X;X;X=X=X:X|. X:X XQ.Q.Q.Q.Q.Q.Q.Q.Q.Q.Q.Q.Q.Q.Q.Q.Q.Q.Q.Q.Q.Q.Q.Q.Q.Q.Q.Q.Q.).Q.bXlXlXkXkXkXkXlXlXlXkXkXlXlXkXkXkXlXlXlXkXkXkXkXkXkXkXkXkXkXkXkXlXlXlXkXlXlXkXkXkXlXlXlXlXkXkXkXkXkXlXlXkXkXkXlXkXkXkXkXbX-XW.W.W.Q./.Q.Q.Q.Q.Q.Q.Q.Q.Q.Q.Q.Q.Q.Q.Q.Q.Q.Q.Q.Q.Q.Q.Q.'.'.p q 0 8 7 7 0 0 0 0 0 0 0 0 0 0 0 0 0 0 0 0 0 0 0 : 8 q 9 v w ].Q.Q.Q.Q.Q.Q.Q.Q.Q.Q.Q.Q.Q.Q.Q.Q.Q.Q.Q.Q.Q.Q.Q.Q.Q.Q./.Q.&XI.3 7 0 0 0 9 9 0 0 0 0 0 0 0 0 0 0 0 0 0 0 0 0 0 0 0 0 0 0 2 K |.R.^.Q.Q.Q.Q.Q.Q.Q.Q.Q.Q.Q.Q.Q.Q.Q.Q.Q.Q.Q.Q.Q.Q.Q.Q.Q.Q.Q.Q.Q.Q.Q.Q.Q.Q.Q.Q.Q.Q.Q.Q.Q.Q.Q.Q.Q.Q.Q.Q.Q.Q.Q.Q.Q.Q.Q.Q.Q.Q.",
"CXCXCXCXCXCXCXCXCXCXCXCXCXCXCXCXCXCXCXCXCXCXCXCXVXSXVXCXVXVXnXQ.Q.Q.Q.Q.Q.Q.Q.Q.Q.Q.Q.Q.Q.Q.Q.Q.Q.Q.Q.Q.Q.Q.Q.Q.Q.Q.Q.Q.Q.Q.Q.Q.Q.Q.Q.Q.Q.Q.Q.Q.Q.Q.Q.Q.Q.Q.Q.Q.Q.Q.Q.Q.Q.Q.Q.Q./.W.W.W.sXkXlXlXlXlXlXlXkXkXkXkXkXlXlXlXkXkXkXkXkXkXlXlXkXkXkXkXlXdXbX(.).W.Q.Q.Q.Q.Q.Q.Q.Q.Q.Q.Q.Q.Q.Q.Q.Q.Q.Q.Q.Q.Q.Q.Q.Q.Q.Q.Q.Q.Q.Q.Q.Q.Q.Q.Q.Q.Q.Q.Q.Q.Q.Q.Q.Q.Q.Q.Q.Q.Q.Q.Q.Q.Q.Q.Q.Q.Q.Q.(.lXbXlXbXdXlXjXlXlXkXkXkXkXkXkXkXkXkXkXkXkXkXkXcXlXzXgXxXdXnXI.% 0 0 0 0 0 0 0 0 0 0 0 0 0 0 0 0 0 0 0 0 0 0 0 = 0 0 = 0   .X;X|.|.|.=X=X:X|.|.=X=X=X=X;X=X=X=X=X=X=X=X;X;X;X=X:X;X X=X XQ.Q.Q.Q.Q.Q.Q.Q.Q.Q.Q.Q.Q.Q.Q.Q.Q.Q.Q.Q.Q.Q.Q.Q.Q.Q.Q.Q.Q.Q.(.bXsXbXkXkXkXkXkXkXkXkXkXlXlXkXkXkXkXkXkXkXlXlXlXkXkXkXkXkXkXkXkXlXkXkXkXlXlXkXkXkXkXkXlXlXlXlXkXkXkXlXlXkXlXlXlXkXkXkXkXbX-XW.W.W.Q./.Q.Q.Q.Q.Q.Q.Q.Q.Q.Q.Q.Q.Q.Q.Q.Q.Q.Q.Q.W./.Q.Q.'.'.p q 8 & 7 7 0 0 0 0 0 0 0 0 0 0 0 0 0 0 0 0 0 0 0 7 7 0 > s p ].Q.Q.Q.Q.Q.Q.Q.Q.Q.Q.Q.Q.Q.Q.Q.Q.Q.Q.Q.Q.Q.Q.Q.Q.Q.Q.Q.Q.*XI.3 7 0 0 0 9 9 0 0 0 0 0 0 0 0 0 0 0 0 0 0 0 0 0 0 0 * 0 0 2 K |.R./.Q.Q.Q.Q.Q.Q.Q.Q.Q.Q.Q.Q.Q.Q.Q.Q.Q.Q.Q.Q.Q.Q.Q.Q.Q.Q.Q.Q.Q.Q.Q.Q.Q.Q.Q.Q.Q.Q.Q.Q.Q.Q.Q.Q.Q.Q.Q.Q.Q.Q.Q.Q.Q.Q.Q.Q.Q.Q.",
"CXCXCXCXCXCXCXCXCXCXCXCXCXCXCXCXCXCXCXCXCXCXCXCXVXSXVXAXVXVXnXQ.Q.Q.Q.Q.Q.Q.Q.Q.Q.Q.Q.Q.Q.Q.Q.Q.Q.Q.Q.Q.Q.Q.Q.Q.Q.Q.Q.Q.Q.Q.Q.Q.Q.Q.Q.Q.Q.Q.Q.Q.Q.Q.Q.Q.Q.Q.Q.Q.Q.Q.Q.Q.Q.Q.Q.Q./.W.W.W.sXsXlXlXlXlXkXkXkXkXkXkXkXkXlXlXkXlXkXkXkXlXlXlXkXkXkXkXlXdXbX(.).W.Q.Q.Q.Q.Q.Q.Q.Q.Q.Q.Q.Q.Q.Q.Q.Q.Q.Q.Q.Q.Q.Q.Q.Q.Q.Q.Q.Q.Q.Q.Q.Q.Q.Q.Q.Q.Q.Q.Q.Q.Q.Q.Q.Q.Q.Q.Q.Q.Q.Q.Q.Q.Q.Q.Q.Q.Q.Q.(.lXbXlXlXdXlXjXlXlXkXkXkXkXlXkXkXkXkXkXkXkXlXlXcXgXzXgXxXdXnXI.% 0 0 0 0 0 0 0 0 0 0 0 0 0 0 0 0 0 0 0 0 0 0 0 0 0 0 = 0   .X;X|.|.|.|.:X:X=X=X=X=X=X=X;X;X=X=X=X=X=X=X;X;X=X=X:X=X=X:X XQ.Q.Q.Q.Q.Q.Q.Q.Q.Q.Q.Q.Q.Q.Q.Q.Q.Q.Q.Q.Q.Q.Q.Q.Q.Q.Q.Q.Q.Q.(.bXsXbXkXkXkXkXkXlXlXkXkXlXlXkXkXkXkXkXkXlXlXlXlXkXkXkXkXkXkXkXkXlXkXkXkXlXlXkXkXkXkXlXlXlXlXlXlXkXkXkXkXkXlXlXlXkXkXkXkXbX-XW.W.W.Q./.Q.Q.Q.Q.Q.Q.Q.Q.Q.Q.Q.Q.Q.Q.Q.Q.Q.Q.Q.W.^.Q.Q.'.'.6 q 8 & 7 7 0 0 0 0 0 0 0 0 0 0 0 0 0 0 0 0 0 0 0 7 7 0 > s p ].Q.Q.Q.Q.Q.Q.Q.Q.Q.Q.Q.Q.Q.Q.Q.Q.Q.Q.Q.Q.Q.Q.Q.Q.Q.Q.Q.Q.*XI.3 7 0 0 0 9 9 0 0 0 0 0 0 0 0 0 0 0 0 0 0 0 0 0 0 0 * 0 0 2 K |.R./.Q.Q.Q.Q.Q.Q.Q.Q.Q.Q.Q.Q.Q.Q.Q.Q.Q.Q.Q.Q.Q.Q.Q.Q.Q.Q.Q.Q.Q.Q.Q.Q.Q.Q.Q.Q.Q.Q.Q.Q.Q.Q.Q.Q.Q.Q.Q.Q.Q.Q.Q.Q.Q.Q.Q.Q.Q.Q.",
"CXCXCXCXCXCXCXCXCXCXCXCXCXCXCXCXCXCXCXCXCXCXCXCXVXSXVXCXVXVXnXQ.Q.Q.Q.Q.Q.Q.Q.Q.Q.Q.Q.Q.Q.Q.Q.Q.Q.Q.Q.Q.Q.Q.Q.Q.Q.Q.Q.Q.Q.Q.Q.Q.Q.Q.Q.Q.Q.Q.Q.Q.Q.Q.Q.Q.Q.Q.Q.Q.Q.Q.Q.Q.Q.Q.Q.Q./.W.W.W.sXkXlXlXkXkXkXkXkXkXlXlXkXkXlXlXlXlXlXlXkXkXkXlXlXkXlXlXlXdXbX(.).W.Q.Q.Q.Q.Q.Q.Q.Q.Q.Q.Q.Q.Q.Q.Q.Q.Q.Q.Q.Q.Q.Q.Q.Q.Q.Q.Q.Q.Q.Q.Q.Q.Q.Q.Q.Q.Q.Q.Q.Q.Q.Q.Q.Q.Q.Q.Q.Q.Q.Q.Q.Q.Q.Q.Q.Q.Q.Q.(.bXbXlXlXfXlXkXlXlXkXkXlXlXlXlXlXkXlXlXkXlXlXlXcXlXzXgXxXfXnXI.$ 0 0 0 0 0 0 0 0 0 0 0 0 0 0 0 0 0 0 0 0 0 0 0 = 0 0 0 0   .X;X|.|.=X=X:X:X:X=X;X;X=X;X;X;X=X=X;X;X=X=X=X;X=X=X:X|. X:X X/.Q.Q.Q.Q.Q.Q.Q.Q.Q.Q.Q.Q.Q.Q.Q.Q.Q.Q.Q.Q.Q.Q.Q.Q.Q.Q.Q./.Q.(.bXsXbXkXkXkXkXkXlXlXkXkXkXkXkXkXkXkXkXlXkXkXlXkXlXkXlXlXkXkXkXkXlXlXkXkXlXkXkXkXkXkXlXlXkXlXkXkXkXkXkXkXkXkXlXlXkXkXlXkXbX-XW.W.W.Q./.Q.Q.Q.Q.Q.Q.Q.Q.Q.Q.Q.Q.Q.Q.Q.Q.Q.Q.Q.Q./.Q.Q.'.'.6 q 8 & 7 7 0 0 0 0 0 0 0 0 0 0 0 0 0 0 0 0 0 0 0 7 7 0 > s p ].Q.Q.Q.Q.Q.Q.Q.Q.Q.Q.Q.Q.Q.Q.Q.Q.Q.Q.Q.Q.Q.Q.Q.Q.Q.Q.Q.Q.'.I.3 7 0 0 0 9 9 0 0 0 0 0 0 0 0 0 0 0 0 0 0 0 0 0 0 0 * 0 0 2 K |.R./.Q.Q.Q.Q.Q.Q.Q.Q.Q.Q.Q.Q.Q.Q.Q.Q.Q.Q.Q.Q.Q.Q.Q.Q.Q.Q.Q.Q.Q.Q.Q.Q.Q.Q.Q.Q.Q.Q.Q.Q.Q.Q.Q.Q.Q.Q.Q.Q.Q.Q.Q.Q.Q.Q.Q.Q.Q.Q.",
"CXCXCXCXCXCXCXCXCXCXCXCXCXCXCXCXCXCXCXCXCXCXCXCXVXSXVXCXVXVXnXQ.Q.Q.Q.Q.Q.Q.Q.Q.Q.Q.Q.Q.Q.Q.Q.Q.Q.Q.Q.Q.Q.Q.Q.Q.Q.Q.Q.Q.Q.Q.Q.Q.Q.Q.Q.Q.Q.Q.Q.Q.Q.Q.Q.Q.Q.Q.Q.Q.Q.Q.Q.Q.Q.Q.Q.Q./.W.W.W.sXkXlXlXkXkXkXkXkXkXlXlXkXkXkXlXlXlXlXkXkXkXkXlXkXkXkXkXlXdXbX(.).W.Q.Q.Q.Q.Q.Q.Q.Q.Q.Q.Q.Q.Q.Q.Q.Q.Q.Q.Q.Q.Q.Q.Q.Q.Q.Q.Q.Q.Q.Q.Q.Q.Q.Q.Q.Q.Q.Q.Q.Q.Q.Q.Q.Q.Q.Q.Q.Q.Q.Q.Q.Q.Q.Q.Q.Q.Q.Q.(.bXbXlXlXfXlXkXlXlXkXkXkXlXlXlXlXlXlXlXkXlXlXlXcXlXzXgXxXfXnXI.  0 0 0 0 0 0 0 0 0 0 0 0 0 0 0 0 0 0 0 0 0 0 0 = 0 0 0 0   .X;X|.=X=X:X:X:X:X=X=X;X;X;X;X=X=X=X;X;X;X=X=X=X=X=X:X|. X:X X/.Q.Q.Q.Q.Q.Q.Q.Q.Q.Q.Q.Q.Q.Q.Q.Q.Q.Q.Q.Q.Q.Q.Q.Q.Q.Q.Q./.Q.(.bXsXbXkXkXkXkXkXlXlXlXkXkXkXkXkXkXkXkXlXkXkXkXkXlXlXlXlXkXkXlXlXlXlXkXkXlXkXkXkXkXlXlXlXkXkXkXkXkXkXkXkXkXkXkXkXkXkXlXlXbX-XW.W.W.Q./.Q.Q.Q.Q.Q.Q.Q.Q.Q.Q.Q.Q.Q.Q.Q.Q.Q.Q.Q.Q./.Q.Q.'.'.6 q 8 & 7 7 0 0 0 0 0 0 0 0 0 0 0 0 0 0 0 0 0 0 0 7 7 0 > s p ].Q.Q.Q.Q.Q.Q.Q.Q.Q.Q.Q.Q.Q.Q.Q.Q.Q.Q.Q.Q.Q.Q.Q.Q.Q.Q.Q.Q.'.I.3 7 0 0 0 9 9 0 0 0 0 0 0 0 0 0 0 0 0 0 0 0 0 0 0 0 = 0 0 2 K |.R./.Q.Q.Q.Q.Q.Q.Q.Q.Q.Q.Q.Q.Q.Q.Q.Q.Q.Q.Q.Q.Q.Q.Q.Q.Q.Q.Q.Q.Q.Q.Q.Q.Q.Q.Q.Q.Q.Q.Q.Q.Q.Q.Q.Q.Q.Q.Q.Q.Q.Q.Q.Q.Q.Q.Q.Q.Q.Q.",
"CXCXCXCXCXCXCXCXCXCXCXCXCXCXCXCXCXCXCXCXCXCXCXCXVXSXVXCXVXVXnXQ.Q.Q.Q.Q.Q.Q.Q.Q.Q.Q.Q.Q.Q.Q.Q.Q.Q.Q.Q.Q.Q.Q.Q.Q.Q.Q.Q.Q.Q.Q.Q.Q.Q.Q.Q.Q.Q.Q.Q.Q.Q.Q.Q.Q.Q.Q.Q.Q.Q.Q.Q.Q.Q.Q.Q.Q./.W.W.W.sXkXlXlXkXkXkXkXkXkXlXlXkXkXlXlXlXlXkXkXkXkXkXkXlXlXkXlXlXdXbX).).T.Q.Q.Q.Q.Q.Q.Q.Q.Q.Q.Q.Q.Q.Q.Q.Q.Q.Q.Q.Q.Q.Q.Q.Q.Q.Q.Q.Q.Q.Q.Q.Q.Q.Q.Q.Q.Q.Q.Q.Q.Q.Q.Q.Q.Q.Q.Q.Q.Q.Q.Q.Q.Q.Q.Q.Q.Q.Q.(.bXbXlXlXfXkXkXkXkXkXlXkXkXkXkXkXkXkXlXlXlXlXlXcXgXzXgXxXfXnXI.% 0 0 0 0 0 0 0 0 0 0 0 0 0 0 0 0 0 0 0 0 0 0 0 = 0 0 = 0 $ .X;X:X:X:X:X=X=X:X:X=X=X=X;X;X;X=X=X;X=X=X=X=X;X=X=X:X|. X=X X/.Q.Q.Q.Q.Q.Q.Q.Q.Q.Q.Q.Q.Q.Q.Q.Q.Q.Q.Q.Q.Q.Q.Q.Q.Q.Q.Q./.Q.(.bXsXbXkXkXkXlXlXlXlXkXkXkXkXkXkXkXkXlXlXkXkXlXlXkXkXkXlXkXlXlXlXlXkXkXkXkXkXkXkXkXkXkXkXkXkXkXkXkXkXkXkXkXkXkXkXkXlXlXlXbX-XW.W.W.Q./.Q.Q.Q.Q.Q.Q.Q.Q.Q.Q.Q.Q.Q.Q.Q.Q.Q.Q.Q.Q././.Q.'.'.6 q 8 & 7 7 0 s 0 0 0 0 0 0 0 0 0 0 0 0 0 0 0 0 0 7 7 0 > s p ].Q.Q.Q.Q.Q.Q.Q.Q.Q.Q.Q.Q.Q.Q.Q.Q.Q.Q.Q.Q.Q.Q.Q.Q.Q.Q./.Q.'.I.3 9 0 0 0 9 9 0 0 0 0 0 0 0 0 0 0 0 0 0 0 0 0 0 0 0 = 0 0 2 K |.Q./.Q.Q.Q.Q.Q.Q.Q.Q.Q.Q.Q.Q.Q.Q.Q.Q.Q.Q.Q.Q.Q.Q.Q.Q.Q.Q.Q.Q.Q.Q.Q.Q.Q.Q.Q.Q.Q.Q.Q.Q.Q.Q.Q.Q.Q.Q.Q.Q.Q.Q.Q.Q.Q.Q.Q.Q.Q.Q.",
"CXCXCXCXCXCXCXCXCXCXCXCXCXCXCXCXCXCXCXCXCXCXCXCXVXSXVXCXVXVXnXQ.Q.Q.Q.Q.Q.Q.Q.Q.Q.Q.Q.Q.Q.Q.Q.Q.Q.Q.Q.Q.Q.Q.Q.Q.Q.Q.Q.Q.Q.Q.Q.Q.Q.Q.Q.Q.Q.Q.Q.Q.Q.Q.Q.Q.Q.Q.Q.Q.Q.Q.Q.Q.Q.Q.Q.Q./.W.W.W.sXkXlXlXkXkXkXlXkXkXlXlXkXkXlXlXkXkXkXkXkXkXkXkXkXkXkXkXlXdXbX).).T.Q.Q.Q.Q.Q.Q.Q.Q.Q.Q.Q.Q.Q.Q.Q.Q.Q.Q.Q.Q.Q.Q.Q.Q.Q.Q.Q.Q.Q.Q.Q.Q.Q.Q.Q.Q.Q.Q.Q.Q.Q.Q.Q.Q.Q.Q.Q.Q.Q.Q.Q.Q.Q.Q.Q.Q.Q.Q.(.bXbXlXlXfXkXkXkXkXkXlXkXkXkXkXkXkXkXkXlXlXlXkXcXgXzXgXxXfXnXI.% 0 0 0 0 0 0 0 0 0 0 0 0 0 0 0 0 0 0 0 0 0 0 0 = 0 0 = 0 $ .X;X:X:X:X:X=X=X:X:X=X=X=X=X;X;X=X=X=X=X=X=X;X;X=X=X:X|. X=X X/.Q.Q.Q.Q.Q.Q.Q.Q.Q.Q.Q.Q.Q.Q.Q.Q.Q.Q.Q.Q.Q.Q.Q.Q.Q.Q.Q./.Q.(.bXsXbXkXkXkXlXlXlXlXkXkXlXkXkXkXkXkXlXlXkXkXlXlXkXkXkXkXlXlXlXlXlXlXkXkXkXkXkXkXkXkXkXkXkXkXkXkXkXkXkXkXkXkXkXkXkXkXlXlXbX-XW.W.W.Q./.Q.Q.Q.Q.Q.Q.Q.Q.Q.Q.Q.Q.Q.Q.Q.Q.Q.Q.Q.Q././.Q.'.'.6 q 8 & 7 7 0 s 0 0 0 0 0 0 0 0 0 0 0 0 0 0 0 0 0 7 7 0 > s p ].Q.Q.Q.Q.Q.Q.Q.Q.Q.Q.Q.Q.Q.Q.Q.Q.Q.Q.Q.Q.Q.Q.Q.Q.Q.Q./.Q.'.I.3 9 0 0 0 9 9 0 0 0 0 0 0 0 0 0 0 0 0 0 0 0 0 0 0 0 = 0 0 2 K |.Q./.Q.Q.Q.Q.Q.Q.Q.Q.Q.Q.Q.Q.Q.Q.Q.Q.Q.Q.Q.Q.Q.Q.Q.Q.Q.Q.Q.Q.Q.Q.Q.Q.Q.Q.Q.Q.Q.Q.Q.Q.Q.Q.Q.Q.Q.Q.Q.Q.Q.Q.Q.Q.Q.Q.Q.Q.Q.Q.",
"CXCXCXCXCXCXCXCXCXCXCXCXCXCXCXCXCXCXCXCXCXCXCXCXVXSXVXCXVXVXnXQ.Q.Q.Q.Q.Q.Q.Q.Q.Q.Q.Q.Q.Q.Q.Q.Q.Q.Q.Q.Q.Q.Q.Q.Q.Q.Q.Q.Q.Q.Q.Q.Q.Q.Q.Q.Q.Q.Q.Q.Q.Q.Q.Q.Q.Q.Q.Q.Q.Q.Q.Q.Q.Q.Q.Q.Q./.W.W.W.sXkXlXlXkXlXlXlXkXkXkXkXkXkXkXlXkXkXkXkXlXlXlXlXkXkXkXkXlXdXbX(.).W.Q.Q.Q.Q.Q.Q.Q.Q.Q.Q.Q.Q.Q.Q.Q.Q.Q.Q.Q.Q.Q.Q.Q.Q.Q.Q.Q.Q.Q.Q.Q.Q.Q.Q.Q.Q.Q.Q.Q.Q.Q.Q.Q.Q.Q.Q.Q.Q.Q.Q.Q.Q.Q.Q.Q.Q.Q.Q.(.lXbXlXlXfXjXjXkXkXlXlXlXkXkXkXkXkXkXkXlXlXkXkXcXlXzXgXxXfXnXI.% 0 0 0 0 0 0 0 0 0 0 0 0 0 0 0 0 0 0 0 0 0 0 0 = 0 0 = 0 $ .X;X=X=X|.|.|.|.:X:X=X=X=X=X;X=X=X=X=X=X=X=X;X=X=X=X:X|. X=X X/.Q.Q.Q.Q.Q.Q.Q.Q.Q.Q.Q.Q.Q.Q.Q.Q.Q.Q.Q.Q.Q.Q.Q.Q.Q.Q.Q./.Q.(.bXsXbXkXkXkXkXlXkXkXkXkXlXlXlXkXkXkXkXlXkXkXlXlXkXkXkXkXkXkXlXkXlXlXkXkXkXkXlXlXlXlXkXkXlXlXlXlXkXkXkXkXlXlXkXlXkXkXkXkXbX-XW.W.W.Q./.Q.Q.Q.Q.Q.Q.Q.Q.Q.Q.Q.Q.Q.Q.Q.Q.Q.Q.Q.Q./.Q.Q.'.'.6 q 8 & 7 7 0 s 0 0 0 0 0 0 0 0 0 0 0 0 0 0 0 0 0 7 7 0 > s p ].Q.Q.Q.Q.Q.Q.Q.Q.Q.Q.Q.Q.Q.Q.Q.Q.Q.Q.Q.Q.Q.Q.Q.Q.Q.Q./.Q.&XI.3 9 0 0 0 9 9 0 0 0 0 0 0 0 0 0 0 0 0 0 0 0 0 0 0 0 = 0 0 2 K |.Q./.Q.Q.Q.Q.Q.Q.Q.Q.Q.Q.Q.Q.Q.Q.Q.Q.Q.Q.Q.Q.Q.Q.Q.Q.Q.Q.Q.Q.Q.Q.Q.Q.Q.Q.Q.Q.Q.Q.Q.Q.Q.Q.Q.Q.Q.Q.Q.Q.Q.Q.Q.Q.Q.Q.Q.Q.Q.Q.",
"CXCXCXCXCXCXCXCXCXCXCXCXCXCXCXCXCXCXCXCXCXCXCXCXVXSXVXCXVXVXnXQ.Q.Q.Q.Q.Q.Q.Q.Q.Q.Q.Q.Q.Q.Q.Q.Q.Q.Q.Q.Q.Q.Q.Q.Q.Q.Q.Q.Q.Q.Q.Q.Q.Q.Q.Q.Q.Q.Q.Q.Q.Q.Q.Q.Q.Q.Q.Q.Q.Q.Q.Q.Q.Q.Q.Q.Q./.W.W.W.sXkXlXlXlXlXlXlXkXkXkXkXkXkXkXlXkXkXkXkXlXlXlXlXkXkXkXkXlXdXbX(.).W.Q.Q.Q.Q.Q.Q.Q.Q.Q.Q.Q.Q.Q.Q.Q.Q.Q.Q.Q.Q.Q.Q.Q.Q.Q.Q.Q.Q.Q.Q.Q.Q.Q.Q.Q.Q.Q.Q.Q.Q.Q.Q.Q.Q.Q.Q.Q.Q.Q.Q.Q.Q.Q.Q.Q.Q.Q.Q.(.lXbXlXlXfXjXjXkXkXlXlXlXkXkXkXkXkXkXkXlXlXlXkXcXlXzXgXxXfXnXI.% 0 0 0 0 0 0 0 0 0 0 0 0 0 0 0 0 0 0 0 0 0 0 0 = 0 0 = 0 $ .X;X|.|.|.|.|.|.:X:X=X=X=X=X=X=X=X=X=X=X=X=X;X;X=X=X:X|. X=X X/.Q.Q.Q.Q.Q.Q.Q.Q.Q.Q.Q.Q.Q.Q.Q.Q.Q.Q.Q.Q.Q.Q.Q.Q.Q.Q.Q./.Q.(.bXsXbXkXkXkXkXlXkXkXkXkXlXlXlXlXkXkXkXlXkXkXlXlXkXkXkXkXkXkXkXkXlXlXlXkXkXkXlXlXlXlXkXkXlXlXlXlXkXkXkXlXlXlXlXlXkXkXkXkXbX-XW.W.W.Q./.Q.Q.Q.Q.Q.Q.Q.Q.Q.Q.Q.Q.Q.Q.Q.Q.Q.Q.Q.Q./.Q.Q.'.'.6 q 8 & 7 7 0 0 0 0 0 0 0 0 0 0 0 0 0 0 0 0 0 0 0 7 7 0 > s p ].Q.Q.Q.Q.Q.Q.Q.Q.Q.Q.Q.Q.Q.Q.Q.Q.Q.Q.Q.Q.Q.Q.Q.Q.Q.Q./.Q.&XI.3 7 0 0 0 9 9 0 0 0 0 0 0 0 0 0 0 0 0 0 0 0 0 0 0 0 = 0 0 2 K |.Q./.Q.Q.Q.Q.Q.Q.Q.Q.Q.Q.Q.Q.Q.Q.Q.Q.Q.Q.Q.Q.Q.Q.Q.Q.Q.Q.Q.Q.Q.Q.Q.Q.Q.Q.Q.Q.Q.Q.Q.Q.Q.Q.Q.Q.Q.Q.Q.Q.Q.Q.Q.Q.Q.Q.Q.Q.Q.Q.",
"CXCXCXCXCXCXCXCXCXCXCXCXCXCXCXCXCXCXCXCXCXCXCXCXVXSXVXCXVXVXnXQ.Q.Q.Q.Q.Q.Q.Q.Q.Q.Q.Q.Q.Q.Q.Q.Q.Q.Q.Q.Q.Q.Q.Q.Q.Q.Q.Q.Q.Q.Q.Q.Q.Q.Q.Q.Q.Q.Q.Q.Q.Q.Q.Q.Q.Q.Q.Q.Q.Q.Q.Q.Q.Q.Q.Q.Q./.W.W.W.sXkXjXlXkXkXlXlXkXkXkXkXkXkXkXkXkXlXkXkXlXkXkXkXkXkXkXlXlXdXbX(.).W.Q.Q.Q.Q.Q.Q.Q.Q.Q.Q.Q.Q.Q.Q.Q.Q.Q.Q.Q.Q.Q.Q.Q.Q.Q.Q.Q.Q.Q.Q.Q.Q.Q.Q.Q.Q.Q.Q.Q.Q.Q.Q.Q.Q.Q.Q.Q.Q.Q.Q.Q.Q.Q.Q.Q.Q.Q.Q.(.lXbXlXbXsXjXjXkXkXkXlXlXkXkXkXkXkXlXlXlXkXkXkXcXgXzXgXxXdXnXI.% 0 0 0 0 0 0 0 0 0 0 0 0 0 0 0 0 0 0 0 0 0 0 0 0 0 0 0 0 2 .X;X=X=X=X=X|.|.|.:X=X=X=X=X=X=X=X=X=X=X=X=X=X=X=X=X:X|.|.=X X/.Q.Q.Q.Q.Q.Q.Q.Q.Q.Q.Q.Q.Q.Q.Q.Q.Q.Q.Q.Q.Q.Q.Q.Q.Q.Q.Q.Q.).).bXlXlXkXkXkXlXlXkXkXkXkXkXkXkXkXlXlXkXkXlXkXkXkXlXlXlXlXkXkXkXkXlXlXlXkXkXkXlXlXlXlXlXkXkXkXkXkXlXlXkXkXkXkXkXkXlXlXkXkXbX-XW.W.W.Q./.Q.Q.Q.Q.Q.Q.Q.Q.Q.Q.Q.Q.Q.Q.Q.Q.Q.Q.Q.Q./.Q.Q.'.'.6 q 8 & 7 7 0 0 0 0 0 0 0 0 0 0 0 0 0 0 0 0 0 0 0 & 8 q = d w _.Q.Q.Q.Q.Q.Q.Q.Q.Q.Q.Q.Q.Q.Q.Q.Q.Q.Q.Q.Q.Q.Q.Q.Q.Q.Q.Q.Q.&XI.3 7 0 0 0 9 9 0 0 0 0 0 0 0 0 0 0 0 0 0 0 0 0 0 0 0 0 0 0 2 K |.Q.^.Q.Q.Q.Q.Q.Q.Q.Q.Q.Q.Q.Q.Q.Q.Q.Q.Q.Q.Q.Q.Q.Q.Q.Q.Q.Q.Q.Q.Q.Q.Q.Q.Q.Q.Q.Q.Q.Q.Q.Q.Q.Q.Q.Q.Q.Q.Q.Q.Q.Q.Q.Q.Q.Q.Q.Q.Q.Q.",
"CXCXCXCXCXCXCXCXCXCXCXCXCXCXCXCXCXCXCXCXCXCXCXCXVXSXVXCXVXVXnXQ.Q.Q.Q.Q.Q.Q.Q.Q.Q.Q.Q.Q.Q.Q.Q.Q.Q.Q.Q.Q.Q.Q.Q.Q.Q.Q.Q.Q.Q.Q.Q.Q.Q.Q.Q.Q.Q.Q.Q.Q.Q.Q.Q.Q.Q.Q.Q.Q.Q.Q.Q.Q.Q.Q.Q.Q./.W.W.W.sXkXlXlXkXkXlXlXkXkXkXkXkXkXkXkXkXlXlXkXkXkXkXkXkXkXlXlXlXdXbX(.).W.Q.Q.Q.Q.Q.Q.Q.Q.Q.Q.Q.Q.Q.Q.Q.Q.Q.Q.Q.Q.Q.Q.Q.Q.Q.Q.Q.Q.Q.Q.Q.Q.Q.Q.Q.Q.Q.Q.Q.Q.Q.Q.Q.Q.Q.Q.Q.Q.Q.Q.Q.Q.Q.Q.Q.Q.Q.Q.(.lXbXlXlXfXjXjXkXkXlXlXlXlXkXkXkXkXlXlXlXkXkXkXcXlXzXgXxXdXnXI.% 0 0 0 0 0 0 0 0 0 0 0 0 0 0 0 0 0 0 0 0 0 0 0 0 0 0 = 0 2 .X;X=X=X=X=X|.|.=X=X=X=X=X=X=X=X=X=X=X=X=X=X;X=X=X=X:X|.|.=X XQ.Q.Q.Q.Q.Q.Q.Q.Q.Q.Q.Q.Q.Q.Q.Q.Q.Q.Q.Q.Q.Q.Q.Q.Q.Q.Q.Q.Q.Q.).bXlXlXkXkXlXlXlXkXkXkXkXkXkXkXkXlXlXkXkXlXkXkXkXkXlXlXkXkXkXkXkXlXlXlXkXkXkXlXkXlXlXkXkXkXkXkXkXlXlXkXkXkXkXlXlXlXlXkXkXbX-XW.W.W.Q./.Q.Q.Q.Q.Q.Q.Q.Q.Q.Q.Q.Q.Q.Q.Q.Q.Q.Q.Q.Q./.Q.Q.'.'.p q 8 & 7 7 0 0 0 0 0 0 0 0 0 0 0 0 0 0 0 0 0 0 0 & 8 q = d w _.Q.Q.Q.Q.Q.Q.Q.Q.Q.Q.Q.Q.Q.Q.Q.Q.Q.Q.Q.Q.Q.Q.Q.Q.Q.Q.Q.Q.&XI.3 7 0 0 0 9 9 0 0 0 0 0 0 0 0 0 0 0 0 0 0 0 0 0 0 0 0 = 0 2 K |.Q.T.Q.Q.Q.Q.Q.Q.Q.Q.Q.Q.Q.Q.Q.Q.Q.Q.Q.Q.Q.Q.Q.Q.Q.Q.Q.Q.Q.Q.Q.Q.Q.Q.Q.Q.Q.Q.Q.Q.Q.Q.Q.Q.Q.Q.Q.Q.Q.Q.Q.Q.Q.Q.Q.Q.Q.Q.Q.Q.",
"CXCXCXCXCXCXCXCXCXCXCXCXCXCXCXCXCXCXCXCXCXCXCXCXVXSXVXCXVXVXnXQ.Q.Q.Q.Q.Q.Q.Q.Q.Q.Q.Q.Q.Q.Q.Q.Q.Q.Q.Q.Q.Q.Q.Q.Q.Q.Q.Q.Q.Q.Q.Q.Q.Q.Q.Q.Q.Q.Q.Q.Q.Q.Q.Q.Q.Q.Q.Q.Q.Q.Q.Q.Q.Q.Q.Q.Q./.W.W.W.sXsXlXlXkXkXlXlXkXkXkXkXkXkXkXkXkXkXkXkXkXkXkXkXkXkXkXkXlXdXbX(.).W.Q.Q.Q.Q.Q.Q.Q.Q.Q.Q.Q.Q.Q.Q.Q.Q.Q.Q.Q.Q.Q.Q.Q.Q.Q.Q.Q.Q.Q.Q.Q.Q.Q.Q.Q.Q.Q.Q.Q.Q.Q.Q.Q.Q.Q.Q.Q.Q.Q.Q.Q.Q.Q.Q.Q.Q.Q.Q.(.lXbXlXbXsXjXkXkXkXlXlXlXlXkXkXkXkXkXlXkXkXkXkXcXlXzXgXxXdXnXI.$ 0 0 0 0 0 0 0 0 0 0 0 0 0 0 0 0 0 0 0 0 0 0 0 = 0 0 = 0   .X;X=X=X=X=X|.|.|.|.=X=X;X=X=X;X=X=X=X=X=X=X;X;X=X=X:X|.|.=X XQ.Q.Q.Q.Q.Q.Q.Q.Q.Q.Q.Q.Q.Q.Q.Q.Q.Q.Q.Q.Q.Q.Q.Q.Q.Q.Q.Q.Q.).).bXlXbXkXkXkXlXlXkXkXkXkXkXkXkXkXlXlXkXkXlXlXkXkXkXkXkXkXlXlXlXlXlXlXkXkXkXkXkXkXkXkXkXkXkXkXkXkXlXkXkXkXkXlXlXlXlXlXkXkXbX-XW.W.W.Q./.Q.Q.Q.Q.Q.Q.Q.Q.Q.Q.Q.Q.Q.Q.Q.Q.Q.Q.Q.Q./.Q.Q.'.'.p q 0 8 7 7 0 0 0 0 0 0 0 0 0 0 0 0 0 0 0 0 0 0 0 & 8 q = v w _.Q.Q.Q.Q.Q.Q.Q.Q.Q.Q.Q.Q.Q.Q.Q.Q.Q.Q.Q.Q.Q.Q.Q.Q.Q.Q./.Q.*XI.3 7 0 0 0 9 9 0 0 0 0 0 0 0 0 0 0 0 0 0 0 0 0 0 0 0 0 0 0 2 K |.R.^.Q.Q.Q.Q.Q.Q.Q.Q.Q.Q.Q.Q.Q.Q.Q.Q.Q.Q.Q.Q.Q.Q.Q.Q.Q.Q.Q.Q.Q.Q.Q.Q.Q.Q.Q.Q.Q.Q.Q.Q.Q.Q.Q.Q.Q.Q.Q.Q.Q.Q.Q.Q.Q.Q.Q.Q.Q.Q.",
"CXCXCXCXCXCXCXCXCXCXCXCXCXCXCXCXCXCXCXCXCXCXCXCXVXSXVXCXVXVXnXQ.Q.Q.Q.Q.Q.Q.Q.Q.Q.Q.Q.Q.Q.Q.Q.Q.Q.Q.Q.Q.Q.Q.Q.Q.Q.Q.Q.Q.Q.Q.Q.Q.Q.Q.Q.Q.Q.Q.Q.Q.Q.Q.Q.Q.Q.Q.Q.Q.Q.Q.Q.Q.Q.Q.Q.Q./.W.W.W.sXsXlXlXkXkXlXlXkXkXkXlXkXkXlXlXlXlXkXkXkXkXkXkXkXkXkXkXlXdXbX(.).W.Q.Q.Q.Q.Q.Q.Q.Q.Q.Q.Q.Q.Q.Q.Q.Q.Q.Q.Q.Q.Q.Q.Q.Q.Q.Q.Q.Q.Q.Q.Q.Q.Q.Q.Q.Q.Q.Q.Q.Q.Q.Q.Q.Q.Q.Q.Q.Q.Q.Q.Q.Q.Q.Q.Q.Q.Q.Q.(.lXbXlXlXsXjXjXkXlXlXlXlXlXlXkXkXkXkXlXkXkXkXkXcXlXzXgXxXdXnXI.X 0 0 0 0 0 0 0 0 0 0 0 0 0 0 0 0 0 0 0 0 0 0 0 = 0 0 = 0   .X;X=X=X=X=X|.|.=X=X=X=X;X;X;X;X=X=X=X=X;X;X;X;X=X=X:X|. X=X XQ.Q.Q.Q.Q.Q.Q.Q.Q.Q.Q.Q.Q.Q.Q.Q.Q.Q.Q.Q.Q.Q.Q.Q.Q.Q.Q.Q.Q.).).bXlXbXlXkXkXlXlXlXkXkXkXlXkXkXkXlXlXkXkXlXlXkXkXkXkXkXkXlXlXlXlXkXkXkXkXkXkXkXkXkXkXkXkXkXkXkXlXlXlXkXkXkXlXlXlXlXlXkXkXbX-XW.W.W.Q./.Q.Q.Q.Q.Q.Q.Q.Q.Q.Q.Q.Q.Q.Q.Q.Q.Q.Q.Q.Q./.Q.Q.'.'.p q 8 8 7 7 0 0 0 0 0 0 0 0 0 0 0 0 0 0 0 0 0 0 0 & 8 q = v w _.Q.Q.Q.Q.Q.Q.Q.Q.Q.Q.Q.Q.Q.Q.Q.Q.Q.Q.Q.Q.Q.Q.Q.Q.Q.Q.Q.Q.*XI.3 7 0 0 0 9 9 0 0 0 0 0 0 0 0 0 0 0 0 0 0 0 0 0 0 0 0 0 0 2 K |.Q.^.Q.Q.Q.Q.Q.Q.Q.Q.Q.Q.Q.Q.Q.Q.Q.Q.Q.Q.Q.Q.Q.Q.Q.Q.Q.Q.Q.Q.Q.Q.Q.Q.Q.Q.Q.Q.Q.Q.Q.Q.Q.Q.Q.Q.Q.Q.Q.Q.Q.Q.Q.Q.Q.Q.Q.Q.Q.Q.",
"CXCXCXCXCXCXCXCXCXCXCXCXCXCXCXCXCXCXCXCXCXCXCXCXVXSXVXCXVXVXnXQ.Q.Q.Q.Q.Q.Q.Q.Q.Q.Q.Q.Q.Q.Q.Q.Q.Q.Q.Q.Q.Q.Q.Q.Q.Q.Q.Q.Q.Q.Q.Q.Q.Q.Q.Q.Q.Q.Q.Q.Q.Q.Q.Q.Q.Q.Q.Q.Q.Q.Q.Q.Q.Q.Q.Q.Q./.W.W.W.sXsXlXlXkXkXkXkXlXlXlXlXkXlXlXlXkXkXkXkXlXlXkXkXkXkXkXkXlXdXbX).).T.Q.Q.Q.Q.Q.Q.Q.Q.Q.Q.Q.Q.Q.Q.Q.Q.Q.Q.Q.Q.Q.Q.Q.Q.Q.Q.Q.Q.Q.Q.Q.Q.Q.Q.Q.Q.Q.Q.Q.Q.Q.Q.Q.Q.Q.Q.Q.Q.Q.Q.Q.Q.Q.Q.Q.Q.Q.Q.(.bXbXbXlXdXjXjXkXkXlXlXlXlXkXkXlXlXkXkXkXlXlXlXcXlXzXgXxXfXnXI.% 0 0 0 0 0 0 0 0 0 0 0 0 0 0 0 0 0 0 0 0 0 0 0 = 0 0 = 0   .X;X=X;X|.|.|.=X:X:X=X;X;X;X;X;X;X=X=X;X;X;X=X=X=X=X:X|. X=X X/.Q.Q.Q.Q.Q.Q.Q.Q.Q.Q.Q.Q.Q.Q.Q.Q.Q.Q.Q.Q.Q.Q.Q.Q.Q.Q.Q.Q.).(.bXlXlXlXkXkXkXkXkXkXkXlXlXlXlXlXkXkXkXkXlXkXkXkXkXkXkXkXkXkXkXlXlXlXkXkXkXkXkXkXkXkXlXlXlXlXlXlXkXkXkXkXkXkXlXlXlXlXkXkXbX-XW.W.W.Q./.Q.Q.Q.Q.Q.Q.Q.Q.Q.Q.Q.Q.Q.Q.Q.Q.Q.Q.Q.Q./.Q.Q.'.!.6 q 8 & 7 7 0 0 0 0 0 0 0 0 0 0 0 0 0 0 0 0 0 0 0 & 8 q = < w _.Q.Q.Q.Q.Q.Q.Q.Q.Q.Q.Q.Q.Q.Q.Q.Q.Q.Q.Q.Q.Q.Q.Q.Q.Q.Q.Q.Q.&XI.3 9 0 0 0 9 9 0 0 0 0 0 0 0 0 0 0 0 0 0 0 0 0 0 0 0 0 0 0 2 K |.Q.^.Q.Q.Q.Q.Q.Q.Q.Q.Q.Q.Q.Q.Q.Q.Q.Q.Q.Q.Q.Q.Q.Q.Q.Q.Q.Q.Q.Q.Q.Q.Q.Q.Q.Q.Q.Q.Q.Q.Q.Q.Q.Q.Q.Q.Q.Q.Q.Q.Q.Q.Q.Q.Q.Q.Q.Q.Q.Q.",
"CXCXCXCXCXCXCXCXCXCXCXCXCXCXCXCXCXCXCXCXCXCXCXCXVXSXVXCXVXVXnXQ.Q.Q.Q.Q.Q.Q.Q.Q.Q.Q.Q.Q.Q.Q.Q.Q.Q.Q.Q.Q.Q.Q.Q.Q.Q.Q.Q.Q.Q.Q.Q.Q.Q.Q.Q.Q.Q.Q.Q.Q.Q.Q.Q.Q.Q.Q.Q.Q.Q.Q.Q.Q.Q.Q.Q.Q./.W.W.W.sXsXlXlXkXkXlXkXkXkXlXlXlXlXlXlXkXkXkXkXlXlXkXkXkXkXlXlXlXdXbX).).T.Q.Q.Q.Q.Q.Q.Q.Q.Q.Q.Q.Q.Q.Q.Q.Q.Q.Q.Q.Q.Q.Q.Q.Q.Q.Q.Q.Q.Q.Q.Q.Q.Q.Q.Q.Q.Q.Q.Q.Q.Q.Q.Q.Q.Q.Q.Q.Q.Q.Q.Q.Q.Q.Q.Q.Q.Q.Q.(.bXbXbXlXfXkXjXkXkXlXlXlXlXkXkXlXlXkXkXlXlXlXlXcXlXzXgXxXfXnXI.% 0 0 0 0 0 0 0 0 0 0 0 0 0 0 0 0 0 0 0 0 0 0 0 = 0 0 = 0   .X;X=X;X=X=X|.=X:X:X=X=X;X;X;X;X=X=X=X;X=X;X=X=X=X=X:X|. X=X X/.Q.Q.Q.Q.Q.Q.Q.Q.Q.Q.Q.Q.Q.Q.Q.Q.Q.Q.Q.Q.Q.Q.Q.Q.Q.Q.Q.Q.).).bXlXlXlXkXkXkXkXkXkXlXlXlXlXkXlXkXlXkXkXlXlXkXkXkXkXkXkXkXkXkXkXlXlXkXkXlXkXkXkXkXkXlXlXlXlXlXlXkXkXkXkXkXkXlXkXlXlXkXkXbX-XW.W.W.Q./.Q.Q.Q.Q.Q.Q.Q.Q.Q.Q.Q.Q.Q.Q.Q.Q.Q.Q.Q.W./.Q.Q.'.!.6 q 8 & 7 7 0 0 0 0 0 0 0 0 0 0 0 0 0 0 0 0 0 0 0 & 8 9 = < w _.Q.Q.Q.Q.Q.Q.Q.Q.Q.Q.Q.Q.Q.Q.Q.Q.Q.Q.Q.Q.Q.Q.Q.Q.Q.Q.Q.T.'.I.3 9 0 0 0 9 9 0 0 0 0 0 0 0 0 0 0 0 0 0 0 0 0 0 0 0 0 0 0 2 K |.Q.T.Q.Q.Q.Q.Q.Q.Q.Q.Q.Q.Q.Q.Q.Q.Q.Q.Q.Q.Q.Q.Q.Q.Q.Q.Q.Q.Q.Q.Q.Q.Q.Q.Q.Q.Q.Q.Q.Q.Q.Q.Q.Q.Q.Q.Q.Q.Q.Q.Q.Q.Q.Q.Q.Q.Q.Q.Q.Q.",
"CXCXCXCXCXCXCXCXCXCXCXCXCXCXCXCXCXCXCXCXCXCXCXCXVXSXVXCXVXVXnXQ.Q.Q.Q.Q.Q.Q.Q.Q.Q.Q.Q.Q.Q.Q.Q.Q.Q.Q.Q.Q.Q.Q.Q.Q.Q.Q.Q.Q.Q.Q.Q.Q.Q.Q.Q.Q.Q.Q.Q.Q.Q.Q.Q.Q.Q.Q.Q.Q.Q.Q.Q.Q.Q.Q.Q.Q./.W.W.W.sXkXlXlXlXlXlXlXkXkXkXkXkXkXlXlXlXkXlXkXlXkXkXkXkXlXlXlXlXdXbX(.).W.Q.Q.Q.Q.Q.Q.Q.Q.Q.Q.Q.Q.Q.Q.Q.Q.Q.Q.Q.Q.Q.Q.Q.Q.Q.Q.Q.Q.Q.Q.Q.Q.Q.Q.Q.Q.Q.Q.Q.Q.Q.Q.Q.Q.Q.Q.Q.Q.Q.Q.Q.Q.Q.Q.Q.Q.Q.Q.(.bXbXlXlXfXjXjXkXkXkXkXkXkXkXkXlXlXkXkXkXkXlXkXcXlXzXgXxXfXnXI.% 0 0 0 0 0 0 0 0 0 0 0 0 0 0 0 0 0 0 0 0 0 0 0 = 0 0 = 0   .X;X=X=X=X=X=X;X;X:X=X=X;X=X=X;X=X=X=X=X=X=X=X=X=X=X:X|. X=X X/.Q.Q.Q.Q.Q.Q.Q.Q.Q.Q.Q.Q.Q.Q.Q.Q.Q.Q.Q.Q.Q.Q.Q.Q.Q.Q.Q.Q.).).bXlXlXkXlXlXlXlXkXkXkXkXkXkXkXkXlXlXlXkXkXkXkXkXkXkXkXkXkXkXkXkXlXkXkXkXlXlXkXkXkXkXlXlXkXlXkXkXkXkXkXkXkXkXkXkXlXkXkXkXbX-XW.W.W.Q./.Q.Q.Q.Q.Q.Q.Q.Q.Q.Q.Q.Q.Q.Q.Q.Q.Q.Q.Q.Q./.Q.Q.'.'.6 q 8 & 7 7 0 0 0 0 0 0 0 0 0 0 0 0 0 0 0 0 0 0 0 & 8 q = v w _.Q.Q.Q.Q.Q.Q.Q.Q.Q.Q.Q.Q.Q.Q.Q.Q.Q.Q.Q.Q.Q.Q.Q.Q.Q.Q./.Q.&XI.3 7 0 0 0 9 9 0 0 0 0 0 0 0 0 0 0 0 0 0 0 0 0 0 0 0 0 0 0 2 K |.Q.^.Q.Q.Q.Q.Q.Q.Q.Q.Q.Q.Q.Q.Q.Q.Q.Q.Q.Q.Q.Q.Q.Q.Q.Q.Q.Q.Q.Q.Q.Q.Q.Q.Q.Q.Q.Q.Q.Q.Q.Q.Q.Q.Q.Q.Q.Q.Q.Q.Q.Q.Q.Q.Q.Q.Q.Q.Q.Q.",
"CXCXCXCXCXCXCXCXCXCXCXCXCXCXCXCXCXCXCXCXCXCXCXCXVXSXVXCXVXVXnXQ.Q.Q.Q.Q.Q.Q.Q.Q.Q.Q.Q.Q.Q.Q.Q.Q.Q.Q.Q.Q.Q.Q.Q.Q.Q.Q.Q.Q.Q.Q.Q.Q.Q.Q.Q.Q.Q.Q.Q.Q.Q.Q.Q.Q.Q.Q.Q.Q.Q.Q.Q.Q.Q.Q.Q.Q./.W.W.W.sXkXlXlXkXlXlXlXkXkXkXkXkXkXkXlXlXlXlXkXlXlXkXkXkXlXlXlXlXdXbX(.).W.Q.Q.Q.Q.Q.Q.Q.Q.Q.Q.Q.Q.Q.Q.Q.Q.Q.Q.Q.Q.Q.Q.Q.Q.Q.Q.Q.Q.Q.Q.Q.Q.Q.Q.Q.Q.Q.Q.Q.Q.Q.Q.Q.Q.Q.Q.Q.Q.Q.Q.Q.Q.Q.Q.Q.Q.Q.Q.(.lXbXlXlXfXjXjXkXkXkXkXkXkXkXkXlXlXkXkXkXkXkXkXcXgXzXgXxXfXnXI.% 0 0 0 0 0 0 0 0 0 0 0 0 0 0 0 0 0 0 0 0 0 0 0 = 0 0 = 0   .X;X=X;X=X=X=X=X;X:X=X=X=X=X=X=X=X=X=X=X=X=X=X=X=X=X,X|.|.=X X/.Q.Q.Q.Q.Q.Q.Q.Q.Q.Q.Q.Q.Q.Q.Q.Q.Q.Q.Q.Q.Q.Q.Q.Q.Q.Q.Q.Q.).).bXlXlXkXkXlXlXlXkXkXkXkXkXkXkXkXlXlXlXkXkXkXkXkXkXkXkXkXkXkXkXkXlXlXkXkXlXlXkXkXkXkXlXlXkXkXkXkXkXkXkXkXkXkXkXkXkXkXkXkXbX-XW.W.W.Q./.Q.Q.Q.Q.Q.Q.Q.Q.Q.Q.Q.Q.Q.Q.Q.Q.Q.Q.Q.Q./.Q.Q.'.'.6 q 8 & 7 7 0 0 0 0 0 0 0 0 0 0 0 0 0 0 0 0 0 0 0 & 8 q = < w _.Q.Q.Q.Q.Q.Q.Q.Q.Q.Q.Q.Q.Q.Q.Q.Q.Q.Q.Q.Q.Q.Q.Q.Q.Q.Q./.Q.&XI.3 7 0 0 0 9 9 0 0 0 0 0 0 0 0 0 0 0 0 0 0 0 0 0 0 0 0 0 0 2 K |.Q.^.Q.Q.Q.Q.Q.Q.Q.Q.Q.Q.Q.Q.Q.Q.Q.Q.Q.Q.Q.Q.Q.Q.Q.Q.Q.Q.Q.Q.Q.Q.Q.Q.Q.Q.Q.Q.Q.Q.Q.Q.Q.Q.Q.Q.Q.Q.Q.Q.Q.Q.Q.Q.Q.Q.Q.Q.Q.Q.",
"CXCXCXVXVXVXVXCXVXVXVXVXCXVXVXVXVXVXVXVXVXVXCXCXFXZXVXDXSXVXnXQ.Q.Q.Q.Q.Q.Q.Q.Q.`.`.`.`.`.`.`.`.`.`.`.`.`.`.`.`.`.`.`.`.`.`.`.`.`.`.`.`.`.`.`.`.`.`.`.`.`.`.`.`.Q.Q.Q.Q.Q.Q.Q.Q.(.~.~./.sXbXzXzXzXzXzXfXfXfXfXfXfXfXzXzXzXzXzXzXzXzXzXzXkXkXkXkX>XnXvX X}.}.Q.Q.`.`.`.`.`.`.`.`.`.`.`.`.`.`.`.`.Q.Q.Q.Q.`.Q.Q.Q.L.).T.R.Q.T.Q.!.Q.Q.Q.Q.Q.Q.Q.Q.Q.Q.Q.Q.Q.Q.Q.Q.Q.Q.Q.Q.Q.Q.Q.Q.-XbXdXdXlXdXlXjXkXkXkXkXlXlXlXlXkXkXkXlXlXlXlXlXjXlXlXkXxXfXnXI.  7 0 0 0 = 0 0 0 0 0 0 0 0 0 0 0 0 0 0 0 0 0 0 = 0 % 8 * 6 .X,X=X=X=X=X:X:X:X:X=X=X=X=X=X=X=X=X:X:X=X=X=X=X=X=X=X=X=X:X XQ.Q.}.Q.Q.Q.R.R.Q.Q.Q.Q.Q.Q.Q.Q.Q.Q.Q.Q.Q.Q.Q.Q.Q.Q.Q.Q.}./.(.bXfXjXxXlXlXlXlXlXlXlXlXbXbXbXbXbXbXbXbXlXbXbXbXbXbXbXbXlXbXlXgXvXgXgXgXkXkXkXkXkXkXkXkXkXkXkXkXkXkXkXkXlXkXkXkXzXzXzXzXnX=XW.W.W.).(.Q.`.`.`.`.`.`.`.`.`.`.`.`.`.`.`.`.W.W././.Q.Q.'.&X6 6 q 8 0 0 0 0 0 0 0 0 0 0 0 0 0 0 0 0 0 0 0 0 & 0 9 * * 7 5 *XQ.Q.Q.Q.Q.Q.R.R.Q.Q.Q.Q.Q.Q.Q.Q.Q.Q.Q.Q.Q.Q.Q.Q.Q.Q.R.{.!.I.3 7 0 0 0 9 9 0 0 0 0 0 0 0 0 0 0 0 0 0 0 0 0 0 0 0 t % q 6 K *XQ.(.Q.Q.`.`.Q.Q.Q.Q.`.`.`.`.`.`.`.`.`.`.`.`.`.Q.Q.Q./.W.W.).(.W.T.R.Q.Q.Q.Q.Q.Q.Q.Q.Q.Q.Q.Q.Q.Q.Q.Q.Q.Q.Q.Q.Q.Q.Q.Q.Q.Q.",
"VXVXVXVXVXVXVXVXVXVXVXVXVXVXVXVXVXVXVXVXVXVXVXVXSXLXVXDXDXVXnX'.^.^.^.^.^.^.^./.~.~.~.~.~.~.~.~.~.~.~.~.~.~.~.~.~.~.~.~.~.~.~./.~.~.~.~.~./.~.~.~.~.~.~.~./.~.~.R.R.R.R.R.R.R.R.L.L.T.Q.sXbXzXzXlXlXlXlXlXlXlXlXkXlXlXlXlXlXlXlXkXkXkXkXkXkXkXkXxXxXsX(./.W.L.L.~.~.~.~.~.~.~.~.~.~.~.~.~.~.~.~.R.R.R.R.R.~.R.R.L.W.E.T./.Q.Q.!.Q.Q.Q.Q.Q.Q.Q.Q.Q.Q.Q.Q.Q.Q.Q.Q.Q.Q.Q.Q.Q.Q.Q.Q.-XbXdXdXlXdXlXjXlXkXkXkXlXlXlXlXkXkXkXkXlXlXkXlXjXlXlXkXxXfXnXI.  7 0 0 0 = 0 0 0 0 0 0 0 0 0 0 0 0 0 0 0 0 0 0 = 0 % 8 * 6 .X:X|.|.|.|.=X=X=X=X X X X X X X X X=X=X X X X X X=X'.}.}.:X XQ.Q.}././././././././.Q.Q.Q.Q.Q.Q.Q.Q.Q.Q.Q.Q.R.R.Q.Q.T.Q.T.(.mXlXmXkXjXjXjXjXjXjXjXjXkXkXkXkXkXjXkXjXkXkXkXkXkXkXkXkXkXlXjXlXbXlXlXxXkXkXkXkXkXkXkXkXkXkXkXkXkXkXkXkXsXsXsXdXfXfXfXfXbX}.W.W.W.Q././.~.~.~.~.~.~.~.~.~.~.~.~.~.~.~./.W.T.^.~.Q.Q.!.!.6 6 q 0 0 0 0 0 0 0 0 0 0 0 0 0 0 0 0 0 0 0 0 0 8 0 9 0 0 q 5 .X/./././././././.Q.Q.Q.Q.Q.Q.Q.Q.Q.Q.Q.Q.Q.Q.Q.Q.}.}./.}.'.I.2 7 0 0 0 9 9 0 0 0 0 0 0 0 0 0 0 0 0 0 0 0 0 0 0 0 s X 7 3 L &XT.^.R.R.R.R.R.R.R.R.~.~.~.~.~.~.~.~.~.~.~.~.~.~.^.^.E.W.T.W.W.).}.}.Q.Q.Q.Q.Q.Q.Q.Q.Q.Q.Q.Q.Q.Q.Q.Q.Q.Q.Q.Q.Q.Q.Q.Q.Q.Q.",
"VXVXVXVXVXVXVXVXVXVXVXVXVXVXVXVXVXVXVXVXVXVXVXVXCXSXFXMXMXVXnX!.W.W.W.W.W.W.W.W.W.W.W.W.W.W.W.W.W.W.W.W.W.W.W.W.W.W.W.W.W.W.W.W.W.W.W.W.W.W.W.W.W.W.W.W.W.W.W.W.T.T.T.T.T.T.T.T.Q.}.}.!.vXbXfXfXlXlXlXlXlXlXlXlXlXlXlXlXlXlXlXlXgXgXgXgXkXkXkXkXxXcXcX).(.(.W.(.W.W.W.W.W.W.W.W.W.W.W.W.W.W.W.W.T.T.T.T.T.T.T.T.&X'.(./.(./.Q.Q.Q.Q.Q.Q.Q.Q.Q.Q.Q.Q.Q.Q.Q.Q.Q.Q.Q.Q.Q.Q.Q.Q.Q.Q.-XbXdXdXlXdXlXkXlXlXkXkXkXkXkXkXkXkXkXkXkXkXkXkXjXlXlXkXxXkXBXI.  7 0 0 0 = 0 0 0 0 0 0 0 0 0 0 0 0 0 0 0 0 0 0 = 0 % 0 & 6 .X=X:X:X=X=X:X:X:X:X:X:X:X:X=X=X=X=X:X:X:X:X=X=X=X=X X=X=X:X}.Q.W.Q.Q.Q.Q.Q.Q.Q.Q.Q././././././././././././././././././.T.}.bXbXbX<XdXdXdXdXdXdXdXdXdXdXdXdXfXdXdXdXdXdXdXdXdXdXdXfXlXkXdXcXcXcXcXcXsXsXsXsXsXsXkXkXsXsXsXsXkXkXsXkXbXbXlXlXkXjXjXjXvX}.Q./.Q.Q.{.{.W.W.W.W.W.W.W.W.W.W.W.W.W.W.W.W.Q.Q.Q.Q.Q.Q.Q.!.6 6 9 0 0 0 0 0 0 0 0 0 0 0 0 0 0 0 0 0 0 0 0 0 0 0 9 t 0 q 5 .XQ.Q.Q.Q.Q.Q.Q.Q././././././././././././.Q./././.E.Q.T.Q.!.I.3 0 0 0 0 9 9 0 0 0 0 0 0 0 0 0 0 0 0 0 0 0 0 0 0 0 h o 4 2 L &X{.{.T.T.T.T.T.T.T.T.W.W.W.W.W.W.W.W.Q.Q.Q.Q.W.W.W.W.'.}.Q.W.T.T.Q.R././././././././././././././././././././././././././.",
"SXSXSXSXSXSXSXSXSXSXSXSXSXSXSXSXSXSXSXSXSXSXSXSXLXLXAXAXDXSXFX_.&X&X&X&X&X&X&X&X&X&X&X&X&X&X&X&X&X&X&X&X&X&X&X&X&X&X&X&X&X&X&X&X&X&X&X&X&X&X&X&X&X&X&X&X&X&X&X&X&X&X&X&X&X&X&X&X].]._.E.vXmXkXkXgXgXgXgXlXlXlXlXgXgXgXgXgXgXgXgXbXbXbXbXlXbXbXbXxXxXbXQ.!.&X!.'.&X&X&X&X&X&X&X&X&X&X&X&X&X&X&X&X&X&X&X&X&X&X&X&X&X!.=XQ./.T.Q.Q.Q.Q.Q.Q.Q.Q.Q.Q.Q.Q.Q.Q.Q.Q.Q.Q.Q.Q.Q.Q.Q.Q.Q.Q.-XbXdXdXlXdXlXkXlXlXkXkXkXkXkXkXkXkXkXkXkXkXkXkXjXlXlXkXxXkXBXI.  7 0 0 0 = 0 0 0 0 0 0 0 0 0 0 0 0 0 0 0 0 0 0 = 0 7 0 0 6 XX&X|.|.|.|.|.|.=X|. X X X X=X=X X X=X=X=X=X X X X X:X:X:X:XQ. XQ.!.W.W.W.W.W.T.W.W.T.T.T.T.T.T.T.T.T.T.T.T.T.T.T.T.L.E.W.=X,XBXFXFXBXBXBXBXBXBXBXBXnXnXnXnXnXnXnXnXnXnXnXnXnXnXnXnXBXnXnXbXdXdXbXbXbXbXbXbXbXbXbXbXbXbXbXbXbXbXbXbXbXbXbXlXlXlXkXkXAX>X'.&X&X&X&X&X&X&X&X&X&X&X&X&X&X&X&X&X&X&X&X&X&X&X*X*X*X*X*X*Xq 9 0 0 0 0 0 9 0 0 0 0 0 0 0 0 0 0 0 0 0 0 0 0 8 0 9 t 0 q 5 wXQ.Q.T.T.T.Q.T.T.T.T.T.T.T.T.T.T.T.T.T.T.T.T.T.T.E.Q.Q.Q.&XU.. 7 0 0 0 9 9 0 0 0 0 0 0 0 0 0 0 0 0 0 0 0 0 0 0 0 8 % 7 q L .X_.].&X&X&X&X&X&X&X&X&X&X&X&X&X&X&X&X&X&X&X&X&X&X&X&X*X].E.'.(.Q.Q.R.T.T.T.T.T.T.T.T.T.T.T.T.T.T.T.T.T.T.T.T.T.T.T.T.T.T.",
"=X=X=X=X=X=X=X=X=X=X=X=X=X=X=X=X=X=X=X=X=X=X=X=X=X=X=X=X=X,X].H G G G G G G G G G G G G G G G G G G G G G G G G G G G G G G G G G G G G G G G G G G G G G G G G G G G G G G G G J J J H ,XDXMXmXMXMXMXMXMXMXMXMXMXMXMXMXMXMXMXMXVXVXVXMXVXVXVXVXmXVXFXL G G G G G G G G G G G G G G G G G G G G G G G G G G G G L L !.Q.T.E./.}.Q.Q.Q.Q.Q.Q.Q.Q.Q.Q.Q.Q.Q.Q.Q.Q.Q.Q.Q.Q.Q.Q.Q.Q.-XbXdXdXlXdXlXkXlXkXkXkXkXkXkXkXkXkXkXkXkXkXkXkXjXlXlXkXxXjXBXI.  7 0 0 0 = 0 0 0 0 0 0 0 0 0 0 0 0 0 0 0 0 0 0 = 0 7 0 0 6 Y.&XQ.Q.Q.Q.Q.Q.Q.Q.Q.Q.Q.Q.Q.Q.Q.Q.Q.Q.Q.Q.Q.Q.Q.Q.{.}.}.}.Q.nXvXnXmXmXmXmXmXmXmXmXmXmXmXmXmXmXmXmXmXmXmXmXmXmXmXmXMXMXNXrXJ J L G L L L L L L L L L L L L L L L L L L L L L L L L L L I.!.Q.Q.}.'.(.(.(.(.(.(.(.(.(.(.(.(.(.(.(.(.-X-X-X-X-X-X-X-X,XP.H H G G H H G G G G G G G G G G G G G G G G H H G G G G G G 9 9 0 0 0 0 9 7 0 0 0 0 0 0 0 0 0 0 0 0 0 0 0 0 & 9 9 t * 7 r FXNXNXNXNXNXNXNXNXmXmXmXmXmXmXmXmXmXmXmXmXmXmXmXmXvXvXnXnXNX.X. 7 0 0 0 9 9 0 0 0 0 0 0 0 0 0 0 0 0 0 0 0 0 0 0 0 9 9 t 9 M P G L G G G G G G G G G G G G G G G G G G G G G G H H o.J H &XnXvXvXbXmXmXmXmXmXmXmXmXmXmXmXmXmXmXmXmXmXmXmXmXmXmXmXmXmXmX",
"Q.Q.Q.Q.Q.Q.Q.Q.Q.Q.Q.Q.Q.Q.Q.Q.Q.Q.Q.Q.Q.Q.Q.Q.Q.Q.Q./.Q.&XU.5 9 9 9 9 9 9 9 9 7 7 7 7 7 7 7 7 7 7 7 7 7 7 7 7 7 7 7 7 7 7 7 7 7 7 7 7 7 7 7 7 7 7 7 7 7 7 7 7 7 7 7 7 7 7 7 7 7 6 3 1 *XZXSXMXZXZXSXDXAXAXAXAXDXDXAXAXAXAXAXAXVXVXVXVXVXVXVXVXVXZXFXw + 7 9 $ 7 7 7 7 7 7 7 7 7 7 7 7 7 7 7 7 7 7 7 7 7 7 7 7 3 5 *X'.(.R./.`.Q.Q.Q.Q.Q.Q.Q.Q.Q.Q.Q.Q.Q.Q.Q.Q.Q.Q.Q.Q.Q.Q.Q.Q.-XbXdXdXlXdXlXkXlXlXkXkXkXkXkXkXkXkXkXkXkXkXlXlXjXlXlXkXxXjXFXI.  7 0 0 0 = 0 0 0 0 0 0 0 0 0 0 0 0 0 0 0 0 0 0 = 0 7 0 0 2 U.'.Q.Q.Q.Q.Q.Q.Q.Q.Q.Q.Q.Q.Q.Q.Q.Q.Q.Q.Q.Q.Q.Q.Q.Q.R./.Q.Q.Q.AXVXSXVXVXVXVXVXVXVXVXMXMXVXVXMXVXMXMXVXVXVXVXVXVXVXVXAXAXCXwX1 3 . 4 % % $ $ $ $ $ $ 2 2 2 2 2 2 2 2 2 2 2 2 2     2 * 2 L Y.Q.Q.]._.).Q.Q.).).).).).).).).).).Q.).).Q.Q.W.W.W.W.W.W.*XH 3 2 7 7 2 2 7 7 7 7 7 7 7 7 7 7 7 7 7 7 7 7 2 2 4 4 4 4 7 7 9 0 0 0 0 0 7 7 0 0 0 0 0 0 0 0 0 0 0 0 0 0 0 0 & 9 9 t % 2 G PXVXVXVXVXVXVXVXVXMXMXMXMXMXMXMXMXMXMXMXMXMXMXMXMXMXVXAXCXKXqX3 8 0 0 0 9 9 0 0 0 0 0 0 0 0 0 0 0 0 0 0 0 0 0 0 0 6 u u ; ; * % 7 7 7 7 7 7 7 7 7 7 7 7 7 7 7 7 7 9 9 9 9 7 7 7 7 9 6 1 uXSXAXDXSXVXMXMXMXMXMXMXMXMXMXVXVXMXMXMXMXMXMXMXMXMXMXMXMXMXMX",
"R.R.R.R.T.R.R.R.R.R.R.T.R.R.R.R.R.R.R.R.R.R.R.R.Q.Q././.E.].Y.5 = = = 0 = = = = 0 0 0 0 0 0 0 0 0 0 0 0 0 0 0 0 0 0 0 0 0 0 0 0 0 0 0 0 0 0 0 0 0 0 0 0 0 0 0 0 = = = = = = = = = v 9 . wXPXSXMXCXCXCXCXCXCXCXCXCXCXCXCXCXCXCXCXVXVXVXVXVXVXVXVXCXKXJXr % v c y 0 0 0 0 0 0 0 0 0 0 0 0 0 0 0 0 = = = = = = = = 7 5 *X}. X~./.Q.Q.Q.Q.Q.Q.Q.Q.Q.Q.Q.Q.Q.Q.Q.Q.Q.Q.Q.Q.Q.Q.Q.Q.Q.-XbXdXdXlXdXlXkXkXkXkXkXkXkXlXlXkXlXkXkXkXlXlXlXjXkXlXkXxXjXFXI.X 7 0 0 0 = 0 0 0 0 0 0 0 0 0 0 0 0 0 0 0 0 0 0 = 0 8 0 0 2 U.'././././././././.Q.Q.Q.Q.Q.Q.Q.Q.Q.Q.Q.Q.Q.Q.Q.Q.R././.Q.Q.SXFXSXAXDXAXAXAXAXAXAXSXSXSXSXSXSXSXSXVXVXVXVXVXVXVXVXCXSXPXiX3 7 = v = = = ; ; ; 0 t = = = = = = = 0 = = = = = = = = - 7 L '.}.Q.{.E.W.W.W.W.W.W.W.W.W.W.W.W.W.W.W.W.Q.Q.Q.Q.W.W.W.W.*XG 2 * t = 8 7 0 0 0 0 0 0 0 0 0 0 0 0 0 0 0 0 7 8 & > > = = 9 t 0 0 = = 0 7 7 0 0 0 0 0 0 0 0 0 0 0 0 0 0 0 0 & 0 0 t * 2 G PXAXAXAXAXAXAXAXAXSXSXSXSXSXSXSXSXSXSXSXSXZXSXSXSXMXCXAXVXKXiX. 0 0 0 0 9 9 0 0 0 0 0 0 0 0 0 0 0 0 0 0 0 0 0 0 0 % t = ; > & & 8 = = = = = = = = 0 0 0 0 0 0 0 0 = = = 0 = = 0 0 = 9 3 qXKXSXDXDXSXSXSXSXSXSXSXSXSXSXSXSXSXSXSXSXSXSXSXSXSXSXSXSXSXSX",
"~.~.~.~.R.Q.Q.~.~.~./.Q.~.~.~.~.R./.~.~.~.~.~.R.'.Q.R.~.E.&XY.5 0 0 0 0 0 0 0 0 0 0 0 0 0 0 0 0 0 0 0 0 0 0 0 0 0 0 0 0 0 0 0 0 0 0 0 0 0 0 0 0 0 0 0 0 0 0 0 0 0 0 0 0 0 0 0 0 < < t   wXPXKXVXCXCXVXVXVXVXVXCXVXVXVXVXVXVXVXVXCXCXCXCXCXCXCXCXVXFXHXr 9 t ; ; 0 0 0 0 0 0 0 0 0 0 0 0 0 0 0 0 0 0 0 0 0 0 0 0 0 2 .X!./.T.R.E.Q.Q.Q.Q.Q.Q.Q.Q.Q.Q.Q.Q.Q.Q.Q.Q.Q.Q.Q.Q.Q.Q.Q.Q.-XbXdXdXlXdXlXkXkXkXkXkXkXlXlXlXlXlXkXkXkXlXlXlXkXkXlXjXxXlXFXI.X 7 0 0 0 = 0 0 0 0 0 0 0 0 0 0 0 0 0 0 0 0 0 0 = 0 8 0 0 2 U.!.Q.Q.Q.Q.Q.Q.Q.Q.Q.Q.Q.Q.Q.Q.Q.Q.Q.Q.Q.Q.Q.Q.Q.Q.T.~./.Q.Q.SXnXVXVXVXVXVXVXVXVXVXVXVXVXVXVXVXVXVXVXDXDXDXDXDXDXDXVXCXPXiX. 0 < < = = = = = = = = = = = = = = = = = = = = = = = = 0 6 L Q.^.~.(.Q.Q.Q.Q.Q.Q.Q.).).Q.Q.Q.Q.Q.Q.Q.Q.Q.Q.Q.Q.W.W.W.W..XG 6 t v < 0 9 0 0 0 0 0 0 0 0 0 0 0 0 0 0 0 0 0 = = > < ; t t t t = = = 0 7 7 0 0 0 0 0 0 0 0 0 0 0 0 0 0 0 0 0 0 9 t = 7 H HXCXCXCXCXCXCXCXCXVXVXVXVXVXVXVXVXVXVXVXVXCXVXVXVXCXAXAXMXKXqX+ 8 0 0 0 9 9 0 0 0 0 0 0 0 0 0 0 0 0 0 0 0 0 0 0 0 & , : > > & 8 q 0 0 0 0 0 0 0 0 0 0 0 0 0 0 0 0 0 0 0 0 0 0 0 8 < v 2 iXKXZXDXDXVXVXVXVXVXVXVXVXVXVXVXVXVXVXVXVXVXVXVXVXVXVXVXVXVXVX",
"Q.Q.Q.Q.Q.Q.Q.Q.Q.Q.Q.Q.Q.Q.Q.Q.Q.Q.Q.Q.Q.Q.Q.Q.R.Q.`.~./.Q.Y.3 9 9 9 9 9 9 9 9 9 9 9 9 9 9 9 9 9 9 9 9 9 9 9 9 9 9 9 9 9 9 9 9 9 9 9 9 9 9 9 9 9 9 9 9 9 9 9 9 9 9 9 9 9 9 9 9 7 = t . wXZXVXSXCXCXCXCXCXCXCXCXCXCXCXCXCXCXCXCXCXCXCXCXCXCXCXCXVXKXHXr 7 0 0 0 9 9 9 9 9 9 9 9 9 9 9 9 9 9 9 9 9 9 9 9 9 9 9 9 0 w Y.Q.~.Q.Q./.Q.Q.Q.Q.Q.Q.Q.Q.Q.Q.Q.Q.Q.Q.Q.Q.Q.Q.Q.Q.Q.Q.Q.Q.-XbXdXdXlXdXlXjXkXkXkXkXkXkXkXkXlXlXlXlXkXkXkXlXjXlXlXlXcXlXBXXX  9 0 & 0 0 0 0 0 0 0 0 0 0 0 0 0 0 0 0 0 0 0 0 = 0 7 0 9 3 U.!.~.~.Q.Q.Q.Q.Q.Q.Q.Q.Q.Q.Q.Q.Q.Q.Q.Q.Q.Q.Q.Q.Q.Q.Q.Q.Q.Q.E.AXVXSXCXCXCXCXCXCXCXCXCXCXCXCXCXCXCXCXCXCXCXCXCXCXCXCXCXCXZXqX2 * 0 0 0 0 0 0 0 0 0 0 0 0 0 0 0 0 0 0 0 0 0 0 0 0 0 0 0 2 K './.~.W.Q.Q.Q.Q.Q.Q.Q.Q.Q.Q.Q.Q.Q.Q.Q.Q.Q.Q.Q.Q.Q.Q.Q.Q.Q.&XH $ 0 0 7 0 = 9 9 9 9 9 9 9 9 9 9 9 9 9 9 9 9 0 0 0 0 0 0 0 0 0 0 0 0 0 0 0 0 0 0 0 0 0 0 0 0 0 0 0 0 0 0 0 0 7 0 = = 0 6 r JXCXCXCXCXCXCXCXCXCXCXCXCXCXCXCXCXCXCXCXCXCXCXCXCXZXCXCXVXKXqX. 0 0 0 0 0 0 0 0 0 0 0 0 0 0 0 0 0 0 0 0 0 0 0 0 0 8 8 8 8 8 8 8 8 9 9 9 9 9 9 9 9 9 9 9 9 9 9 9 9 0 0 0 0 0 0 0 0 < 0 3 qXZXCXAXCXCXCXCXCXCXCXCXCXCXCXCXCXCXCXCXCXCXCXCXCXCXCXCXCXCXCX",
"Q.Q.Q.Q.Q.Q.Q.Q.Q.Q.Q.Q.Q.Q.Q.Q.Q.Q.Q.Q.Q.Q.Q.Q.R.Q.`.~./.Q.Y.3 9 9 9 9 9 9 9 9 0 0 0 0 0 0 0 0 0 0 0 0 0 0 0 0 0 0 0 0 0 0 0 0 0 0 0 0 0 0 0 0 0 0 0 0 0 0 0 0 0 0 0 0 0 0 0 0 7 = t . wXZXVXSXCXCXCXCXCXCXCXCXCXCXCXCXCXCXCXCXCXCXCXCXCXCXCXCXVXKXHXr 2 0 0 0 0 0 0 0 0 0 0 0 0 0 0 0 0 0 0 0 0 0 0 0 0 0 0 0 0 w !.Q.~.Q.Q./.Q.Q.Q.Q.Q.Q.Q.Q.Q.Q.Q.Q.Q.Q.Q.Q.Q.Q.Q.Q.Q.Q.Q.Q.-XbXdXdXlXdXlXjXlXlXkXkXkXkXkXkXlXlXlXlXkXkXkXkXjXlXlXlXcXlXBXXX  9 0 & 0 0 0 0 0 0 0 0 0 0 0 0 0 0 0 0 0 0 0 0 = 0 7 0 9 3 U.!.~.~.Q.Q.Q.Q.Q.Q.Q.Q.Q.Q.Q.Q.Q.Q.Q.Q.Q.Q.Q.Q.Q.Q.Q.Q.Q.Q.E.AXVXSXCXCXCXCXCXCXCXCXCXCXCXCXCXCXCXCXCXCXCXCXCXCXCXCXCXCXZXqX2 * 0 0 0 0 0 0 0 0 0 0 0 0 0 0 0 0 0 0 0 0 0 0 0 0 0 0 0 2 K './.~.W.Q.Q.Q.Q.Q.Q.Q.Q.Q.Q.Q.Q.Q.Q.Q.Q.Q.Q.Q.Q.Q.Q.Q.Q.Q.&XH $ 0 0 7 0 = 0 0 0 0 0 0 0 0 0 0 0 0 0 0 0 0 0 0 0 0 0 0 0 0 0 0 0 0 0 0 0 0 0 0 0 0 0 0 0 0 0 0 0 0 0 0 0 0 7 0 = = 0 6 G JXCXCXCXCXCXCXCXCXCXCXCXCXCXCXCXCXCXCXCXCXCXCXCXCXZXCXCXVXKXqX. 0 0 0 0 0 0 0 0 0 0 0 0 0 0 0 0 0 0 0 0 0 0 0 0 0 8 8 8 8 8 8 8 8 0 0 0 0 0 0 0 0 0 0 0 0 0 0 0 0 0 0 0 0 0 0 0 0 < 0 3 qXKXCXAXCXCXCXCXCXCXCXCXCXCXCXCXCXCXCXCXCXCXCXCXCXCXCXCXCXCXCX",
"Q.Q.Q.Q.Q.Q.Q.Q.Q.Q.Q.Q.Q.Q.Q.Q.Q.Q.Q.Q.Q.Q.Q.Q.R.Q.`.~./.Q.Y.3 0 0 0 0 0 0 0 0 0 0 0 0 0 0 0 0 0 0 0 0 0 0 0 0 0 0 0 0 0 0 0 0 0 0 0 0 0 0 0 0 0 0 0 0 0 0 0 0 0 0 0 0 0 0 0 0 7 = t . wXZXVXSXCXCXCXCXCXCXCXCXCXCXCXCXCXCXCXCXCXCXCXCXCXCXCXCXVXKXHXr 2 0 0 0 0 0 0 0 0 0 0 0 0 0 0 0 0 0 0 0 0 0 0 0 0 0 0 0 0 w Y.Q.~.Q.Q.~.Q.Q.Q.Q.Q.Q.Q.Q.Q.Q.Q.Q.Q.Q.Q.Q.Q.Q.Q.Q.Q.Q.Q.Q.-XbXdXdXlXdXlXjXlXlXlXkXlXlXkXlXkXkXkXkXkXkXkXkXjXlXlXlXcXlXBXXX  9 0 & 0 0 0 0 0 0 0 0 0 0 0 0 0 0 0 0 0 0 0 0 = 0 7 0 0 3 U.!.~.~.Q.Q.Q.Q.Q.Q.Q.Q.Q.Q.Q.Q.Q.Q.Q.Q.Q.Q.Q.Q.Q.Q.Q.Q.Q.Q.E.AXVXSXCXCXCXCXCXCXCXCXCXCXCXCXCXCXCXCXCXCXCXCXCXCXCXCXCXCXZXqX2 * 0 0 0 0 0 0 0 0 0 0 0 0 0 0 0 0 0 0 0 0 0 0 0 0 0 0 0 2 K './.~.W.Q.Q.Q.Q.Q.Q.Q.Q.Q.Q.Q.Q.Q.Q.Q.Q.Q.Q.Q.Q.Q.Q.Q.Q.Q.&XH $ 0 0 8 0 = 0 0 0 0 0 0 0 0 0 0 0 0 0 0 0 0 0 0 0 0 0 0 0 0 0 0 0 0 0 0 0 0 0 0 0 0 0 0 0 0 0 0 0 0 0 0 0 0 7 0 = = 0 6 r JXCXCXCXCXCXCXCXCXCXCXCXCXCXCXCXCXCXCXCXCXCXCXCXCXZXCXCXVXKXqX. 0 0 0 0 0 0 0 0 0 0 0 0 0 0 0 0 0 0 0 0 0 0 0 0 0 0 0 0 0 0 0 0 0 0 0 0 0 0 0 0 0 0 0 0 0 0 0 0 0 0 0 0 0 0 0 0 0 < 0 3 qXZXCXAXCXCXCXCXCXCXCXCXCXCXCXCXCXCXCXCXCXCXCXCXCXCXCXCXCXCXCX",
"Q.Q.Q.Q.Q.Q.Q.Q.Q.Q.Q.Q.Q.Q.Q.Q.Q.Q.Q.Q.Q.Q.Q.Q.R.Q.`.~./.Q.Y.3 0 0 0 0 0 0 0 0 0 0 0 0 0 0 0 0 0 0 0 0 0 0 0 0 0 0 0 0 0 0 0 0 0 0 0 0 0 0 0 0 0 0 0 0 0 0 0 0 0 0 0 0 0 0 0 0 7 = t . wXZXVXSXCXCXCXCXCXCXCXCXCXCXCXCXCXCXCXCXCXCXCXCXCXCXCXCXVXKXHXr 7 0 0 0 0 0 0 0 0 0 0 0 0 0 0 0 0 0 0 0 0 0 0 0 0 0 0 0 0 w !.Q.~.Q.Q./.Q.Q.Q.Q.Q.Q.Q.Q.Q.Q.Q.Q.Q.Q.Q.Q.Q.Q.Q.Q.Q.Q.Q.Q.-XbXdXdXlXdXlXjXlXlXlXkXlXlXlXlXkXkXkXkXkXkXkXkXjXlXlXlXcXlXBXXX  9 0 & 0 0 0 0 0 0 0 0 0 0 0 0 0 0 0 0 0 0 0 0 = 0 7 0 0 3 U.!.~.~.Q.Q.Q.Q.Q.Q.Q.Q.Q.Q.Q.Q.Q.Q.Q.Q.Q.Q.Q.Q.Q.Q.Q.Q.Q.Q.E.AXVXSXCXCXCXCXCXCXCXCXCXCXCXCXCXCXCXCXCXCXCXCXCXCXCXCXCXCXZXqX2 - 0 0 0 0 0 0 0 0 0 0 0 0 0 0 0 0 0 0 0 0 0 0 0 0 0 0 9 2 K './.~.W.Q.Q.Q.Q.Q.Q.Q.Q.Q.Q.Q.Q.Q.Q.Q.Q.Q.Q.Q.Q.Q.Q.Q.Q.Q.&XH $ 0 0 8 0 = 0 0 0 0 0 0 0 0 0 0 0 0 0 0 0 0 0 0 0 0 0 0 0 0 0 0 0 0 0 0 0 0 0 0 0 0 0 0 0 0 0 0 0 0 0 0 0 0 7 0 = = 0 6 r HXCXCXCXCXCXCXCXCXCXCXCXCXCXCXCXCXCXCXCXCXCXCXCXCXZXCXCXVXKXqX. 0 0 0 0 0 0 0 0 0 0 0 0 0 0 0 0 0 0 0 0 0 0 0 0 0 0 0 0 0 0 0 0 0 0 0 0 0 0 0 0 0 0 0 0 0 0 0 0 0 0 0 0 0 0 0 0 0 < 0 3 qXZXCXAXCXCXCXCXCXCXCXCXCXCXCXCXCXCXCXCXCXCXCXCXCXCXCXCXCXCXCX",
"Q.Q.Q.Q.Q.Q.Q.Q.Q.Q.Q.Q.Q.Q.Q.Q.Q.Q.Q.Q.Q.Q.Q.Q.R.Q.`.~./.Q.Y.3 0 0 0 0 0 0 0 0 0 0 0 0 0 0 0 0 0 0 0 0 0 0 0 0 0 0 0 0 0 0 0 0 0 0 0 0 0 0 0 0 0 0 0 0 0 0 0 0 0 0 0 0 0 0 0 0 7 = t . wXZXVXSXCXCXCXCXCXCXCXCXCXCXCXCXCXCXCXCXCXCXCXCXCXCXCXCXVXKXHXr 7 0 0 0 0 0 0 0 0 0 0 0 0 0 0 0 0 0 0 0 0 0 0 0 0 0 0 0 0 w !.Q.~.Q.`./.Q.Q.Q.Q.Q.Q.Q.Q.Q.Q.Q.Q.Q.Q.Q.Q.Q.Q.Q.Q.Q.Q.Q.Q.-XbXdXdXlXdXlXjXkXkXlXlXlXkXkXkXkXkXkXkXkXkXkXkXjXlXlXlXcXlXBXXX  9 0 = 0 0 0 0 0 0 0 0 0 0 0 0 0 0 0 0 0 0 0 0 = 0 8 0 9 6 U.Q.~.~.Q.Q.Q.Q.Q.Q.Q.Q.Q.Q.Q.Q.Q.Q.Q.Q.Q.Q.Q.Q.Q.Q.Q.Q.Q.Q.E.AXVXSXCXCXCXCXCXCXCXCXCXCXCXCXCXCXCXCXCXCXCXCXCXCXCXCXCXVXZXqX2 * 0 0 0 0 0 0 0 0 0 0 0 0 0 0 0 0 0 0 0 0 0 0 0 0 0 0 0 2 K './.~.W.Q.Q.Q.Q.Q.Q.Q.Q.Q.Q.Q.Q.Q.Q.Q.Q.Q.Q.Q.Q.Q.Q.Q.Q.Q.&XH $ 0 0 7 0 = 0 0 0 0 0 0 0 0 0 0 0 0 0 0 0 0 0 0 0 0 0 0 0 0 0 0 0 0 0 0 0 0 0 0 0 0 0 0 0 0 0 0 0 0 0 0 0 0 7 0 = = 0 6 r JXCXCXCXCXCXCXCXCXCXCXCXCXCXCXCXCXCXCXCXCXCXCXCXCXCXCXCXVXKXqX. 0 0 0 0 0 0 0 0 0 0 0 0 0 0 0 0 0 0 0 0 0 0 0 0 0 0 0 0 0 0 0 0 0 0 0 0 0 0 0 0 0 0 0 0 0 0 0 0 0 0 0 0 0 0 0 0 0 < 0 3 qXZXCXAXCXCXCXCXCXCXCXCXCXCXCXCXCXCXCXCXCXCXCXCXCXCXCXCXCXCXCX",
"Q.Q.Q.Q.Q.Q.Q.Q.Q.Q.Q.Q.Q.Q.Q.Q.Q.Q.Q.Q.Q.Q.Q.Q.R.Q.`.~./.Q.Y.3 0 0 0 0 0 0 0 0 0 0 0 0 0 0 0 0 0 0 0 0 0 0 0 0 0 0 0 0 0 0 0 0 0 0 0 0 0 0 0 0 0 0 0 0 0 0 0 0 0 0 0 0 0 0 0 0 7 = t . wXZXVXSXCXCXCXCXCXCXCXCXCXCXCXCXCXCXCXCXCXCXCXCXCXCXCXCXVXKXHXr 7 0 0 0 0 0 0 0 0 0 0 0 0 0 0 0 0 0 0 0 0 0 0 0 0 0 0 0 0 w !.Q.~.Q.`./.Q.Q.Q.Q.Q.Q.Q.Q.Q.Q.Q.Q.Q.Q.Q.Q.Q.Q.Q.Q.Q.Q.Q.Q.-XbXdXdXlXdXlXjXkXkXlXlXkXkXkXkXkXlXkXkXkXkXkXkXjXlXlXlXcXlXBXXX  9 0 & 0 0 0 0 0 0 0 0 0 0 0 0 0 0 0 0 0 0 0 0 = 0 7 0 9 6 U.Q.~.~.Q.Q.Q.Q.Q.Q.Q.Q.Q.Q.Q.Q.Q.Q.Q.Q.Q.Q.Q.Q.Q.Q.Q.Q.Q.Q.E.AXVXSXCXCXCXCXCXCXCXCXCXCXCXCXCXCXCXCXCXCXCXCXCXCXCXCXCXVXZXqX2 * 0 0 0 0 0 0 0 0 0 0 0 0 0 0 0 0 0 0 0 0 0 0 0 0 0 0 0 2 K './.~.W.Q.Q.Q.Q.Q.Q.Q.Q.Q.Q.Q.Q.Q.Q.Q.Q.Q.Q.Q.Q.Q.Q.Q.Q.Q.&XH $ 0 0 7 0 = 0 0 0 0 0 0 0 0 0 0 0 0 0 0 0 0 0 0 0 0 0 0 0 0 0 0 0 0 0 0 0 0 0 0 0 0 0 0 0 0 0 0 0 0 0 0 0 0 7 0 = = 0 6 r JXCXCXCXCXCXCXCXCXCXCXCXCXCXCXCXCXCXCXCXCXCXCXCXCXCXCXCXVXKXqX. 0 0 0 0 0 0 0 0 0 0 0 0 0 0 0 0 0 0 0 0 0 0 0 0 0 0 0 0 0 0 0 0 0 0 0 0 0 0 0 0 0 0 0 0 0 0 0 0 0 0 0 0 0 0 0 0 0 ; 0 3 qXZXZXAXCXCXCXCXCXCXCXCXCXCXCXCXCXCXCXCXCXCXCXCXCXCXCXCXCXCXCX",
"Q.Q.Q.Q.Q.Q.Q.Q.Q.Q.Q.Q.Q.Q.Q.Q.Q.Q.Q.Q.Q.Q.Q.Q.R.Q.`.~./.Q.Y.3 0 0 0 0 0 0 0 0 0 0 0 0 0 0 0 0 0 0 0 0 0 0 0 0 0 0 0 0 0 0 0 0 0 0 0 0 0 0 0 0 0 0 0 0 0 0 0 0 0 0 0 0 0 0 0 0 7 = t . wXZXVXSXCXCXCXCXCXCXCXCXCXCXCXCXCXCXCXCXCXCXCXCXCXCXCXCXVXZXHXr 7 0 0 0 0 0 0 0 0 0 0 0 0 0 0 0 0 0 0 0 0 0 0 0 0 0 0 0 0 w !.Q.~.Q.Q./.Q.Q.Q.Q.Q.Q.Q.Q.Q.Q.Q.Q.Q.Q.Q.Q.Q.Q.Q.Q.Q.Q.Q.Q.-XbXdXdXlXdXlXkXkXkXlXlXkXkXkXkXlXlXlXlXkXkXkXkXjXlXlXlXcXlXBXXX  0 0 = 0 0 0 0 0 0 0 0 0 0 0 0 0 0 0 0 0 0 0 0 = 0 7 0 9 3 U.Q.~.~.Q.Q.Q.Q.Q.Q.Q.Q.Q.Q.Q.Q.Q.Q.Q.Q.Q.Q.Q.Q.Q.Q.Q.Q.Q.Q.E.AXVXSXCXCXCXCXCXCXCXCXCXCXCXCXCXCXCXCXCXCXCXCXCXCXCXCXCXVXZXqX2 * 0 0 0 0 0 0 0 0 0 0 0 0 0 0 0 0 0 0 0 0 0 0 0 0 0 0 0 2 K './.~.W.Q.Q.Q.Q.Q.Q.Q.Q.Q.Q.Q.Q.Q.Q.Q.Q.Q.Q.Q.Q.Q.Q.Q.Q.Q.&XH $ 0 0 7 0 = 0 0 0 0 0 0 0 0 0 0 0 0 0 0 0 0 0 0 0 0 0 0 0 0 0 0 0 0 0 0 0 0 0 0 0 0 0 0 0 0 0 0 0 0 0 0 0 0 7 0 = = 0 6 r JXCXCXCXCXCXCXCXCXCXCXCXCXCXCXCXCXCXCXCXCXCXCXCXCXCXCXCXVXKXqX. 0 0 0 0 0 0 0 0 0 0 0 0 0 0 0 0 0 0 0 0 0 0 0 0 0 0 0 0 0 0 0 0 0 0 0 0 0 0 0 0 0 0 0 0 0 0 0 0 0 0 0 0 0 0 0 0 0 ; 0 3 qXZXCXAXCXCXCXCXCXCXCXCXCXCXCXCXCXCXCXCXCXCXCXCXCXCXCXCXCXCXCX",
"Q.Q.Q.Q.Q.Q.Q.Q.Q.Q.Q.Q.Q.Q.Q.Q.Q.Q.Q.Q.Q.Q.Q.Q.R.Q.`.~./.Q.Y.3 0 0 0 0 0 0 0 0 9 9 9 9 9 9 9 9 9 9 9 9 9 9 9 9 9 9 9 9 9 9 9 9 9 9 9 9 9 9 9 9 9 9 9 9 9 9 9 9 9 9 9 9 9 9 9 9 7 = t . wXZXVXSXCXCXCXCXCXCXCXCXCXCXCXCXCXCXCXCXCXCXCXCXCXCXCXCXVXZXHXr 2 0 0 0 9 9 9 9 9 9 9 9 9 9 9 9 9 9 9 9 9 9 9 9 9 9 9 9 0 w !.Q.~.Q.`.~.Q.Q.Q.Q.Q.Q.Q.Q.Q.Q.Q.Q.Q.Q.Q.Q.Q.Q.Q.Q.Q.Q.Q.Q.-XbXdXdXlXdXlXkXkXkXlXlXkXkXkXkXlXlXlXkXkXkXlXlXjXlXlXlXcXlXBXXX  0 0 = 0 0 0 0 0 0 0 0 0 0 0 0 0 0 0 0 0 0 0 0 = 0 7 0 9 6 U.Q.~.~.Q.Q.Q.Q.Q.Q.Q.Q.Q.Q.Q.Q.Q.Q.Q.Q.Q.Q.Q.Q.Q.Q.Q.Q.Q.Q.E.AXVXZXCXCXCXCXCXCXCXCXCXCXCXCXCXCXCXCXCXCXCXCXCXCXCXCXCXCXZXqX2 * 0 0 0 0 0 0 0 0 0 0 0 0 0 0 0 0 0 0 0 0 0 0 0 0 0 0 0 2 K './.~.W.Q.Q.Q.Q.Q.Q.Q.Q.Q.Q.Q.Q.Q.Q.Q.Q.Q.Q.Q.Q.Q.Q.Q.Q.Q.&XH $ 0 0 7 0 = 9 9 9 9 9 9 9 9 9 9 9 9 9 9 9 9 0 0 0 0 0 0 0 0 0 0 0 0 0 0 0 0 0 0 0 0 0 0 0 0 0 0 0 0 0 0 0 0 7 0 = = 0 6 r JXCXCXCXCXCXCXCXCXCXCXCXCXCXCXCXCXCXCXCXCXCXCXCXCXZXCXCXVXKXqX. 0 0 0 0 0 0 0 0 0 0 0 0 0 0 0 0 0 0 0 0 0 0 0 0 0 0 0 0 0 0 0 0 0 9 9 9 9 9 9 9 9 9 9 9 9 9 9 9 9 0 0 0 0 0 0 0 0 ; 0 3 qXZXCXAXCXCXCXCXCXCXCXCXCXCXCXCXCXCXCXCXCXCXCXCXCXCXCXCXCXCXCX",
"Q.Q.Q.Q.Q.Q.Q.Q.Q.Q.Q.Q.Q.Q.Q.Q.Q.Q.Q.Q.Q.Q.Q.Q.T.Q.!.~.~.R.Y.2 0 0 0 0 0 0 0 0 0 0 0 0 0 0 0 0 0 0 0 0 0 0 0 0 0 0 0 0 0 0 0 0 0 0 0 0 0 0 0 0 0 0 0 0 0 0 0 0 0 0 0 0 0 0 0 0 9 = ; . wXZXCXSXCXCXCXCXCXCXCXCXCXCXCXCXCXCXCXCXCXCXCXCXCXCXCXCXMXSXHXr 7 0 0 0 0 0 0 0 0 0 0 0 0 0 0 0 0 0 0 0 0 0 0 0 0 0 0 0 0 e !.Q.~.Q.`.~.Q.Q.Q.Q.Q.Q.Q.Q.Q.Q.Q.Q.Q.Q.Q.Q.Q.Q.Q.Q.Q.Q.Q.Q.-XbXdXdXlXdXlXkXkXkXkXkXlXlXlXkXkXkXkXkXlXlXlXlXjXlXlXlXcXlXBXXX  0 0 & 0 0 0 0 0 0 0 0 0 0 0 0 0 0 0 0 0 0 0 0 = 0 8 0 9 3 U.Q.Q.Q.Q.Q.Q.Q.Q.Q.Q.Q.Q.Q.Q.Q.Q.Q.Q.Q.Q.Q.Q.Q.Q.Q.W./.^.Q.E.AXVXZXCXCXCXCXCXCXCXCXCXCXCXCXCXCXCXCXCXCXCXCXCXCXCXCXCXCXSXqX2 * 0 0 0 0 0 0 0 0 0 0 0 0 0 0 0 0 0 0 0 0 0 0 0 0 0 0 0 2 K './.~.W.Q.Q.Q.Q.Q.Q.Q.Q.Q.Q.Q.Q.Q.Q.Q.Q.Q.~.Q.Q.Q.Q.Q.Q.~.&XH $ 0 0 7 0 = 0 0 0 0 0 0 0 0 0 0 0 0 0 0 0 0 0 0 0 0 0 0 0 0 0 0 0 0 0 0 0 0 0 0 0 0 0 0 0 0 0 0 0 0 0 0 0 0 7 0 = ; 0 q G JXCXCXCXCXCXCXCXSXCXCXCXCXCXCXCXCXCXCXCXCXCXCXCXCXCXCXCXVXKXqX. 0 0 0 0 0 0 0 0 0 0 0 0 0 0 0 0 0 0 0 0 0 0 0 0 0 0 0 0 0 0 0 0 0 0 0 0 0 0 0 0 0 0 0 0 0 0 0 0 0 0 0 0 0 0 0 0 0 > 0 3 qXKXCXAXCXCXCXCXCXCXCXCXCXCXCXCXCXCXCXCXCXCXCXCXCXCXCXCXCXCXCX",
"Q.Q.Q.Q.Q.Q.Q.Q.Q.Q.Q.Q.Q.Q.Q.Q.Q.Q.Q.Q.Q.Q.Q.Q.T.Q.'./.~.R.Y.6 0 0 0 0 0 0 0 0 0 0 0 0 0 0 0 0 0 0 0 0 0 0 0 0 0 0 0 0 0 0 0 0 0 0 0 0 0 0 0 0 0 0 0 0 0 0 0 0 0 0 0 0 0 0 0 0 9 = ; . wXZXCXSXCXCXCXCXCXCXCXCXCXCXCXCXCXCXCXCXCXCXCXCXCXCXCXCXMXSXHXr 7 0 0 0 0 0 0 0 0 0 0 0 0 0 0 0 0 0 0 0 0 0 0 0 0 0 0 0 0 e !.Q.~.Q.`.~.Q.Q.Q.Q.Q.Q.Q.Q.Q.Q.Q.Q.Q.Q.Q.Q.Q.Q.Q.Q.Q.Q.Q.Q.-XbXdXdXlXdXlXkXkXkXlXkXlXlXkXkXkXkXkXkXkXkXlXlXjXlXlXlXcXlXBXXX  9 0 & 0 0 0 0 0 0 0 0 0 0 0 0 0 0 0 0 0 0 0 0 = 0 7 0 9 3 U.Q.Q.Q.Q.Q.Q.Q.Q.Q.Q.Q.Q.Q.Q.Q.Q.Q.Q.Q.Q.Q.Q.Q.Q.Q.W./.^.Q.E.AXVXZXCXCXCXCXCXCXCXCXCXCXCXCXCXCXCXCXCXCXCXCXCXCXCXCXCXCXSXqX2 * 0 0 0 0 0 0 0 0 0 0 0 0 0 0 0 0 0 0 0 0 0 0 0 0 0 0 0 2 K './.~.W.Q.Q.Q.Q.Q.Q.Q.Q.Q.Q.Q.Q.Q.Q.Q.Q.Q.~.Q.Q.Q.Q.Q.Q.~.&XH $ 0 0 7 0 = 0 0 0 0 0 0 0 0 0 0 0 0 0 0 0 0 0 0 0 0 0 0 0 0 0 0 0 0 0 0 0 0 0 0 0 0 0 0 0 0 0 0 0 0 0 0 0 0 7 0 = ; 0 q G JXCXCXCXCXCXCXCXCXCXCXCXCXCXCXCXCXCXCXCXCXCXCXCXCXCXCXCXVXKXqX. 0 0 0 0 0 0 0 0 0 0 0 0 0 0 0 0 0 0 0 0 0 0 0 0 0 0 0 0 0 0 0 0 0 0 0 0 0 0 0 0 0 0 0 0 0 0 0 0 0 0 0 0 0 0 0 0 0 > 0 3 qXKXCXAXCXCXCXCXCXCXCXCXCXCXCXCXCXCXCXCXCXCXCXCXCXCXCXCXCXCXCX",
"Q.Q.Q.Q.Q.Q.Q.Q.Q.Q.Q.Q.Q.Q.Q.Q.Q.Q.Q.Q.Q.Q.Q.Q.T.Q.!.~.~.R.Y.2 0 0 0 0 0 0 0 0 0 0 0 0 0 0 0 0 0 0 0 0 0 0 0 0 0 0 0 0 0 0 0 0 0 0 0 0 0 0 0 0 0 0 0 0 0 0 0 0 0 0 0 0 0 0 0 0 9 = t . wXZXCXSXCXCXCXCXCXCXCXCXCXCXCXCXCXCXCXCXCXCXCXCXCXCXCXCXMXLXHXr 7 0 0 0 0 0 0 0 0 0 0 0 0 0 0 0 0 0 0 0 0 0 0 0 0 0 0 0 0 w !.Q.~.Q.`./.Q.Q.Q.Q.Q.Q.Q.Q.Q.Q.Q.Q.Q.Q.Q.Q.Q.Q.Q.Q.Q.Q.Q.Q.-XbXdXdXlXdXlXkXlXlXlXlXlXlXkXkXlXlXkXkXkXkXkXkXjXlXlXlXcXlXBXXX  9 0 & 0 0 0 0 0 0 0 0 0 0 0 0 0 0 0 0 0 0 0 0 = 0 7 0 9 6 U.!.Q.Q.Q.Q.Q.Q.Q.Q.Q.Q.Q.Q.Q.Q.Q.Q.Q.Q.Q.Q.Q.Q.Q.Q.W././.Q.E.AXVXZXCXCXCXCXCXCXCXCXCXCXCXCXCXCXCXCXCXCXCXCXCXCXCXCXCXCXSXqX2 * 0 0 0 0 0 0 0 0 0 0 0 0 0 0 0 0 0 0 0 0 0 0 0 0 0 0 0 2 K './.~.W.Q.Q.Q.Q.Q.Q.Q.Q.Q.Q.Q.Q.Q.Q.Q.Q.Q.~.Q.Q.Q.Q.Q.Q.~.&XH $ 0 0 8 0 = 0 0 0 0 0 0 0 0 0 0 0 0 0 0 0 0 0 0 0 0 0 0 0 0 0 0 0 0 0 0 0 0 0 0 0 0 0 0 0 0 0 0 0 0 0 0 0 0 7 0 = ; 0 q G JXCXCXCXCXCXCXCXCXCXCXCXCXCXCXCXCXCXCXCXCXCXCXCXCXCXCXVXVXKXqX. 0 0 0 0 0 0 0 0 0 0 0 0 0 0 0 0 0 0 0 0 0 0 0 0 0 0 0 0 0 0 0 0 0 0 0 0 0 0 0 0 0 0 0 0 0 0 0 0 0 0 0 0 0 0 0 0 0 > 0 3 qXKXCXAXCXCXCXCXCXCXCXCXCXCXCXCXCXCXCXCXCXCXCXCXCXCXCXCXCXCXCX",
"Q.Q.Q.Q.Q.Q.Q.Q.Q.Q.Q.Q.Q.Q.Q.Q.Q.Q.Q.Q.Q.Q.Q.Q.T.Q.!.~.~.R.Y.2 0 0 0 0 0 0 0 0 0 0 0 0 0 0 0 0 0 0 0 0 0 0 0 0 0 0 0 0 0 0 0 0 0 0 0 0 0 0 0 0 0 0 0 0 0 0 0 0 0 0 0 0 0 0 0 0 9 = t . wXZXCXSXCXCXCXCXCXCXCXCXCXCXCXCXCXCXCXCXCXCXCXCXCXCXCXCXMXLXHXr 7 0 0 0 0 0 0 0 0 0 0 0 0 0 0 0 0 0 0 0 0 0 0 0 0 0 0 0 0 w !.Q.~.Q.`./.Q.Q.Q.Q.Q.Q.Q.Q.Q.Q.Q.Q.Q.Q.Q.Q.Q.Q.Q.Q.Q.Q.Q.Q.-XbXdXdXlXdXlXkXkXlXlXlXlXkXkXkXlXlXkXkXkXkXkXkXjXlXlXlXcXlXBXXX  9 0 & 0 0 0 0 0 0 0 0 0 0 0 0 0 0 0 0 0 0 0 0 = 0 7 0 9 6 U.!.Q.Q.Q.Q.Q.Q.Q.Q.Q.Q.Q.Q.Q.Q.Q.Q.Q.Q.Q.Q.Q.Q.Q.Q.W././.Q.E.AXVXZXCXCXCXCXCXCXCXCXCXCXCXCXCXCXCXCXCXCXCXCXCXCXCXCXCXCXSXqX2 * 0 0 0 0 0 0 0 0 0 0 0 0 0 0 0 0 0 0 0 0 0 0 0 0 0 0 9 2 K './.~.W.Q.Q.Q.Q.Q.Q.Q.Q.Q.Q.Q.Q.Q.Q.Q.Q.Q.~.Q.Q.Q.Q.Q.Q.~.&XH $ 0 0 8 0 = 0 0 0 0 0 0 0 0 0 0 0 0 0 0 0 0 0 0 0 0 0 0 0 0 0 0 0 0 0 0 0 0 0 0 0 0 0 0 0 0 0 0 0 0 0 0 0 0 7 0 = ; 0 q r JXCXCXCXCXCXCXCXCXCXCXCXCXCXCXCXCXCXCXCXCXCXCXCXCXCXCXCXVXKXqX. 0 0 0 0 0 0 0 0 0 0 0 0 0 0 0 0 0 0 0 0 0 0 0 0 0 0 0 0 0 0 0 0 0 0 0 0 0 0 0 0 0 0 0 0 0 0 0 0 0 0 0 0 0 0 0 0 0 > 0 3 qXKXCXAXVXCXCXCXCXCXCXCXCXCXCXCXCXCXCXCXCXCXCXCXCXCXCXCXCXCXCX",
"Q.Q.Q.Q.Q.Q.Q.Q.Q.Q.Q.Q.Q.Q.Q.Q.Q.Q.Q.Q.Q.Q.Q.Q.^.Q.!.~.~.R.Y.2 0 0 0 0 0 0 0 0 0 0 0 0 0 0 0 0 0 0 0 0 0 0 0 0 0 0 0 0 0 0 0 0 0 0 0 0 0 0 0 0 0 0 0 0 0 0 0 0 0 0 0 0 0 0 0 0 9 = t . wXZXCXSXCXCXCXCXCXCXCXCXCXCXCXCXCXCXCXCXCXCXCXCXCXCXCXCXMXLXHXr 7 0 0 0 0 0 0 0 0 0 0 0 0 0 0 0 0 0 0 0 0 0 0 0 0 0 0 0 0 w !.Q.~.Q.Q./.Q.Q.Q.Q.Q.Q.Q.Q.Q.Q.Q.Q.Q.Q.Q.Q.Q.Q.Q.Q.Q.Q.Q.Q.-XbXdXdXlXdXlXkXkXkXlXlXlXlXkXkXlXlXkXkXkXkXkXkXjXlXlXlXcXlXBXXX  9 0 = 0 0 0 0 0 0 0 0 0 0 0 0 0 0 0 0 0 0 0 0 = 0 7 0 9 3 U.!.Q.Q.Q.Q.Q.Q.Q.Q.Q.Q.Q.Q.Q.Q.Q.Q.Q.Q.Q.Q.Q.Q.Q.Q.W././.Q.E.AXVXZXCXCXCXCXCXCXCXCXCXCXCXCXCXCXCXCXCXCXCXCXCXCXCXCXCXCXSXqX2 & 0 0 0 0 0 0 0 0 0 0 0 0 0 0 0 0 0 0 0 0 0 0 0 0 0 0 0 2 K './.~.W.Q.Q.Q.Q.Q.Q.Q.Q.Q.Q.Q.Q.Q.Q.Q.Q.Q.~.Q.Q.Q.Q.Q.Q.~.&XH $ 0 0 7 0 = 0 0 0 0 0 0 0 0 0 0 0 0 0 0 0 0 0 0 0 0 0 0 0 0 0 0 0 0 0 0 0 0 0 0 0 0 0 0 0 0 0 0 0 0 0 0 0 0 7 0 = t 0 6 r JXCXCXCXCXCXCXSXCXCXCXCXCXCXCXCXCXCXCXCXCXCXCXCXCXZXCXCXVXKXqX. 0 0 0 0 0 0 0 0 0 0 0 0 0 0 0 0 0 0 0 0 0 0 0 0 0 0 0 0 0 0 0 0 0 0 0 0 0 0 0 0 0 0 0 0 0 0 0 0 0 0 0 0 0 0 0 0 0 = 0 3 qXKXCXAXVXCXCXCXCXCXCXCXCXCXCXCXCXCXCXCXCXCXCXCXCXCXCXCXCXCXCX",
"Q.Q.Q.Q.Q.Q.Q.Q.Q.Q.Q.Q.Q.Q.Q.Q.Q.Q.Q.Q.Q.Q.Q.Q.^.Q.!.~.~.R.Y.2 0 0 0 0 0 0 0 0 0 0 0 0 0 0 0 0 0 0 0 0 0 0 0 0 0 0 0 0 0 0 0 0 0 0 0 0 0 0 0 0 0 0 0 0 0 0 0 0 0 0 0 0 0 0 0 0 9 = t . wXZXCXSXCXCXCXCXCXCXCXCXCXCXCXCXCXCXCXCXCXCXCXCXCXCXCXCXMXLXHXr 7 0 0 0 0 0 0 0 0 0 0 0 0 0 0 0 0 0 0 0 0 0 0 0 0 0 0 0 0 w !.Q.R.Q.Q./.Q.Q.Q.Q.Q.Q.Q.Q.Q.Q.Q.Q.Q.Q.Q.Q.Q.Q.Q.Q.Q.Q.Q.Q.-XbXdXdXlXdXlXkXkXkXkXkXlXlXkXkXlXlXkXkXlXkXkXkXjXlXlXlXcXlXBXXX  9 0 & 0 0 0 0 0 0 0 0 0 0 0 0 0 0 0 0 0 0 0 0 = 0 7 0 9 3 U.!.Q.Q.Q.Q.Q.Q.Q.Q.Q.Q.Q.Q.Q.Q.Q.Q.Q.Q.Q.Q.Q.Q.Q.Q.W././.Q.E.AXVXZXCXCXCXCXCXCXCXCXCXCXCXCXCXCXCXCXCXCXCXCXCXCXCXCXCXCXSXqX2 & 0 0 0 0 0 0 0 0 0 0 0 0 0 0 0 0 0 0 0 0 0 0 0 0 0 0 0 2 K './.~.W.Q.Q.Q.Q.Q.Q.Q.Q.Q.Q.Q.Q.Q.Q.Q.Q.Q.~.Q.Q.Q.Q.Q.Q.~.&XH $ 0 0 7 0 = 0 0 0 0 0 0 0 0 0 0 0 0 0 0 0 0 0 0 0 0 0 0 0 0 0 0 0 0 0 0 0 0 0 0 0 0 0 0 0 0 0 0 0 0 0 0 0 0 7 0 = t 0 6 r JXCXCXCXCXCXCXSXSXCXCXCXCXCXCXCXCXCXCXCXCXCXCXCXCXZXCXCXVXKXqX. 0 0 0 0 0 0 0 0 0 0 0 0 0 0 0 0 0 0 0 0 0 0 0 0 0 0 0 0 0 0 0 0 0 0 0 0 0 0 0 0 0 0 0 0 0 0 0 0 0 0 0 0 0 0 0 0 0 = 0 3 qXKXCXAXVXCXCXCXCXCXCXCXCXCXCXCXCXCXCXCXCXCXCXCXCXCXCXCXCXCXCX",
"Q.Q.Q.Q.Q.Q.Q.Q.Q.Q.Q.Q.Q.Q.Q.Q.Q.Q.Q.Q.Q.Q.Q.Q.^.Q.'.~.~.R.Y.6 0 0 0 0 0 0 0 0 0 0 0 0 0 0 0 0 0 0 0 0 0 0 0 0 0 0 0 0 0 0 0 0 0 0 0 0 0 0 0 0 0 0 0 0 0 0 0 0 0 0 0 0 0 0 0 0 9 = t . wXZXCXSXCXCXCXCXCXCXCXCXCXCXCXCXCXCXCXCXCXCXCXCXCXCXCXCXMXLXHXr 7 0 0 0 0 0 0 0 0 0 0 0 0 0 0 0 0 0 0 0 0 0 0 0 0 0 0 0 0 w !.Q.R.Q.Q./.Q.Q.Q.Q.Q.Q.Q.Q.Q.Q.Q.Q.Q.Q.Q.Q.Q.Q.Q.Q.Q.Q.Q.Q.-XbXdXdXlXdXlXkXkXkXkXkXlXkXkXkXkXkXkXkXlXlXlXkXjXlXlXlXcXlXBXXX  0 0 = 0 0 0 0 0 0 0 0 0 0 0 0 0 0 0 0 0 0 0 0 = 0 8 0 9 3 U.!.Q.Q.Q.Q.Q.Q.Q.Q.Q.Q.Q.Q.Q.Q.Q.Q.Q.Q.Q.Q.Q.Q.Q.Q.W.).Q.Q.E.SXVXZXCXCXCXCXCXCXCXCXCXCXCXCXCXCXCXCXCXCXCXCXCXCXCXCXCXCXSXqX2 & 0 0 0 0 0 0 0 0 0 0 0 0 0 0 0 0 0 0 0 0 0 0 0 0 0 0 0 2 K './.~.W.Q.Q.Q.Q.Q.Q.Q.Q.Q.Q.Q.Q.Q.Q.Q.Q.Q.~.Q.Q.Q.Q.Q.Q.~.&XH $ 0 0 7 0 = 0 0 0 0 0 0 0 0 0 0 0 0 0 0 0 0 0 0 0 0 0 0 0 0 0 0 0 0 0 0 0 0 0 0 0 0 0 0 0 0 0 0 0 0 0 0 0 0 7 0 = t 0 6 G JXCXCXCXZXCXCXCXCXCXCXCXCXCXCXCXCXCXCXCXCXCXCXCXCXZXCXCXVXKXqX. 0 0 0 0 0 0 0 0 0 0 0 0 0 0 0 0 0 0 0 0 0 0 0 0 0 0 0 0 0 0 0 0 0 0 0 0 0 0 0 0 0 0 0 0 0 0 0 0 0 0 0 0 0 0 0 0 0 s 0 3 qXKXCXAXCXCXCXCXCXCXCXCXCXCXCXCXCXCXCXCXCXCXCXCXCXCXCXCXCXCXCX",
"Q.Q.Q.Q.Q.Q.Q.Q.Q.Q.Q.Q.Q.Q.Q.Q.Q.Q.Q.Q.Q.Q.Q.Q.^.Q.!.~.~.R.Y.6 0 0 0 0 0 0 0 0 0 0 0 0 0 0 0 0 0 0 0 0 0 0 0 0 0 0 0 0 0 0 0 0 0 0 0 0 0 0 0 0 0 0 0 0 0 0 0 0 0 0 0 0 0 0 0 0 9 = t . wXZXCXSXCXCXCXCXCXCXCXCXCXCXCXCXCXCXCXCXCXCXCXCXCXCXCXCXMXLXHXr 7 0 0 0 0 0 0 0 0 0 0 0 0 0 0 0 0 0 0 0 0 0 0 0 0 0 0 0 0 w !.Q.R.Q.Q./.Q.Q.Q.Q.Q.Q.Q.Q.Q.Q.Q.Q.Q.Q.Q.Q.Q.Q.Q.Q.Q.Q.Q.Q.-XbXdXdXlXdXlXkXkXkXkXkXlXkXkXkXkXkXkXkXlXlXlXlXjXlXlXlXcXxXBXXX  0 0 = 0 0 0 0 0 0 0 0 0 0 0 0 0 0 0 0 0 0 0 0 = 0 8 0 9 3 U.!.Q.Q.Q.Q.Q.Q.Q.Q.Q.Q.Q.Q.Q.Q.Q.Q.Q.Q.Q.Q.Q.Q.Q.Q.W.Q.Q.Q.E.SXVXZXCXCXCXCXCXCXCXCXCXCXCXCXCXCXCXCXCXCXCXCXCXCXCXCXCXCXSXqX2 & 0 0 0 0 0 0 0 0 0 0 0 0 0 0 0 0 0 0 0 0 0 0 0 0 0 0 0 2 K './.~.W.Q.Q.Q.Q.Q.Q.Q.Q.Q.Q.Q.Q.Q.Q.Q.Q.Q.~.Q.Q.Q.Q.Q.Q.~.&XH $ 0 0 7 0 = 0 0 0 0 0 0 0 0 0 0 0 0 0 0 0 0 0 0 0 0 0 0 0 0 0 0 0 0 0 0 0 0 0 0 0 0 0 0 0 0 0 0 0 0 0 0 0 0 7 0 = t 0 6 G JXCXCXCXCXCXCXCXCXCXCXCXCXCXCXCXCXCXCXCXCXCXCXCXCXZXCXCXVXKXqX. 0 0 0 0 0 0 0 0 0 0 0 0 0 0 0 0 0 0 0 0 0 0 0 0 0 0 0 0 0 0 0 0 0 0 0 0 0 0 0 0 0 0 0 0 0 0 0 0 0 0 0 0 0 0 0 0 0 > 0 3 qXKXCXAXCXCXCXCXCXCXCXCXCXCXCXCXCXCXCXCXCXCXCXCXCXCXCXCXCXCXCX",
"Q.Q.Q.Q.Q.Q.Q.Q.Q.Q.Q.Q.Q.Q.Q.Q.Q.Q.Q.Q.Q.Q.Q.Q.T.Q.'.Q./.T.Y.2 0 0 0 0 0 0 0 0 0 0 0 0 0 0 0 0 0 0 0 0 0 0 0 0 0 0 0 0 0 0 0 0 0 0 0 0 0 0 0 0 0 0 0 0 0 0 0 0 0 0 0 0 0 0 0 0 9 = 0 . wXKXCXDXCXCXCXCXCXCXCXCXCXCXCXCXCXCXCXCXCXCXCXCXCXCXCXCXVXKXHXr 7 0 0 0 0 0 0 0 0 0 0 0 0 0 0 0 0 0 0 0 0 0 0 0 0 0 0 0 0 w !.W.R.{.R./.Q.Q.Q.Q.Q.Q.Q.Q.Q.Q.Q.Q.Q.Q.Q.Q.Q.Q.Q.Q.Q.Q.Q.Q.=XbXkXkXjXkXlXbXkXkXkXkXkXkXkXkXlXlXlXlXlXlXlXlXjXlXlXlXcXlXBXXX  9 0 & 0 0 0 0 0 0 0 0 0 0 0 0 0 0 0 0 0 0 0 0 = 0 7 0 9 6 U.Q.~.~.Q.Q.Q.Q.Q.Q.Q.Q.Q.Q.Q.Q.Q.Q.Q.Q.Q.Q.Q.Q.Q.Q.W.).Q.Q.E.SXVXZXCXCXCXCXCXCXCXCXCXCXCXCXCXCXCXCXCXCXCXCXCXCXCXCXCXCXZXqX2 * 0 0 0 0 0 0 0 0 0 0 0 0 0 0 0 0 0 0 0 0 0 0 0 0 0 0 9 2 K '.).^.R.Q.Q.Q.Q.Q.Q.Q.Q.Q.Q.Q.Q.Q.Q.Q.Q.Q./.Q.Q.Q.Q.Q.Q.Q.*XG $ 0 0 8 8 0 0 0 0 0 0 0 0 0 0 0 0 0 0 0 0 0 0 0 0 0 0 0 0 0 0 0 0 0 0 0 0 0 0 0 0 0 0 0 0 0 0 0 0 0 0 0 0 0 8 0 9 t 0 8 G JXCXCXCXCXCXCXCXCXCXCXCXCXCXCXCXCXCXCXCXCXCXCXCXCXZXCXCXVXKXqX. 0 0 0 0 0 0 0 0 0 0 0 0 0 0 0 0 0 0 0 0 0 0 0 0 0 0 0 0 0 0 0 0 0 0 0 0 0 0 0 0 0 0 0 0 0 0 0 0 0 0 0 0 0 0 0 0 0 > 0 3 qXKXCXAXVXCXCXCXCXCXCXCXCXCXCXCXCXCXCXCXCXCXCXCXCXCXCXCXCXCXCX",
"Q.Q.Q.Q.Q.Q.Q.Q.Q.Q.Q.Q.Q.Q.Q.Q.Q.Q.Q.Q.Q.Q.Q.Q.T.Q.'.Q./.T.Y.2 0 0 0 0 0 0 0 0 0 0 0 0 0 0 0 0 0 0 0 0 0 0 0 0 0 0 0 0 0 0 0 0 0 0 0 0 0 0 0 0 0 0 0 0 0 0 0 0 0 0 0 0 0 0 0 0 9 = 0 . wXKXCXDXCXCXCXCXCXCXCXCXCXCXCXCXCXCXCXCXCXCXCXCXCXCXCXCXVXKXHXr 7 0 0 0 0 0 0 0 0 0 0 0 0 0 0 0 0 0 0 0 0 0 0 0 0 0 0 0 0 w !.Q.R.{.R./.Q.Q.Q.Q.Q.Q.Q.Q.Q.Q.Q.Q.Q.Q.Q.Q.Q.Q.Q.Q.Q.Q.Q.Q.=XbXkXkXjXkXlXbXkXkXkXkXkXkXkXkXlXlXlXlXlXlXlXlXjXlXlXlXcXlXBXXX  9 0 & 0 0 0 0 0 0 0 0 0 0 0 0 0 0 0 0 0 0 0 0 = 0 7 0 9 6 U.!.~.~.Q.Q.Q.Q.Q.Q.Q.Q.Q.Q.Q.Q.Q.Q.Q.Q.Q.Q.Q.Q.Q.Q.W.).Q.Q.E.AXVXZXCXCXCXCXCXCXCXCXCXCXCXCXCXCXCXCXCXCXCXCXCXCXCXCXCXCXZXqX2 * 0 0 0 0 0 0 0 0 0 0 0 0 0 0 0 0 0 0 0 0 0 0 0 0 0 0 0 2 K '.).^.Q.Q.Q.Q.Q.Q.Q.Q.Q.Q.Q.Q.Q.Q.Q.Q.Q.Q.~.Q.Q.Q.Q.Q.Q.Q.*XG $ 0 0 8 7 0 0 0 0 0 0 0 0 0 0 0 0 0 0 0 0 0 0 0 0 0 0 0 0 0 0 0 0 0 0 0 0 0 0 0 0 0 0 0 0 0 0 0 0 0 0 0 0 0 8 0 9 t 0 8 G JXCXCXCXCXCXCXCXCXCXCXCXCXCXCXCXCXCXCXCXCXCXCXCXCXZXCXCXVXKXqX. 0 0 0 0 0 0 0 0 0 0 0 0 0 0 0 0 0 0 0 0 0 0 0 0 0 0 0 0 0 0 0 0 0 0 0 0 0 0 0 0 0 0 0 0 0 0 0 0 0 0 0 0 0 0 0 0 0 > 0 3 qXKXCXAXVXCXCXCXCXCXCXCXCXCXCXCXCXCXCXCXCXCXCXCXCXCXCXCXCXCXCX",
"Q.Q.Q.Q.Q.Q.Q.Q.Q.Q.Q.Q.Q.Q.Q.Q.Q.Q.Q.Q.Q.Q.Q.Q.T.Q.'.Q./.T.Y.2 0 0 0 0 0 0 0 0 0 0 0 0 0 0 0 0 0 0 0 0 0 0 0 0 0 0 0 0 0 0 0 0 0 0 0 0 0 0 0 0 0 0 0 0 0 0 0 0 0 0 0 0 0 0 0 0 t = 0 . wXKXCXDXCXCXCXCXCXCXCXCXCXCXCXCXCXCXCXCXCXCXCXCXCXCXCXCXVXKXHXr 7 0 0 0 0 0 0 0 0 0 0 0 0 0 0 0 0 0 0 0 0 0 0 0 0 0 0 0 0 w !.Q.Q.{.R./.Q.Q.Q.Q.Q.Q.Q.Q.Q.Q.Q.Q.Q.Q.Q.Q.Q.Q.Q.Q.Q.Q.Q.Q.=XbXkXkXjXkXlXlXkXkXlXlXlXlXkXkXlXlXlXlXlXlXlXlXjXlXlXlXcXlXBXXX  9 0 & 0 0 0 0 0 0 0 0 0 0 0 0 0 0 0 0 0 0 0 0 = 0 7 0 9 3 U.Q.~.~.Q.Q.Q.Q.Q.Q.Q.Q.Q.Q.Q.Q.Q.Q.Q.Q.Q.Q.Q.Q.Q.Q.W.).Q.Q.E.SXVXZXCXCXCXCXCXCXCXCXCXCXCXCXCXCXCXCXCXCXCXCXCXCXCXCXCXCXZXqX2 * 0 0 0 0 0 0 0 0 0 0 0 0 0 0 0 0 0 0 0 0 0 0 0 0 0 0 0 2 K '.).^.Q.Q.Q.Q.Q.Q.Q.Q.Q.Q.Q.Q.Q.Q.Q.Q.Q.Q.~.Q.Q.Q.Q.Q.Q.Q.*XG $ 0 0 7 7 0 0 0 0 0 0 0 0 0 0 0 0 0 0 0 0 0 0 0 0 0 0 0 0 0 0 0 0 0 0 0 0 0 0 0 0 0 0 0 0 0 0 0 0 0 0 0 0 0 8 0 9 t 0 8 G JXCXCXCXCXCXCXCXCXCXCXCXCXCXCXCXCXCXCXCXCXCXCXCXCXZXCXCXVXKXqX. 0 0 0 0 0 0 0 0 0 0 0 0 0 0 0 0 0 0 0 0 0 0 0 0 0 0 0 0 0 0 0 0 0 0 0 0 0 0 0 0 0 0 0 0 0 0 0 0 0 0 0 0 0 0 0 0 0 > 0 3 qXKXCXAXVXCXCXCXCXCXCXCXCXCXCXCXCXCXCXCXCXCXCXCXCXCXCXCXCXCXCX",
"Q.Q.Q.Q.Q.Q.Q.Q.Q.Q.Q.Q.Q.Q.Q.Q.Q.Q.Q.Q.Q.Q.Q.Q.T.Q.'.Q./.T.Y.2 0 0 0 0 0 0 0 0 0 0 0 0 0 0 0 0 0 0 0 0 0 0 0 0 0 0 0 0 0 0 0 0 0 0 0 0 0 0 0 0 0 0 0 0 0 0 0 0 0 0 0 0 0 0 0 0 t = 0 . wXKXCXDXCXCXCXCXCXCXCXCXCXCXCXCXCXCXCXCXCXCXCXCXCXCXCXCXVXKXHXr 7 0 0 0 0 0 0 0 0 0 0 0 0 0 0 0 0 0 0 0 0 0 0 0 0 0 0 0 0 w !.Q.Q.`.Q./.Q.Q.Q.Q.Q.Q.Q.Q.Q.Q.Q.Q.Q.Q.Q.Q.Q.Q.Q.Q.Q.Q.Q.Q.=XbXkXkXjXkXlXlXkXkXlXlXlXlXkXkXlXlXlXlXlXlXlXlXjXlXlXlXcXlXBXXX  9 0 & 0 0 0 0 0 0 0 0 0 0 0 0 0 0 0 0 0 0 0 0 = 0 7 0 9 6 U.!.~.~.Q.Q.Q.Q.Q.Q.Q.Q.Q.Q.Q.Q.Q.Q.Q.Q.Q.Q.Q.Q.Q.Q.W.).Q.Q.E.SXVXZXCXCXCXCXCXCXCXCXCXCXCXCXCXCXCXCXCXCXCXCXCXCXCXCXCXCXZXqX2 * 0 0 0 0 0 0 0 0 0 0 0 0 0 0 0 0 0 0 0 0 0 0 0 0 0 0 0 2 K '.).^.Q.Q.Q.Q.Q.Q.Q.Q.Q.Q.Q.Q.Q.Q.Q.Q.Q.Q.~.Q.Q.Q.Q.Q.Q.Q.*XG $ 0 0 7 7 0 0 0 0 0 0 0 0 0 0 0 0 0 0 0 0 0 0 0 0 0 0 0 0 0 0 0 0 0 0 0 0 0 0 0 0 0 0 0 0 0 0 0 0 0 0 0 0 0 8 0 9 t 0 8 G JXCXCXCXCXCXCXCXCXCXCXCXCXCXCXCXCXCXCXCXCXCXCXCXCXZXCXCXVXKXqX. 0 0 0 0 0 0 0 0 0 0 0 0 0 0 0 0 0 0 0 0 0 0 0 0 0 0 0 0 0 0 0 0 0 0 0 0 0 0 0 0 0 0 0 0 0 0 0 0 0 0 0 0 0 0 0 0 0 > 0 3 qXKXCXAXVXCXCXCXCXCXCXCXCXCXCXCXCXCXCXCXCXCXCXCXCXCXCXCXCXCXCX",
"Q.Q.Q.Q.Q.Q.Q.Q.Q.Q.Q.Q.Q.Q.Q.Q.Q.Q.Q.Q.Q.Q.Q.Q.T.Q.'.Q./.T.Y.6 0 0 0 0 0 0 0 0 0 0 0 0 0 0 0 0 0 0 0 0 0 0 0 0 0 0 0 0 0 0 0 0 0 0 0 0 0 0 0 0 0 0 0 0 0 0 0 0 0 0 0 0 0 0 0 0 t = 0 . wXKXCXDXCXCXCXCXCXCXCXCXCXCXCXCXCXCXCXCXCXCXCXCXCXCXCXCXVXKXHXr 7 0 0 0 0 0 0 0 0 0 0 0 0 0 0 0 0 0 0 0 0 0 0 0 0 0 0 0 0 w !.W.Q.`.Q./.Q.Q.Q.Q.Q.Q.Q.Q.Q.Q.Q.Q.Q.Q.Q.Q.Q.Q.Q.Q.Q.Q.Q.Q.-XbXkXkXkXkXlXlXkXlXlXlXlXlXlXkXlXlXlXlXlXlXlXlXjXlXlXlXcXlXBXXX  9 0 = 0 0 0 0 0 0 0 0 0 0 0 0 0 0 0 0 0 0 0 0 = 0 8 0 9 3 U.!.~.~.Q.Q.Q.Q.Q.Q.Q.Q.Q.Q.Q.Q.Q.Q.Q.Q.Q.Q.Q.Q.Q.Q.W./.W.Q.E.AXVXZXCXCXCXCXCXCXCXCXCXCXCXCXCXCXCXCXCXCXCXCXCXCXCXCXCXVXZXqX2 * 0 0 0 0 0 0 0 0 0 0 0 0 0 0 0 0 0 0 0 0 0 0 0 0 0 0 0 2 K &X).W.Q.Q.Q.Q.Q.Q.Q.Q.Q.Q.Q.Q.Q.Q.Q.Q.Q.Q.Q.Q.Q.Q.Q.Q.Q.~.*XG $ 0 0 7 7 0 0 0 0 0 0 0 0 0 0 0 0 0 0 0 0 0 0 0 0 0 0 0 0 0 0 0 0 0 0 0 0 0 0 0 0 0 0 0 0 0 0 0 0 0 0 0 0 0 8 0 9 t 0 8 r JXCXCXCXCXCXCXCXCXCXCXCXCXCXCXCXCXCXCXCXCXCXCXCXCXZXCXCXVXKXqX. 0 0 0 0 0 0 0 0 0 0 0 0 0 0 0 0 0 0 0 0 0 0 0 0 0 0 0 0 0 0 0 0 0 0 0 0 0 0 0 0 0 0 0 0 0 0 0 0 0 0 0 0 0 0 0 0 0 s 0 3 qXKXCXAXCXCXCXCXCXCXCXCXCXCXCXCXCXCXCXCXCXCXCXCXCXCXCXCXCXCXCX",
"Q.Q.Q.Q.Q.Q.Q.Q.Q.Q.Q.Q.Q.Q.Q.Q.Q.Q.Q.Q.Q.Q.Q.Q.T.Q.'.Q./.T.Y.6 0 0 0 0 0 0 0 0 0 0 0 0 0 0 0 0 0 0 0 0 0 0 0 0 0 0 0 0 0 0 0 0 0 0 0 0 0 0 0 0 0 0 0 0 0 0 0 0 0 0 0 0 0 0 0 0 9 = 0 . wXKXCXDXCXCXCXCXCXCXCXCXCXCXCXCXCXCXCXCXCXCXCXCXCXCXCXCXVXKXHXr 7 0 0 0 0 0 0 0 0 0 0 0 0 0 0 0 0 0 0 0 0 0 0 0 0 0 0 0 = w !.W.Q.`.Q.Q.Q.Q.Q.Q.Q.Q.Q.Q.Q.Q.Q.Q.Q.Q.Q.Q.Q.Q.Q.Q.Q.Q.Q.Q.-XbXkXkXkXkXlXlXkXkXlXlXlXlXkXkXlXlXlXlXlXlXlXlXjXlXlXlXcXlXBXXX  9 0 & 0 0 0 0 0 0 0 0 0 0 0 0 0 0 0 0 0 0 0 0 = 0 7 0 9 3 U.!.~.~.Q.Q.Q.Q.Q.Q.Q.Q.Q.Q.Q.Q.Q.Q.Q.Q.Q.Q.Q.Q.Q.Q.W./.Q.Q.E.AXVXZXCXCXCXCXCXCXCXCXCXCXCXCXCXCXCXCXCXCXCXCXCXCXCXCXCXCXZXqX2 * 0 0 0 0 0 0 0 0 0 0 0 0 0 0 0 0 0 0 0 0 0 0 0 0 0 0 0 2 K &X!.W.Q.Q.Q.Q.Q.Q.Q.Q.Q.Q.Q.Q.Q.Q.Q.Q.Q.Q.Q.Q.Q.Q.Q.Q.Q.~.*XG $ 0 0 7 8 0 0 0 0 0 0 0 0 0 0 0 0 0 0 0 0 0 0 0 0 0 0 0 0 0 0 0 0 0 0 0 0 0 0 0 0 0 0 0 0 0 0 0 0 0 0 0 0 0 8 0 9 t 0 8 r JXCXCXCXCXCXCXCXCXCXCXCXCXCXCXCXCXCXCXCXCXCXCXCXCXZXCXCXVXKXqX. 0 0 0 0 0 0 0 0 0 0 0 0 0 0 0 0 0 0 0 0 0 0 0 0 0 0 0 0 0 0 0 0 0 0 0 0 0 0 0 0 0 0 0 0 0 0 0 0 0 0 0 0 0 0 0 0 0 = 0 3 qXKXCXAXVXCXCXCXCXCXCXCXCXCXCXCXCXCXCXCXCXCXCXCXCXCXCXCXCXCXCX",
"Q.Q.Q.Q.Q.Q.Q.Q.Q.Q.Q.Q.Q.Q.Q.Q.Q.Q.Q.Q.Q.Q.Q.Q.T.Q.'.Q.~.T.Y.6 0 0 0 0 0 0 0 0 0 0 0 0 0 0 0 0 0 0 0 0 0 0 0 0 0 0 0 0 0 0 0 0 0 0 0 0 0 0 0 0 0 0 0 0 0 0 0 0 0 0 0 0 0 0 0 0 9 = 0 . wXKXCXDXCXCXCXCXCXCXCXCXCXCXCXCXCXCXCXCXCXCXCXCXCXCXCXCXVXKXHXr 7 0 0 0 0 0 0 0 0 0 0 0 0 0 0 0 0 0 0 0 0 0 0 0 0 0 0 0 = w !.W.Q.`.Q./.Q.Q.Q.Q.Q.Q.Q.Q.Q.Q.Q.Q.Q.Q.Q.Q.Q.Q.Q.Q.Q.Q.Q.Q.=XbXkXkXkXgXlXlXkXkXlXlXlXlXlXlXlXlXlXlXlXlXlXlXjXlXlXlXcXlXBXXX  0 0 = 0 0 0 0 0 0 0 0 0 0 0 0 0 0 0 0 0 0 0 0 = 0 7 0 9 3 U.Q.~.~.Q.Q.Q.Q.Q.Q.Q.Q.Q.Q.Q.Q.Q.Q.Q.Q.Q.Q.Q.Q.Q.Q.W.).Q.Q.E.SXVXZXCXCXCXCXCXCXCXCXCXCXCXCXCXCXCXCXCXCXCXCXCXCXCXCXCXVXZXqX2 * 0 0 0 0 0 0 0 0 0 0 0 0 0 0 0 0 0 0 0 0 0 0 0 0 0 0 = 2 L &X!.Q.Q.Q.Q.Q.Q.Q.Q.Q.Q.Q.Q.Q.Q.Q.Q.Q.Q.Q./.Q.Q.Q.Q.Q.Q.~.*XG $ 0 0 8 7 0 0 0 0 0 0 0 0 0 0 0 0 0 0 0 0 0 0 0 0 0 0 0 0 0 0 0 0 0 0 0 0 0 0 0 0 0 0 0 0 0 0 0 0 0 0 0 0 0 & 0 9 t 0 8 r JXCXCXCXCXCXCXCXCXCXCXCXCXCXCXCXCXCXCXCXCXCXCXCXCXCXCXCXVXKXqX. 0 0 0 0 0 0 0 0 0 0 0 0 0 0 0 0 0 0 0 0 0 0 0 0 0 0 0 0 0 0 0 0 0 0 0 0 0 0 0 0 0 0 0 0 0 0 0 0 0 0 0 0 0 0 0 0 0 = 0 3 qXKXCXAXVXCXCXCXCXCXCXCXCXCXCXCXCXCXCXCXCXCXCXCXCXCXCXCXCXCXCX",
"Q.Q.Q.Q.Q.Q.Q.Q.Q.Q.Q.Q.Q.Q.Q.Q.Q.Q.Q.Q.Q.Q.Q.Q.T.Q.'.Q./.T.Y.6 0 0 0 0 0 0 0 0 0 0 0 0 0 0 0 0 0 0 0 0 0 0 0 0 0 0 0 0 0 0 0 0 0 0 0 0 0 0 0 0 0 0 0 0 0 0 0 0 0 0 0 0 0 0 0 0 9 = 0 . wXKXCXDXCXCXCXCXCXCXCXCXCXCXCXCXCXCXCXCXCXCXCXCXCXCXCXCXVXLXHXr 7 0 0 0 0 0 0 0 0 0 0 0 0 0 0 0 0 0 0 0 0 0 0 0 0 0 0 0 > w !.Q.Q.`.Q./.Q.Q.Q.Q.Q.Q.Q.Q.Q.Q.Q.Q.Q.Q.Q.Q.Q.Q.Q.Q.Q.Q.Q.Q.=XbXkXkXkXgXlXlXkXkXkXlXlXlXlXlXlXlXlXlXlXlXlXlXjXlXlXlXcXlXBXXX  0 0 = 0 0 0 0 0 0 0 0 0 0 0 0 0 0 0 0 0 0 0 0 = 0 7 0 9 3 U.Q.~.~.Q.Q.Q.Q.Q.Q.Q.Q.Q.Q.Q.Q.Q.Q.Q.Q.Q.Q.Q.Q.Q.Q.W.).Q.Q.E.AXVXZXCXCXCXCXCXCXCXCXCXCXCXCXCXCXCXCXCXCXCXCXCXCXCXCXCXVXZXqX2 * 0 0 0 0 0 0 0 0 0 0 0 0 0 0 0 0 0 0 0 0 0 0 0 0 0 0 = 2 L &X!.W.Q.Q.Q.Q.Q.Q.Q.Q.Q.Q.Q.Q.Q.Q.Q.Q.Q.Q./.Q.Q.Q.Q.Q.Q.~.*XG $ 0 0 8 8 0 0 0 0 0 0 0 0 0 0 0 0 0 0 0 0 0 0 0 0 0 0 0 0 0 0 0 0 0 0 0 0 0 0 0 0 0 0 0 0 0 0 0 0 0 0 0 0 0 & 0 9 t 0 8 r JXCXCXCXCXCXCXCXCXCXCXCXCXCXCXCXCXCXCXCXCXCXCXCXCXZXCXCXVXKXqX. 0 0 0 0 0 0 0 0 0 0 0 0 0 0 0 0 0 0 0 0 0 0 0 0 0 0 0 0 0 0 0 0 0 0 0 0 0 0 0 0 0 0 0 0 0 0 0 0 0 0 0 0 0 0 0 0 0 = 0 3 qXKXCXAXVXCXCXCXCXCXCXCXCXCXCXCXCXCXCXCXCXCXCXCXCXCXCXCXCXCXCX",
"Q.Q.Q.Q.Q.Q.Q.Q.Q.Q.Q.Q.Q.Q.Q.Q.Q.Q.Q.Q.Q.Q.Q.Q.[.T.T.(./.!.U.5 8 8 8 8 8 8 8 8 0 0 0 0 0 0 0 0 0 0 0 0 0 0 0 0 0 0 s s 8 0 0 9 0 0 0 0 0 0 0 0 0 0 0 0 0 0 0 0 0 0 0 0 0 0 0 0 = = q + .XKXLXIXVXVXVXVXMXMXMXMXVXVXVXVXVXVXVXVXVXVXVXMXVXVXVXVXKXPXJXe 6 % - < 0 0 0 0 0 0 0 0 0 0 0 0 0 0 0 0 0 0 0 0 0 0 0 0 6 e .X=XL.T.T./.Q.Q.Q.Q.Q.Q.Q.Q.Q.Q.Q.Q.Q.Q.Q.Q.Q.Q.Q.Q.Q.Q.Q.Q.<XzXzXzXzXzXzXzXjXjXjXjXjXjXkXjXjXjXjXjXkXkXjXjXxXxXlXlXxXmXnXP.& & = = = 0 0 0 0 0 0 0 0 0 0 0 0 0 0 0 0 0 0 0 7 % t 0 7 1 Y.R.~.~.~.~.~.~.~.~.Q.Q.Q.Q.Q.Q.Q.Q.Q.Q.Q.Q.Q.Q.Q.Q.T. X/.E.R.MXGXMXVXVXVXVXVXVXVXVXVXVXVXVXVXVXVXVXVXVXVXVXVXVXVXVXVXVXZXqX3 7 0 = 0 0 0 0 0 0 0 0 0 0 0 0 0 0 0 0 0 0 0 0 0 0 0 0 t 3 J !./.T.{.R.Q.Q.Q.Q.Q.Q.Q.Q.Q.Q.Q.Q.Q.Q.Q.Q.^.^.^.^.~.~.~.~.].H 3 9 0 % 7 2 0 0 0 0 0 0 0 0 0 0 0 0 0 0 0 0 0 0 0 0 0 0 0 q 0 0 0 0 0 0 0 0 0 0 0 0 0 0 0 0 0 0 0 0 0 0 0 0   u 0 9 7 2 5 HXVXVXVXVXVXVXVXVXVXVXVXVXVXVXVXVXVXMXVXMXVXVXVXVXDXGXmXMXIXqX. 0 0 0 0 0 0 0 0 0 0 0 0 0 0 0 0 0 0 0 0 0 0 0 0 0 7 0 7 8 8 X 8 8 0 0 0 0 0 0 0 0 0 0 0 0 0 0 0 0 0 0 0 0 0 0 8 8 v * 2 iXPXCXMXGXVXVXVXVXVXVXVXVXVXVXVXVXVXVXVXVXVXVXVXVXVXVXVXVXVXVX",
"[.[.[.[.[.[.[.[.[.[.[.[.[.[.[.[.[.[.[.[.[.[.[.[.{.}.Q.Q.`.;XU.1 a 8 8 8 8 8 8 8 8 8 8 8 8 8 8 8 0 0 0 0 0 0 0 0 0 & & a & 8 0 9 0 0 0 0 0 0 0 0 0 0 0 0 0 0 0 0 0 0 0 0 0 0 0 0 v = 0 . wXJXKXCXKXKXKXKXKXLXLXLXZXZXZXZXZXZXZXZXZXZXZXZXZXZXZXZXPXPXUXr 6 7 = v 0 0 0 0 0 0 0 0 0 0 0 0 0 0 0 0 0 0 0 0 0 0 0 0 6 p Y.&XT.}.Q.'.[.[.[.[.[.[.[.[.[.[.[.[.[.[.[.[.[.[.[.[.[.[.[.[. XsXvXvXsXvXvXvXdXdXdXdXdXdXdXdXdXdXdXdXdXdXdXdXfXzXtXgXsXlXBXI.& 0 = = 0 0 0 0 0 0 0 0 0 0 0 0 0 0 0 0 0 0 0 0 7 % = * 7 3 Y.'.`.`.`.`.`.`.`.`.[.[.[.[.[.[.[.[.[.[.[.[.[.[.[.[.E.'.!.Q.'.CXAXAXZXZXZXZXZXZXZXZXZXZXZXZXZXZXZXZXZXZXZXZXZXZXZXZXFXZXJXqX3 7 = = 0 0 0 0 0 0 0 0 0 0 0 0 0 0 0 0 0 0 0 0 0 0 0 0 * 6 L &X}.'.}.'.[.[.[.[.[.[.[.[.[.[.[.[.[.[.[.[.Q.!.!.Q.`.`.`.`.uXL 3 % & & 7 . & & & & & & & & 8 8 8 8 8 8 8 8 8 8 8 8 8 8 8 8 8 8 8 8 & & & : 0 0 0 0 0 0 0 0 0 0 0 0 0 0 0 0 8 & & s 7 . r JXZXZXZXZXZXZXZXZXZXZXZXZXZXZXZXZXZXZXZXZXZXZXZXZXFXVXCXLXPXiX2 & 0 0 0 0 0 0 0 0 8 8 8 8 8 8 8 8 8 8 8 8 8 8 8 8 % 0 8 0 8 % 0 0 0 0 0 0 0 0 0 0 0 0 0 0 0 0 0 0 0 0 0 0 0 0 8 8 v 0 6 iXJXKXFXVXZXZXZXZXZXZXZXZXZXZXZXZXZXZXZXZXZXZXZXZXZXZXZXZXZXZX",
"_._._._._._._._._._._._._._._._._._._._._._._._.].*X]._.].*XU.r : : : : a 8 8 8 8 8 8 8 8 8 8 8 8 8 8 8 8 8 8 8 s a d d s 8 * * 0 0 0 0 0 0 0 0 0 0 0 0 0 0 0 0 0 0 0 0 0 0 0 0 v - 0 6 wXJXJXJXHXHXHXHXHXHXHXHXHXHXHXHXHXHXHXHXHXHXHXHXHXHXHXHXPXJXiXG e 7 - = 0 0 0 0 0 0 0 0 0 0 0 0 0 0 0 0 0 0 0 0 0 0 0 0 i r Y.*XY.*X].*X_._._._._._._._._._._._._._._._._._._._._._._._.tXuXNXNXNXNXNXNXnXnXnXnXnXnXnXnXnXnXnXnXnXnXnXnXuXBXiXBXuXBXiXwX0 = = 0 0 0 0 0 0 0 0 0 0 0 0 0 0 0 0 0 0 0 0 0 q 0 s 0 q w U.U..X.X.X.X.X.X.X.X_._._._._._._._._._._._._._._._.].*X*X*X*XFXFXFXHXHXHXHXHXHXHXHXHXHXHXHXHXHXHXHXHXHXHXHXHXHXHXHXJXJXJXiXr q - & 0 0 0 0 0 0 0 0 0 0 0 0 0 0 0 0 0 0 0 0 0 0 0 0 v z O..X*X*X*XY._._._._._._._._._._._._._._._._..X.X.X.X.X.X.X.XY.G 7 8 a d f 8 & o & & o o o o 8 8 8 8 8 8 8 8 8 8 8 8 & & 8 8 a a a a a h , , a a a a a a a a a a a a a a a a : O , b g h P iXHXHXHXHXHXHXHXHXHXHXHXHXHXHXHXHXHXHXHXHXHXHXHXHXHXHXPXHXFXwXf & 8 8 8 8 8 8 8 8 8 8 8 8 8 8 8 8 8 8 8 8 8 8 8 8 8 f s f 8 X 8 8 0 0 0 0 0 0 0 0 0 0 0 0 0 0 0 0 0 0 0 0 0 0 8 8 & 8 q iXHXJXHXHXHXHXHXHXHXHXHXHXHXHXHXHXHXHXHXHXHXHXHXHXHXHXHXHXHXHX",
"w w w w w w w w w w w w w w w w w w w w w w w w p e w r H 5 e P 2.2.3.3.3.3.5.5.5.5.5.5.5.5.5.5.5.5.5.5.5.5.5.5.1.1.5.5.1.m 0 9 0 0 0 0 0 0 0 0 0 0 0 0 0 0 0 0 0 0 0 0 0 0 0 0 z 0 0 + F r 5 w e e e e e e e e e e e e e e e e e e e e e e e e p w r . 9 0 v x 0 0 0 0 0 0 0 0 0 0 0 0 0 0 0 0 0 0 0 0 0 0 0 0 $ $ r r 5 w w e w w w w w w w w w w w w w w w w w w w w w w w w w e e e e e e e w w w w w w w w w w w w w w w w 5 w w r 5 5 r q 0 0 0 0 0 0 0 0 0 0 0 0 0 0 0 0 0 0 0 0 0 0 0 0 7 * 0 = 0   G r w w w w w w w w w w w w w w w w w w w w w w w w 5 5 e w e G r G e e e e e e e e e e e e e e e e e e e e e e e e w r q q   z 0 v 0 0 0 0 0 0 0 0 0 0 0 0 0 0 0 0 0 0 0 0 0 0 0 0 - $ 9 r w w e 5 w w w w w w w w w w w w w w w w w w w w w w w w e B ..1.,.2.5.5.6.5.6.5.5.5.5.5.5.5.5.5.5.5.5.5.6.6.6.6.6.6.6.6.N.N.N.H.H.H.N.N.N.N.N.N.N.N.N.N.N.N.N.N.N.N.N.N.H.H.J.J.B.1Xx...e e e e e e e e e e e e e e e e e e e e e e e e w w r r G X.S 1.5.5.5.5.5.5.5.5.5.5.5.5.5.5.5.5.5.5.5.5.5.5.5.5.1.1.....m 8 8 8 0 0 0 0 0 0 0 0 0 0 0 0 0 0 0 0 0 0 0 0 0 0 8 8 0 0 7 P B e 6 w e e e e e e e e e e e e e e e e e e e e e e e e e e ",
"& & & & & & & & & & & & & & & & & & & & & & & & 2 8 8 8 q 2 g x.w.w.w.8.0.0.0.0.3.3.3.3.3.3.3.3.6.6.6.6.6.6.6.6.g.z.z.z.l.D 0 9 0 0 0 0 0 0 0 0 0 0 0 0 0 0 0 0 0 0 0 0 0 0 0 0 * * 0 X q 7 4 F 7 7 7 9 7 7 7 7 7 7 7 7 7 7 7 7 7 7 7 7 7 7 7 7 6 6 F q f 0 = = 0 0 0 0 0 0 0 0 0 0 0 0 0 0 0 0 0 0 0 0 0 0 0 0 v 0 q 7 X 7 8 8 & & & & & & & & & & & & & & & & & & & & & & & & > > > > > > > > & & & & 8 & & & & & & & & & & & 5 q 0 q 7 2 q t 0 0 0 0 0 0 0 0 0 0 0 0 0 0 0 0 0 0 0 0 0 0 0 0 % 7 0 0 0 X 7 . 7 7 7 7 7 7 7 7 & & & & & & & & & & & & & & & & 7 2 6 6 6 2 . 2 7 7 7 7 7 7 7 7 7 7 7 7 7 7 7 7 7 7 7 7 7 7 7 7 q 0 7 % % z * * 0 0 0 0 0 0 0 0 0 0 0 0 0 0 0 0 0 0 0 0 0 0 0 0 v v 0 7 2 7 7 2 & & & & & & & & & & & & & & & & 4 2 2 7 7 7 7 7   D x.z.r.e.r.z.0.0.0.0.0.0.0.0.0.0.0.0.0.0.0.0.0.0.0.0.w.w.w.w.3X3X3X3X3X4X4XJ.3X3X3X3X3X3X3X3X3X3X3X3X3X3X3X3X6X9XaXA.J.9Xz.O 7 7 7 7 7 7 7 7 7 7 7 7 7 7 7 7 7 7 7 7 7 7 7 7 z 0 q   X m 3.0.6.6.6.6.6.6.6.6.3.3.3.3.3.3.3.3.3.3.3.3.3.3.3.3.l.l.w.6.D 8 8 0 0 0 0 0 0 0 0 0 0 0 0 0 0 0 0 0 0 0 0 0 0 0 8 8 * 0 $ t 9 7 9 z 7 7 7 7 7 7 7 7 7 7 7 7 7 7 7 7 7 7 7 7 7 7 7 7 7 7 ",
"8 7 8 8 8 8 7 7 8 8 8 0 8 7 7 7 8 8 8 8 7 7 9 9 8 s v & & 0 b g.r.r.r.r.r.r.r.i.r.r.e.e.e.e.i.i.i.i.i.r.r.r.r.r.8.r.8.8.3.m % 9 0 0 0 0 0 0 0 0 0 0 0 0 0 0 0 0 0 0 0 0 0 0 0 0 z 0 0 8 0 % % 7 0 0 0 0 0 0 9 9 0 0 0 9 0 0 0 0 0 0 0 0 0 0 0 0     7 8 0 & 0 & 0 0 0 0 0 0 0 0 0 0 0 0 0 0 0 0 0 0 0 0 0 0 0 0 > s = = = = s v 8 8 8 8 8 8 8 0 8 7 8 8 8 8 7 7 8 8 8 0 7 7 7 7 v 0 0 0 0 0 0 0 0 0 0 0 9 0 9 9 0 0 0 0 0 0 0 0 7 0 = > 8   0 v 0 0 0 0 0 0 0 0 0 0 0 0 0 0 0 0 0 0 0 0 0 0 0 0 0 0 s 0 0 0 9 7 8 8 8 0 8 8 8 8 8 8 7 8 7 7 8 8 8 8 7 7 7 7 8 8 t 0 z 0 t 0 * 0 0 0 0 0 0 0 9 9 0 0 0 0 0 0 9 9 0 0 0 0 0 0 9 9 * 0 0 0 * 0 0 0 0 0 0 0 0 0 0 0 0 0 0 0 0 0 0 0 0 0 0 0 0 0 0 0 = = = = 0 0 0 0 8 7 7 7 7 7 8 8 8 8 7 8 7 7 8 8 8 8 8 8 0 0 0 0 X S i.8.8.8.8.e.e.e.e.e.e.e.e.e.p.p.p.p.p.p.p.p.e.e.e.e.r.r.r.r.Z.Z.Z.Z.Z.Z.A.A.Z.Z.Z.Z.Z.Z.Z.Z.Z.Z.Z.Z.Z.Z.Z.Z.Z.C.S.S.$X9X1Xd 0 0 0 0 0 0 0 0 0 0 0 9 0 0 0 0 0 0 0 0 0 0 0 0 v 0 v * & V z.p.e.e.i.i.i.i.i.i.e.r.e.e.e.e.i.i.i.i.i.i.e.e.e.e.0.e.6.6.A & & & 0 0 0 0 0 0 0 0 0 0 0 0 0 0 0 0 0 0 0 0 0 0 8 8 v t 9 0 9 0 = 0 0 0 0 0 0 0 0 0 0 9 0 9 0 0 0 0 0 0 0 0 0 0 0 0 0 0 ",
"9 9 9 9 9 9 9 9 9 9 9 9 9 9 9 9 9 9 9 9 9 9 9 9 7 = v = & s g 0.r.r.r.e.e.8.e.e.e.e.e.e.e.e.e.e.e.e.e.e.e.e.e.e.9.q.8.8.e.Z 0 z 0 0 0 0 0 0 0 0 0 0 0 0 0 0 0 0 0 0 0 0 0 0 0 0 0 0 * * 0 * 9 9 s s 0 0 0 0 0 0 0 0 0 0 0 0 0 0 0 0 0 0 0 0 0 0 = = = 0 = % 0 & 0 0 0 0 0 0 0 0 0 0 0 0 0 0 0 0 0 0 0 0 0 0 0 0 X = = = t = 0 0 9 9 9 9 9 9 9 9 9 9 9 9 9 9 9 9 9 9 9 9 9 9 9 9 u 9 7 9 9 9 9 9 q q q q q q q q q q q q q q q q 7 0 > > 8 2 9 t 0 0 0 0 0 0 0 0 0 0 0 0 0 0 0 0 0 0 0 0 0 0 0 0 * 0 0 - * 9 9 9 0 0 0 0 0 0 0 0 9 9 9 9 9 9 9 9 9 9 9 9 9 9 9 9 = % v * t * * 0 0 0 0 0 0 0 0 0 0 0 0 0 0 0 0 0 0 0 0 0 0 0 0 0 8 % 0 0 % * * = 0 0 0 0 0 0 0 0 0 0 0 0 0 0 0 0 0 0 0 0 0 0 0 0 % * - = 0 0 = s 9 9 9 9 9 9 9 9 9 9 9 9 9 9 9 9 0 0 0 0 9 9 9 t s 1.i.0.q.q.r.r.0.0.0.0.0.0.0.0.a.a.e.e.e.e.e.e.0.0.0.0.0.0.0.0.#X#X#X$XA.A.A.A.#X#X#X#X#X#X#X#X#X#X#X#X#X#X#X#X%X+XS.S.A.B.N.d 0 0 0 0 0 0 0 0 0 0 0 0 0 0 0 0 0 0 0 0 0 0 0 0 0 0 z * = x e.8.e.e.e.e.e.e.e.e.e.e.e.e.e.e.q.q.q.q.e.e.e.e.q.e.8.e.w.w.S & 8 s 0 0 0 0 0 0 0 0 0 0 0 0 0 0 0 0 0 0 0 0 0 0 8 8 s * 9 9 0 0 0 0 0 0 0 0 0 0 0 0 0 0 0 0 0 0 0 0 0 0 0 0 0 0 0 0 0 0 ",
"0 0 0 0 0 0 0 0 0 0 0 0 0 0 0 0 0 0 0 0 0 0 0 0 6 . 0 v 0 0 g z.8.8.8.8.8.0.0.0.8.:.8.8.8.8.8.8.8.8.8.8.8.8.8.8.:.q.9.q.z.D 8 t 0 0 0 0 0 0 0 0 0 0 0 0 0 0 0 0 0 0 0 0 0 0 0 0 0 0 0 0 9 * t t = = = = 0 0 0 0 8 8 8 8 8 8 8 8 8 8 8 8 8 8 8 8 > < > v 0 & 0 8 0 0 0 0 0 0 0 0 0 0 0 0 0 0 0 0 0 0 0 0 0 0 0 0 7 q 0 t u * 9 9 0 0 0 0 0 0 0 0 0 0 0 0 0 0 0 0 0 0 0 0 0 0 0 0 s * X - * - - * 0 0 0 0 0 0 0 0 0 0 0 0 0 0 0 = 7 0 = > 8 2 7 0 0 0 0 0 0 0 0 0 0 0 0 0 0 0 0 0 0 0 0 0 0 0 0 0 & s s % * 0 9 u 0 0 0 0 0 0 0 0 0 0 0 0 0 0 0 0 0 0 0 0 0 0 0 0 0 * c = t = 0 t 8 8 8 8 8 8 8 8 8 8 8 8 8 8 8 8 8 8 8 8 8 8 8 8 8   8 0 * 0 0 = 0 0 0 0 0 0 0 0 0 0 0 0 0 0 0 0 0 0 0 0 0 0 0 0 9 0 * 0 v = = v 0 0 0 0 0 0 0 0 0 0 0 0 0 0 0 0 0 0 0 0 t t t t & >.i.0.q.8.8.8.e.q.e.e.a.a.a.a.q.q.q.q.q.q.q.q.q.q.q.q.q.q.e.q.$X$X$X$X$X$X$X$X#X#X#X#X#X#X$X$X#X#X#X#X#X#X#X#XOX#X@X@X6X3XH.s 8 8 8 8 8 8 8 8 8 8 8 8 8 8 8 8 8 8 8 8 8 8 8 8 7 7 0 $ 0 g i.p.8.8.8.8.8.8.8.8.8.8.8.8.8.8.:.:.:.:.8.8.8.8.8.8.;.8.8.w.A o & 0 0 0 0 0 0 0 0 0 0 0 0 0 0 0 0 0 0 0 0 0 0 0 8 8 = * t 9 7 % % f 8 8 8 8 8 8 8 8 8 8 8 8 8 8 8 8 8 8 8 8 8 8 8 8 8 8 ",
"0 0 0 0 0 0 0 0 0 0 0 0 0 0 0 0 0 0 0 0 0 0 0 0 0 0 9 0 0 8 j 6.8.8.8.e.e.e.e.e.e.e.e.e.e.e.8.8.8.e.e.e.e.e.e.e.3.e.8.r.r.A 8 7 0 0 0 0 0 0 0 0 0 0 0 0 0 0 0 0 0 0 0 0 0 0 0 0 0 0 0 0 0 0 0 0 0 0 0 0 0 0 0 0 0 0 0 0 0 0 0 0 0 0 0 0 0 0 0 0 0 0 0 0 0 0 0 0 0 0 0 0 0 0 0 0 0 0 0 0 0 0 0 0 0 0 0 0 0 0 0 0 0 0 0 0 0 0 0 0 0 0 0 0 0 0 0 0 0 0 0 0 0 0 0 0 0 0 0 0 0 0 0 0 0 0 0 0 0 0 0 0 0 0 0 0 0 0 0 0 0 0 0 0 0 0 0 0 0 0 0 0 0 0 0 0 0 0 0 0 0 0 0 0 0 0 0 0 0 0 0 0 0 0 0 0 0 0 0 0 0 0 0 0 0 0 0 0 0 0 0 0 0 0 0 0 0 0 0 0 0 0 0 0 0 0 0 0 0 0 0 0 0 0 0 0 0 0 0 0 0 0 0 0 0 0 0 0 0 0 0 0 0 0 0 0 0 0 0 0 0 0 0 0 0 0 0 0 0 0 0 0 0 0 0 0 0 0 0 0 0 0 0 0 0 0 0 0 0 0 0 0 0 0 0 0 0 0 0 0 0 0 0 0 0 0 0 0 0 0 0 0 0 0 0 0 0 0 0 0 0 0 0 0 0 0 0 0 o S i.e.e.e.e.r.e.e.e.e.e.e.e.e.e.e.e.e.e.e.e.e.e.e.e.e.e.e.e.e.3X3X$X$X$X$X#X#X$X$X$X$X$X$X$X$X$X$X$X$X$X$X$X$X#X#X#X#X$XoXH., 9 9 0 0 0 0 0 0 0 0 0 0 0 0 0 0 0 0 0 0 0 0 0 0 0 0 = 0 = b r.q.e.e.e.e.e.e.8.8.e.e.e.e.e.e.e.e.e.e.8.8.8.e.e.e.8.8.e.w.A & 0 0 0 0 0 0 0 0 0 0 0 0 0 0 0 0 0 0 0 0 0 0 0 0 0 0 0 0 0 0 0 0 0 0 0 0 0 0 0 0 0 0 0 0 0 0 0 0 0 0 0 0 0 0 0 0 0 0 0 0 ",
"0 0 0 0 0 0 0 0 0 0 0 0 0 0 0 0 0 0 0 0 0 0 0 0 0 0 9 0 0 8 j 6.8.8.8.8.e.e.e.e.e.e.e.e.e.e.8.8.e.e.e.e.e.e.e.e.3.e.8.r.r.A 8 7 0 0 0 0 0 0 0 0 0 0 0 0 0 0 0 0 0 0 0 0 0 0 0 0 0 0 0 0 0 0 0 0 0 0 0 0 0 0 0 0 0 0 0 0 0 0 0 0 0 0 0 0 0 0 0 0 0 0 0 0 0 0 0 0 0 0 0 0 0 0 0 0 0 0 0 0 0 0 0 0 0 0 0 0 0 0 0 0 0 0 0 0 0 0 0 0 0 0 0 0 0 0 0 0 0 0 0 0 0 0 0 0 0 0 0 0 0 0 0 0 0 0 0 0 0 0 0 0 0 0 0 0 0 0 0 0 0 0 0 0 0 0 0 0 0 0 0 0 0 0 0 0 0 0 0 0 0 0 0 0 0 0 0 0 0 0 0 0 0 0 0 0 0 0 0 0 0 0 0 0 0 0 0 0 0 0 0 0 0 0 0 0 0 0 0 0 0 0 0 0 0 0 0 0 0 0 0 0 0 0 0 0 0 0 0 0 0 0 0 0 0 0 0 0 0 0 0 0 0 0 0 0 0 0 0 0 0 0 0 0 0 0 0 0 0 0 0 0 0 0 0 0 0 0 0 0 0 0 0 0 0 0 0 0 0 0 0 0 0 0 0 0 0 0 0 0 0 0 0 0 0 0 0 0 0 0 0 0 0 0 0 0 0 0 0 0 0 0 0 0 0 0 0 0 o S i.e.e.e.e.r.e.e.e.e.e.e.e.e.e.8.e.e.e.e.e.e.e.e.e.e.e.e.e.e.3X3X$X$X$X$X#X#X$X$X$X$X$X$X$X$X$X$X$X$X$X$X$X$X#X#X#X#X$X#XH., 9 9 0 0 0 0 0 0 0 0 0 0 0 0 0 0 0 0 0 0 0 0 0 0 0 0 = 0 = b r.q.e.e.e.e.8.e.8.8.e.e.e.e.e.e.e.e.e.e.8.8.e.e.e.e.8.8.w.w.A & 0 0 0 0 0 0 0 0 0 0 0 0 0 0 0 0 0 0 0 0 0 0 0 0 0 0 0 0 0 0 0 0 0 0 0 0 0 0 0 0 0 0 0 0 0 0 0 0 0 0 0 0 0 0 0 0 0 0 0 0 ",
"0 0 0 0 0 0 0 0 0 0 0 0 0 0 0 0 0 0 0 0 0 0 0 0 0 0 9 0 0 8 b 6.8.8.8.8.8.8.e.e.e.e.8.8.8.8.8.8.e.e.e.e.8.e.8.8.3.e.8.r.r.A 8 7 0 0 0 0 0 0 0 0 0 0 0 0 0 0 0 0 0 0 0 0 0 0 0 0 0 0 0 0 0 0 0 0 0 0 0 0 0 0 0 0 0 0 0 0 0 0 0 0 0 0 0 0 0 0 0 0 0 0 0 0 0 0 0 0 0 0 0 0 0 0 0 0 0 0 0 0 0 0 0 0 0 0 0 0 0 0 0 0 0 0 0 0 0 0 0 0 0 0 0 0 0 0 0 0 0 0 0 0 0 0 0 0 0 0 0 0 0 0 0 0 0 0 0 0 0 0 0 0 0 0 0 0 0 0 0 0 0 0 0 0 0 0 0 0 0 0 0 0 0 0 0 0 0 0 0 0 0 0 0 0 0 0 0 0 0 0 0 0 0 0 0 0 0 0 0 0 0 0 0 0 0 0 0 0 0 0 0 0 0 0 0 0 0 0 0 0 0 0 0 0 0 0 0 0 0 0 0 0 0 0 0 0 0 0 0 0 0 0 0 0 0 0 0 0 0 0 0 0 0 0 0 0 0 0 0 0 0 0 0 0 0 0 0 0 0 0 0 0 0 0 0 0 0 0 0 0 0 0 0 0 0 0 0 0 0 0 0 0 0 0 0 0 0 0 0 0 0 0 0 0 0 0 0 0 0 0 0 0 0 0 0 0 0 0 0 0 0 0 0 0 0 0 0 0 o S i.e.e.8.e.r.e.e.e.e.e.e.e.e.e.e.e.e.e.e.e.e.e.e.e.e.e.e.e.e.3X3X$X$X$X$X#X#X$X$X$X$X$X$X$X$X$X$X$X$X$X$X$X$X#X#X#X#X$X#XH., 9 9 0 0 0 0 0 0 0 0 0 0 0 0 0 0 0 0 0 0 0 0 0 0 0 0 = 0 & b r.q.e.e.8.8.8.8.8.8.8.e.e.e.e.e.8.8.8.8.8.8.e.e.e.e.8.8.e.i.A & 0 0 0 0 0 0 0 0 0 0 0 0 0 0 0 0 0 0 0 0 0 0 0 0 0 0 0 0 0 0 0 0 0 0 0 0 0 0 0 0 0 0 0 0 0 0 0 0 0 0 0 0 0 0 0 0 0 0 0 0 ",
"0 0 0 0 0 0 0 0 0 0 0 0 0 0 0 0 0 0 0 0 0 0 0 0 0 0 9 0 0 8 b 6.8.8.8.8.8.e.e.e.8.8.8.8.8.8.8.8.8.e.e.e.8.8.8.8.3.e.8.r.r.A 8 7 0 0 0 0 0 0 0 0 0 0 0 0 0 0 0 0 0 0 0 0 0 0 0 0 0 0 0 0 0 0 0 0 0 0 0 0 0 0 0 0 0 0 0 0 0 0 0 0 0 0 0 0 0 0 0 0 0 0 0 0 0 0 0 0 0 0 0 0 0 0 0 0 0 0 0 0 0 0 0 0 0 0 0 0 0 0 0 0 0 0 0 0 0 0 0 0 0 0 0 0 0 0 0 0 0 0 0 0 0 0 0 0 0 0 0 0 0 0 0 0 0 0 0 0 0 0 0 0 0 0 0 0 0 0 0 0 0 0 0 0 0 0 0 0 0 0 0 0 0 0 0 0 0 0 0 0 0 0 0 0 0 0 0 0 0 0 0 0 0 0 0 0 0 0 0 0 0 0 0 0 0 0 0 0 0 0 0 0 0 0 0 0 0 0 0 0 0 0 0 0 0 0 0 0 0 0 0 0 0 0 0 0 0 0 0 0 0 0 0 0 0 0 0 0 0 0 0 0 0 0 0 0 0 0 0 0 0 0 0 0 0 0 0 0 0 0 0 0 0 0 0 0 0 0 0 0 0 0 0 0 0 0 0 0 0 0 0 0 0 0 0 0 0 0 0 0 0 0 0 0 0 0 0 0 0 0 0 0 0 0 0 0 0 0 0 0 0 0 0 0 0 0 0 0 o S i.e.e.e.e.r.e.e.e.e.e.e.e.e.e.e.e.e.e.e.e.e.e.e.e.e.e.e.e.e.3X3X$X$X$X$X#X#X$X$X$X$X$X$X$X$X$X$X$X$X$X$X$X$X#X#X#X#X$XoXH., 9 9 0 0 0 0 0 0 0 0 0 0 0 0 0 0 0 0 0 0 0 0 0 0 0 0 = 0 & b r.q.e.8.8.8.8.8.8.8.8.e.e.e.8.8.8.8.8.8.8.8.8.e.e.e.8.8.e.l.A & 0 0 0 0 0 0 0 0 0 0 0 0 0 0 0 0 0 0 0 0 0 0 0 0 0 0 0 0 0 0 0 0 0 0 0 0 0 0 0 0 0 0 0 0 0 0 0 0 0 0 0 0 0 0 0 0 0 0 0 0 ",
"0 0 0 0 0 0 0 0 0 0 0 0 0 0 0 0 0 0 0 0 0 0 0 0 0 9 9 0 0 8 b 6.8.8.e.e.8.8.8.8.8.8.8.8.8.8.8.8.8.8.e.e.e.e.8.8.3.e.8.r.r.A 8 7 0 0 0 0 0 0 0 0 0 0 0 0 0 0 0 0 0 0 0 0 0 0 0 0 0 0 0 0 0 0 0 0 0 0 0 0 0 0 0 0 0 0 0 0 0 0 0 0 0 0 0 0 0 0 0 0 0 0 0 0 0 0 0 0 0 0 0 0 0 0 0 0 0 0 0 0 0 0 0 0 0 0 0 0 0 0 0 0 0 0 0 0 0 0 0 0 0 0 0 0 0 0 0 0 0 0 0 0 0 0 0 0 0 0 0 0 0 0 0 0 0 0 0 0 0 0 0 0 0 0 0 0 0 0 0 0 0 0 0 0 0 0 0 0 0 0 0 0 0 0 0 0 0 0 0 0 0 0 0 0 0 0 0 0 0 0 0 0 0 0 0 0 0 0 0 0 0 0 0 0 0 0 0 0 0 0 0 0 0 0 0 0 0 0 0 0 0 0 0 0 0 0 0 0 0 0 0 0 0 0 0 0 0 0 0 0 0 0 0 0 0 0 0 0 0 0 0 0 0 0 0 0 0 0 0 0 0 0 0 0 0 0 0 0 0 0 0 0 0 0 0 0 0 0 0 0 0 0 0 0 0 0 0 0 0 0 0 0 0 0 0 0 0 0 0 0 0 0 0 0 0 0 0 0 0 0 0 0 0 0 0 0 0 0 0 0 0 0 0 0 0 0 0 0 o S i.r.8.8.w.r.e.e.e.e.e.e.e.e.e.e.e.e.e.e.e.e.e.e.e.e.e.e.e.e.3X3X$X$X$X#X#X#X$X$X$X$X$X$X$X$X$X$X$X$X$X$X$X$X#X#X#X#X$XoXH., 9 9 0 0 0 0 0 0 0 0 0 0 0 0 0 0 0 0 0 0 0 0 0 0 0 0 = 0 & b r.r.8.8.8.8.e.8.8.8.8.8.e.e.e.e.8.8.8.e.e.e.8.8.8.8.8.8.w.l.A & 0 0 0 0 0 0 0 0 0 0 0 0 0 0 0 0 0 0 0 0 0 0 0 0 0 0 0 0 0 0 0 0 0 0 0 0 0 0 0 0 0 0 0 0 0 0 0 0 0 0 0 0 0 0 0 0 0 0 0 0 ",
"0 0 0 0 0 0 0 0 0 0 0 0 0 0 0 0 0 0 0 0 0 0 0 0 0 9 9 0 0 8 b 6.8.8.8.e.8.8.8.8.8.e.8.8.e.8.8.8.8.8.e.e.e.e.8.8.3.e.8.r.r.A 8 7 0 0 0 0 0 0 0 0 0 0 0 0 0 0 0 0 0 0 0 0 0 0 0 0 0 0 0 0 0 0 0 0 0 0 0 0 0 0 0 0 0 0 0 0 0 0 0 0 0 0 0 0 0 0 0 0 0 0 0 0 0 0 0 0 0 0 0 0 0 0 0 0 0 0 0 0 0 0 0 0 0 0 0 0 0 0 0 0 0 0 0 0 0 0 0 0 0 0 0 0 0 0 0 0 0 0 0 0 0 0 0 0 0 0 0 0 0 0 0 0 0 0 0 0 0 0 0 0 0 0 0 0 0 0 0 0 0 0 0 0 0 0 0 0 0 0 0 0 0 0 0 0 0 0 0 0 0 0 0 0 0 0 0 0 0 0 0 0 0 0 0 0 0 0 0 0 0 0 0 0 0 0 0 0 0 0 0 0 0 0 0 0 0 0 0 0 0 0 0 0 0 0 0 0 0 0 0 0 0 0 0 0 0 0 0 0 0 0 0 0 0 0 0 0 0 0 0 0 0 0 0 0 0 0 0 0 0 0 0 0 0 0 0 0 0 0 0 0 0 0 0 0 0 0 0 0 0 0 0 0 0 0 0 0 0 0 0 0 0 0 0 0 0 0 0 0 0 0 0 0 0 0 0 0 0 0 0 0 0 0 0 0 0 0 0 0 0 0 0 0 0 0 0 0 o S i.r.8.8.e.r.e.e.e.e.e.e.e.e.e.e.e.e.e.e.e.e.e.e.e.e.e.e.e.e.3X3X$X$X$X#X#X#X$X$X$X$X$X$X$X$X$X$X$X$X$X$X$X$X#X#X#X#X$XoXH., 9 9 0 0 0 0 0 0 0 0 0 0 0 0 0 0 0 0 0 0 0 0 0 0 0 0 = 0 & b r.r.8.8.8.8.e.8.8.8.8.8.e.e.e.e.8.8.8.e.e.e.8.8.8.8.8.8.w.i.A & 0 0 0 0 0 0 0 0 0 0 0 0 0 0 0 0 0 0 0 0 0 0 0 0 0 0 0 0 0 0 0 0 0 0 0 0 0 0 0 0 0 0 0 0 0 0 0 0 0 0 0 0 0 0 0 0 0 0 0 0 ",
"0 0 0 0 0 0 0 0 0 0 0 0 0 0 0 0 0 0 0 0 0 0 0 0 0 0 9 0 0 8 b 6.8.8.e.e.e.e.8.e.e.e.e.e.e.e.8.8.8.8.8.8.e.e.e.8.3.e.8.r.r.A 8 7 0 0 0 0 0 0 0 0 0 0 0 0 0 0 0 0 0 0 0 0 0 0 0 0 0 0 0 0 0 0 0 0 0 0 0 0 0 0 0 0 0 0 0 0 0 0 0 0 0 0 0 0 0 0 0 0 0 0 0 0 0 0 0 0 0 0 0 0 0 0 0 0 0 0 0 0 0 0 0 0 0 0 0 0 0 0 0 0 0 0 0 0 0 0 0 0 0 0 0 0 0 0 0 0 0 0 0 0 0 0 0 0 0 0 0 0 0 0 0 0 0 0 0 0 0 0 0 0 0 0 0 0 0 0 0 0 0 0 0 0 0 0 0 0 0 0 0 0 0 0 0 0 0 0 0 0 0 0 0 0 0 0 0 0 0 0 0 0 0 0 0 0 0 0 0 0 0 0 0 0 0 0 0 0 0 0 0 0 0 0 0 0 0 0 0 0 0 0 0 0 0 0 0 0 0 0 0 0 0 0 0 0 0 0 0 0 0 0 0 0 0 0 0 0 0 0 0 0 0 0 0 0 0 0 0 0 0 0 0 0 0 0 0 0 0 0 0 0 0 0 0 0 0 0 0 0 0 0 0 0 0 0 0 0 0 0 0 0 0 0 0 0 0 0 0 0 0 0 0 0 0 0 0 0 0 0 0 0 0 0 0 0 0 0 0 0 0 0 0 0 0 0 0 0 o S i.r.8.8.w.r.e.e.e.e.e.e.e.e.e.e.e.e.e.e.e.e.e.e.e.e.e.e.e.e.3X3X$X$X$X$X#X#X$X$X$X$X$X$X$X$X$X$X$X$X$X$X$X$X#X#X#X#X$XoXH.: 9 9 0 0 0 0 0 0 0 0 0 0 0 0 0 0 0 0 0 0 0 0 0 0 0 0 = 0 = b r.r.e.e.e.e.e.e.8.8.8.8.8.e.e.e.e.8.8.8.e.e.e.e.8.8.8.8.e.r.A & 0 0 0 0 0 0 0 0 0 0 0 0 0 0 0 0 0 0 0 0 0 0 0 0 0 0 0 0 0 0 0 0 0 0 0 0 0 0 0 0 0 0 0 0 0 0 0 0 0 0 0 0 0 0 0 0 0 0 0 0 ",
"0 0 0 0 0 0 0 0 0 0 0 0 0 0 0 0 0 0 0 0 0 0 0 0 0 0 9 0 0 8 x 6.8.8.e.e.e.e.e.e.e.e.e.e.e.e.8.8.8.8.8.8.e.e.e.8.3.e.8.r.r.A 8 7 0 0 0 0 0 0 0 0 0 0 0 0 0 0 0 0 0 0 0 0 0 0 0 0 0 0 0 0 0 0 0 0 0 0 0 0 0 0 0 0 0 0 0 0 0 0 0 0 0 0 0 0 0 0 0 0 0 0 0 0 0 0 0 0 0 0 0 0 0 0 0 0 0 0 0 0 0 0 0 0 0 0 0 0 0 0 0 0 0 0 0 0 0 0 0 0 0 0 0 0 0 0 0 0 0 0 0 0 0 0 0 0 0 0 0 0 0 0 0 0 0 0 0 0 0 0 0 0 0 0 0 0 0 0 0 0 0 0 0 0 0 0 0 0 0 0 0 0 0 0 0 0 0 0 0 0 0 0 0 0 0 0 0 0 0 0 0 0 0 0 0 0 0 0 0 0 0 0 0 0 0 0 0 0 0 0 0 0 0 0 0 0 0 0 0 0 0 0 0 0 0 0 0 0 0 0 0 0 0 0 0 0 0 0 0 0 0 0 0 0 0 0 0 0 0 0 0 0 0 0 0 0 0 0 0 0 0 0 0 0 0 0 0 0 0 0 0 0 0 0 0 0 0 0 0 0 0 0 0 0 0 0 0 0 0 0 0 0 0 0 0 0 0 0 0 0 0 0 0 0 0 0 0 0 0 0 0 0 0 0 0 0 0 0 0 0 0 0 0 0 0 0 0 0 o S i.r.8.8.w.r.e.e.e.e.e.e.e.e.e.e.e.e.e.e.e.e.e.e.e.e.e.e.e.e.3X3X$X$X$X$X#X#X$X$X$X$X$X$X$X$X$X$X$X$X$X$X$X$X#X#X#X#X$XoXH.: 9 9 0 0 0 0 0 0 0 0 0 0 0 0 0 0 0 0 0 0 0 0 0 0 0 0 = 0 & b r.q.e.e.e.e.e.e.8.8.8.8.8.8.e.e.8.8.8.8.e.e.e.e.8.8.8.8.e.r.A & 0 0 0 0 0 0 0 0 0 0 0 0 0 0 0 0 0 0 0 0 0 0 0 0 0 0 0 0 0 0 0 0 0 0 0 0 0 0 0 0 0 0 0 0 0 0 0 0 0 0 0 0 0 0 0 0 0 0 0 0 ",
"0 0 0 0 0 0 0 0 0 0 0 0 0 0 0 0 0 0 0 0 0 0 0 0 0 0 9 0 0 8 b 6.8.8.e.e.e.e.e.e.e.e.e.e.e.e.e.8.e.e.8.8.e.e.e.e.3.e.8.r.r.A 8 7 0 0 0 0 0 0 0 0 0 0 0 0 0 0 0 0 0 0 0 0 0 0 0 0 0 0 0 0 0 0 0 0 0 0 0 0 0 0 0 0 0 0 0 0 0 0 0 0 0 0 0 0 0 0 0 0 0 0 0 0 0 0 0 0 0 0 0 0 0 0 0 0 0 0 0 0 0 0 0 0 0 0 0 0 0 0 0 0 0 0 0 0 0 0 0 0 0 0 0 0 0 0 0 0 0 0 0 0 0 0 0 0 0 0 0 0 0 0 0 0 0 0 0 0 0 0 0 0 0 0 0 0 0 0 0 0 0 0 0 0 0 0 0 0 0 0 0 0 0 0 0 0 0 0 0 0 0 0 0 0 0 0 0 0 0 0 0 0 0 0 0 0 0 0 0 0 0 0 0 0 0 0 0 0 0 0 0 0 0 0 0 0 0 0 0 0 0 0 0 0 0 0 0 0 0 0 0 0 0 0 0 0 0 0 0 0 0 0 0 0 0 0 0 0 0 0 0 0 0 0 0 0 0 0 0 0 0 0 0 0 0 0 0 0 0 0 0 0 0 0 0 0 0 0 0 0 0 0 0 0 0 0 0 0 0 0 0 0 0 0 0 0 0 0 0 0 0 0 0 0 0 0 0 0 0 0 0 0 0 0 0 0 0 0 0 0 0 0 0 0 0 0 0 0 o S i.r.8.8.w.r.e.e.e.e.e.e.e.e.e.e.e.e.e.e.e.e.e.e.e.e.e.e.e.e.3X#X$X$X$X$X#X#X$X$X$X$X$X$X$X$X$X$X$X$X$X$X$X$X#X#X#X#X$XoXH., 9 9 0 0 0 0 0 0 0 0 0 0 0 0 0 0 0 0 0 0 0 0 0 0 0 0 = 0 = b r.r.8.8.8.e.e.e.8.8.e.e.e.e.8.8.8.8.8.8.8.8.8.8.8.e.8.8.e.l.A & 0 0 0 0 0 0 0 0 0 0 0 0 0 0 0 0 0 0 0 0 0 0 0 0 0 0 0 0 0 0 0 0 0 0 0 0 0 0 0 0 0 0 0 0 0 0 0 0 0 0 0 0 0 0 0 0 0 0 0 0 ",
"0 0 0 0 0 0 0 0 0 0 0 0 0 0 0 0 0 0 0 0 0 0 0 0 0 0 9 0 0 8 j 6.8.8.e.e.8.8.e.e.e.e.e.e.e.e.e.8.e.e.8.8.8.e.e.e.3.e.8.r.r.A 8 7 0 0 0 0 0 0 0 0 0 0 0 0 0 0 0 0 0 0 0 0 0 0 0 0 0 0 0 0 0 0 0 0 0 0 0 0 0 0 0 0 0 0 0 0 0 0 0 0 0 0 0 0 0 0 0 0 0 0 0 0 0 0 0 0 0 0 0 0 0 0 0 0 0 0 0 0 0 0 0 0 0 0 0 0 0 0 0 0 0 0 0 0 0 0 0 0 0 0 0 0 0 0 0 0 0 0 0 0 0 0 0 0 0 0 0 0 0 0 0 0 0 0 0 0 0 0 0 0 0 0 0 0 0 0 0 0 0 0 0 0 0 0 0 0 0 0 0 0 0 0 0 0 0 0 0 0 0 0 0 0 0 0 0 0 0 0 0 0 0 0 0 0 0 0 0 0 0 0 0 0 0 0 0 0 0 0 0 0 0 0 0 0 0 0 0 0 0 0 0 0 0 0 0 0 0 0 0 0 0 0 0 0 0 0 0 0 0 0 0 0 0 0 0 0 0 0 0 0 0 0 0 0 0 0 0 0 0 0 0 0 0 0 0 0 0 0 0 0 0 0 0 0 0 0 0 0 0 0 0 0 0 0 0 0 0 0 0 0 0 0 0 0 0 0 0 0 0 0 0 0 0 0 0 0 0 0 0 0 0 0 0 0 0 0 0 0 0 0 0 0 0 0 0 0 o S i.r.8.8.w.r.e.e.e.e.e.e.e.e.e.e.e.e.e.e.e.e.e.e.e.e.e.e.e.e.3X#X$X$X$X$X#X#X$X$X$X$X$X$X$X$X$X$X$X$X$X$X$X$X#X#X#X#X$XoXH., 9 9 0 0 0 0 0 0 0 0 0 0 0 0 0 0 0 0 0 0 0 0 0 0 0 0 = 0 = b r.r.8.8.8.8.e.e.8.e.e.e.e.e.8.8.8.8.8.8.e.8.8.8.e.e.8.8.e.l.A & 0 0 0 0 0 0 0 0 0 0 0 0 0 0 0 0 0 0 0 0 0 0 0 0 0 0 0 0 0 0 0 0 0 0 0 0 0 0 0 0 0 0 0 0 0 0 0 0 0 0 0 0 0 0 0 0 0 0 0 0 ",
"0 0 0 0 0 0 0 0 0 0 0 0 0 0 0 0 0 0 0 0 0 0 0 0 0 0 9 0 0 8 j 6.e.e.e.e.8.8.8.8.8.8.8.8.e.e.e.e.e.e.8.8.8.8.e.e.3.r.8.r.r.A 8 7 0 0 0 0 0 0 0 0 0 0 0 0 0 0 0 0 0 0 0 0 0 0 0 0 0 0 0 0 0 0 0 0 0 0 0 0 0 0 0 0 0 0 0 0 0 0 0 0 0 0 0 0 0 0 0 0 0 0 0 0 0 0 0 0 0 0 0 0 0 0 0 0 0 0 0 0 0 0 0 0 0 0 0 0 0 0 0 0 0 0 0 0 0 0 0 0 0 0 0 0 0 0 0 0 0 0 0 0 0 0 0 0 0 0 0 0 0 0 0 0 0 0 0 0 0 0 0 0 0 0 0 0 0 0 0 0 0 0 0 0 0 0 0 0 0 0 0 0 0 0 0 0 0 0 0 0 0 0 0 0 0 0 0 0 0 0 0 0 0 0 0 0 0 0 0 0 0 0 0 0 0 0 0 0 0 0 0 0 0 0 0 0 0 0 0 0 0 0 0 0 0 0 0 0 0 0 0 0 0 0 0 0 0 0 0 0 0 0 0 0 0 0 0 0 0 0 0 0 0 0 0 0 0 0 0 0 0 0 0 0 0 0 0 0 0 0 0 0 0 0 0 0 0 0 0 0 0 0 0 0 0 0 0 0 0 0 0 0 0 0 0 0 0 0 0 0 0 0 0 0 0 0 0 0 0 0 0 0 0 0 0 0 0 0 0 0 0 0 0 0 0 0 0 0 o S i.r.e.e.w.r.e.e.e.e.e.e.e.e.e.e.e.e.e.e.e.e.e.e.e.e.e.e.e.e.3X3X$X$X$X$X#X#X$X$X$X$X$X$X$X$X$X$X$X$X$X$X$X$X#X#X#X#X$XoXH., 9 9 0 0 0 0 0 0 0 0 0 0 0 0 0 0 0 0 0 0 0 0 0 0 0 0 = 0 & b r.q.8.8.8.e.e.e.e.e.8.8.e.e.8.8.8.8.e.e.e.e.8.8.8.8.8.8.e.l.A & 0 0 0 0 0 0 0 0 0 0 0 0 0 0 0 0 0 0 0 0 0 0 0 0 0 0 0 0 0 0 0 0 0 0 0 0 0 0 0 0 0 0 0 0 0 0 0 0 0 0 0 0 0 0 0 0 0 0 0 0 ",
"0 0 0 0 0 0 0 0 0 0 0 0 0 0 0 0 0 0 0 0 0 0 0 0 0 0 9 0 0 8 g 6.e.e.e.e.8.8.8.8.8.8.8.8.e.e.e.e.e.e.8.8.8.8.e.e.3.r.8.r.r.A 8 7 0 0 0 0 0 0 0 0 0 0 0 0 0 0 0 0 0 0 0 0 0 0 0 0 0 0 0 0 0 0 0 0 0 0 0 0 0 0 0 0 0 0 0 0 0 0 0 0 0 0 0 0 0 0 0 0 0 0 0 0 0 0 0 0 0 0 0 0 0 0 0 0 0 0 0 0 0 0 0 0 0 0 0 0 0 0 0 0 0 0 0 0 0 0 0 0 0 0 0 0 0 0 0 0 0 0 0 0 0 0 0 0 0 0 0 0 0 0 0 0 0 0 0 0 0 0 0 0 0 0 0 0 0 0 0 0 0 0 0 0 0 0 0 0 0 0 0 0 0 0 0 0 0 0 0 0 0 0 0 0 0 0 0 0 0 0 0 0 0 0 0 0 0 0 0 0 0 0 0 0 0 0 0 0 0 0 0 0 0 0 0 0 0 0 0 0 0 0 0 0 0 0 0 0 0 0 0 0 0 0 0 0 0 0 0 0 0 0 0 0 0 0 0 0 0 0 0 0 0 0 0 0 0 0 0 0 0 0 0 0 0 0 0 0 0 0 0 0 0 0 0 0 0 0 0 0 0 0 0 0 0 0 0 0 0 0 0 0 0 0 0 0 0 0 0 0 0 0 0 0 0 0 0 0 0 0 0 0 0 0 0 0 0 0 0 0 0 0 0 0 0 0 0 0 o S i.r.e.e.e.r.e.e.e.e.e.e.e.e.e.e.e.e.e.e.e.e.e.e.e.e.e.e.e.e.3X3X$X$X$X$X#X#X$X$X$X$X$X$X$X$X$X$X$X$X$X$X$X$X#X#X#X#X$XoXH., 9 9 0 0 0 0 0 0 0 0 0 0 0 0 0 0 0 0 0 0 0 0 0 0 0 0 = 0 & b r.q.8.8.8.e.e.e.e.e.8.8.e.e.e.e.8.e.e.e.e.e.8.8.8.8.8.8.e.l.A & 0 0 0 0 0 0 0 0 0 0 0 0 0 0 0 0 0 0 0 0 0 0 0 0 0 0 0 0 0 0 0 0 0 0 0 0 0 0 0 0 0 0 0 0 0 0 0 0 0 0 0 0 0 0 0 0 0 0 0 0 ",
"0 0 0 0 0 0 0 0 0 0 0 0 0 0 0 0 0 0 0 0 0 0 0 0 0 9 9 0 0 8 m 6.e.e.8.e.e.e.8.8.8.8.e.e.e.e.8.8.e.e.e.e.8.8.8.e.3.e.8.r.r.A 8 7 0 0 0 0 0 0 0 0 0 0 0 0 0 0 0 0 0 0 0 0 0 0 0 0 0 0 0 0 0 0 0 0 0 0 0 0 0 0 0 0 0 0 0 0 0 0 0 0 0 0 0 0 0 0 0 0 0 0 0 0 0 0 0 0 0 0 0 0 0 0 0 0 0 0 0 0 0 0 0 0 0 0 0 0 0 0 0 0 0 0 0 0 0 0 0 0 0 0 0 0 0 0 0 0 0 0 0 0 0 0 0 0 0 0 0 0 0 0 0 0 0 0 0 0 0 0 0 0 0 0 0 0 0 0 0 0 0 0 0 0 0 0 0 0 0 0 0 0 0 0 0 0 0 0 0 0 0 0 0 0 0 0 0 0 0 0 0 0 0 0 0 0 0 0 0 0 0 0 0 0 0 0 0 0 0 0 0 0 0 0 0 0 0 0 0 0 0 0 0 0 0 0 0 0 0 0 0 0 0 0 0 0 0 0 0 0 0 0 0 0 0 0 0 0 0 0 0 0 0 0 0 0 0 0 0 0 0 0 0 0 0 0 0 0 0 0 0 0 0 0 0 0 0 0 0 0 0 0 0 0 0 0 0 0 0 0 0 0 0 0 0 0 0 0 0 0 0 0 0 0 0 0 0 0 0 0 0 0 0 0 0 0 0 0 0 0 0 0 0 0 0 0 0 0 o S i.r.e.e.e.w.e.e.e.e.e.e.e.e.e.e.e.e.e.e.e.e.e.e.e.e.e.e.e.e.3X3X$X$X$X$X#X#X$X$X$X$X$X$X$X$X$X$X$X$X$X$X$X$X#X#X#X#X$XoXH., 9 9 0 0 0 0 0 0 0 0 0 0 0 0 0 0 0 0 0 0 0 0 0 0 0 0 = 0 & b r.q.e.e.e.e.8.8.e.e.8.8.8.8.e.e.e.e.e.e.8.8.8.8.e.e.8.8.e.i.A & 0 0 0 0 0 0 0 0 0 0 0 0 0 0 0 0 0 0 0 0 0 0 0 0 0 0 0 0 0 0 0 0 0 0 0 0 0 0 0 0 0 0 0 0 0 0 0 0 0 0 0 0 0 0 0 0 0 0 0 0 ",
"0 0 0 0 0 0 0 0 0 0 0 0 0 0 0 0 0 0 0 0 0 0 0 0 0 9 9 0 0 8 j 6.8.8.8.8.e.e.8.e.8.8.e.e.8.e.8.8.e.e.8.8.8.8.e.e.3.e.8.r.r.A 8 7 0 0 0 0 0 0 0 0 0 0 0 0 0 0 0 0 0 0 0 0 0 0 0 0 0 0 0 0 0 0 0 0 0 0 0 0 0 0 0 0 0 0 0 0 0 0 0 0 0 0 0 0 0 0 0 0 0 0 0 0 0 0 0 0 0 0 0 0 0 0 0 0 0 0 0 0 0 0 0 0 0 0 0 0 0 0 0 0 0 0 0 0 0 0 0 0 0 0 0 0 0 0 0 0 0 0 0 0 0 0 0 0 0 0 0 0 0 0 0 0 0 0 0 0 0 0 0 0 0 0 0 0 0 0 0 0 0 0 0 0 0 0 0 0 0 0 0 0 0 0 0 0 0 0 0 0 0 0 0 0 0 0 0 0 0 0 0 0 0 0 0 0 0 0 0 0 0 0 0 0 0 0 0 0 0 0 0 0 0 0 0 0 0 0 0 0 0 0 0 0 0 0 0 0 0 0 0 0 0 0 0 0 0 0 0 0 0 0 0 0 0 0 0 0 0 0 0 0 0 0 0 0 0 0 0 0 0 0 0 0 0 0 0 0 0 0 0 0 0 0 0 0 0 0 0 0 0 0 0 0 0 0 0 0 0 0 0 0 0 0 0 0 0 0 0 0 0 0 0 0 0 0 0 0 0 0 0 0 0 0 0 0 0 0 0 0 0 0 0 0 0 0 0 0 o S i.r.e.e.e.w.e.e.e.e.e.e.e.e.e.e.e.e.e.e.e.e.e.e.e.e.e.e.e.e.3X3X$X$X$X$X#X#X$X$X$X$X$X$X$X$X$X$X$X$X$X$X$X$X#X#X#X#X$X#XH., 9 9 0 0 0 0 0 0 0 0 0 0 0 0 0 0 0 0 0 0 0 0 0 0 0 0 = 0 & b r.q.e.e.e.e.8.8.8.e.8.8.8.8.e.e.e.e.e.e.8.8.e.e.e.e.8.8.e.i.A & 0 0 0 0 0 0 0 0 0 0 0 0 0 0 0 0 0 0 0 0 0 0 0 0 0 0 0 0 0 0 0 0 0 0 0 0 0 0 0 0 0 0 0 0 0 0 0 0 0 0 0 0 0 0 0 0 0 0 0 0 ",
"0 0 0 0 0 0 0 0 0 0 0 0 0 0 0 0 0 0 0 0 0 0 0 0 0 0 9 0 0 8 b w.8.8.8.8.e.e.e.e.8.e.e.e.8.8.8.8.8.8.8.8.8.8.8.8.3.e.8.r.r.A 8 7 0 0 0 0 0 0 0 0 0 0 0 0 0 0 0 0 0 0 0 0 0 0 0 0 0 0 0 0 0 0 0 0 0 0 0 0 0 0 0 0 0 0 0 0 0 0 0 0 0 0 0 0 0 0 0 0 0 0 0 0 0 0 0 0 0 0 0 0 0 0 0 0 0 0 0 0 0 0 0 0 0 0 0 0 0 0 0 0 0 0 0 0 0 0 0 0 0 0 0 0 0 0 0 0 0 0 0 0 0 0 0 0 0 0 0 0 0 0 0 0 0 0 0 0 0 0 0 0 0 0 0 0 0 0 0 0 0 0 0 0 0 0 0 0 0 0 0 0 0 0 0 0 0 0 0 0 0 0 0 0 0 0 0 0 0 0 0 0 0 0 0 0 0 0 0 0 0 0 0 0 0 0 0 0 0 0 0 0 0 0 0 0 0 0 0 0 0 0 0 0 0 0 0 0 0 0 0 0 0 0 0 0 0 0 0 0 0 0 0 0 0 0 0 0 0 0 0 0 0 0 0 0 0 0 0 0 0 0 0 0 0 0 0 0 0 0 0 0 0 0 0 0 0 0 0 0 0 0 0 0 0 0 0 0 0 0 0 0 0 0 0 0 0 0 0 0 0 0 0 0 0 0 0 0 0 0 0 0 0 0 0 0 0 0 0 0 0 0 0 0 0 0 0 0 o S i.r.e.e.e.w.e.e.e.e.e.e.e.e.e.e.e.e.e.e.e.e.e.e.e.e.e.e.e.e.3X#X$X$X$X$X#X#X$X$X$X$X$X$X$X$X$X$X$X$X$X$X$X$X#X#X#X#X$XoXH., 9 9 0 0 0 0 0 0 0 0 0 0 0 0 0 0 0 0 0 0 0 0 0 0 0 0 = 0 = b r.r.e.e.8.8.8.8.e.e.e.e.8.e.e.e.8.8.e.8.8.8.e.e.e.e.8.8.e.i.A & 0 0 0 0 0 0 0 0 0 0 0 0 0 0 0 0 0 0 0 0 0 0 0 0 0 0 0 0 0 0 0 0 0 0 0 0 0 0 0 0 0 0 0 0 0 0 0 0 0 0 0 0 0 0 0 0 0 0 0 0 ",
"0 0 0 0 0 0 0 0 0 0 0 0 0 0 0 0 0 0 0 0 0 0 0 0 0 0 9 0 0 8 b w.8.8.8.8.e.e.e.e.e.e.e.e.8.8.8.8.8.8.8.8.8.8.8.8.3.e.8.r.r.A 8 7 0 0 0 0 0 0 0 0 0 0 0 0 0 0 0 0 0 0 0 0 0 0 0 0 0 0 0 0 0 0 0 0 0 0 0 0 0 0 0 0 0 0 0 0 0 0 0 0 0 0 0 0 0 0 0 0 0 0 0 0 0 0 0 0 0 0 0 0 0 0 0 0 0 0 0 0 0 0 0 0 0 0 0 0 0 0 0 0 0 0 0 0 0 0 0 0 0 0 0 0 0 0 0 0 0 0 0 0 0 0 0 0 0 0 0 0 0 0 0 0 0 0 0 0 0 0 0 0 0 0 0 0 0 0 0 0 0 0 0 0 0 0 0 0 0 0 0 0 0 0 0 0 0 0 0 0 0 0 0 0 0 0 0 0 0 0 0 0 0 0 0 0 0 0 0 0 0 0 0 0 0 0 0 0 0 0 0 0 0 0 0 0 0 0 0 0 0 0 0 0 0 0 0 0 0 0 0 0 0 0 0 0 0 0 0 0 0 0 0 0 0 0 0 0 0 0 0 0 0 0 0 0 0 0 0 0 0 0 0 0 0 0 0 0 0 0 0 0 0 0 0 0 0 0 0 0 0 0 0 0 0 0 0 0 0 0 0 0 0 0 0 0 0 0 0 0 0 0 0 0 0 0 0 0 0 0 0 0 0 0 0 0 0 0 0 0 0 0 0 0 0 0 0 0 o S i.r.e.8.0.w.e.e.e.e.e.e.e.e.e.e.e.e.e.e.e.e.e.e.e.e.e.e.e.e.3X#X$X$X$X$X#X#X$X$X$X$X$X$X$X$X$X$X$X$X$X$X$X$X#X#X#X#X$X#XH., 9 9 0 0 0 0 0 0 0 0 0 0 0 0 0 0 0 0 0 0 0 0 0 0 0 0 = 0 = b r.q.e.e.8.8.8.8.e.e.e.e.e.e.e.e.e.8.8.8.8.8.e.e.e.e.8.8.e.i.A & 0 0 0 0 0 0 0 0 0 0 0 0 0 0 0 0 0 0 0 0 0 0 0 0 0 0 0 0 0 0 0 0 0 0 0 0 0 0 0 0 0 0 0 0 0 0 0 0 0 0 0 0 0 0 0 0 0 0 0 0 ",
"0 0 0 0 0 0 0 0 0 0 0 0 0 0 0 0 0 0 0 0 0 0 0 0 0 0 9 0 0 & b w.8.8.e.e.e.8.8.8.e.e.e.e.e.e.8.e.8.e.e.e.e.e.e.e.3.e.8.r.r.A 8 7 0 0 0 0 0 0 0 0 0 0 0 0 0 0 0 0 0 0 0 0 0 0 0 0 0 0 0 0 0 0 0 0 0 0 0 0 0 0 0 0 0 0 0 0 0 0 0 0 0 0 0 0 0 0 0 0 0 0 0 0 0 0 0 0 0 0 0 0 0 0 0 0 0 0 0 0 0 0 0 0 0 0 0 0 0 0 0 0 0 0 0 0 0 0 0 0 0 0 0 0 0 0 0 0 0 0 0 0 0 0 0 0 0 0 0 0 0 0 0 0 0 0 0 0 0 0 0 0 0 0 0 0 0 0 0 0 0 0 0 0 0 0 0 0 0 0 0 0 0 0 0 0 0 0 0 0 0 0 0 0 0 0 0 0 0 0 0 0 0 0 0 0 0 0 0 0 0 0 0 0 0 0 0 0 0 0 0 0 0 0 0 0 0 0 0 0 0 0 0 0 0 0 0 0 0 0 0 0 0 0 0 0 0 0 0 0 0 0 0 0 0 0 0 0 0 0 0 0 0 0 0 0 0 0 0 0 0 0 0 0 0 0 0 0 0 0 0 0 0 0 0 0 0 0 0 0 0 0 0 0 0 0 0 0 0 0 0 0 0 0 0 0 0 0 0 0 0 0 0 0 0 0 0 0 0 0 0 0 0 0 0 0 0 0 0 0 0 0 0 0 0 0 0 0 o S i.r.8.8.e.r.e.e.e.e.e.e.e.e.e.e.e.e.e.e.e.e.e.e.e.e.e.e.e.e.3X3X$X$X$X$X#X#X$X$X$X$X$X$X$X$X$X$X$X$X$X$X$X$X#X$X#XA.$X3XH., 0 0 0 0 0 0 0 0 0 0 0 0 0 0 0 0 0 0 0 0 0 0 0 0 0 0 = 0 = b r.q.8.8.e.e.e.e.e.8.e.e.e.e.e.e.8.8.e.e.e.e.8.8.8.8.8.8.w.w.A & 0 0 0 0 0 0 0 0 0 0 0 0 0 0 0 0 0 0 0 0 0 0 0 0 0 0 0 0 0 0 0 0 0 0 0 0 0 0 0 0 0 0 0 0 0 0 0 0 0 0 0 0 0 0 0 0 0 0 0 0 ",
"0 0 0 0 0 0 0 0 0 0 0 0 0 0 0 0 0 0 0 0 0 0 0 0 0 0 9 0 0 & b w.8.8.e.e.e.8.8.8.e.8.e.8.8.e.8.e.8.8.e.e.e.8.e.e.3.e.8.r.r.A 8 7 0 0 0 0 0 0 0 0 0 0 0 0 0 0 0 0 0 0 0 0 0 0 0 0 0 0 0 0 0 0 0 0 0 0 0 0 0 0 0 0 0 0 0 0 0 0 0 0 0 0 0 0 0 0 0 0 0 0 0 0 0 0 0 0 0 0 0 0 0 0 0 0 0 0 0 0 0 0 0 0 0 0 0 0 0 0 0 0 0 0 0 0 0 0 0 0 0 0 0 0 0 0 0 0 0 0 0 0 0 0 0 0 0 0 0 0 0 0 0 0 0 0 0 0 0 0 0 0 0 0 0 0 0 0 0 0 0 0 0 0 0 0 0 0 0 0 0 0 0 0 0 0 0 0 0 0 0 0 0 0 0 0 0 0 0 0 0 0 0 0 0 0 0 0 0 0 0 0 0 0 0 0 0 0 0 0 0 0 0 0 0 0 0 0 0 0 0 0 0 0 0 0 0 0 0 0 0 0 0 0 0 0 0 0 0 0 0 0 0 0 0 0 0 0 0 0 0 0 0 0 0 0 0 0 0 0 0 0 0 0 0 0 0 0 0 0 0 0 0 0 0 0 0 0 0 0 0 0 0 0 0 0 0 0 0 0 0 0 0 0 0 0 0 0 0 0 0 0 0 0 0 0 0 0 0 0 0 0 0 0 0 0 0 0 0 0 0 0 0 0 0 0 0 0 o S i.r.8.8.e.r.e.e.e.e.e.e.e.e.e.e.e.e.e.e.e.e.e.e.e.e.e.e.e.e.3X3X$X$X$X$X#X#X$X$X$X$X$X$X$X$X$X$X$X$X$X$X$X$X#X$X#XA.$X3XH., 0 0 0 0 0 0 0 0 0 0 0 0 0 0 0 0 0 0 0 0 0 0 0 0 0 0 = 0 = b r.q.8.8.e.e.e.e.8.8.e.e.e.e.e.e.8.8.e.e.e.e.8.8.8.8.8.8.w.w.A & 0 0 0 0 0 0 0 0 0 0 0 0 0 0 0 0 0 0 0 0 0 0 0 0 0 0 0 0 0 0 0 0 0 0 0 0 0 0 0 0 0 0 0 0 0 0 0 0 0 0 0 0 0 0 0 0 0 0 0 0 ",
"0 0 0 0 0 0 0 0 0 0 0 0 0 0 0 0 0 0 0 0 0 0 0 0 0 0 9 0 0 & b w.8.8.e.e.e.e.8.8.e.e.8.8.e.8.e.e.e.e.e.e.8.8.8.8.3.e.8.r.r.A 8 7 0 0 0 0 0 0 0 0 0 0 0 0 0 0 0 0 0 0 0 0 0 0 0 0 0 0 0 0 0 0 0 0 0 0 0 0 0 0 0 0 0 0 0 0 0 0 0 0 0 0 0 0 0 0 0 0 0 0 0 0 0 0 0 0 0 0 0 0 0 0 0 0 0 0 0 0 0 0 0 0 0 0 0 0 0 0 0 0 0 0 0 0 0 0 0 0 0 0 0 0 0 0 0 0 0 0 0 0 0 0 0 0 0 0 0 0 0 0 0 0 0 0 0 0 0 0 0 0 0 0 0 0 0 0 0 0 0 0 0 0 0 0 0 0 0 0 0 0 0 0 0 0 0 0 0 0 0 0 0 0 0 0 0 0 0 0 0 0 0 0 0 0 0 0 0 0 0 0 0 0 0 0 0 0 0 0 0 0 0 0 0 0 0 0 0 0 0 0 0 0 0 0 0 0 0 0 0 0 0 0 0 0 0 0 0 0 0 0 0 0 0 0 0 0 0 0 0 0 0 0 0 0 0 0 0 0 0 0 0 0 0 0 0 0 0 0 0 0 0 0 0 0 0 0 0 0 0 0 0 0 0 0 0 0 0 0 0 0 0 0 0 0 0 0 0 0 0 0 0 0 0 0 0 0 0 0 0 0 0 0 0 0 0 0 0 0 0 0 0 0 0 0 0 0 o S i.r.8.8.w.r.e.e.e.e.e.e.e.e.e.e.e.e.e.e.e.e.e.e.e.e.e.e.e.e.%X3X$X$X$X$X#X#X$X$X$X$X$X$X$X$X$X$X$X$X$X$X$X$X#X$X#XA.$X3XH., 0 0 0 0 0 0 0 0 0 0 0 0 0 0 0 0 0 0 0 0 0 0 0 0 0 0 = 0 = b r.q.8.e.e.e.8.8.8.8.8.8.8.8.e.8.8.8.e.8.e.e.8.8.8.8.8.8.e.r.A & 0 0 0 0 0 0 0 0 0 0 0 0 0 0 0 0 0 0 0 0 0 0 0 0 0 0 0 0 0 0 0 0 0 0 0 0 0 0 0 0 0 0 0 0 0 0 0 0 0 0 0 0 0 0 0 0 0 0 0 0 ",
"0 0 0 0 0 0 0 0 0 0 0 0 0 0 0 0 0 0 0 0 0 0 0 0 0 0 9 0 0 & b w.8.8.e.e.e.e.8.8.e.e.8.8.8.8.e.e.e.e.e.e.8.8.8.8.3.e.8.r.r.A 8 7 0 0 0 0 0 0 0 0 0 0 0 0 0 0 0 0 0 0 0 0 0 0 0 0 0 0 0 0 0 0 0 0 0 0 0 0 0 0 0 0 0 0 0 0 0 0 0 0 0 0 0 0 0 0 0 0 0 0 0 0 0 0 0 0 0 0 0 0 0 0 0 0 0 0 0 0 0 0 0 0 0 0 0 0 0 0 0 0 0 0 0 0 0 0 0 0 0 0 0 0 0 0 0 0 0 0 0 0 0 0 0 0 0 0 0 0 0 0 0 0 0 0 0 0 0 0 0 0 0 0 0 0 0 0 0 0 0 0 0 0 0 0 0 0 0 0 0 0 0 0 0 0 0 0 0 0 0 0 0 0 0 0 0 0 0 0 0 0 0 0 0 0 0 0 0 0 0 0 0 0 0 0 0 0 0 0 0 0 0 0 0 0 0 0 0 0 0 0 0 0 0 0 0 0 0 0 0 0 0 0 0 0 0 0 0 0 0 0 0 0 0 0 0 0 0 0 0 0 0 0 0 0 0 0 0 0 0 0 0 0 0 0 0 0 0 0 0 0 0 0 0 0 0 0 0 0 0 0 0 0 0 0 0 0 0 0 0 0 0 0 0 0 0 0 0 0 0 0 0 0 0 0 0 0 0 0 0 0 0 0 0 0 0 0 0 0 0 0 0 0 0 0 0 0 o S i.r.8.8.w.r.e.e.e.e.e.e.e.e.e.e.e.e.e.e.e.e.e.e.e.e.e.e.e.e.3X3X$X$X$X$X#X#X$X$X$X$X$X$X$X$X$X$X$X$X$X$X$X$X#X$X#XA.$X3X1X, 0 0 0 0 0 0 0 0 0 0 0 0 0 0 0 0 0 0 0 0 0 0 0 0 0 0 = 0 = b r.q.8.8.e.e.8.8.8.8.8.8.8.8.e.8.8.8.8.8.e.e.e.8.e.e.8.8.e.r.A & 0 0 0 0 0 0 0 0 0 0 0 0 0 0 0 0 0 0 0 0 0 0 0 0 0 0 0 0 0 0 0 0 0 0 0 0 0 0 0 0 0 0 0 0 0 0 0 0 0 0 0 0 0 0 0 0 0 0 0 0 ",
"0 0 0 0 0 0 0 0 0 0 0 0 0 0 0 0 0 0 0 0 0 0 0 0 0 0 9 0 0 8 b w.8.8.8.e.e.e.e.8.e.8.8.8.8.e.8.e.e.8.e.e.e.e.8.8.3.e.8.r.r.A 8 7 0 0 0 0 0 0 0 0 0 0 0 0 0 0 0 0 0 0 0 0 0 0 0 0 0 0 0 0 0 0 0 0 0 0 0 0 0 0 0 0 0 0 0 0 0 0 0 0 0 0 0 0 0 0 0 0 0 0 0 0 0 0 0 0 0 0 0 0 0 0 0 0 0 0 0 0 0 0 0 0 0 0 0 0 0 0 0 0 0 0 0 0 0 0 0 0 0 0 0 0 0 0 0 0 0 0 0 0 0 0 0 0 0 0 0 0 0 0 0 0 0 0 0 0 0 0 0 0 0 0 0 0 0 0 0 0 0 0 0 0 0 0 0 0 0 0 0 0 0 0 0 0 0 0 0 0 0 0 0 0 0 0 0 0 0 0 0 0 0 0 0 0 0 0 0 0 0 0 0 0 0 0 0 0 0 0 0 0 0 0 0 0 0 0 0 0 0 0 0 0 0 0 0 0 0 0 0 0 0 0 0 0 0 0 0 0 0 0 0 0 0 0 0 0 0 0 0 0 0 0 0 0 0 0 0 0 0 0 0 0 0 0 0 0 0 0 0 0 0 0 0 0 0 0 0 0 0 0 0 0 0 0 0 0 0 0 0 0 0 0 0 0 0 0 0 0 0 0 0 0 0 0 0 0 0 0 0 0 0 0 0 0 0 0 0 0 0 0 0 0 0 0 0 0 o S i.r.e.e.e.w.e.e.e.e.e.e.e.e.e.e.e.e.e.e.e.e.e.e.e.e.e.e.e.e.3X3X$X$X$X#X#X#X$X$X$X$X$X$X$X$X$X$X$X$X$X$X$X$X$X$X#XA.$X#XH., 0 0 0 0 0 0 0 0 0 0 0 0 0 0 0 0 0 0 0 0 0 0 0 0 0 0 = 0 & b r.q.8.8.8.8.8.e.e.e.e.8.8.8.8.8.8.8.8.8.8.8.e.8.e.e.8.e.e.i.A & 0 0 0 0 0 0 0 0 0 0 0 0 0 0 0 0 0 0 0 0 0 0 0 0 0 0 0 0 0 0 0 0 0 0 0 0 0 0 0 0 0 0 0 0 0 0 0 0 0 0 0 0 0 0 0 0 0 0 0 0 ",
"0 0 0 0 0 0 0 0 0 0 0 0 0 0 0 0 0 0 0 0 0 0 0 0 0 0 9 0 0 & j w.8.8.e.e.e.e.8.8.e.e.8.8.8.e.8.8.8.8.8.8.e.e.8.8.3.e.8.r.r.A 8 7 0 0 0 0 0 0 0 0 0 0 0 0 0 0 0 0 0 0 0 0 0 0 0 0 0 0 0 0 0 0 0 0 0 0 0 0 0 0 0 0 0 0 0 0 0 0 0 0 0 0 0 0 0 0 0 0 0 0 0 0 0 0 0 0 0 0 0 0 0 0 0 0 0 0 0 0 0 0 0 0 0 0 0 0 0 0 0 0 0 0 0 0 0 0 0 0 0 0 0 0 0 0 0 0 0 0 0 0 0 0 0 0 0 0 0 0 0 0 0 0 0 0 0 0 0 0 0 0 0 0 0 0 0 0 0 0 0 0 0 0 0 0 0 0 0 0 0 0 0 0 0 0 0 0 0 0 0 0 0 0 0 0 0 0 0 0 0 0 0 0 0 0 0 0 0 0 0 0 0 0 0 0 0 0 0 0 0 0 0 0 0 0 0 0 0 0 0 0 0 0 0 0 0 0 0 0 0 0 0 0 0 0 0 0 0 0 0 0 0 0 0 0 0 0 0 0 0 0 0 0 0 0 0 0 0 0 0 0 0 0 0 0 0 0 0 0 0 0 0 0 0 0 0 0 0 0 0 0 0 0 0 0 0 0 0 0 0 0 0 0 0 0 0 0 0 0 0 0 0 0 0 0 0 0 0 0 0 0 0 0 0 0 0 0 0 0 0 0 0 0 0 0 0 0 o S i.r.e.e.e.w.e.e.e.e.e.e.e.e.e.e.e.e.e.e.e.e.e.e.e.e.e.e.e.e.3X3X$X$X$X#X#X#X$X$X$X$X$X$X$X$X$X$X$X$X$X$X$X$X$X$X#XA.$X3XH., 0 0 0 0 0 0 0 0 0 0 0 0 0 0 0 0 0 0 0 0 0 0 0 0 0 0 = 0 & b r.q.8.8.8.8.8.e.e.e.e.e.8.8.8.8.8.8.8.8.8.8.e.e.e.e.8.8.e.i.A & 0 0 0 0 0 0 0 0 0 0 0 0 0 0 0 0 0 0 0 0 0 0 0 0 0 0 0 0 0 0 0 0 0 0 0 0 0 0 0 0 0 0 0 0 0 0 0 0 0 0 0 0 0 0 0 0 0 0 0 0 ",
"0 0 0 0 0 0 0 0 0 0 0 0 0 0 0 0 0 0 0 0 0 0 0 0 0 0 9 0 0 8 b w.e.e.e.e.e.e.e.e.8.8.8.8.e.e.8.8.8.8.8.8.e.e.e.e.3.e.8.r.r.A 8 7 0 0 0 0 0 0 0 0 0 0 0 0 0 0 0 0 0 0 0 0 0 0 0 0 0 0 0 0 0 0 0 0 0 0 0 0 0 0 0 0 0 0 0 0 0 0 0 0 0 0 0 0 0 0 0 0 0 0 0 0 0 0 0 0 0 0 0 0 0 0 0 0 0 0 0 0 0 0 0 0 0 0 0 0 0 0 0 0 0 0 0 0 0 0 0 0 0 0 0 0 0 0 0 0 0 0 0 0 0 0 0 0 0 0 0 0 0 0 0 0 0 0 0 0 0 0 0 0 0 0 0 0 0 0 0 0 0 0 0 0 0 0 0 0 0 0 0 0 0 0 0 0 0 0 0 0 0 0 0 0 0 0 0 0 0 0 0 0 0 0 0 0 0 0 0 0 0 0 0 0 0 0 0 0 0 0 0 0 0 0 0 0 0 0 0 0 0 0 0 0 0 0 0 0 0 0 0 0 0 0 0 0 0 0 0 0 0 0 0 0 0 0 0 0 0 0 0 0 0 0 0 0 0 0 0 0 0 0 0 0 0 0 0 0 0 0 0 0 0 0 0 0 0 0 0 0 0 0 0 0 0 0 0 0 0 0 0 0 0 0 0 0 0 0 0 0 0 0 0 0 0 0 0 0 0 0 0 0 0 0 0 0 0 0 0 0 0 0 0 0 0 0 0 0 o S i.r.e.e.w.w.e.e.e.e.e.e.e.e.e.e.e.e.e.e.e.e.e.e.e.e.e.e.e.e.3X3X$X$X$X$X#X#X$X$X$X$X$X$X$X$X$X$X$X$X$X$X$X$X$X$X$XA.$X3XH., 0 0 0 0 0 0 0 0 0 0 0 0 0 0 0 0 0 0 0 0 0 0 0 0 0 0 = 0 & b r.q.8.e.8.8.e.e.e.e.e.e.e.e.8.e.8.8.e.e.8.e.e.e.8.8.8.8.e.i.A & 0 0 0 0 0 0 0 0 0 0 0 0 0 0 0 0 0 0 0 0 0 0 0 0 0 0 0 0 0 0 0 0 0 0 0 0 0 0 0 0 0 0 0 0 0 0 0 0 0 0 0 0 0 0 0 0 0 0 0 0 ",
"0 0 0 0 0 0 0 0 0 0 0 0 0 0 0 0 0 0 0 0 0 0 0 0 0 0 9 0 0 8 b w.e.e.e.e.e.e.e.e.e.8.8.8.8.8.8.8.8.8.8.8.e.e.e.e.3.e.8.r.r.A 8 7 0 0 0 0 0 0 0 0 0 0 0 0 0 0 0 0 0 0 0 0 0 0 0 0 0 0 0 0 0 0 0 0 0 0 0 0 0 0 0 0 0 0 0 0 0 0 0 0 0 0 0 0 0 0 0 0 0 0 0 0 0 0 0 0 0 0 0 0 0 0 0 0 0 0 0 0 0 0 0 0 0 0 0 0 0 0 0 0 0 0 0 0 0 0 0 0 0 0 0 0 0 0 0 0 0 0 0 0 0 0 0 0 0 0 0 0 0 0 0 0 0 0 0 0 0 0 0 0 0 0 0 0 0 0 0 0 0 0 0 0 0 0 0 0 0 0 0 0 0 0 0 0 0 0 0 0 0 0 0 0 0 0 0 0 0 0 0 0 0 0 0 0 0 0 0 0 0 0 0 0 0 0 0 0 0 0 0 0 0 0 0 0 0 0 0 0 0 0 0 0 0 0 0 0 0 0 0 0 0 0 0 0 0 0 0 0 0 0 0 0 0 0 0 0 0 0 0 0 0 0 0 0 0 0 0 0 0 0 0 0 0 0 0 0 0 0 0 0 0 0 0 0 0 0 0 0 0 0 0 0 0 0 0 0 0 0 0 0 0 0 0 0 0 0 0 0 0 0 0 0 0 0 0 0 0 0 0 0 0 0 0 0 0 0 0 0 0 0 0 0 0 0 0 0 o S i.r.e.e.w.r.e.e.e.e.e.e.e.e.e.e.e.e.e.e.e.e.e.e.e.e.e.e.e.e.3X3X$X$X$X$X#X#X$X$X$X$X$X$X$X$X$X$X$X$X$X$X$X$X$X$X#XA.$X#XH., 0 0 0 0 0 0 0 0 0 0 0 0 0 0 0 0 0 0 0 0 0 0 0 0 0 0 = 0 & b r.q.e.e.8.8.e.e.e.e.e.e.e.e.e.e.8.8.e.e.e.e.e.e.8.8.8.8.e.i.A & 0 0 0 0 0 0 0 0 0 0 0 0 0 0 0 0 0 0 0 0 0 0 0 0 0 0 0 0 0 0 0 0 0 0 0 0 0 0 0 0 0 0 0 0 0 0 0 0 0 0 0 0 0 0 0 0 0 0 0 0 ",
"9 9 9 9 9 9 9 9 9 9 9 9 9 9 9 9 9 9 9 9 9 9 9 9 8 % & 8 & & m 7.0.0.0.0.0.0.0.0.0.0.0.0.0.0.0.0.0.0.0.0.0.0.0.0.0.8.:.:.r.A % t 0 0 0 0 0 0 0 0 0 0 0 0 0 0 0 0 0 0 0 0 0 0 0 0 & - s - 0 0 0 0 0 0 0 0 0 0 0 0 9 9 9 9 9 9 9 9 9 9 9 9 9 9 9 9 o a d s a s 0 = & & & & & & & & & & & & & & & & & & & & & & & & O s X 0 9 0 9 0 0 0 0 0 0 0 0 0 0 0 0 0 0 0 0 0 0 0 0 0 0 0 0 0 * v - * s & & 8 & & & & & & & & & & & & & & & & = = & & & & * * 0 0 0 0 0 0 0 0 0 0 0 0 0 0 0 0 0 0 0 0 0 0 0 0 * 9 0 0 8 & 8 8 8 8 8 8 8 8 8 8 0 0 0 0 0 0 0 0 0 0 0 0 0 0 0 0 % f s s s * * * 0 0 0 0 0 0 0 0 0 0 0 0 0 0 0 0 0 0 0 0 0 0 0 0 = 0 0 0 & 8 0 8 0 0 0 0 0 0 0 0 9 9 9 9 9 9 9 9 0 0 0 0 0 0 0 0 * 0 9 * t 9 * t = = = = = = = = = = = = = = = = 0 0 0 0 0 0 0 0 u } e.9.r.l.e.:.e.e.e.e.e.e.e.e.e.e.e.e.e.e.e.e.e.e.e.e.e.e.e.e.Z.Z.Z.Z.Z.Z.Z.Z.#X#X#X#X#X#X#X#X#X#X#X#X#X#X#X#X5XZ.3X5X3X6Xn.# 8 8 = = = & = & & & & & & & & & & & & & & & & & 0 0 - o h C 2.p.e.e.e.e.e.e.e.e.e.e.e.e.e.e.e.e.e.e.e.e.e.e.e.e.8.e.e.w.Z & 0 0 0 0 0 0 0 0 0 0 0 0 0 0 0 0 0 0 0 0 0 0 0 0 0 0 t z * z 0 s s & & & & & & & & & & & & & & & & & & & & & & & & & & & ",
"x x x x x x x x x g g g x x x x x x x x x x x x b j j j g g A w.r.r.r.r.r.r.r.r.q.r.r.r.r.r.q.q.r.q.q.q.r.r.r.r.r.r.q.q.p.S X 9 0 0 0 0 0 0 0 0 0 0 0 0 0 0 0 0 0 0 0 0 0 0 0 0 s & s - x b b d g g g g g g g g x x x x x x x x g g g g g g g g h b b g a s s s d d g g g g g g g g g g g g g g d d g g g g g g j V & 0 7 0 9 0 0 0 0 0 0 0 0 0 0 0 0 0 0 0 0 0 0 0 0 0 0 0 0 0 & x f s x s d g g g g g g g g g g g g g g g g g x g g g g g f v f f s s s s f s s s s s s s s s s s f f s s s s 0 s f f s s s g d d d d d d d d f s s s s s s s d d d d d d d d s g d x x & * 9 0 0 0 0 0 0 0 0 0 0 0 0 0 0 0 0 0 0 0 0 0 0 0 0 v 0 = s x b x d g g g g g g g g x x g g x x x x g g x x g g g g f m t * u y u c u u u u u u u u u u u u u u u u u u u u u u u u u ..e.9.r.g.e.:.e.e.e.e.e.e.e.e.e.e.e.e.e.e.e.e.e.e.e.e.e.e.e.e.Z.Z.Z.Z.Z.Z.Z.Z.Z.Z.Z.Z.C.C.C.C.+X+XZ.Z.C.C.C.C.Z.m.B.B.m.Z.m.%.d d d d d d d d g g g g g g g g d d g g g g g g x z s d j C =.0.e.e.e.e.e.e.e.e.e.e.e.e.e.e.e.e.e.e.e.e.e.e.e.e.8.e.e.w.Z & 0 0 0 0 0 0 0 0 0 0 0 0 0 0 0 0 0 0 0 0 0 0 0 0 0 0 7 0 X z s x g d d d g g g g g g g g g g g g g g d d g g g g g g g g ",
"7X7X7X7X7X7X7X7X7X7X7X7X7X7X7X7X7X7X7X7X7X7X7X7X7X7X3XJ.Z.Z.6XaX#X#X#X#X+X+X#X+X#X#X#X#X#X+X+X+X#X#X#X+X#X#X#X#XoX#X#XC.#X5.& t 0 0 0 0 0 0 0 0 0 0 0 0 0 0 0 0 0 0 0 0 0 0 0 0 0 * 0 s s.H.7XH.4X4X4X4X4X4X4X4X7X7X7X7X7X7X7X7X3X3X3X3X3X3X3X3XB.oXB.z.w.w.w.6.f.f.f.f.f.f.f.f.f.f.f.f.f.f.f.f.f.f.f.f.f.f.f.f.5.1.8 0 7 0 0 0 0 0 0 0 0 0 0 0 0 0 0 0 0 0 0 0 0 0 0 0 0 0 0 0 Z l.f.6.w.w.e.w.f.f.f.f.f.f.f.f.f.f.f.f.f.f.f.f.h.g.r.e.e.w.w.f.S S S S S S S S S S S S S S S S S S S S S S S S D } ..>.S #.*.2.e.e.e.e.e.e.e.e.6.6.6.6.6.6.6.6.w.w.w.w.w.w.w.w.5.3.5.5.5.s 0 q 0 0 0 0 0 0 0 0 0 0 0 0 0 0 0 0 0 0 0 0 0 0 0 0 0 = = n x.H.H.H.9X9X9X9X9X9X9X9X7X7X7X7X7X7X7X7X7X7X7X7X7X7X7X7XoX2Xd.' T T _ _ Y Y Y Y Y Y Y Y Y Y Y Y Y Y Y Y R R R R R R R R y ..e.8.e.g.e.:.8.8.8.8.e.e.8.8.8.8.8.8.8.8.e.e.8.e.8.8.e.8.8.8.r.r.r.r.r.r.r.r.q.q.q.q.q.q.q.q.q.q.q.q.q.q.q.q.r.w.t.r.8.t.r.$.w.w.f.f.w.w.w.w.f.f.f.f.f.f.f.f.f.f.f.f.f.f.f.f.6.5.5.3.0.e.q.p.e.e.e.e.e.e.e.e.e.e.e.e.e.e.e.e.e.e.e.e.e.e.e.e.8.e.e.w.Z & 0 0 0 0 0 0 0 0 0 0 0 0 0 0 0 0 0 0 0 0 0 0 0 0 0 0 0 s 8 } 1.5.5.3.f.f.f.f.f.f.f.f.f.f.f.f.f.f.f.f.f.f.f.f.f.f.f.f.f.f.",
"3X3X3X3X3X3X3X3X3X3X3X3X3X3X3X3X3X3X3X3X3X3X3X3XJ.4X4XZ.Z.$X$X#X4X4X4X4X4X4X4X4X4X4X4X4X4X4X4X4X4X4X4X4X4X4X4X4XoX#X$X#X%X5.& 9 0 0 0 0 0 0 0 0 0 0 0 0 0 0 0 0 0 0 0 0 0 0 0 0 t 0 0 : g.0XaXaXA.A.A.A.A.A.A.A.3X3X3X3X3X3X3X3XA.A.A.A.A.A.A.A.+X#XB.r.8.8.8.0.0.0.0.0.0.0.0.0.0.0.0.0.0.0.0.0.0.0.0.0.0.0.0.0.l.5.s 8 7 0 0 = 0 0 0 0 0 0 0 0 0 0 0 0 0 0 0 0 0 0 0 0 0 0 0 0 g e.r.3.0.0.8.8.0.0.0.0.0.0.0.0.0.0.0.0.0.0.0.0.t.t.w.0.0.0.8.5.1.1.1.1.1.1.1.1.1.1.1.1.1.1.1.1.1.1.1.1.1.1.1.1.1.1.5.1.*.*.2.8.8.8.8.8.8.8.8.8.0.0.0.0.0.0.0.0.8.8.8.8.8.8.8.8.p.r.e.r.w.h & 8 0 0 0 0 0 0 0 0 0 0 0 0 0 0 0 0 0 0 0 0 0 0 0 0 t 0 0 Z H.0X9X4XJ.J.J.J.J.J.J.J.3X3X3X#X#X3X3X3XJ.J.3X3X3XJ.J.J.4X0Xx.{ T Q R R W W W W W W W W W W W W W W W W R R R R R R R U y X.e.8.8.r.0.:.8.8.e.e.e.e.8.8.8.8.8.8.8.8.8.8.8.8.8.8.8.8.8.8.0.0.0.0.0.0.8.8.0.0.0.0.0.0.0.0.0.0.0.0.0.0.0.0.r.8.9.9.8.9.r.r.e.e.e.e.e.e.e.e.0.0.0.0.0.0.0.0.0.0.0.0.0.0.0.0.z.p.p.p.p.p.a.q.e.e.e.e.e.e.e.e.e.e.e.e.e.e.e.e.e.e.e.e.e.e.e.e.8.e.e.w.Z & 0 0 0 0 0 0 0 0 0 0 0 0 0 0 0 0 0 0 0 0 0 0 0 0 0 0 8 8 : 5.w.e.e.p.0.0.0.0.0.0.0.0.0.0.0.0.0.0.0.0.0.0.0.0.0.0.0.0.0.0.",
"#X#X%X%X%X%X#X#X%X#X#X#X%X%X%X#X#X#X%X%X%X%X#X#XB.3X%X+X+X%X%XOXZ.Z.Z.Z.C.Z.Z.Z.Z.Z.Z.Z.Z.Z.Z.Z.Z.Z.Z.Z.Z.Z.Z.Z.B.#X#X#X3X3.* 9 0 0 0 0 0 0 0 0 0 0 0 0 0 0 0 0 0 0 0 0 0 0 0 0 t 0 0 O w.7XJ.J.#X#X#X#X#X#X#X#X#X#X%X%X%X%X#X#X#X#X#X#X#X#X#X#X%X$X+Xv.q.r.p.p.r.r.r.r.r.r.r.r.r.r.r.r.r.r.r.r.r.r.r.r.r.r.r.r.r.5.a 8 8 0 & * 0 0 0 0 0 0 0 0 0 0 0 0 0 0 0 0 0 0 0 0 0 0 0 0 h p.z.r.p.p.p.r.r.r.r.r.r.r.r.r.r.r.r.r.r.r.r.r.r.r.q.9.q.e.8.e.A A A A A A A A A A A A A A S A A A A A A A S A A #.$.#.%.#.=.8.q.q.q.q.q.q.q.q.r.r.r.r.r.e.r.e.r.r.r.r.r.r.r.r.;.=.8.t.w.a o 7 0 0 0 0 0 0 0 0 0 0 0 0 0 0 0 0 0 0 0 0 0 0 0 0 0 = s b H.Z.S.S.#X#X#X#X$X$X$X#X#X%X%X%X%X#X%X%X#X#X#X#X#X#X#X#Xb.3Xs.' E ) ^ R R R R R R R R R R R R R R R R R W W W W W W W W i X.e.8.8.w.0.:.8.8.8.8.8.8.8.8.8.8.8.8.8.8.8.8.8.8.0.0.8.8.8.8.e.e.e.e.e.e.e.e.8.8.e.e.e.e.e.e.8.8.8.8.e.e.e.e.r.w.w.8.w.8.r.r.r.r.r.r.r.p.p.p.r.r.r.r.r.r.r.r.r.r.r.r.r.r.r.r.e.e.e.8.8.8.8.8.e.e.e.e.e.e.e.e.e.e.e.e.e.e.e.e.e.e.e.e.e.e.e.e.8.e.e.w.Z & 0 0 0 0 0 0 0 0 0 0 0 0 0 0 0 0 0 0 0 0 0 0 0 0 0 0 & o o 1.r.e.8.q.r.r.r.r.r.r.r.r.r.r.r.r.r.r.r.r.r.r.r.r.r.r.r.r.r.r.",
"%X%X%X%X%X%X%X%X%X%X%X%X%X%X%X%X%X%X%X%X%X%X%X%XB.#X%X+X#X%X%XOX#X#X#X#X#X#X#X#X#X#X#X#X#X#X#X#X#X#X#X#X#X#X#X#XZ.#X$X$X4Xw.& 0 0 0 0 0 0 0 0 0 0 0 0 0 0 0 0 0 0 0 0 0 0 0 0 0 * 0 0 O f.9X9XaX%X%X%X%X%X%X%X%X%X%X%X%X%X%X%X%X%X%X%X%X%X%X#X#X+X+XM.r.8.8.r.r.8.8.8.8.8.8.8.8.8.8.8.8.8.8.8.8.8.8.8.8.8.8.8.8.e.2.a 8 8 0 & - 0 0 0 0 0 0 0 0 0 0 0 0 0 0 0 0 0 0 0 0 0 0 0 0 h e.z.8.q.q.q.q.8.8.8.8.8.8.8.8.8.8.8.8.8.8.8.8.t.w.8.:.;.8.8.8.#.#.#.#.#.#.#.#.#.#.#.#.#.#.#.#.#.#.#.#.#.#.#.#.#.#.$.#.#.$.8.8.;.;.;.;.;.;.;.;.8.8.8.8.8.2.8.2.8.8.8.8.8.8.8.8.8.8.8.w.g.a 8 7 0 0 0 0 0 0 0 0 0 0 0 0 0 0 0 0 0 0 0 0 0 0 0 0 = - s b 5X4X$XaX%X%X%X%X%X%X%X%X%X%X%X%X%X%X%X%X%X%X%X%X%X%X%X%XS.8Xx.{ R ) R Y R R R R E E / / R R R R R R R / E E E E E E E E i 7.e.8.8.w.0.:.8.8.8.8.8.8.8.8.8.8.8.8.8.8.8.8.8.8.0.0.8.8.8.8.0.0.0.0.0.0.8.8.8.8.8.8.8.8.8.8.8.8.8.8.8.8.8.8.e.8.8.8.8.8.8.8.8.8.8.8.8.8.8.8.8.8.8.8.8.8.8.8.8.8.8.8.8.8.8.8.r.e.e.e.e.e.r.p.e.e.e.e.e.e.e.e.e.e.e.e.e.e.e.e.e.e.e.e.e.e.e.e.8.e.e.w.Z & 0 0 0 0 0 0 0 0 0 0 0 0 0 0 0 0 0 0 0 0 0 0 0 0 0 0 s = & 5.l.p.e.p.8.8.8.8.8.8.8.8.8.8.8.8.8.8.8.8.8.8.8.8.8.8.8.8.8.8.",
"#X#X#X#X#X#X#X#X#X#X#X#X#X#X#X#X#X#X#X#X#X#X#X#X3X4X6X4X4X$X$X$X+X+X+X+X+X+X+X+X+X+X+X+X+X+X+X+X+X+X+X+X+X+X+X+XB.Z.Z.C.Z.2.- * 0 0 0 0 0 0 0 0 0 0 0 0 0 0 0 0 0 0 0 0 0 0 0 0 9 v 0 O f.7XZ.Z.+X+X+X+X+X+X+X+X#X#X#X#X#X#X#X#X#X#X#X#X#X#X#X#X+X#XM.p.8.8.8.0.r.r.r.r.r.r.r.r.r.r.r.r.r.r.r.r.r.r.r.r.r.r.r.r.e.3.a 8 X 8 & & 0 0 0 0 0 0 0 0 0 0 0 0 0 0 0 0 0 0 0 0 0 0 0 0 C z.z.e.p.p.p.r.r.r.r.r.r.r.r.r.r.r.r.r.r.r.r.r.r.r.r.q.e.e.e.w.S S S S S S S S S S S S S S S S S S S S S S S S S S S A A #.2.8.8.8.8.8.8.8.8.8.w.w.w.w.w.w.w.w.e.e.e.e.e.e.e.e.e.8.e.2.6.& 7 7 0 0 0 0 0 0 0 0 0 0 0 0 0 0 0 0 0 0 0 0 0 0 0 0 0 = s j 8XZ.M.C.#X#X#X#X#X#X#X#X#X#X#X#X#X#X#X#X#X#XZ.#XZ.Z.#X#XC.1Xd.E R ^ E T R R R R / R R R R R R R R R R R R R R R R R R R ' 7.e.8.8.w.0.:.0.0.0.0.0.0.0.0.0.0.0.0.0.0.0.0.0.0.0.0.0.0.0.0.r.r.r.r.r.r.r.r.r.r.r.r.r.r.q.q.r.r.r.r.r.q.r.r.r.n.p.r.r.r.e.r.r.r.r.r.r.r.r.r.r.r.r.r.r.r.r.r.r.r.r.r.r.r.r.r.8.8.8.w.e.e.e.w.e.e.e.e.e.e.e.e.e.e.e.e.e.e.e.e.e.e.e.e.e.e.e.e.8.q.e.w.Z & 0 0 0 0 0 0 0 0 0 0 0 0 0 0 0 0 0 0 0 0 0 0 0 0 0 0 0 = & 1.6.i.0.0.r.r.r.r.r.r.r.r.r.r.r.r.r.r.r.r.r.r.r.r.r.r.r.r.r.r.",
"A.A.A.A.A.A.A.A.A.A.A.A.A.A.A.A.A.A.A.A.A.A.A.A.J.4XaX4XA.A.A.A.#X#X#X#X#X#X#X#X#X#X#X#X#X#X#X#X#X#X#X#X#X#X#X#X6X6X$X#X#X2.& 0 0 0 0 0 0 0 0 0 0 0 0 0 0 0 0 0 0 0 0 0 0 0 0 0 * 0 & O l.0X3X#X#XZ.#X#X#X#X#X#XA.A.A.A.A.A.A.A.A.A.A.A.A.A.A.A.%X3X#Xn.r.e.w.8.e.e.e.e.e.e.e.e.e.e.e.e.e.e.e.e.e.e.e.e.e.e.e.e.p.w.h 8 X 8 8 s 0 0 0 0 0 0 0 0 0 0 0 0 0 0 0 0 0 0 0 0 0 0 0 0 j w.e.3.0.0.0.0.e.e.e.e.e.e.e.e.e.e.e.e.e.e.e.e.w.e.8.0.0.0.3.6.1.1...........................1...............1.} } } S #.$.5.r.8.8.e.e.e.e.8.8.e.e.e.e.e.e.e.e.e.e.e.e.e.e.e.e.e.w.g.5.s.0 q q 0 0 0 0 0 0 0 0 0 0 0 0 0 0 0 0 0 0 0 0 0 0 0 0 0 & : j 0X%X+X@XZ.Z.Z.Z.#X#X#X#XA.A.A.A.A.A.A.A.A.A.A.A.A.A.A.A.4X8XG.R U R Y T ^ ^ ^ ( ^ ^ ^ ^ ^ ^ ^ ^ ^ ^ ^ ^ ( ( ( ( ( ( ( ) ' 7.e.;.8.w.0.:.0.0.0.0.0.0.0.0.0.0.0.0.0.0.0.0.0.0.0.0.0.0.8.0.r.r.r.r.r.r.r.r.r.r.r.r.q.q.q.q.r.r.r.q.q.r.r.r.8.p.r.w.8.8.8.e.r.r.r.r.r.r.r.r.e.e.e.e.e.e.e.e.e.e.e.e.e.e.e.e.0.e.e.r.i.w.6.6.e.e.e.e.e.e.e.e.e.e.e.e.e.e.e.e.e.e.e.e.e.e.e.e.8.e.e.w.Z & 0 0 0 0 0 0 0 0 0 0 0 0 0 0 0 0 0 0 0 0 0 0 0 0 0 0 t 0 - } 6.i.e.0.e.e.e.e.e.e.e.e.e.e.e.e.e.e.e.e.e.e.e.e.e.e.e.e.e.e.",
"#X#X#X#X#X#X#X#X#X#X#X#X#X#X#X#X#X#X#X#X#X#X#X#X$X$X$X$X$X$X$X$X#X#X$X$X$X$X$X$X$X$X$X$X$X$X$X$X$X$X$X$X$X$X$X$X+X#XC.$X6X2.& 9 0 0 0 0 0 0 0 0 0 0 0 0 0 0 0 0 0 0 0 0 0 0 0 0 0 0 9 o r.4XZ.+X#X#X#X#X#X#X#X#X#X#X#X#X#X#X#X#X#X#X#X#X#X#X#X#X%X+X3Xq.q.8.e.r.e.e.e.e.e.e.e.e.e.e.e.e.e.e.e.e.e.e.e.e.e.e.e.e.e.5.a 0 0 0 & & 0 0 0 0 0 0 0 0 0 0 0 0 0 0 0 0 0 0 0 0 0 0 8 8 C w.r.8.r.8.e.e.e.e.e.e.e.e.e.e.e.e.e.e.e.e.e.e.e.w.q.p.0.0.0.2.#.#.#.#.#.#.#.#.#.#.#.#.#.#.#.#.#.#.#.#.#.#.#.#.A 1.#.#.#.#.2.0.e.e.8.8.8.e.e.e.8.8.e.e.e.e.e.e.e.e.e.e.e.e.8.8.e.0.8.e.e.s = 9 0 0 0 0 0 0 0 0 0 0 0 0 0 0 0 0 0 0 0 0 0 0 0 0 0 0 s j %XOX$XJ.#X#X#X#X#X#X#X#X#X#X#X#X#X#X#X#X$X$X$X$X$X$X$X$X$X3Xk.i W R R Q R R R R R R R R R R R R R R R R ^ ^ R E E R ^ ^ T X.8.9.8.w.0.8.e.e.e.8.8.8.e.e.8.e.e.e.8.8.8.8.8.8.e.e.e.e.e.8.e.e.e.r.r.r.e.e.e.r.e.e.r.r.e.e.e.e.e.e.e.e.e.e.e.e.e.e.e.e.e.e.e.e.e.e.e.e.e.e.e.e.e.e.e.e.e.e.e.e.e.e.e.e.e.e.e.e.e.e.e.e.e.e.e.e.e.e.e.e.e.e.e.e.e.e.e.e.e.e.e.e.e.e.e.e.e.e.8.e.e.f.A & & 0 0 0 0 0 0 0 0 0 0 0 0 0 0 0 0 0 0 0 0 0 0 0 0 0 & 8 o 1.6.e.8.e.e.e.e.e.e.e.e.e.e.e.e.e.e.e.e.e.e.e.e.e.e.e.e.e.e.e.",
"#X#X#X#X#X#X#X#X#X#X#X#X#X#X#X#X#X#X#X#X#X#X#X#X$X$X$X$X$X$X$X$X$X$X$X$X$X$X$X$X$X$X$X$X$X$X$X$X$X$X$X$X$X$X$X$X+X#XC.$X6X2.& 0 0 0 0 0 0 0 0 0 0 0 0 0 0 0 0 0 0 0 0 0 0 0 0 0 0 9 9 o r.4XZ.+X#X#X#X#X#X#X#X#X#X#X#X#X#X#X#X#X#X#X#X#X#X#X#X#X%X+X3Xq.q.8.e.r.e.e.e.e.e.e.e.e.e.e.e.e.e.e.e.e.e.e.e.e.e.e.e.e.e.5.a 0 0 0 0 & 0 0 0 0 0 0 0 0 0 0 0 0 0 0 0 0 0 0 0 0 0 0 8 8 C w.r.8.r.8.e.e.e.e.e.e.e.e.e.e.e.e.e.e.e.e.e.e.e.w.q.p.0.0.0.2.#.#.#.#.#.#.#.#.#.#.#.#.#.#.#.#.#.#.#.#.#.#.#.#.A 1.#.#.#.#.2.0.e.8.8.8.8.e.e.e.8.8.e.8.e.e.e.e.e.e.e.e.8.e.8.8.e.0.8.e.e.a * 9 0 0 0 0 0 0 0 0 0 0 0 0 0 0 0 0 0 0 0 0 0 0 0 0 0 0 s j %XOX$XJ.#X#X#X#X#X#X#X#X#X#X#X#X#X#X#X#X$X$X$X$X$X$X$X$X$X3Xk.i W R R Q R R R R R R R R R R R R R R R R ^ ^ R E E R ^ ^ T X.8.9.8.w.0.8.e.e.8.8.8.8.e.e.8.8.e.e.e.e.8.8.8.8.e.e.e.e.8.8.e.e.e.e.e.e.e.e.e.r.e.e.r.e.e.e.e.e.e.e.e.e.e.e.r.e.e.e.e.e.r.r.e.e.e.e.e.e.e.e.e.e.e.e.e.e.e.e.e.e.e.e.e.e.e.e.e.e.e.e.e.e.e.e.e.e.e.e.e.e.e.e.e.e.e.e.e.e.e.e.e.e.e.e.e.e.e.e.8.e.w.f.A & 8 0 0 0 0 0 0 0 0 0 0 0 0 0 0 0 0 0 0 0 0 0 0 0 0 0 & 8 o 1.6.e.8.e.e.e.e.e.e.e.e.e.e.e.e.e.e.e.e.e.e.e.e.e.e.e.e.e.e.e.",
"#X#X#X#X#X#X#X#X#X#X#X#X#X#X#X#X#X#X#X#X#X#X#X#X$X$X$X$X$X$X$X$X$X$X$X$X$X$X$X$X$X$X$X$X$X$X$X$X$X$X$X$X$X$X$X$X+X#XC.$X6X2.& 0 0 0 0 0 0 0 0 0 0 0 0 0 0 0 0 0 0 0 0 0 0 0 0 0 0 9 9 o r.4XZ.+X#X#X#X#X#X#X#X#X#X#X#X#X#X#X#X#X#X#X#X#X#X#X#X#X%X+X%Xq.q.8.e.r.e.e.e.e.e.e.e.e.e.e.e.e.e.e.e.e.e.e.e.e.e.e.e.e.e.5.a 0 = 0 = & 0 0 0 0 0 0 0 0 0 0 0 0 0 0 0 0 0 0 0 0 0 0 8 8 C w.r.8.r.e.e.e.e.e.e.e.e.e.e.e.e.e.e.e.e.e.e.e.e.w.q.p.0.0.0.2.#.#.#.#.#.#.#.#.#.#.#.#.#.#.#.#.#.#.#.#.#.#.#.#.A 1.S #.$.#.2.0.e.8.8.e.8.e.e.e.8.8.8.8.8.8.e.e.e.e.8.8.8.8.8.8.e.0.8.e.e.a & 9 0 0 0 0 0 0 0 0 0 0 0 0 0 0 0 0 0 0 0 0 0 0 0 0 0 0 s j %XM.$XJ.#X#X#X#X#X#X#X#X#X#X#X#X#X#X#X#X$X$X$X$X$X$X$X$X$X3Xk.i W R R R R R R R R R R R R R R R R R R R ^ ^ R E E R ^ ^ T X.8.9.8.w.0.8.e.e.e.e.8.8.8.e.8.8.e.8.e.e.e.e.8.e.e.e.8.8.8.8.e.e.e.e.e.e.e.e.e.e.e.e.e.e.e.e.e.r.e.e.e.e.r.r.r.e.e.e.e.e.e.e.e.e.e.e.e.e.e.e.e.e.e.e.e.e.e.e.e.e.e.e.e.e.e.e.e.e.e.e.e.e.e.e.e.e.e.e.e.e.e.e.e.e.e.e.e.e.e.e.e.e.e.e.e.e.e.e.8.e.e.i.A & 8 0 0 0 0 0 0 0 0 0 0 0 0 0 0 0 0 0 0 0 0 0 0 0 0 0 & 8 o 1.6.e.8.e.e.e.e.e.e.e.e.e.e.e.e.e.e.e.e.e.e.e.e.e.e.e.e.e.e.e.",
"#X#X#X#X#X#X#X#X#X#X#X#X#X#X#X#X#X#X#X#X#X#X#X#X$X$X$X$X$X$X$X$X$X$X$X$X$X$X$X$X$X$X$X$X$X$X$X$X$X$X$X$X$X$X$X$X+X#XC.$X6X2.& 0 0 0 0 0 0 0 0 0 0 0 0 0 0 0 0 0 0 0 0 0 0 0 0 0 0 9 9 o r.4XZ.+X#X#X#X#X#X#X#X#X#X#X#X#X#X#X#X#X#X#X#X#X#X#X#X#X%X+X%Xq.q.8.e.r.e.e.e.e.e.e.e.e.e.e.e.e.e.e.e.e.e.e.e.e.e.e.e.e.e.5.a 0 = 0 = & 0 0 0 0 0 0 0 0 0 0 0 0 0 0 0 0 0 0 0 0 0 0 8 8 C w.r.8.r.e.e.e.e.e.e.e.e.e.e.e.e.e.e.e.e.e.e.e.e.w.q.p.0.0.0.2.#.#.#.#.#.#.#.#.#.#.#.#.#.#.#.#.#.#.#.#.#.#.#.#.S 1.S #.#.#.2.3.q.e.8.8.e.e.e.e.8.8.8.8.8.8.8.e.e.8.8.8.8.8.8.8.e.0.8.e.e.a & 9 0 0 0 0 0 0 0 0 0 0 0 0 0 0 0 0 0 0 0 0 0 0 0 0 0 0 s j %XM.$XJ.#X#X#X#X#X#X#X#X#X#X#X#X#X#X#X#X$X$X$X$X$X$X$X$X$X3Xk.i W R R R R R R R R R R R R R R R R R R R ^ ^ R E E R ^ ^ T X.8.9.8.w.0.8.e.e.e.e.8.8.8.e.e.8.8.8.e.e.e.e.8.8.e.e.8.8.8.8.e.e.e.e.e.e.e.e.e.e.e.e.e.e.e.e.e.r.e.e.e.e.e.e.r.e.e.e.e.e.e.e.e.e.e.e.e.e.e.e.e.e.e.e.e.e.e.e.e.e.e.e.e.e.e.e.e.e.e.e.e.e.e.e.e.e.e.e.e.e.e.e.e.e.e.e.e.e.e.e.e.e.e.e.e.e.e.e.8.e.e.i.A & 8 0 0 0 0 0 0 0 0 0 0 0 0 0 0 0 0 0 0 0 0 0 0 0 0 0 & 8 o 1.6.e.8.e.e.e.e.e.e.e.e.e.e.e.e.e.e.e.e.e.e.e.e.e.e.e.e.e.e.e.",
"#X#X#X#X#X#X#X#X#X#X#X#X#X#X#X#X#X#X#X#X#X#X#X#X$X$X$X$X$X$X$X$X$X$X$X$X$X$X$X$X$X$X$X$X$X$X$X$X$X$X$X$X$X$X$X$X+X#XC.$X6X2.& 9 0 0 0 0 0 0 0 0 0 0 0 0 0 0 0 0 0 0 0 0 0 0 0 0 0 0 9 o r.4XZ.+X#X#X#X#X#X#X#X#X#X#X#X#X#X#X#X#X#X#X#X#X#X#X#X#X%X+X%Xq.q.8.e.r.e.e.e.e.e.e.e.e.e.e.e.e.e.e.e.e.e.e.e.e.e.e.e.e.e.2.a 8 = 0 & & 0 0 0 0 0 0 0 0 0 0 0 0 0 0 0 0 0 0 0 0 0 0 8 8 C w.r.w.r.8.e.e.e.e.e.e.e.e.e.e.e.e.e.e.e.e.e.e.e.8.e.p.0.0.0.2.#.#.#.#.#.#.#.#.#.#.#.#.#.#.#.#.#.#.#.#.#.#.#.#.S 1.S #.#.#.2.0.e.e.e.8.e.e.e.e.8.8.8.e.8.8.8.8.8.8.8.8.e.8.8.8.e.0.0.e.6.a & 9 0 0 0 0 0 0 0 0 0 0 0 0 0 0 0 0 0 0 0 0 0 0 0 0 0 0 s j %XOX$XJ.#X#X#X#X#X#X#X#X#X#X#X#X#X#X#X#X$X$X$X$X$X$X$X$X$X3Xk.i W R R R R R R R R R R R R R R R R R R R ^ ^ R E E R ^ ^ T X.8.9.8.w.0.8.8.8.8.e.e.e.e.e.e.e.8.8.8.e.e.e.8.8.8.8.8.e.e.e.e.e.r.e.e.e.e.e.e.e.e.e.e.e.e.e.e.e.r.r.r.e.e.e.e.e.e.e.e.e.e.e.e.e.e.e.e.e.e.e.e.e.e.e.e.e.e.e.e.e.e.e.e.e.e.e.e.e.e.e.e.e.e.e.e.e.e.e.e.e.e.e.e.e.e.e.e.e.e.e.e.e.e.e.e.e.e.e.8.8.w.i.A & & 0 0 0 0 0 0 0 0 0 0 0 0 0 0 0 0 0 0 0 0 0 0 0 0 0 & 8 o 1.6.e.8.e.e.e.e.e.e.e.e.e.e.e.e.e.e.e.e.e.e.e.e.e.e.e.e.e.e.e.",
"#X#X#X#X#X#X#X#X#X#X#X#X#X#X#X#X#X#X#X#X#X#X#X#X$X$X$X$X$X$X$X$X$X$X$X$X$X$X$X$X$X$X$X$X$X$X$X$X$X$X$X$X$X$X$X$X+X#XC.$X6X,.& 9 0 0 0 0 0 0 0 0 0 0 0 0 0 0 0 0 0 0 0 0 0 0 0 0 0 0 9 o r.4XZ.+X#X#X#X#X#X#X#X#X#X#X#X#X#X#X#X#X#X#X#X#X#X#X#X#X%X+X%Xq.q.8.e.r.e.e.e.e.e.e.e.e.e.e.e.e.e.e.e.e.e.e.e.e.e.e.e.e.e.2.a 8 = 0 = & 0 0 0 0 0 0 0 0 0 0 0 0 0 0 0 0 0 0 0 0 0 0 8 8 C w.r.w.r.e.e.e.e.e.e.e.e.e.e.e.e.e.e.e.e.e.e.e.e.8.e.p.0.0.0.2.#.#.#.#.#.#.#.#.#.#.#.#.#.#.#.#.#.#.#.#.#.#.#.#.S 1.S #.$.#.2.0.q.e.e.8.e.e.e.e.8.8.8.e.8.8.8.8.8.8.8.8.e.8.8.8.e.0.0.e.6.a & 9 0 0 0 0 0 0 0 0 0 0 0 0 0 0 0 0 0 0 0 0 0 0 0 0 0 0 s j %XOX$XJ.#X#X#X#X#X#X#X#X#X#X#X#X#X#X#X#X$X$X$X$X$X$X$X$X$X3Xk.i W R R R R R R R R R R R R R R R R R R R ^ ^ R E E R ^ ^ T X.8.9.8.w.3.8.8.8.8.8.e.e.e.e.8.8.e.e.e.e.e.e.8.8.8.8.8.e.e.e.e.e.r.r.e.e.e.e.e.e.e.e.e.e.e.e.e.e.e.e.e.e.e.e.r.e.e.e.e.e.e.e.e.e.e.e.e.e.e.e.e.e.e.e.e.e.e.e.e.e.e.e.e.e.e.e.e.e.e.e.e.e.e.e.e.e.e.e.e.e.e.e.e.e.e.e.e.e.e.e.e.e.e.e.e.e.e.e.8.8.e.i.A & & 0 0 0 0 0 0 0 0 0 0 0 0 0 0 0 0 0 0 0 0 0 0 0 0 0 8 8 o 1.6.e.8.e.e.e.e.e.e.e.e.e.e.e.e.e.e.e.e.e.e.e.e.e.e.e.e.e.e.e.",
"#X#X#X#X#X#X#X#X#X#X#X#X#X#X#X#X#X#X#X#X#X#X#X#X$X$X$X$X$X$X$X$X$X$X$X$X$X$X$X$X$X$X$X$X$X$X$X$X$X$X$X$X$X$X$X$X+X#XC.$X6X,.& 9 0 0 0 0 0 0 0 0 0 0 0 0 0 0 0 0 0 0 0 0 0 0 0 0 0 0 9 o r.4XZ.+X#X#X#X#X#X#X#X#X#X#X#X#X#X#X#X#X#X#X#X#X#X#X#X#X%XZ.%Xq.q.8.e.r.e.e.e.e.e.e.e.e.e.e.e.e.e.e.e.e.e.e.e.e.e.e.e.e.e.2.a 8 0 0 & 8 0 0 0 0 0 0 0 0 0 0 0 0 0 0 0 0 0 0 0 0 0 0 8 8 C w.r.w.r.8.e.e.e.e.e.e.e.e.e.e.e.e.e.e.e.e.e.e.e.w.e.p.0.0.0.2.#.#.#.#.#.#.#.#.#.#.#.#.#.#.#.#.#.#.#.#.#.#.#.#.S 1.S *.$.#.3.0.8.e.e.8.8.e.e.e.8.8.e.e.e.e.e.e.e.e.e.e.e.e.8.8.e.0.0.e.6.a * 9 0 0 0 0 0 0 0 0 0 0 0 0 0 0 0 0 0 0 0 0 0 0 0 0 0 0 s j %XOX$XJ.#X#X#X#X#X#X#X#X#X#X#X#X#X#X#X#X$X$X$X$X$X$X$X$X$X3Xk.i W R R R R R R R R R R R R R R R R R R R ^ ^ R E E W R ^ T X.8.9.8.w.0.8.8.8.8.e.e.e.8.8.8.e.e.e.8.8.8.8.8.e.8.8.e.e.e.e.e.e.e.e.e.e.e.e.r.e.e.e.e.r.r.e.e.e.e.e.e.e.e.e.r.e.e.e.e.e.r.r.e.e.e.e.e.e.e.e.e.e.e.e.e.e.e.e.e.e.e.e.e.e.e.e.e.e.e.e.e.e.e.e.e.e.e.e.e.e.e.e.e.e.e.e.e.e.e.e.e.e.e.e.e.e.e.e.8.8.w.f.A & & 0 0 0 0 0 0 0 0 0 0 0 0 0 0 0 0 0 0 0 0 0 0 0 0 0 8 8 o 1.6.e.8.e.e.e.e.e.e.e.e.e.e.e.e.e.e.e.e.e.e.e.e.e.e.e.e.e.e.e.",
"#X#X#X#X#X#X#X#X#X#X#X#X#X#X#X#X#X#X#X#X#X#X#X#X$X$X$X$X$X$X$X$X$X$X$X$X$X$X$X$X$X$X$X$X$X$X$X$X$X$X$X$X$X$X$X$X+X#XC.$X6X,.& 9 0 0 0 0 0 0 0 0 0 0 0 0 0 0 0 0 0 0 0 0 0 0 0 0 0 0 9 o r.4XZ.+X#X#X#X#X#X#X#X#X#X#X#X#X#X#X#X#X#X#X#X#X#X#X#X#X%XZ.%Xq.q.8.e.r.e.e.e.e.e.e.e.e.e.e.e.e.e.e.e.e.e.e.e.e.e.e.e.e.e.5.a 0 0 0 & 8 0 0 0 0 0 0 0 0 0 0 0 0 0 0 0 0 0 0 0 0 0 0 8 8 C w.r.w.r.8.e.e.e.e.e.e.e.e.e.e.e.e.e.e.e.e.e.e.e.w.e.a.0.0.0.2.#.#.#.#.#.#.#.#.#.#.#.#.#.#.#.#.#.#.#.#.#.#.#.#.S 1.S *.$.#.3.0.8.e.e.8.8.e.e.e.8.8.e.e.e.e.e.e.e.e.e.e.e.e.8.8.e.0.0.e.6.a * 9 0 0 0 0 0 0 0 0 0 0 0 0 0 0 0 0 0 0 0 0 0 0 0 0 0 = s j %XOX$XJ.#X#X#X#X#X#X#X#X#X#X#X#X#X#X#X#X$X$X$X$X$X$X$X$X$X3Xk.i W R R R R R R R R R R R R R R R R R R R ^ ^ R E E W ^ ^ T X.8.9.8.w.0.8.8.8.8.e.e.e.8.8.8.e.e.e.8.8.8.8.e.e.8.8.e.e.e.e.e.e.e.e.e.e.e.e.r.r.e.e.e.e.e.e.e.e.e.e.e.e.e.e.e.e.e.e.e.e.e.r.e.e.e.e.e.e.e.e.e.e.e.e.e.e.e.e.e.e.e.e.e.e.e.e.e.e.e.e.e.e.e.e.e.e.e.e.e.e.e.e.e.e.e.e.e.e.e.e.e.e.e.e.e.e.e.e.8.8.w.f.A & & 0 0 0 0 0 0 0 0 0 0 0 0 0 0 0 0 0 0 0 0 0 0 0 0 0 8 8 o 1.6.e.8.e.e.e.e.e.e.e.e.e.e.e.e.e.e.e.e.e.e.e.e.e.e.e.e.e.e.e.",
"$X$X$X$X$X$X$X$X$X$X$X$X$X$X$X$X$X$X$X$X$X$X$X$X$X$X$X$X$X$X$X$X$X$X$X$X$X$X$X$X$X$X$X$X$X$X$X$X$X$X$X$X$X$X$X$X+X#XC.$X6X2.& 9 0 0 0 0 0 0 0 0 0 0 0 0 0 0 0 0 0 0 0 0 0 0 0 0 0 0 9 o r.4XZ.+X#X#X#X#X#X#X#X#X$X$X$X$X$X$X$X$X#X#X#X#X#X#X#X#X%X+X%Xq.q.8.r.r.e.e.e.e.e.e.e.e.e.e.e.e.e.e.e.e.e.e.e.e.e.e.e.e.e.5.a 0 = 0 & & 0 0 0 0 0 0 0 0 0 0 0 0 0 0 0 0 0 0 0 0 0 0 8 8 C w.r.8.r.8.e.e.e.e.e.e.e.e.e.e.e.e.e.e.e.e.e.e.e.w.q.p.0.0.0.2.#.#.#.#.#.#.#.#.#.#.#.#.#.#.#.#.#.#.#.#.#.#.#.#.S >.#.#.#.#.3.3.8.8.8.8.8.e.e.e.8.e.e.e.e.e.e.e.e.e.e.e.e.e.e.8.e.w.8.e.6.s 7 9 0 0 0 0 0 0 0 0 0 0 0 0 0 0 0 0 0 0 0 0 0 0 0 0 0 0 a j 7XB.$X#X$X$X$X$X$X$X$X$X$X$X$X$X$X$X$X$X#X#X#X#X#X#X#X#X#X3Xk._ R R ( / R R R R R R R R R R R R R R R R ^ ^ R E E R ^ ^ T X.8.9.8.w.0.8.8.8.8.8.8.8.8.8.e.e.8.8.e.e.e.e.e.e.8.8.8.8.8.8.e.e.e.e.e.e.e.e.e.e.e.e.e.e.e.e.e.e.e.e.e.e.e.e.e.e.e.e.e.e.e.e.e.e.e.e.e.e.e.e.e.e.e.e.e.e.e.e.e.e.e.e.e.e.e.e.e.e.e.e.e.e.e.e.e.e.e.e.e.e.e.e.e.e.e.e.e.e.e.e.e.e.e.e.e.e.e.e.8.8.w.w.A & & 0 0 0 0 0 0 0 0 0 0 0 0 0 0 0 0 0 0 0 0 0 0 0 0 0 & 8 8 1.e.e.8.e.e.e.e.e.e.e.e.e.e.e.e.e.e.e.e.e.e.e.e.e.e.e.e.e.e.e.",
"$X$X$X$X$X$X$X$X$X$X$X$X$X$X$X$X$X$X$X$X$X$X$X$X$X$X$X$X$X$X$X$X$X$X$X$X$X$X$X$X$X$X$X$X$X$X$X$X$X$X$X$X$X$X$X$X+X#XC.$X6X2.& 0 0 0 0 0 0 0 0 0 0 0 0 0 0 0 0 0 0 0 0 0 0 0 0 0 0 0 9 o r.4XZ.+X#X#X#X#X#X#X#X#X$X$X$X$X$X$X$X$X#X#X#X#X#X#X#X#X%X+X%Xq.q.8.e.r.e.e.e.e.e.e.e.e.e.e.e.e.e.e.e.e.e.e.e.e.e.e.e.e.e.5.a 0 = 0 & & 0 0 0 0 0 0 0 0 0 0 0 0 0 0 0 0 0 0 0 0 0 0 8 8 C w.r.8.r.8.e.e.e.e.e.e.e.e.e.e.e.e.e.e.e.e.e.e.e.w.q.p.0.0.0.2.#.#.#.#.#.#.#.#.#.#.#.#.#.#.#.#.#.#.#.#.#.#.#.#.S >.#.#.#.#.3.3.8.e.8.8.8.8.e.e.8.8.e.e.e.8.e.e.e.e.8.e.e.e.8.8.e.8.8.e.e.s 7 9 0 0 0 0 0 0 0 0 0 0 0 0 0 0 0 0 0 0 0 0 0 0 0 0 0 0 a j 7XB.$X#X$X$X$X$X$X$X$X$X$X$X$X$X$X$X$X$X#X#X#X#X#X#X#X#X#X3Xk._ R R ( ) R R R R R R R R R R R R R R R R ^ R R E E R ^ ^ T X.8.9.8.w.3.8.8.8.8.8.8.8.8.8.e.8.8.8.e.e.e.e.e.e.8.8.8.8.8.8.e.e.e.e.e.e.e.e.e.e.e.e.e.e.e.e.e.e.e.e.e.e.e.e.e.e.e.e.e.e.e.e.e.e.e.e.e.e.e.e.e.e.e.e.e.e.e.e.e.e.e.e.e.e.e.e.e.e.e.e.e.e.e.e.e.e.e.e.e.e.e.e.e.e.e.e.e.e.e.e.e.e.e.e.e.e.e.e.8.8.w.w.A & = 0 0 0 0 0 0 0 0 0 0 0 0 0 0 0 0 0 0 0 0 0 0 0 0 0 & 8 4 1.6.e.e.e.e.e.e.e.e.e.e.e.e.e.e.e.e.e.e.e.e.e.e.e.e.e.e.e.e.e.",
"$X$X$X$X$X$X$X$X$X$X$X$X$X$X$X$X$X$X$X$X$X$X$X$X$X$X$X$X$X$X$X$X$X$X$X$X$X$X$X$X$X$X$X$X$X$X$X$X$X$X$X$X$X$X$X$X+X#XC.$X6X2.& 0 0 0 0 0 0 0 0 0 0 0 0 0 0 0 0 0 0 0 0 0 0 0 0 0 0 0 9 o r.4XZ.+X#X#X#X#X#X#X#X#X$X$X$X$X$X$X$X$X#X#X#X#X#X#X#X#X%X+X%Xq.q.8.e.r.e.e.e.e.e.e.e.e.e.e.e.e.e.e.e.e.e.e.e.e.e.e.e.e.e.2.a 0 0 0 & & 0 0 0 0 0 0 0 0 0 0 0 0 0 0 0 0 0 0 0 0 0 0 8 8 C l.r.8.r.e.e.e.e.e.e.e.e.e.e.e.e.e.e.e.e.e.e.e.e.w.q.p.0.0.0.2.#.#.#.#.#.#.#.#.#.#.#.#.#.#.#.#.#.#.#.#.#.#.#.#.S >.#.#.#.#.3.3.q.e.e.8.8.e.e.e.e.e.e.e.8.8.8.8.8.8.8.8.e.e.e.e.e.t.8.e.e.s 7 9 0 0 0 0 0 0 0 0 0 0 0 0 0 0 0 0 0 0 0 0 0 0 0 0 0 0 a j 7XZ.$X#X$X$X$X$X$X$X$X$X$X$X$X$X$X$X$X$X#X#X#X#X#X#X#X#X#X3Xk._ R R ( / R R R R R R R R R R R R R R R R ^ ^ R E E R ^ ^ ' X.8.9.8.w.0.8.e.8.8.8.e.8.e.e.e.e.8.8.8.8.e.e.e.e.e.8.e.e.e.e.e.e.e.e.e.e.e.e.e.e.e.e.e.e.e.e.e.e.e.e.e.e.e.e.e.e.e.e.e.e.e.e.e.e.e.e.e.e.e.e.e.e.e.e.e.e.e.e.e.e.e.e.e.e.e.e.e.e.e.e.e.e.e.e.e.e.e.e.e.e.e.e.e.e.e.e.e.e.e.e.e.e.e.e.e.e.e.e.8.e.w.w.A & & 0 0 0 0 0 0 0 0 0 0 0 0 0 0 0 0 0 0 0 0 0 0 0 0 0 & 8 4 1.e.e.8.e.e.e.e.e.e.e.e.e.e.e.e.e.e.e.e.e.e.e.e.e.e.e.e.e.e.e.",
"$X$X$X$X$X$X$X$X$X$X$X$X$X$X$X$X$X$X$X$X$X$X$X$X$X$X$X$X$X$X$X$X$X$X$X$X$X$X$X$X$X$X$X$X$X$X$X$X$X$X$X$X$X$X$X$X+X#XC.$X6X2.& 0 0 0 0 0 0 0 0 0 0 0 0 0 0 0 0 0 0 0 0 0 0 0 0 0 0 0 9 o r.4XZ.+X#X#X#X#X#X#X#X#X$X$X$X$X$X$X$X$X#X#X#X#X#X#X#X#X%XZ.%Xq.q.8.e.r.e.e.e.e.e.e.e.e.e.e.e.e.e.e.e.e.e.e.e.e.e.e.e.e.e.2.a 8 = 0 & & 0 0 0 0 0 0 0 0 0 0 0 0 0 0 0 0 0 0 0 0 0 0 8 8 C l.r.8.r.e.e.e.e.e.e.e.e.e.e.e.e.e.e.e.e.e.e.e.e.w.q.p.0.0.0.2.#.#.#.#.#.#.#.#.#.#.#.#.#.#.#.#.#.#.#.#.#.#.#.#.S >.#.#.#.#.3.3.q.e.e.e.8.e.e.e.e.e.e.e.8.8.8.8.8.8.8.8.e.e.e.e.e.t.8.e.6.s 7 9 0 0 0 0 0 0 0 0 0 0 0 0 0 0 0 0 0 0 0 0 0 0 0 0 0 0 a j 7XB.$X#X$X$X$X$X$X$X$X$X$X$X$X$X$X$X$X$X#X#X#X#X#X#X#X#X#X3Xk._ R R ( ) R R R R R R R R R R R R R R R R ^ ^ R E E R ^ ^ ' X.8.9.8.w.0.8.e.8.8.8.e.e.e.e.e.e.8.8.8.8.e.e.e.e.e.e.e.e.e.e.e.e.e.e.e.e.e.e.e.e.e.e.e.e.e.e.e.e.e.e.e.e.e.e.e.e.e.e.e.e.e.e.e.e.e.e.e.e.e.e.e.e.e.e.e.e.e.e.e.e.e.e.e.e.e.e.e.e.e.e.e.e.e.e.e.e.e.e.e.e.e.e.e.e.e.e.e.e.e.e.e.e.e.e.e.e.e.e.8.e.e.w.A & & 0 0 0 0 0 0 0 0 0 0 0 0 0 0 0 0 0 0 0 0 0 0 0 0 0 & 8 4 1.6.e.8.e.e.e.e.e.e.e.e.e.e.e.e.e.e.e.e.e.e.e.e.e.e.e.e.e.e.e.",
"$X$X$X$X$X$X$X$X$X$X$X$X$X$X$X$X$X$X$X$X$X$X$X$X$X$X$X$X$X$X$X$X$X$X$X$X$X$X$X$X$X$X$X$X$X$X$X$X$X$X$X$X$X$X$X$X+X#XC.$X6X2.& 9 0 0 0 0 0 0 0 0 0 0 0 0 0 0 0 0 0 0 0 0 0 0 0 0 0 9 9 o r.4XZ.+X#X#X#X#X#X#X#X#X$X$X$X$X$X$X$X$X#X#X#X#X#X#X#X#X%X+X3Xq.q.8.e.r.e.e.e.e.e.e.e.e.e.e.e.e.e.e.e.e.e.e.e.e.e.e.e.e.e.5.a 8 = 0 & & 0 0 0 0 0 0 0 0 0 0 0 0 0 0 0 0 0 0 0 0 0 0 8 8 C w.r.w.r.8.e.e.e.e.e.e.e.e.e.e.e.e.e.e.e.e.e.e.e.w.q.p.0.0.0.2.#.#.#.#.#.#.#.#.#.#.#.#.#.#.#.#.#.#.#.#.#.#.#.#.A >.#.#.#.#.3.3.e.e.e.e.8.e.e.e.e.8.e.e.e.e.8.8.8.8.e.e.e.e.8.e.e.t.e.e.e.s 7 9 0 0 0 0 0 0 0 0 0 0 0 0 0 0 0 0 0 0 0 0 0 0 0 0 0 0 a j 7XB.$X#X$X$X$X$X$X$X$X$X$X$X$X$X$X$X$X$X#X#X#X#X#X#X#X#X#X3Xk.T R R ( ) R R R R R R R R R R R R R R R R ^ ^ R E E R ^ ^ ' X.8.9.8.w.0.8.e.e.8.8.8.8.e.e.e.e.e.e.8.8.8.e.e.e.e.e.e.e.e.e.e.e.e.e.e.e.e.e.e.e.e.e.e.e.e.e.e.e.e.e.e.e.e.e.e.e.e.e.e.e.e.e.e.e.e.e.e.e.e.e.e.e.e.e.e.e.e.e.e.e.e.e.e.e.e.e.e.e.e.e.e.e.e.e.e.e.e.e.e.e.e.e.e.e.e.e.e.e.e.e.e.e.e.e.e.e.e.e.e.e.e.i.A & & 0 0 0 0 0 0 0 0 0 0 0 0 0 0 0 0 0 0 0 0 0 0 0 0 0 & 8 o 1.6.e.8.e.e.e.e.e.e.e.e.e.e.e.e.e.e.e.e.e.e.e.e.e.e.e.e.e.e.e.",
"$X$X$X$X$X$X$X$X$X$X$X$X$X$X$X$X$X$X$X$X$X$X$X$X$X$X$X$X$X$X$X$X$X$X$X$X$X$X$X$X$X$X$X$X$X$X$X$X$X$X$X$X$X$X$X$X+X#XC.$X6X,.& 9 0 0 0 0 0 0 0 0 0 0 0 0 0 0 0 0 0 0 0 0 0 0 0 0 0 9 9 o r.4XZ.+X#X#X#X#X#X#X#X#X$X$X$X$X$X$X$X$X#X#X#X#X#X#X#X#X%X+X%Xq.q.8.e.r.e.e.e.e.e.e.e.e.e.e.e.e.e.e.e.e.e.e.e.e.e.e.e.e.e.5.a 0 0 0 0 & 0 0 0 0 0 0 0 0 0 0 0 0 0 0 0 0 0 0 0 0 0 0 8 8 C w.r.w.r.8.e.e.e.e.e.e.e.e.e.e.e.e.e.e.e.e.e.e.e.w.q.a.0.0.0.2.#.#.#.#.#.#.#.#.#.#.#.#.#.#.#.#.#.#.#.#.#.#.#.#.A >.#.#.#.#.3.3.e.8.e.e.8.e.e.e.8.8.8.8.e.e.8.8.8.8.e.e.8.8.8.8.e.t.e.e.e.s 7 9 0 0 0 0 0 0 0 0 0 0 0 0 0 0 0 0 0 0 0 0 0 0 0 0 0 0 a j 7XB.$X#X$X$X$X$X$X$X$X$X$X$X$X$X$X$X$X$X#X#X#X#X#X#X#X#X#X3Xk.T R R ( / R R R R R R R R R R R R R R R R ^ ^ R E E R ^ ^ T X.8.9.8.w.0.8.e.e.8.8.8.8.e.e.e.e.8.e.8.8.8.e.e.e.e.e.e.e.8.8.e.e.e.e.e.e.e.e.e.e.e.e.e.e.e.e.e.e.e.e.e.e.e.e.e.e.e.e.e.e.e.e.e.e.e.e.e.e.e.e.e.e.e.e.e.e.e.e.e.e.e.e.e.e.e.e.e.e.e.e.e.e.e.e.e.e.e.e.e.e.e.e.e.e.e.e.e.e.e.e.e.e.e.e.e.e.e.e.e.e.e.i.A & & 0 0 0 0 0 0 0 0 0 0 0 0 0 0 0 0 0 0 0 0 0 0 0 0 0 & 8 o 1.e.e.8.e.e.e.e.e.e.e.e.e.e.e.e.e.e.e.e.e.e.e.e.e.e.e.e.e.e.e.",
"$X$X$X$X$X$X$X$X$X$X$X$X$X$X$X$X$X$X$X$X$X$X$X$X$X$X$X$X$X$X$X$X$X$X$X$X$X$X$X$X$X$X$X$X$X$X$X$X$X$X$X$X$X$X$X$X+X#XC.$X6X,.& 9 0 0 0 0 0 0 0 0 0 0 0 0 0 0 0 0 0 0 0 0 0 0 0 0 0 0 9 o r.4XZ.+X#X#X#X#X#X#X#X#X$X$X$X$X$X$X$X$X#X#X#X#X#X#X#X#X%X+X%Xq.q.8.e.r.e.e.e.e.e.e.e.e.e.e.e.e.e.e.e.e.e.e.e.e.e.e.e.e.e.5.a 0 = 0 = & 0 0 0 0 0 0 0 0 0 0 0 0 0 0 0 0 0 0 0 0 0 0 8 8 C w.r.w.r.8.e.e.e.e.e.e.e.e.e.e.e.e.e.e.e.e.e.e.e.w.q.p.0.0.0.2.#.#.#.#.#.#.#.#.#.#.#.#.#.#.#.#.#.#.#.#.#.#.#.#.A 1.#.#.#.#.3.3.8.8.8.8.8.e.e.e.8.8.8.8.e.e.e.e.e.e.e.e.8.8.8.8.e.w.e.e.e.s 7 9 0 0 0 0 0 0 0 0 0 0 0 0 0 0 0 0 0 0 0 0 0 0 0 0 0 0 a j 7XB.$X#X$X$X$X$X$X$X$X$X$X$X$X$X$X$X$X$X#X#X#X#X#X#X#X#X#X3Xk.T R R ( / R R R R R R R R R R R R R R R R ^ ^ R E E R ^ ^ T X.8.9.8.w.0.8.e.e.e.e.8.8.8.e.8.8.8.8.8.8.8.8.e.e.8.e.8.8.8.8.e.e.e.e.e.e.e.e.e.e.e.e.e.e.e.e.e.e.e.e.e.e.e.e.e.e.e.e.e.e.e.e.e.e.e.e.e.e.e.e.e.e.e.e.e.e.e.e.e.e.e.e.e.e.e.e.e.e.e.e.e.e.e.e.e.e.e.e.e.e.e.e.e.e.e.e.e.e.e.e.e.e.e.e.e.e.e.e.e.e.e.i.A & & 0 0 0 0 0 0 0 0 0 0 0 0 0 0 0 0 0 0 0 0 0 0 0 0 0 & 8 o 1.6.e.e.e.e.e.e.e.e.e.e.e.e.e.e.e.e.e.e.e.e.e.e.e.e.e.e.e.8.8.",
"$X$X$X$X$X$X$X$X$X$X$X$X$X$X$X$X$X$X$X$X$X$X$X$X$X$X$X$X$X$X$X$X$X$X$X$X$X$X$X$X$X$X$X$X$X$X$X$X$X$X$X$X$X$X$X$X+X#XC.$X6X,.& 9 0 0 0 0 0 0 0 0 0 0 0 0 0 0 0 0 0 0 0 0 0 0 0 0 0 9 9 o r.4XZ.+X#X#X#X#X#X#X#X#X$X$X$X$X$X$X$X$X#X#X#X#X#X#X#X#X%X+X%Xq.q.8.e.r.e.e.e.e.e.e.e.e.e.e.e.e.e.e.e.e.e.e.e.e.e.e.e.e.e.5.a 0 = 0 & & 0 0 0 0 0 0 0 0 0 0 0 0 0 0 0 0 0 0 0 0 0 0 8 8 C w.r.w.r.8.e.e.e.e.e.e.e.e.e.e.e.e.e.e.e.e.e.e.e.w.q.a.0.0.0.2.#.#.#.#.#.#.#.#.#.#.#.#.#.#.#.#.#.#.#.#.#.#.#.#.A 1.#.#.#.#.3.3.8.8.8.8.8.e.e.e.8.8.8.8.e.e.e.e.e.e.e.e.8.8.8.8.e.w.8.e.e.s 7 9 0 0 0 0 0 0 0 0 0 0 0 0 0 0 0 0 0 0 0 0 0 0 0 0 0 0 a j 7XB.$X#X$X$X$X$X$X$X$X$X$X$X$X$X$X$X$X$X#X#X#X#X#X#X#X#X#X3Xk.T R R ( / R R R R R R R R R R R R R R R R ^ ^ R E E R ^ ^ T X.8.9.8.w.0.8.e.e.e.e.8.8.e.e.8.8.8.8.8.8.8.e.e.e.8.8.8.8.8.8.e.e.e.e.e.e.e.e.e.e.e.e.e.e.e.e.e.e.e.e.e.e.e.e.e.e.e.e.e.e.e.e.e.e.e.e.e.e.e.e.e.e.e.e.e.e.e.e.e.e.e.e.e.e.e.e.e.e.e.e.e.e.e.e.e.e.e.e.e.e.e.e.e.e.e.e.e.e.e.e.e.e.e.e.e.e.e.e.e.e.e.i.A & & 0 0 0 0 0 0 0 0 0 0 0 0 0 0 0 0 0 0 0 0 0 0 0 0 0 & 8 o 1.6.e.8.e.e.e.e.e.e.e.e.e.e.e.e.e.e.e.e.e.e.e.e.e.e.e.e.e.8.8.",
"$X$X$X$X$X$X$X$X$X$X$X$X$X$X$X$X$X$X$X$X$X$X$X$X$X$X$X$X$X$X$X$X$X$X$X$X$X$X$X$X#X#X#X#X#X#X#X#X$X$X$X$X$X$X$X$X+X#XC.$X6X2.& 9 0 0 0 0 0 0 0 0 0 0 0 0 0 0 0 0 0 0 0 0 0 0 0 0 = 0 8 o i.5X#X#X#X#X#X#X#X#X#X#X#X#X#X#X#X#X#X#X#X#X#X#X#X#X#X#X%X#X+Xv.8.r.8.r.e.e.e.e.e.e.e.e.e.e.e.e.e.e.e.e.e.e.e.e.e.e.e.e.e.5.a 0 = 0 & & 0 0 0 0 0 0 0 0 0 0 0 0 0 0 0 0 9 9 9 0 0 0 0 0 C r.r.8.r.8.e.e.e.e.e.e.e.e.e.e.e.e.e.e.e.e.e.e.f.w.w.e.e.e.5.1.#.#.#.#.#.#.#.#.>.>.>.>.>.>.>.>.#.#.#.#.#.#.#.#.S 1.S #.#.#.0.e.0.0.0.0.0.0.0.8.0.0.0.0.8.8.8.8.8.8.0.0.0.0.8.8.w.0.8.e.e.s = 9 0 0 0 0 0 0 0 0 0 0 0 0 0 0 0 0 0 0 0 0 0 0 0 0 0 & & b 5XB.$X#X$X$X$X$X$X$X$X$X$X$X$X$X$X$X$X$X$X$X$X$X$X$X$X$X$X7Xk.T R R ^ / R R R R R R R R R R R R R R R R W W W W W W W W T X.w.8.0.3.3.e.8.8.8.8.0.0.0.0.0.0.0.0.0.0.0.0.8.8.8.0.0.0.8.8.e.e.e.e.e.e.e.e.e.e.e.e.e.e.e.e.e.e.e.e.e.e.e.e.e.e.e.e.e.r.e.e.e.e.e.e.e.e.e.e.e.e.e.e.e.e.e.e.e.e.e.e.e.e.e.e.e.e.e.e.e.e.e.e.e.e.e.e.e.e.e.e.e.e.e.e.e.e.e.e.e.e.e.r.e.e.e.e.8.e.w.i.Z & 8 8 0 0 0 0 0 0 0 0 0 0 0 0 0 0 0 0 0 0 0 0 0 0 0 0 & 8 o 1.6.e.8.e.e.e.e.e.e.e.e.e.e.e.e.e.e.e.e.e.e.e.e.e.e.e.e.e.e.e.",
"$X$X$X$X$X$X$X$X$X$X$X$X$X$X$X$X$X$X$X$X$X$X$X$X$X$X$X$X$X$X$X$X$X$X$X$X$X$X$X$X#X#X#X#X#X#X#X#X$X$X$X$X$X$X$X$X+X#XC.$X6X2.& 9 0 0 0 0 0 0 0 0 0 0 0 0 0 0 0 0 0 0 0 0 0 0 0 0 = 0 8 o i.7X#X#X#X#X#X#X#X#X#X#X#X#X#X#X#X#X#X#X#X#X#X#X#X#X#X#X%X#X+Xv.8.r.8.r.e.e.e.e.e.e.e.e.e.e.e.e.e.e.e.e.e.e.e.e.e.e.e.e.e.5.a 0 = 0 = & 0 0 0 0 0 0 0 0 0 0 0 0 0 0 0 0 9 9 0 0 0 0 0 0 C r.r.w.r.8.e.e.e.e.e.e.e.e.e.e.e.e.e.e.e.e.e.e.w.w.8.e.q.e.3.1.#.#.#.#.#.#.#.#.>.>.>.>.>.>.>.>.#.#.#.#.#.#.#.#.S 1.S #.#.#.0.e.0.0.0.0.0.0.8.8.8.0.0.0.8.8.8.8.8.8.8.0.0.0.8.8.w.0.8.e.e.a * 9 0 0 0 0 0 0 0 0 0 0 0 0 0 0 0 0 0 0 0 0 0 0 0 0 0 & & b 5XB.$X#X$X$X$X$X$X$X$X$X$X$X$X$X$X$X$X$X$X$X$X$X$X$X$X$X$X7Xk.T R R ^ / R R R R R R R R R R R R R R R R R R R R R R R R T X.w.8.0.3.3.e.0.8.8.8.0.0.0.0.0.0.0.0.0.0.0.0.8.8.8.0.0.0.8.0.e.e.e.e.e.e.e.e.e.e.e.e.r.r.e.e.e.e.e.e.e.e.e.e.e.e.e.e.r.r.e.e.e.e.e.e.e.e.e.e.e.e.e.e.e.e.e.e.e.e.e.e.e.e.e.e.e.e.e.e.e.e.e.e.e.e.e.e.e.e.e.e.e.e.e.e.e.e.e.e.e.e.r.e.e.e.e.e.8.0.e.i.Z & 8 8 0 0 0 0 0 0 0 0 0 0 0 0 0 0 0 0 0 0 0 0 0 0 0 0 & 8 o 1.6.e.8.e.e.e.e.e.e.e.e.e.e.e.e.e.e.e.e.e.e.e.e.e.e.e.e.e.e.e.",
"$X$X$X$X$X$X$X$X$X$X$X$X$X$X$X$X$X$X$X$X$X$X$X$X$X$X$X$X$X$X$X$X$X$X$X$X$X$X$X$X#X#X$X$X$X$X$X$X$X$X$X$X$X$X$X$X+X#XC.$X6X2.& 9 0 0 0 0 0 0 0 0 0 0 0 0 0 0 0 0 0 0 0 0 0 0 0 0 = 0 8 o i.5X#X#X#X#X#X#X#X#X#X#X$X$X#X#X#X#X$X#X#X#X#X#X#X#X#X#X#X+X+Xc.w.r.8.r.e.e.e.e.e.e.e.e.e.e.e.e.e.e.e.e.e.e.e.e.e.e.e.e.e.5.a 0 0 0 8 8 0 0 0 0 0 0 0 0 0 0 0 0 0 0 0 0 9 0 0 0 0 0 0 0 C r.r.w.t.r.r.e.e.e.e.e.e.e.e.e.e.e.e.e.e.e.e.e.e.8.9.9.q.q.3.2.#.#.#.#.#.#.#.#.>.>.>.>.>.>.>.>.#.#.#.#.#.#.#.#.S 1.S #.#.#.0.e.0.0.0.0.0.0.0.0.8.8.0.0.0.0.0.0.8.8.0.0.0.0.8.8.w.0.8.e.e.a & 9 0 0 0 0 0 0 0 0 0 0 0 0 0 0 0 0 0 0 0 0 0 0 0 0 0 & & b 5XB.$X#X$X$X$X$X$X$X$X$X$X$X$X$X$X$X$X$X$X$X$X$X$X$X$X$X$X7Xk.T R R ^ / R R R R R R R R R R R R R R R R R R R R R R R R T X.w.8.0.3.3.e.0.0.0.8.0.0.8.8.0.0.0.0.8.8.0.8.8.8.0.0.0.0.0.0.e.e.e.e.e.e.e.e.e.e.e.r.r.e.e.e.e.e.e.e.r.r.e.e.e.e.e.e.r.e.e.e.e.e.e.e.e.e.e.e.e.e.e.e.e.e.e.e.e.e.e.e.e.e.e.e.e.e.e.e.e.e.e.e.r.e.e.e.e.r.r.e.e.e.e.e.e.e.e.e.e.e.e.e.e.e.e.e.8.e.w.i.Z & 8 8 0 0 0 0 0 0 0 0 0 0 0 0 0 0 0 0 0 0 0 0 0 0 0 0 & 8 o 1.6.e.8.e.e.e.e.e.e.e.e.e.e.e.e.e.e.e.e.e.e.e.e.e.e.e.e.e.e.e.",
"$X$X$X$X$X$X$X$X$X$X$X$X$X$X$X$X$X$X$X$X$X$X$X$X$X$X$X$X$X$X$X$X$X$X$X$X$X$X$X$X#X#X$X$X$X$X#X#X$X$X$X$X$X$X$X$X+X#XC.$X6X2.& 9 0 0 0 0 0 0 0 0 0 0 0 0 0 0 0 0 0 0 0 0 0 0 0 0 = 0 8 o i.5X#X#X#X#X#X#X#X#X#X#X$X$X#X#X#X#X#X#X#X#X#X#X#X#X#X#X#X+X+Xc.8.r.8.r.e.e.e.e.e.e.e.e.e.e.e.e.e.e.e.e.e.e.e.e.e.e.e.e.e.5.a 0 0 0 & 8 0 0 0 0 0 0 0 0 9 9 9 9 9 9 9 9 0 0 0 0 0 0 0 0 C r.r.w.t.q.r.r.e.e.e.e.e.e.e.e.e.e.e.e.e.e.e.e.e.q.9.q.q.q.8.2.#.#.#.#.#.#.#.#.#.#.#.#.#.#.#.#.#.#.#.#.#.#.#.#.S 1.A #.#.#.0.e.8.0.0.0.0.0.0.0.8.8.0.0.0.0.0.0.0.0.0.0.0.0.8.8.w.0.8.e.e.a & 9 0 0 0 0 0 0 0 0 0 0 0 0 0 0 0 0 0 0 0 0 0 0 0 0 0 & & b 5XB.$X#X$X$X$X$X$X$X$X$X$X$X$X$X$X$X$X$X$X$X$X$X$X$X$X$X$X7Xk.T R R ^ / R R R R R R R R R R R R R R R R R R R R R R R R T X.w.8.0.3.3.e.0.0.0.0.0.0.8.8.0.0.0.0.8.8.8.8.0.0.0.0.0.0.0.0.e.e.e.e.e.e.e.e.e.e.e.e.e.e.e.e.e.e.e.e.e.r.e.e.e.e.e.r.e.e.e.e.e.e.e.e.e.e.e.e.e.e.e.e.e.e.e.e.e.e.e.e.e.e.e.e.e.e.e.e.e.e.e.e.r.e.e.e.e.e.r.e.e.e.r.r.e.e.e.r.e.e.e.e.e.e.e.e.e.e.w.w.Z & 8 8 0 0 0 0 0 0 0 0 0 0 0 0 0 0 0 0 0 0 0 0 0 0 0 0 & 8 o 1.6.e.8.e.e.e.e.e.e.e.e.e.e.e.e.e.e.e.e.e.e.e.e.e.e.e.e.e.e.e.",
"$X$X$X$X$X$X$X$X$X$X$X$X$X$X$X$X$X$X$X$X$X$X$X$X$X$X$X$X$X$X$X$X$X$X$X$X$X$X$X$X$X$X$X$X#X$X$X$X$X$X$X$X$X$X$X$X+X#XC.$X6X2.& 9 0 0 0 0 0 0 0 0 0 0 0 0 0 0 0 0 0 0 0 0 0 0 0 0 = 0 8 o i.7X#X#X#X#X#X#X#X#X#X#X$X$X$X$X$X$X$X$X$X$X$X$X$X$X#X#X#X+X+Xv.8.e.8.r.e.e.e.e.e.e.e.e.e.e.e.e.e.e.e.e.e.e.e.e.e.e.e.e.e.2.a 0 = 0 & & 0 0 0 0 0 0 0 0 9 9 9 9 9 9 9 9 0 0 0 0 0 0 = = C r.r.w.t.q.r.e.e.e.e.e.e.e.e.e.e.e.e.e.e.e.e.e.e.9.9.q.q.r.8.2.#.#.#.#.#.#.#.#.#.#.#.#.#.#.#.#.#.#.#.#.#.#.#.#.S 1.A #.#.#.0.e.8.8.0.0.0.0.0.0.8.0.0.0.0.0.0.0.0.0.0.0.0.0.0.8.e.0.0.e.6.a & 9 0 0 0 0 0 0 0 0 0 0 0 0 0 0 0 0 0 0 0 0 0 0 0 0 0 & & b 5XB.$X#X$X$X$X$X$X$X$X$X$X$X$X$X$X$X$X$X$X$X$X$X$X$X$X$X$X7Xk.T R R ^ / R R R R R R R R R R R R R R R R R R R R R R R R T X.f.8.0.3.3.e.0.0.0.0.0.0.8.8.0.0.8.8.8.0.0.0.0.0.0.0.0.0.0.0.e.e.e.e.e.e.e.e.e.e.e.r.e.e.e.e.e.e.e.e.e.e.e.e.e.e.e.e.e.e.e.e.e.e.e.e.e.e.e.e.e.e.e.e.e.e.e.e.e.e.e.e.e.e.e.e.e.e.e.e.e.e.e.e.e.e.e.e.e.e.r.r.e.e.r.e.e.e.e.r.e.e.e.e.e.e.e.e.e.w.e.i.Z & 8 8 0 0 0 0 0 0 0 0 0 0 0 0 0 0 0 0 0 0 0 0 0 0 0 0 & 8 o 1.6.e.8.e.e.e.e.e.e.e.e.e.e.e.e.e.e.e.e.e.e.e.e.e.e.e.e.e.e.e.",
"$X$X$X$X$X$X$X$X$X$X$X$X$X$X$X$X$X$X$X$X$X$X$X$X$X$X$X$X$X$X$X$X$X$X$X$X$X$X$X$X$X$X$X$X#X#X$X$X$X$X$X$X$X$X$X$X+X#XC.$X6X2.& 9 0 0 0 0 0 0 0 0 0 0 0 0 0 0 0 0 0 0 0 0 0 0 0 0 = 0 & o i.3X#X#X#X#X#X#X#X#X#X#X$X$X$X$X$X$X$X$X$X$X$X$X$X$X$X#X%X+X+Xv.8.e.8.r.e.e.e.e.e.e.e.e.e.e.e.e.e.e.e.e.e.e.e.e.e.e.e.e.e.2.a 8 = 0 & & 0 0 0 0 0 0 0 0 0 0 0 0 0 0 0 0 0 0 0 0 0 = = > V i.r.w.r.8.e.e.e.e.e.e.e.e.e.e.e.e.e.e.e.e.e.e.e.8.9.q.t.r.6.5.#.#.#.#.#.#.#.#.#.#.#.#.#.#.#.#.#.#.#.#.#.#.#.#.S 1.A #.#.#.0.e.8.8.0.0.0.0.8.8.8.8.0.0.0.0.0.0.0.0.0.0.0.0.0.0.w.0.0.e.6.a & 9 0 0 0 0 0 0 0 0 0 0 0 0 0 0 0 0 0 0 0 0 0 0 0 0 0 & 8 b 5XB.$X#X$X$X$X$X$X$X$X$X$X$X$X$X$X$X$X$X$X$X$X$X$X$X$X$X$X7Xk.T R R ^ / R R R R R R R R R R R R R R R R R R R R R R R R T X.w.8.0.3.3.e.0.0.0.0.0.0.8.0.0.8.8.8.8.8.0.0.0.0.0.0.0.0.0.0.e.e.e.e.e.e.e.e.e.e.e.e.e.e.e.e.e.e.e.e.e.e.e.e.e.e.e.e.e.e.e.e.e.e.e.e.e.e.e.e.e.e.e.e.e.e.e.e.e.e.e.e.e.e.e.e.e.e.e.e.e.e.e.e.e.e.e.e.e.e.e.r.e.e.r.r.e.e.e.e.e.e.e.e.e.e.e.e.e.e.e.i.Z & 8 8 0 0 0 0 0 0 0 0 0 0 0 0 0 0 0 0 0 0 0 0 0 0 0 0 8 8 o 1.6.e.8.e.e.e.e.e.e.e.e.e.e.e.e.e.e.e.e.e.e.e.e.e.e.e.e.e.e.e.",
"$X$X$X$X$X$X$X$X$X$X$X$X$X$X$X$X$X$X$X$X$X$X$X$X$X$X$X$X$X$X$X$X$X$X$X$X$X$X$X$X4X4X4X4X3X3X3X3X$X$X$X$X$X$X$X$X+X#XC.$X6X1.& 9 0 0 0 0 0 0 0 0 0 0 0 0 0 0 0 0 0 0 0 0 0 0 0 0 = 0 & o i.3X#X#X#X#X#X#X$X$X$X$X4X4X$X$X$X$X$X$X$X$X$X4X4X4X$X$X%X+X#Xp.8.e.8.r.e.e.e.e.e.e.e.e.e.e.e.e.e.e.e.e.e.e.e.e.e.e.e.e.e.2.a 8 = 0 & & 0 0 0 0 0 0 0 0 0 0 0 0 0 0 0 0 0 0 0 0 = = = > V i.w.8.r.0.e.e.e.e.e.e.e.e.e.e.e.e.e.e.e.e.e.e.e.e.8.e.r.f.s.4.#.#.#.#.#.#.#.#.#.#.#.#.#.#.#.#.#.#.#.#.#.#.#.#.S 1.A #.#.#.0.e.8.8.0.0.0.8.8.8.0.0.0.0.0.0.8.8.8.8.0.0.0.0.0.0.e.0.0.e.6.a * 9 0 0 0 0 0 0 0 0 0 0 0 0 0 0 0 0 0 0 0 0 0 0 0 0 0 8 8 b 5XB.$X#X$X$X$X$X$X$X$X$X$X$X$X$X$X$X$X$X$X$X$X$X$X$X$X$X$X7Xk.T R R ^ / R R R R R R R R R R R R R R R R R R R R R R R R T X.w.8.0.3.3.w.8.8.0.0.0.0.0.0.0.0.8.8.0.0.0.0.8.0.8.8.0.8.0.0.e.e.e.e.e.e.e.e.e.e.e.e.e.e.e.e.e.e.e.e.e.e.e.e.e.e.e.e.e.e.e.e.e.e.e.e.e.e.e.e.e.e.e.e.e.e.e.e.e.e.e.e.e.e.e.e.e.e.e.e.e.e.e.e.e.e.e.e.e.e.e.r.e.e.e.e.e.e.e.e.e.e.r.r.e.e.e.e.8.w.e.i.Z & 8 8 0 0 0 0 0 0 0 0 0 0 0 0 0 0 0 0 0 0 0 0 0 0 0 0 8 8 o 1.6.e.8.e.e.e.e.e.e.e.e.e.e.e.e.e.e.e.e.e.e.e.e.e.e.e.e.e.e.e.",
"$X$X$X$X$X$X$X$X$X$X$X$X$X$X$X$X$X$X$X$X$X$X$X$X$X$X$X$X$X$X$X$X$X$X$X$X$X$X$X$X4X4X4X4X3X3X3X3X$X$X$X$X$X$X$X$X+X#XC.$X6X1.& 9 0 0 0 0 0 0 0 0 0 0 0 0 0 0 0 0 0 0 0 0 0 0 0 0 = 0 0 o i.7X#X#X#X#X#X#X$X$X$X$X$X$X$X$X$X$X$X$X$X$X$X$X4X4X$X4X%X+X+Xv.8.e.8.r.e.e.e.e.e.e.e.e.e.e.e.e.e.e.e.e.e.e.e.e.e.e.e.e.e.2.a 8 = 0 & & 0 0 0 0 0 0 0 0 0 0 0 0 0 0 0 0 0 0 0 0 = = > > m y.w.3.e.0.e.6.e.e.e.e.e.e.e.e.e.e.e.e.e.e.e.e.w.w.w.e.r.f.s.4.#.#.#.#.#.#.#.#.#.#.#.#.#.#.#.#.#.#.#.#.#.#.#.#.S 1.A #.#.#.0.e.8.8.0.0.0.0.8.8.0.0.0.0.0.8.8.8.8.0.0.0.0.0.0.0.w.0.0.e.6.a * 9 0 0 0 0 0 0 0 0 0 0 0 0 0 0 0 0 0 0 0 0 0 0 0 0 0 8 8 b 5XB.$X#X$X$X$X$X$X$X$X$X$X$X$X$X$X$X$X$X$X$X$X$X$X$X$X$X$X7Xk.T R R ^ R R R R R R R R R R R R R R R R R R R R R R R R R T X.w.8.0.3.3.w.8.8.8.8.0.0.0.0.0.0.0.0.0.0.0.0.8.8.8.8.0.0.0.0.e.e.e.e.e.e.e.e.e.e.e.e.e.e.e.e.e.e.r.r.r.e.e.e.e.e.e.e.r.r.e.8.e.e.e.e.e.e.e.e.e.e.e.e.e.e.e.e.e.e.e.e.e.e.e.e.e.e.e.e.e.e.e.e.e.e.e.e.e.e.e.e.e.e.e.e.e.e.e.e.e.e.e.r.e.e.e.e.8.w.e.l.Z & 8 8 0 0 0 0 0 0 0 0 0 0 0 0 0 0 0 0 0 0 0 0 0 0 0 0 8 8 o 1.6.e.8.e.e.e.e.e.e.e.e.e.e.e.e.e.e.e.e.e.e.e.e.e.e.e.e.e.e.e.",
"$X$X$X$X$X$X$X$X$X$X$X$X$X$X$X$X$X$X$X$X$X$X$X$XM.C.A.C.b.#X2X>.r.r.r.r.r.r.r.r.g.g.g.g.g.g.g.g.g.g.h.h.g.g.g.g.6.>.f.x.5.S } V S S S S S S S S S S S S S S S S S S S S S S S S %.C k e.2.r.r.t.z.z.z.z.z.z.z.z.x.x.x.x.x.x.x.x.z.z.z.z.z.z.z.z.g.g.w.z.n.r.r.e.e.e.e.e.e.e.e.e.e.e.e.e.e.e.e.e.e.e.e.e.e.e.e.e.w.2.A j h h j b C C C V V C C C C C C C C C V V V l l l l C V m S Z O.O.O.O.O.O.7.7.7.7.7.7.7.7.7.7.7.7.7.7.7.7.O.O.O.O.O.O.Z $.q.q.q.q.q.q.q.9.9.9.9.9.9.9.9.9.9.9.9.9.9.9.9.w.9.=.8.9.c.n.8.8.e.e.e.e.e.e.e.e.e.e.e.e.e.e.e.e.e.e.e.e.e.e.e.e.8.e.2.0.#.h h a s s s s s s s s s s s s s s s s d d d d d d d d h a j C B.C.#X#X$X$X$X$X$X$X$X$X$X$X$X$X$X$X$X$XZ.Z.Z.#X#X#XZ.Z.A.6X5.; u y u u y y y y y y y y y y y y y y y y i i i i i i i i b S 1.1.1.1.1.#.1.1.1.1.1.1.1.1.1.1.1.1.1.1.1.1.,.,.,.,.,.,.,.,.p.p.v.v.v.v.v.v.v.v.v.v.v.v.v.v.v.v.v.v.v.v.v.v.v.v.v.b.b.m.v.l 3.3.3.3.3.3.3.3.3.3.3.3.3.3.3.3.3.3.3.3.3.3.3.3.$.#.2.w.e.5.Z S } } } } } } } } S } S } D D D D D D S } } D D D S 7.7.V x b d V d d d d d d d d s s s s s s s s g g g d d d d g b b C S ,.5.6.f.3.3.3.3.3.3.3.3.3.3.3.3.3.3.3.3.3.3.3.3.3.3.3.3.3.3.",
"$X$X$X$X$X$X$X$X$X$X$X$X$X$X$X$X$X$X$X$X$X$X$X$X$X$XpXpXC.3XV.a X X X X O X X X o o o o o o o o o o o o o o o o o O o : : ,.2X8X8X8X8X8X8X8X8X8X8X8X8X8X8X8X8X8X8X8X8X8X8X8X8X8X9X9X7X5X$.k k j C C C n C C C C V V V V V V V V V C C C C C C C b C b ,.w.8.e.8.e.e.e.e.e.e.e.e.e.e.e.e.e.e.e.e.e.e.e.e.e.e.e.e.l.g.g.g.g.l.z.z.w.w.w.w.i.l.w.w.f.g.w.w.w.w.l.i.w.r.e.r.r.w.f.j.N z { { T T T ' y y y _ _ _ y y _ _ _ y y y y y Y T M M { { N 1.3X3X3X3X3X3X3X3X5X5X5X3X3X3X3X3X3X3X3X3X5X3X3X3X6XZ.3X#X3X3Xp.r.e.e.e.e.e.e.e.e.e.e.e.e.e.e.e.e.e.e.e.e.e.e.e.e.8.e.e.p.e.$.#.#.>.>.>.>.>.>.>.>.>.>.>.>.>.>.>.>.>.>.>.>.>.>.>.>.>.#.$.2.3X#X#X#X$X$X$X$X$X$X$X$X$X$X$X$X$X$X$X$XZ.Z.#X#X#X#XZ.#XA.6X5.= u y t t 9 9 9 9 9 9 9 9 9 9 9 9 9 9 9 9 9 9 9 9 9 9 9 9 : d b V V V C j V V V V V V V V V V V V V V V V b b b b b b C C oX%X#X#X$X#X#X%X%X%X%X%X%X%X%X%X%X%X%X%X%X%X%X%X%X%X#X$X$X6X%X=.S S S S S S S S #.S S #.S S S S #.#.#.#.#.#.#.#.$.#.#.%.#.b o o & & & & & o o & 8 8 8 & & & & & & & 8 & 8 8 & & . X 8 8 g S >.5.>.>.>.>.>.>.>.>.>.>.>.>.>.>.>.>.>.>.>.>.>.>.>.>.>.>.>.>.>.>.>.>.#.#.#.#.#.#.#.#.#.#.S S S S S S #.S S S S #.#.#.S S ",
"$X$X$X$X$X$X$X$X$X$X$X$X$X$X$X$X$X$X$X$X$X$X$X$X$X$X$XpX$X6Xx.O 7 7 7 7 7 7 7 7 7 7 7 7 7 7 7 7 7 7 7 7 7 7 7 7 0 8 8 O O 2.0X9XA.A.A.A.A.A.A.A.A.A.A.A.A.A.A.A.A.A.A.A.A.A.A.A.4XaX9X9X$.k A A b b b b b b b b b b b b b b b b b b b b b b b b C C C 2.e.e.p.r.e.e.e.e.e.e.e.e.e.e.e.e.e.e.e.e.e.e.e.e.e.e.e.e.3.w.r.z.z.z.r.r.r.r.r.r.e.r.r.r.r.r.r.r.r.r.r.r.r.r.r.r.r.r.f.f.X.' { Q R Q T E R R R R R R R R U R R R R R R R R T T _ Q  .] x.%X%X%X%X%X%X%X#X5X3X3X3X3X3X3X3X3X3X3X3X3X3X3X3XaX3X4X3X3X3Xp.r.e.e.e.e.e.e.e.e.e.e.e.e.e.e.e.e.e.e.e.e.e.e.e.e.8.e.e.z.r.*.1.1.1.1.1.1.1.1.1.1.1.1.1.1.1.1.1.1.>.>.>.>.>.>.>.>.1.>.1.8.5X#X#X#X$X$X$X$X$X$X$X$X$X$X$X$X$X$X$X$XZ.Z.#X#X#X#X#X#X#X4X5.0 9 u 9 0 9 9 9 9 9 9 9 9 9 * 9 9 9 9 9 9 * * * * * * * * > x Z Z V A V C V V V V V V V V V V V V V V V V V V V V V V V V oXoXZ.Z.Z.Z.#X#X#X#X#X#X#X#X#X#X#X#X#X#X#X#X#X#X#X#XZ.$X#X%XoX=.A A A A A A A A A A A A A A A A A A A A A A A A 2.$.,.#.#.V & & 0 0 0 0 8 8 8 0 8 8 & & & & & & & & & 8 & & & & 7 % & o g S A S 1.1.1.1.1.1.1.1.1.1.1.1.1.1.1.1.,.,.>.>.>.>.>.>.>.>.>.>.>.>.S S A A A A A A A A A A A A A A A A A A A A A A A A A A ",
"$X$X$X$X$X$X$X$X$X$X$X$X$X$X$X$X$X$X$X$X$X$X$X$X#XZ.C.A.#X9XN.& % % % % 7 % 7 7 7 7 7 7 7 7 7 7 $ $ % $ % % 7 7 0 0 z 8 : 2.J.M.A.A.A.A.A.A.A.A.A.K.A.A.K.A.A.A.A.A.A.A.A.A.A.A.A.A.Z.3X$.V D D V V V V V V V V V V V V V V V V V V V V V V V V A A A 5.e.w.e.e.e.e.e.e.e.e.e.e.e.e.e.e.e.e.e.e.e.e.e.e.e.e.e.e.w.w.e.e.w.w.3.3.w.w.w.w.8.8.8.w.w.w.w.w.8.8.8.8.8.w.w.8.w.t.6.6.O.{ Q R ^ ) R E ( ( ( ( ( ( ( ( ( ( ( ( ( ( ( ( ( R Q W ^ / { G.Z.Z.Z.Z.Z.Z.Z.Z.Z.Z.Z.Z.Z.Z.Z.Z.Z.Z.Z.Z.Z.Z.Z.Z.4XZ.#X#X3X3Xm.c.e.e.e.e.e.e.e.e.e.e.e.e.e.e.e.e.e.e.e.e.e.e.e.e.0.e.e.p.0.#.A A >.>.>.>.>.>.>.>.>.>.>.>.>.>.>.>.>.>.>.>.>.>.>.>.S A #.=.3X#X#X#X$X$X$X$X$X$X$X$X$X$X$X$X$X$X$X$X#X#X#X#X#X#X#X#X@X4X5.& 9 q 7 8 0 0 0 0 0 0 0 0 0 0 0 0 0 0 0 0 0 0 0 0 0 0 0 0 > x Z Z Z Z V V V V V V V V V V V V V V V V V V V V V V V V V V oXoXZ.Z.Z.Z.#X#X#X#X#X#X#X#X#X#X#X#X#X#X#X#X#X#X#X#XZ.$XZ.#XoX$.#.#.#.#.#.#.#.#.#.#.#.#.#.#.#.#.#.#.#.#.#.#.#.#.$.#.#.#.>.Z 8 8 0 0 0 0 0 0 0 0 0 0 0 0 0 0 0 0 0 0 0 0 0 0 0 0 0 0 0 8 V 1.S S #.#.#.#.#.#.#.#.>.>.>.>.>.>.>.>.>.>.>.>.>.>.>.>.S S S >.>.>.>.,.#.#.#.#.#.#.#.#.#.#.#.#.#.#.#.#.#.#.#.#.#.#.#.#.#.#.",
"$X$X$X$X$X$X$X$X$X$X$X$X$X$X$X$X$X$X$X$X$X$X$X$X4X$XA.A.C.5Xx.& 0 0 0 0 0 0 0 0 0 0 0 0 0 0 0 0 0 0 0 0 0 0 0 0 % $ 7 & o 2.4XJ.C.C.C.C.C.C.C.C.C.C.C.C.C.C.C.C.C.C.C.C.C.C.C.C.aXaXZ.3X,.V V m m m m m m m m m V V V V b b b V V V V V m m m m C V C 2.w.3.e.e.e.e.e.e.e.e.e.e.e.e.e.e.e.e.e.e.e.e.e.e.e.e.e.e.e.e.e.e.e.r.r.r.r.r.r.r.r.r.r.r.r.r.r.r.r.r.r.r.r.r.q.q.t.r.e.g.O.E Y R R ) R R R R R R R R R R R R R R R R R R ~ ^ Q R ~ U T k.$X$X$X$X$X$X$X$X$X$X$X$X$X$X$X$X$X$X$X$X$X$X$X$XaX$X$X#X$X#Xv.q.e.e.e.e.e.e.e.e.e.e.e.e.e.e.e.e.e.e.e.e.e.e.e.e.8.e.0.p.e.#.#.#.>.>.>.>.>.>.>.>.>.>.>.>.>.>.>.>.>.>.>.>.>.>.>.>.>.#.$.2.3X#X+X+X$X$X$X$X$X$X$X$X$X$X$X$X$X$X$X$X#X#X#X#XZ.Z.Z.Z.@X3X5.& 9 q 8 8 8 8 8 8 8 8 8 8 8 8 8 8 8 8 8 8 = = = = = = = = = x V V V Z V m V V V V V V V V V V V V V V V V V V V V V V m m oX#X#X$XA.$X$X#X#X#X#X#X#X#X#X#X#X#X#X#X#X#X#X#X$X#X#X$X$X$X#X=.S S S S S S #.#.S S S S S S #.#.#.#.#.#.#.#.#.#.>.#.#.#.} V % % & & & & & & & & & & & & & & & & & & & & & 8 8 8 * & & & x 1.>.>.#.#.#.#.#.#.#.#.>.>.>.>.>.>.>.>.>.>.>.>.>.>.>.>.>.>.>.>.>.>.>.>.#.#.#.#.#.#.#.#.S S S S S S S S S S S S S S S S S S ",
"$X$X$X$X$X$X$X$X$X$X$X$X$X$X$X$X$X$X$X$X$X$X$X$X#X#X#X$XZ.3Xx.o = = = = 0 = = = 0 0 0 0 0 0 0 0 0 0 0 0 0 0 0 0 z 9 0 8 o $.J.J.$X$X$X$X$X$X$X$X$X%X$X$X$X$X$X$X$X$X$X$X$X$X$X$XA.$X#X5X,.V D D Z Z Z Z Z Z Z Z Z Z Z Z A A Z Z Z Z Z Z Z Z Z Z V A C 5.r.w.p.i.e.e.e.e.e.e.e.e.e.e.e.e.e.e.e.e.e.e.e.e.e.e.e.e.8.8.8.r.r.r.e.8.8.8.8.8.8.8.e.e.8.8.8.8.8.8.8.q.e.8.q.9.q.e.w.w.O.T E ^ ^ ) ( ) E E E E E E E E E E E E E E E E ^ R R ( ( ^ ' G.#X#X#X#X#X#X#X#X#X#X#X#X#X#X#X#X#X#X#X#X#X#X#X#X4XZ.Z.C.Z.Z.r.9.e.e.e.e.e.e.e.e.e.e.e.e.e.e.e.e.e.e.e.e.e.e.e.e.8.e.e.z.e.$.*.#.#.#.#.#.#.#.#.#.#.#.#.#.#.#.#.#.S S S S S S S S >.#.$.2.3X#X+X+X$X$X$X$X$X$X$X$X$X$X$X$X$X$X$X$X#X#X#X#XZ.Z.Z.Z.Z.5X2.& 0 0 & 4 8 8 7 8 7 8 8 7 7 7 8 8 8 8 8 8 0 0 0 0 0 0 0 0 0 x Z Z V Z Z V Z Z Z Z Z Z Z Z Z Z Z Z Z Z Z Z Z Z Z Z Z Z Z Z oXB.Z.Z.A.A.Z.#X#X#X#X#X#X#X#X#X#X#X#X#X#X#X#X#X#X#XC.#XA.$XB.$.} } >.} } } } } } } >.} } } } } >.#.#.#.>.>.>.>.1.#.>.>.>.V & 7 0 0 0 0 0 0 0 0 0 0 8 0 0 0 0 0 0 0 0 0 0 0 0 0 0 0 s 0 x S A S #.#.#.#.#.#.#.#.#.#.#.#.#.#.#.#.S S A A S S S S >.>.>.>.>.>.>.>.>.>.>.>.#.>.#.#.} } } } } } } } } } } } } } } } } } ",
"$X$X$X$X$X$X$X$X$X$X$X$X$X$X$X$X$X$X$X$X$X$X$X$XB.Z.Z.$XZ.5Xx.& 0 0 0 0 0 0 0 0 0 0 0 0 0 0 0 0 0 0 0 0 0 0 0 0 = - 0 8 4 $.Z.A.#X#X#X#X#X#X#X#X#X#X#X#X#X#X#X#X#X#X#X#X#X#X#X#XC.$X#X5X#.b Z Z Z Z Z Z Z Z Z Z V V V V V V V V V V V V V V V V V A C 1.6.3.e.0.e.e.e.e.e.e.e.e.e.e.e.e.e.e.e.e.e.e.e.e.e.e.e.e.8.e.r.r.r.r.8.8.e.e.e.e.e.e.e.e.e.e.e.e.e.e.e.e.e.8.q.9.q.e.e.w.O.T E R R ^ R R E E E E E E E E E E E E E E E E R R Y U ~ U T k.#X#X#X#X#X#X#X#X$X$X$X$X$X$X$X$X$X$X$X$X$X$X$X$X4XZ.#XZ.$X$Xv.q.e.e.e.e.e.e.e.8.e.e.e.e.e.e.e.e.e.e.e.e.e.e.e.e.0.e.0.p.w.#.A A >.>.>.>.>.>.>.>.>.>.>.>.>.>.>.>.>.>.>.>.>.>.>.>.S A #.2.3X+X+X#X$X$X$X$X$X$X$X$X$X$X$X$X$X$X$X$X#X#X#X#X#X#XZ.#XZ.5X5.= = 0 & a 0 0 0 0 0 0 0 0 0 0 0 0 0 0 0 0 0 0 0 0 0 0 0 0 = v m m m V V x m m m m m m m m m m m m m m m m V V V V V V V V %X#X#X$X$X$X$X$X$X$X$X$X4X4X4X4X$X$X$X$X4X4X4X4X$X#XA.$XA.4X#X$.>.>.>.>.>.>.>.>.>.>.>.>.>.>.>.>.>.>.>.>.>.>.>.>.} S S S } V * 7 0 0 0 0 0 0 9 9 0 0 0 0 0 0 0 0 0 0 0 0 0 0 0 0 = 0 0 0 V 1.#.1.$.$.$.$.$.$.$.$.>.>.>.>.>.>.>.>.>.>.>.>.>.>.>.>.S S >.>.>.>.>.>.>.>.>.>.>.>.>.>.>.>.>.>.>.>.>.>.>.>.>.>.>.>.>.>.>.>.",
"$X$X$X$X$X$X$X$X$X$X$X$X$X$X$X$X$X$X$X$X$X$X$X$X%X+XC.Z.Z.5Xx.X 0 0 0 0 9 9 9 9 0 0 0 0 0 0 0 0 9 9 9 9 9 9 9 9 > = 0 % X *.3XA.4X4X4X4X4X4X4X4X4X4X4X4X4X4X4X4X4X4X4X4X4X4X4X4X#X$XZ.7X,.C A Z Z Z Z Z Z Z Z Z V V V V V V V V V V V V V V V V V V C 1.w.w.i.e.e.e.e.e.e.e.e.e.e.e.e.e.e.e.e.e.e.e.e.e.e.e.e.e.8.8.8.e.e.r.e.e.0.0.0.0.0.w.w.w.0.0.0.e.e.0.8.8.0.8.8.8.8.0.e.6.O.'  .Q R ^ E E R R R R R R R R R ^ R R R R R R ) E W U ~ U ' x.#X#X#X#X#X#X#X#X#X#X#X#X#X#X#X#X#X#X#X#X#X#X#X#XaXA.$XZ.#X#Xv.q.e.e.e.e.e.e.e.8.e.e.e.e.e.e.e.e.e.e.e.e.e.e.e.e.8.e.0.p.e.#.#.#.#.#.#.#.#.#.#.#.#.#.#.#.#.#.#.#.#.#.#.#.#.#.#.#.>.#.$.2.3X#X+X+X$X$X$X$X$X$X$X$X$X$X$X$X$X$X$X$X#X#X#X#X#X#X#XZ.Z.3X5.= = 0 & a 9 9 9 9 9 9 9 9 9 9 9 9 9 9 9 9 7 7 7 7 9 9 9 9 = x Z V V Z Z m V V V V V V V V V V V V V V V V Z Z Z Z Z Z Z Z oX+XZ.A.A.A.$X#X#X#X#X#X#X#X#X#X#X#X#X#X#X#X#X#X#X#XC.A.A.$XZ.$.} >.} } } } } } } S } } } } } } >.>.#.>.>.>.>.>.1.S >.>.} V * 7 0 0 0 0 0 0 0 0 0 0 0 0 0 0 0 9 9 9 0 0 0 0 0 0 t t 0 = V 1.A #.#.#.#.#.#.#.#.#.#.#.#.#.#.#.#.#.#.#.#.#.#.#.#.#.>.>.>.>.>.>.>.>.>.>.>.>.>.>.>.>.>.>.} } } } >.>.} >.} } } } } } } } ",
"$X$X$X$X$X$X$X$X$X$X$X$X$X$X$X$X$X$X$X$X$X$X$X$X#X#X#X#XC.3Xz.: 0 0 0 0 0 0 0 0 0 0 0 0 0 0 0 0 0 0 0 0 0 0 0 0 = 0 0 7 4 *.6XA.$X$X$X$X$X$X$X$X$X$X$X$X$X$X$X$X$X$X$X$X$X$X$X$XC.$X#X5X2.C Z V V V V V V V V V V V V V V V V V V V V V V V V V b A j 6.w.r.e.e.e.e.e.e.e.e.e.e.e.e.e.e.e.e.e.e.e.e.e.e.e.e.e.e.e.e.e.e.e.e.e.e.e.e.e.e.e.e.e.e.e.e.e.e.e.e.e.e.e.e.e.e.e.e.e.e.7._ R ( R E E W R R R R R R R R R R R R R R R R ( R Q R ^ R ' k.3X#X#X$X#X$X$XA.$X$X$X$X$X$X$X$X$X$X$X$X$X$X$X$X$XC.$X#X3X#Xv.q.e.e.e.e.e.e.e.e.e.e.e.e.e.e.e.e.e.e.e.e.e.e.e.e.e.q.e.e.3.#.S >.#.#.#.#.#.#.#.#.#.#.#.#.#.#.#.#.#.#.#.#.#.#.#.#.#.A #.2.3X#XZ.#X$X$X$X$X$X$X$X$X$X$X$X$X$X$X$X$X#X#X#X#X#X#X#X#XA.6X2.& & 0 & & 0 0 0 0 0 0 0 0 0 0 0 0 0 0 0 0 0 0 0 0 0 0 0 0 & f V V V Z Z b V V V V V V V V V V V V V V V V Z Z Z V V V V C oX#X#XA.#X#X#X#X$X$X$X$X$X$X$X$X$X$X$X$X$X$X$X$X3X$XZ.#XZ.3XB.,.>.>.>.>.>.#.#.#.#.#.#.#.#.#.#.#.#.#.#.#.#.#.#.#.1.S #.>.>.V 8 8 0 0 0 0 0 0 0 0 0 0 0 0 0 0 0 0 0 0 0 0 0 0 0 0 9 9 9 & m 1.} >.>.#.#.#.#.#.#.#.#.#.#.#.#.#.#.#.#.#.#.#.#.#.#.#.#.#.#.#.#.#.#.#.#.#.#.#.#.#.#.#.#.#.#.#.#.#.#.#.#.#.#.#.#.#.#.#.#.#.",
"$X$X$X$X$X$X$X$X$X$X$X$X$X$X$X$X$X$X$X$X$X$X$X$X#X#X#X#XC.3Xz.: 0 0 0 0 0 0 0 0 0 0 0 0 0 0 0 0 0 0 0 0 0 0 0 0 = 0 0 7 4 *.6XZ.$X$X$X$X$X$X$X$X$X$X$X$X$X$X$X$X$X$X$X$X$X$X$X$XC.$X#X5X2.C Z V V V V V V V V V V V V V V V V V V V V V V V V V b A j 6.w.r.e.e.e.e.e.e.e.e.e.e.e.e.e.e.e.e.e.e.e.e.e.e.e.e.e.e.e.e.e.e.e.e.e.e.e.e.e.e.e.e.e.e.e.e.e.e.e.e.e.e.e.e.e.e.e.e.e.e.7._ R ( R E E W R R R R R R R R R R R R R R R R ( R Q R ^ R E k.3X#X$X$X#X$X$XA.$X$X$X$X$X$X$X$X$X$X$X$X$X$X$X$X$XC.$X#X3X#Xv.q.e.e.e.e.e.e.e.e.e.e.e.e.e.e.e.e.e.e.e.e.e.e.e.e.e.q.e.e.3.#.S >.#.#.#.#.#.#.#.#.#.#.#.#.#.#.#.#.#.#.#.#.#.#.#.#.#.A #.2.3X#XZ.#X$X#X$X$X$X$X$X$X$X$X$X$X$X$X$X$X#X#X#X#X#X#X#X#XA.6X2.& & 0 & & 0 0 0 0 0 0 0 0 0 0 0 0 0 0 0 0 0 0 0 0 0 0 0 0 & g V V V Z Z b V V V V V V V V V V V V V V V V Z Z Z V V V V C oX#X#XZ.#X#X#X#X$X$X$X$X$X$X$X$X$X$X$X$X$X$X$X$X3X$XZ.#XZ.4XB.,.>.>.>.>.>.#.#.#.#.#.#.#.#.#.#.#.#.#.#.#.#.#.#.#.1.S #.>.>.V 8 8 0 0 0 0 0 0 0 0 0 0 0 0 0 0 0 0 0 0 0 0 0 0 0 0 9 9 9 & m 1.} >.>.#.#.#.#.#.#.#.#.#.#.#.#.#.#.#.#.#.#.#.#.#.#.#.#.#.#.#.#.#.#.#.#.#.#.#.#.#.#.#.#.#.#.#.#.#.#.#.#.#.#.#.#.#.#.#.#.#.",
"$X$X$X$X$X$X$X$X$X$X$X$X$X$X$X$X$X$X$X$X$X$X$X$X#X#X#X#XC.3Xz.: 0 0 0 0 0 0 0 0 0 0 0 0 0 0 0 0 0 0 0 0 0 0 0 0 = 0 0 7 4 *.6XZ.$X$X$X$X$X$X$X$X$X$X$X$X$X$X$X$X$X$X$X$X$X$X$X$XC.$X#X5X2.C Z V V V V V V V V V V V V V V V V V V V V V V V V V b A j 6.w.r.e.e.e.e.e.e.e.e.e.e.e.e.e.e.e.e.e.e.e.e.e.e.e.e.e.e.e.e.e.e.e.e.e.e.e.e.e.e.e.e.e.e.e.e.e.e.e.e.e.e.e.e.e.e.e.e.e.e.7._ R ( R E E W R R R R R R R R R R R R R R R R ( R Q R ^ R ' k.#X#X#X$X#X$X$XA.$X$X$X$X$X$X$X$X$X$X$X$X$X$X$X$X$XC.$X#X3X#Xv.q.e.e.e.e.e.e.e.e.e.e.e.e.e.e.e.e.e.e.e.e.e.e.e.e.q.q.e.e.3.#.S >.#.#.#.#.#.#.#.#.#.#.#.#.#.#.#.#.#.#.#.#.#.#.#.#.#.A #.2.3X#XZ.#X$X$X$X$X$X$X$X$X$X$X$X$X$X$X$X$X#X#X#X#X#X#X#X#XA.6X2.& 8 0 & 8 0 0 0 0 0 0 0 0 0 0 0 0 0 0 0 0 0 0 0 0 0 0 0 0 & g V V V Z Z b V V V V V V V V V V V V V V V V Z Z V V V V V C oXoX#XZ.#X#X#X#X$X$X$X$X$X$X$X$X$X$X$X$X$X$X$X$X3X$XZ.#XZ.3XB.,.>.>.>.>.>.#.#.#.#.#.#.#.#.#.#.#.#.#.#.#.#.#.#.#.1.S #.>.>.V 8 8 0 0 0 0 0 0 0 0 0 0 0 0 0 0 0 0 0 0 0 0 0 0 0 0 9 9 0 & m 1.S #.#.#.#.#.#.#.#.#.#.#.#.#.#.#.#.#.#.#.#.#.#.#.#.#.#.#.#.#.#.#.#.#.#.#.#.#.#.#.#.#.#.#.#.#.#.#.#.#.#.#.#.#.#.#.#.#.#.#.",
"$X$X$X$X$X$X$X$X$X$X$X$X$X$X$X$X$X$X$X$X$X$X$X$X#X#X#X#XC.3Xz.: 0 0 0 0 0 0 0 0 0 0 0 0 0 0 0 0 0 0 0 0 0 0 0 0 = 0 0 7 4 *.6XZ.$X$X$X$X$X$X$X$X$X$X$X$X$X$X$X$X$X$X$X$X$X$X$X$XC.$X#X5X2.C Z V V V V V V V V V V V V V V V V V V V V V V V V V b A j 6.w.r.e.e.e.e.e.e.e.e.e.e.e.e.e.e.e.e.e.e.e.e.e.e.e.e.e.e.e.e.e.e.e.e.e.e.e.e.e.e.e.e.e.e.e.e.e.e.e.e.e.e.e.e.e.e.e.e.e.e.7._ R ( R E E W R R R R R R R R R R R R R R R R ( R Q R ^ R ' k.3X#X#X$X#X$X$XA.$X$X$X$X$X$X$X$X$X$X$X$X$X$X$X$X$XC.$X#X3X#Xv.q.e.e.e.e.e.e.e.e.e.e.e.e.e.e.e.e.e.e.e.e.e.e.e.e.q.q.e.e.3.#.S >.#.#.#.#.#.#.#.#.#.#.#.#.#.#.#.#.#.#.#.#.#.#.#.#.#.A #.2.3X#XZ.#X$X$X$X$X$X$X$X$X$X$X$X$X$X$X$X$X#X#X#X#X#X#X#X#XA.6X2.& 8 0 & 8 0 0 0 0 0 0 0 0 0 0 0 0 0 0 0 0 0 0 0 0 0 0 0 0 & g V V V Z Z b V V V V V V V V V V V V V V V V Z Z V V V V V C oXoX#XZ.#X#X#X#X$X$X$X$X$X$X$X$X$X$X$X$X$X$X$X$X3X$XZ.#XZ.3XB.,.>.>.>.>.>.#.#.#.#.#.#.#.#.#.#.#.#.#.#.#.#.#.#.#.1.S #.>.} V 8 8 0 0 0 0 0 0 0 0 0 0 0 0 0 0 0 0 0 0 0 0 0 0 0 0 9 9 0 & m 1.} >.#.#.#.#.#.#.#.#.#.#.#.#.#.#.#.#.#.#.#.#.#.#.#.#.#.#.#.#.#.#.#.#.#.#.#.#.#.#.#.#.#.#.#.#.#.#.#.#.#.#.#.#.#.#.#.#.#.#.",
"$X$X$X$X$X$X$X$X$X$X$X$X$X$X$X$X$X$X$X$X$X$X$X$X#X#X#X#XM.3Xz.: 0 0 0 0 0 0 0 0 0 0 0 0 0 0 0 0 0 0 0 0 0 0 0 0 = 0 0 7 4 *.6XZ.$X$X$X$X$X$X$X$X$X$X$X$X$X$X$X$X$X$X$X$X$X$X$X$XC.$X#X6X$.C C V V V V V V V V V V V V V V V V V V V V V V V V V b V V 6.e.r.e.e.e.e.e.e.e.e.e.e.e.e.e.e.e.e.e.e.e.e.e.e.e.e.e.e.e.e.e.e.e.e.e.e.e.e.e.e.e.e.e.e.e.e.e.e.e.e.e.e.e.e.e.e.e.e.e.e.7.y R ( R E E W R R R R R R R R R R R R R R R R ( R R R ~ R ' k.3X#X#X$X#X$X$XA.$X$X$X$X$X$X$X$X$X$X$X$X$X$X$X$X$XC.$X#X3X#Xv.q.e.e.e.e.e.e.e.e.e.e.e.e.e.e.e.e.e.e.e.e.e.e.e.e.e.8.e.e.3.$.#.>.#.#.#.#.#.#.#.#.#.#.#.#.#.#.#.#.#.#.#.#.#.#.#.#.#.#.#.2.3X+XZ.#X$X$X$X$X$X$X$X$X$X$X$X$X$X$X$X$X#X#X#X#X#X#X#X#XA.6X2.& 8 0 & 8 0 0 0 0 0 0 0 0 0 0 0 0 0 0 0 0 0 0 0 0 0 0 0 0 & g V V V Z Z b V V V V V V V V V V V V V V V V Z Z Z V V V V C oXoX#XZ.#X#X#X#X$X$X$X$X$X$X$X$X$X$X$X$X$X$X$X$X3X$XZ.#XZ.3XB.,.>.>.>.>.>.#.#.#.#.#.#.#.#.#.#.#.#.#.#.#.#.#.#.#.1.S #.>.} V 8 7 0 0 0 0 0 0 0 0 0 0 0 0 0 0 0 0 0 0 0 0 0 0 0 0 9 9 0 & m 1.} >.#.#.#.#.#.#.#.#.#.#.#.#.#.#.#.#.#.#.#.#.#.#.#.#.#.#.#.#.#.#.#.#.#.#.#.#.#.#.#.#.#.#.#.#.#.#.#.#.#.#.#.#.#.#.#.#.#.#.",
"$X$X$X$X$X$X$X$X$X$X$X$X$X$X$X$X$X$X$X$X$X$X$X$X#X#X#X#XC.3Xz.: 0 0 0 0 0 0 0 0 0 0 0 0 0 0 0 0 0 0 0 0 0 0 0 0 = 0 0 7 & *.6XA.$X$X$X$X$X$X$X$X$X$X$X$X$X$X$X$X$X$X$X$X$X$X$X$XC.$X#X5X,.C Z V V V V V V V V V V V V V V V V V V V V V V V V V b Z V 6.e.r.e.e.e.e.e.e.e.e.e.e.e.e.e.e.e.e.e.e.e.e.e.e.e.e.e.e.e.e.e.e.e.e.e.e.e.e.e.e.e.e.e.e.e.e.e.e.e.e.e.e.e.e.e.e.e.e.e.e.7.y R ( R E E W R R R R R R R R R R R R R R R R ( R R R ~ R ' k.3X#X#X$X#X$X$XA.$X$X$X$X$X$X$X$X$X$X$X$X$X$X$X$X$XC.$X#X3X#Xv.q.e.e.e.e.e.e.e.e.e.e.e.e.e.e.e.e.e.e.e.e.e.e.e.e.e.8.e.e.3.$.#.>.#.#.#.#.#.#.#.#.#.#.#.#.#.#.#.#.#.#.#.#.#.#.#.#.#.#.#.2.3X+XZ.#X$X$X$X$X$X$X$X$X$X$X$X$X$X$X$X$X#X#X#X#X#X#X#X#XA.6X2.& 8 0 % 8 0 0 0 0 0 0 0 0 0 0 0 0 0 0 0 0 0 0 0 0 0 0 0 0 & g V V V Z Z b V V V V V V V V V V V V V V V V Z Z Z V V V V C oXoX#XZ.#X#X#X#X$X$X$X$X$X$X$X$X$X$X$X$X$X$X$X$X3X$XZ.#XZ.3XB.,.>.>.>.>.>.#.#.#.#.#.#.#.#.#.#.#.#.#.#.#.#.#.#.#.1.S #.>.} V 8 7 0 0 0 0 0 0 0 0 0 0 0 0 0 0 0 0 0 0 0 0 0 0 0 0 9 9 0 & x 1.} >.#.#.#.#.#.#.#.#.#.#.#.#.#.#.#.#.#.#.#.#.#.#.#.#.#.#.#.#.#.#.#.#.#.#.#.#.#.#.#.#.#.#.#.#.#.#.#.#.#.#.#.#.#.#.#.#.#.#.",
"$X$X$X$X$X$X$X$X$X$X$X$X$X$X$X$X$X$X$X$X$X$X$X$X#X#X#X#XM.3Xz.& 0 0 0 0 0 0 0 0 0 0 0 0 0 0 0 0 0 0 0 0 0 0 0 0 = 0 0 7 & >.6XZ.$X$X$X$X$X$X$X$X$X$X$X$X$X$X$X$X$X$X$X$X$X$X$X$XC.$X#X5X$.b Z V V V V V V V V V V V V V V V V V V V V V V V V V V Z V 6.e.r.e.e.e.e.e.e.e.e.e.e.e.e.e.e.e.e.e.e.e.e.e.e.e.e.e.e.e.e.e.e.e.e.e.e.e.e.e.e.e.e.e.e.e.e.e.e.e.e.e.e.e.e.e.e.e.e.e.e.7.y R ( R E W W R R R R R R R R R R R R R R R R ( R Q R ~ R T k.3X#X#X$X#X$X$XA.$X$X$X$X$X$X$X$X$X$X$X$X$X$X$X$X$XC.$X#X3X#Xv.q.e.e.e.e.e.e.e.e.e.e.e.e.e.e.e.e.e.e.e.e.e.e.e.e.e.8.e.e.3.$.S >.#.#.#.#.#.#.#.#.#.#.#.#.#.#.#.#.#.#.#.#.#.#.#.#.#.#.#.2.3X#XC.#X$X$X$X$X$X$X$X$X$X$X$X$X$X$X$X$X#X#X#X#X#X#X#X#XA.6X2.& 7 0 & 8 0 0 0 0 0 0 0 0 0 0 0 0 0 0 0 0 0 0 0 0 0 0 0 0 & g V V V Z Z b V V V V V V V V V V V V V V V V Z Z Z V V V V C oXoX#XZ.#X#X#X#X$X$X$X$X$X$X$X$X$X$X$X$X$X$X$X$X3X#XZ.#XZ.3XB.,.>.>.>.>.>.#.#.#.#.#.#.#.#.#.#.#.#.#.#.#.#.#.#.#.1.S #.>.>.V 8 7 0 0 0 0 0 0 0 0 0 0 0 0 0 0 0 0 0 0 0 0 0 0 0 0 9 9 0 & x >.S >.#.#.#.#.#.#.#.#.#.#.#.#.#.#.#.#.#.#.#.#.#.#.#.#.#.#.#.#.#.#.#.#.#.#.#.#.#.#.#.#.#.#.#.#.#.#.#.#.#.#.#.#.#.#.#.#.#.#.",
"$X$X$X$X$X$X$X$X$X$X$X$X$X$X$X$X$X$X$X$X$X$X$X$X#X#X#X#XC.3Xz.& 0 0 0 0 0 0 0 0 0 0 0 0 0 0 0 0 0 0 0 0 0 0 0 0 = 0 0 7 & >.6XZ.$X$X$X$X$X$X$X$X$X$X$X$X$X$X$X$X$X$X$X$X$X$X$X$XC.$X#X5X2.b V V V V V V V V V V V V V V V V V V V V V V V V V V V Z V 6.e.r.e.e.e.e.e.e.e.e.e.e.e.e.e.e.e.e.e.e.e.e.e.e.e.e.e.e.e.e.e.e.e.e.e.e.e.e.e.e.e.e.e.e.e.e.e.e.e.e.e.e.e.e.e.e.e.e.e.e.7.y R ( R E E W R R R R R R R R R R R R R R R R ( R Q R ~ R T k.3X#X#X$X#XA.A.A.$X$X$X$X$X$X$X$X$X$X$X$X$X$X$X$X$XC.$X#X3X#Xv.q.e.e.e.e.e.e.e.e.e.e.e.e.e.e.e.e.e.e.e.e.e.e.e.e.e.8.e.e.3.$.#.>.#.#.#.#.#.#.#.#.#.#.#.#.#.#.#.#.#.#.#.#.#.#.#.#.#.#.#.2.3X+XC.#X$X$X$X$X$X$X$X$X$X$X$X$X$X$X$X$X#X#X#X#X#X#X#X#XA.4X2.& 7 0 % 8 0 0 0 0 0 0 0 0 0 0 0 0 0 0 0 0 0 0 0 0 0 0 0 0 & g V V V Z Z b V V V V V V V V V V V V V V V V Z Z Z V V V V C oXoX#XZ.#X#X#X#X$X$X$X$X$X$X$X$X$X$X$X$X$X$X$X$X3X$XZ.#XZ.3XB.$.>.>.>.>.>.#.#.#.#.#.#.#.#.#.#.#.#.#.#.#.#.#.#.#.1.S #.>.>.V 8 7 0 0 0 0 0 0 0 0 0 0 0 0 0 0 0 0 0 0 0 0 0 0 0 0 9 9 0 & m 1.S #.#.#.#.#.#.#.#.#.#.#.#.#.#.#.#.#.#.#.#.#.#.#.#.#.#.#.#.#.#.#.#.#.#.#.#.#.#.#.#.#.#.#.#.#.#.#.#.#.#.#.#.#.#.#.#.#.#.#.",
"$X$X$X$X$X$X$X$X$X$X$X$X$X$X$X$X$X$X$X$X$X$X$X$X$X#X#X#XC.3Xz.: 0 0 0 0 0 0 0 0 0 0 0 0 0 0 0 0 0 0 0 0 0 0 0 0 = 0 0 7 & >.9XA.$X$X$X$X$X$X$X$X$X$X$X$X$X$X$X$X$X$X$X$X$X$X$X$XZ.$X%X5X2.C Z V V V V V V V V V V V V V V V V V V V V V V V V V b A V 6.e.r.e.e.e.e.e.e.e.e.e.e.e.e.e.e.e.e.e.e.e.e.e.e.e.e.e.e.e.e.e.e.e.e.e.e.e.e.e.e.e.e.e.e.e.e.e.e.e.e.e.e.e.e.e.e.e.e.e.e.7.y R ( R E E W R R R R R R R R R R R R R R R R ( R R R ^ R E k.%X#X#X$X#X$X$XA.$X$X$X$X$X$X$X$X$X$X$X$X$X$X$X$X$XC.$X#X3X#Xv.q.e.e.e.e.e.e.e.e.e.e.e.e.e.e.e.e.e.e.e.e.e.e.e.e.e.q.e.e.3.#.S >.#.#.#.#.#.#.#.#.#.#.#.#.#.#.#.#.#.#.#.#.#.#.#.#.#.A #.2.3X#XZ.#X$X$X$X$X$X$X$X$X$X$X$X$X$X$X$X$X#X#X#X#X#X#X#X#XA.4X2.& 8 0 & 8 0 0 0 0 0 0 0 0 0 0 0 0 0 0 0 0 0 0 0 0 0 0 0 0 & f V V V Z Z b V V V V V V V V V V V V V V V V Z Z Z V V V V C oXoX#XZ.#X#X#X#X$X$X$X$X$X$X$X$X$X$X$X$X$X$X$X$X3X$XZ.#XZ.4XB.,.>.>.>.>.>.>.#.#.#.#.#.#.#.#.#.#.#.#.#.#.#.#.#.#.>.S #.>.>.V 8 8 0 0 0 0 0 0 0 0 0 0 0 0 0 0 0 0 0 0 0 0 0 0 0 0 9 9 0 & b >.#.#.#.#.#.#.#.#.#.#.#.#.#.#.#.#.#.#.#.#.#.#.#.#.#.#.#.#.#.#.#.#.#.#.#.#.#.#.#.#.#.#.#.#.#.#.#.#.#.#.#.#.#.#.#.#.#.#.#.#.",
"$X$X$X$X$X$X$X$X$X$X$X$X$X$X$X$X$X$X$X$X$X$X$X$X$X#XA.#XC.3Xz.: 0 0 0 0 0 0 0 0 0 0 0 0 0 0 0 0 0 0 0 0 0 0 0 0 = 0 0 7 & >.6XA.$X$X$X$X$X$X$X$X$X$X$X$X$X$X$X$X$X$X$X$X$X$X$X$XC.$X%X5X2.C Z V V V V V V V V V V V V V V V V V V V V V V V V V b A V 6.e.r.e.e.e.e.e.e.e.e.e.e.e.e.e.e.e.e.e.e.e.e.e.e.e.e.e.e.e.e.e.e.e.e.e.e.e.e.e.e.e.e.e.e.e.e.e.e.e.e.e.e.e.e.e.e.e.e.e.e.7.y R ( R E W W R R R R R R R R R R R R R R R R ( R R R ^ R E k.%X#X$X$X#X$X$XA.$X$X$X$X$X$X$X$X$X$X$X$X$X$X$X$X$XC.$X#X3X#Xv.q.e.e.e.e.e.e.e.e.e.e.e.e.e.e.e.e.e.e.e.e.e.e.e.e.e.q.e.e.3.#.S >.#.#.#.#.#.#.#.#.#.#.#.#.#.#.#.#.#.#.#.#.#.#.#.#.#.A #.2.3X#XZ.#X$X$X$X$X$X$X$X$X$X$X$X$X$X$X$X$X#X#X#X#X#X#X#X#XA.4X2.& 8 0 & 8 0 0 0 0 0 0 0 0 0 0 0 0 0 0 0 0 0 0 0 0 0 0 0 0 & g V V V Z Z b V V V V V V V V V V V V V V V V Z Z Z V V V V C oXoX#XZ.#X#X#X#X$X$X$X$X$X$X$X$X$X$X$X$X$X$X$X$X3X$XZ.#XZ.4XB.$.>.>.>.>.>.#.#.#.#.#.#.#.#.#.#.#.#.#.#.#.#.#.#.#.>.S #.>.>.V 8 8 0 0 0 0 0 0 0 0 0 0 0 0 0 0 0 0 0 0 0 0 0 0 0 0 9 9 0 & b >.#.#.#.#.#.#.#.#.#.#.#.#.#.#.#.#.#.#.#.#.#.#.#.#.#.#.#.#.#.#.#.#.#.#.#.#.#.#.#.#.#.#.#.#.#.#.#.#.#.#.#.#.#.#.#.#.#.#.#.#.",
"$X$X$X$X$X$X$X$X$X$X$X$X$X$X$X$X$X$X$X$X$X$X$X$X$X#X#X#XC.3Xz.: 0 0 0 0 0 0 0 0 0 0 0 0 0 0 0 0 0 0 0 0 0 0 0 0 = 0 0 7 8 >.9XA.$X$X$X$X$X$X$X$X$X$X$X$X$X$X$X$X$X$X$X$X$X$X$X$XC.$X%X5X,.b Z V V V V V V V V V V V V V V V V V V V V V V V V V b A V 6.e.r.e.e.e.e.e.e.e.e.e.e.e.e.e.e.e.e.e.e.e.e.e.e.e.e.e.e.e.e.e.e.e.e.e.e.e.e.e.e.e.e.e.e.e.e.e.e.e.e.e.e.e.e.e.e.e.e.e.e.7.y R ( R E E W R R R R R R R R R R R R R R R R ( R R R ^ R E k.%X$X$X$X#X$X$XA.$X$X$X$X$X$X$X$X$X$X$X$X$X$X$X$X$XC.$X#X3X#Xv.q.e.e.e.e.e.e.e.e.e.e.e.e.e.e.e.e.e.e.e.e.e.e.e.e.e.q.e.e.3.#.S >.#.#.#.#.#.#.#.#.#.#.#.#.#.#.#.#.#.#.#.#.#.#.#.#.#.A #.2.3X+XZ.#X$X$X$X$X$X$X$X$X$X$X$X$X$X$X$X$X#X#X#X#X#X#X#X#XA.4X2.& 8 0 % 8 0 0 0 0 0 0 0 0 0 0 0 0 0 0 0 0 0 0 0 0 0 0 0 0 & f V V V Z Z b V V V V V V V V V V V V V V V V Z Z Z V V V V C oXoX#XZ.#X#X#X#X$X$X$X$X$X$X$X$X$X$X$X$X$X$X$X$X3X#XZ.#XZ.4XB.,.>.>.>.>.>.#.#.#.#.#.#.#.#.#.#.#.#.#.#.#.#.#.#.#.>.S #.#.>.V 8 8 0 0 0 0 0 0 0 0 0 0 0 0 0 0 0 0 0 0 0 0 0 0 0 0 9 9 0 & b >.>.>.#.#.#.#.#.#.#.#.#.#.#.#.#.#.#.#.#.#.#.#.#.#.#.#.#.#.#.#.#.#.#.#.#.#.#.#.#.#.#.#.#.#.#.#.#.#.#.#.#.#.#.#.#.#.#.#.#.#.",
"$X$X$X$X$X$X$X$X$X$X$X$X$X$X$X$X$X$X$X$X$X$X$X$X$X#X#X#XC.3Xz.: 0 0 0 0 0 0 0 0 0 0 0 0 0 0 0 0 0 0 0 0 0 0 0 0 = 0 0 7 8 1.9XA.$X$X$X$X$X$X$X$X$X$X$X$X$X$X$X$X$X$X$X$X$X$X$X$XC.$X%X5X,.b Z V V V V V V V V V V V V V V V V V V V V V V V V V b A V 6.e.r.e.e.e.e.e.e.e.e.e.e.e.e.e.e.e.e.e.e.e.e.e.e.e.e.e.e.e.e.e.e.e.e.e.e.e.e.e.e.e.e.e.e.e.e.e.e.e.e.e.e.e.e.e.e.e.e.e.e.7.y R ( R E E W R R R R R R R R R R R R R R R R ( R R R ^ R E k.%X$X$X$X#X$X$XA.$X$X$X$X$X$X$X$X$X$X$X$X$X$X$X$X#XC.$X#X3X#Xv.q.e.e.e.e.e.e.e.e.e.e.e.e.e.e.e.e.e.e.e.e.e.e.e.e.q.q.e.e.3.#.S >.#.#.#.#.#.#.#.#.#.#.#.#.#.#.#.#.#.#.#.#.#.#.#.#.#.A #.2.3X#XZ.#X$X$X$X$X$X$X$X$X$X$X$X$X$X$X$X$X#X#X#X#X#X#X#X#XA.4X2.& 8 0 % 8 0 0 0 0 0 0 0 0 0 0 0 0 0 0 0 0 0 0 0 0 0 0 0 0 & g V V V Z Z b V V V V V V V V V V V V V V V V Z Z Z V V V V C oXoX#XZ.#X#X#X#X$X$X$X$X$X$X$X$X$X$X$X$X$X$X$X$X3X$XZ.#XZ.4XB.,.>.>.>.>.>.#.#.#.#.#.#.#.#.#.#.#.#.#.#.#.#.#.#.#.1.S #.#.>.V 8 8 0 0 0 0 0 0 0 0 0 0 0 0 0 0 0 0 0 0 0 0 0 0 0 0 9 9 0 & b >.>.>.#.#.#.#.#.#.#.#.#.#.#.#.#.#.#.#.#.#.#.#.#.#.#.#.#.#.#.#.#.#.#.#.#.#.#.#.#.#.#.#.#.#.#.#.#.#.#.#.#.#.#.#.#.#.#.#.#.#.",
"$X$X$X$X$X$X$X$X$X$X$X$X$X$X$X$X$X$X$X$X$X$X$X$X#X#X#X#XM.3Xz.: 0 0 0 0 0 0 0 0 0 0 0 0 0 0 0 0 0 0 0 0 0 0 0 0 = 0 0 7 4 *.6XZ.$X$X$X$X$X$X$X$X$X$X$X$X$X$X$X$X$X$X$X$X$X$X$X$XC.$X#X5X$.C C V V V V V V V V V V V V V V V V V V V V V V V V V b A j 6.w.r.e.e.e.e.e.e.e.e.e.e.e.e.e.e.e.e.e.e.e.e.e.e.e.e.e.e.e.e.e.e.e.e.e.e.e.e.e.e.e.e.e.e.e.e.e.e.e.e.e.e.e.e.e.e.e.e.e.e.7._ R ( R E E W R R R R R R R R R R R R R R R R ( R Q R ^ R ' k.3X#X#X$X#X$X$XA.$X$X$X$X$X$X$X$X$X$X$X$X$X$X$X$X$XC.$X#X3X%Xv.q.e.e.e.e.e.e.e.e.e.e.e.e.e.e.e.e.e.e.e.e.e.e.e.e.e.8.e.e.3.$.S >.#.#.#.#.#.#.#.#.#.#.#.#.#.#.#.#.#.#.#.#.#.#.#.#.#.#.#.2.3X#XZ.#X$X$X$X$X$X$X$X$X$X$X$X$X$X$X$X$X#X#X#X#X#X#X#X#XA.6X2.& & 0 & 8 0 0 0 0 0 0 0 0 0 0 0 0 0 0 0 0 0 0 0 0 0 0 0 0 & g V V V Z Z b V V V V V V V V V V V V V V V V Z Z Z V V V V C oXoX#XZ.#X#X#X#X$X$X$X$X$X$X$X$X$X$X$X$X$X$X$X$X3X$XZ.#XZ.3XB.,.>.>.>.>.>.#.#.#.#.#.#.#.#.#.#.#.#.#.#.#.#.#.#.#.1.S #.>.} V 8 7 0 0 0 0 0 0 0 0 0 0 0 0 0 0 0 0 0 0 0 0 0 0 0 0 9 9 0 & b >.>.>.#.#.#.#.#.#.#.#.#.#.#.#.#.#.#.#.#.#.#.#.#.#.#.#.#.#.#.#.#.#.#.#.#.#.#.#.#.#.#.#.#.#.#.#.#.#.#.#.#.#.#.#.#.#.#.#.#.#.",
"$X$X$X$X$X$X$X$X$X$X$X$X$X$X$X$X$X$X$X$X$X$X$X$X#X#X#X#XM.3Xz.: 0 0 0 0 0 0 0 0 0 0 0 0 0 0 0 0 0 0 0 0 0 0 0 0 = 0 0 7 4 *.6XZ.$X$X$X$X$X$X$X$X$X$X$X$X$X$X$X$X$X$X$X$X$X$X$X$XC.$X#X5X,.C C V V V V V V V V V V V V V V V V V V V V V V V V V b A j 6.w.r.e.e.e.e.e.e.e.e.e.e.e.e.e.e.e.e.e.e.e.e.e.e.e.e.e.e.e.e.e.e.e.e.e.e.e.e.e.e.e.e.e.e.e.e.e.e.e.e.e.e.e.e.e.e.e.e.e.e.7._ R ( R E E W R R R R R R R R R R R R R R R R ( R Q R ^ R ' k.%X#X#X$X#XA.$XA.$X$X$X$X$X$X$X$X$X$X$X$X$X$X$X$X$XC.$X#X%X#Xv.q.e.e.e.e.e.e.e.e.e.e.e.e.e.e.e.e.e.e.e.e.e.e.e.e.e.8.e.e.3.$.S >.#.#.#.#.#.#.#.#.#.#.#.#.#.#.#.#.#.#.#.#.#.#.#.#.#.#.#.2.3X#XZ.#X$X$X$X$X$X$X$X$X$X$X$X$X$X$X$X$X#X#X#X#X#X#X#X#XA.6X2.& 8 0 & 8 0 0 0 0 0 0 0 0 0 0 0 0 0 0 0 0 0 0 0 0 0 0 0 0 & g V V V Z Z b V V V V V V V V V V V V V V V V Z Z Z V V V V C oXoX#XZ.#X#X#X#X$X$X$X$X$X$X$X$X$X$X$X$X$X$X$X$X3X$XZ.#XZ.3XB.,.>.>.>.>.>.#.#.#.#.#.#.#.#.#.#.#.#.#.#.#.#.#.#.#.1.S #.>.} V 8 7 0 0 0 0 0 0 0 0 0 0 0 0 0 0 0 0 0 0 0 0 0 0 0 0 9 9 0 & b >.>.>.#.#.#.#.#.#.#.#.#.#.#.#.#.#.#.#.#.#.#.#.#.#.#.#.#.#.#.#.#.#.#.#.#.#.#.#.#.#.#.#.#.#.#.#.#.#.#.#.#.#.#.#.#.#.#.#.#.#.",
"$X$X$X$X$X$X$X$X$X$X$X$X$X$X$X$X$X$X$X$X$X$X$X$X#X#X#X#XC.3Xz.: 0 0 0 0 0 0 0 0 0 0 0 0 0 0 0 0 0 0 0 0 0 0 0 0 = 0 0 7 4 *.6XZ.$X$X$X$X$X$X$X$X$X$X$X$X$X$X$X$X$X$X$X$X$X$X$X$XC.$X#X5X2.C C V V V V V V V V V V V V V V V V V V V V V V V V V b A j 6.w.r.e.e.e.e.e.e.e.e.e.e.e.e.e.e.e.e.e.e.e.e.e.e.e.e.e.e.e.e.e.e.e.e.e.e.e.e.e.e.e.e.e.e.e.e.e.e.e.e.e.e.e.e.e.e.e.e.e.e.7.y R ( R R E W R R R R R R R R R R R R R R R R ( R R R ^ R ' k.%X#X#X$X#X$X$XA.$X$X$X$X$X$X$X$X$X$X$X$X$X$X$X$X$XC.$X#X3X#Xv.q.e.e.e.e.e.e.e.e.e.e.e.e.e.e.e.e.e.e.e.e.e.e.e.e.e.8.e.e.3.$.S >.#.#.#.#.#.#.#.#.#.#.#.#.#.#.#.#.#.#.#.#.#.#.#.#.#.#.#.2.3X#XZ.#X$X$X$X$X$X$X$X$X$X$X$X$X$X$X$X$X#X#X#X#X#X#X#X#XA.4X2.& 8 0 & 8 0 0 0 0 0 0 0 0 0 0 0 0 0 0 0 0 0 0 0 0 0 0 0 0 & g V V V Z Z b V V V V V V V V V V V V V V V V Z Z V V V V V C oX#X#XZ.#X#X#X#X$X$X$X$X$X$X$X$X$X$X$X$X$X$X$X$X3X$XZ.#XZ.3XB.,.>.>.>.>.>.#.#.#.#.#.#.#.#.#.#.#.#.#.#.#.#.#.#.#.1.S #.>.>.V 8 7 0 0 0 0 0 0 0 0 0 0 0 0 0 0 0 0 0 0 0 0 0 0 0 0 9 9 0 & b >.>.>.#.#.#.#.#.#.#.#.#.#.#.#.#.#.#.#.#.#.#.#.#.#.#.#.#.#.#.#.#.#.#.#.#.#.#.#.#.#.#.#.#.#.#.#.#.#.#.#.#.#.#.#.#.#.#.#.#.#.",
"$X$X$X$X$X$X$X$X$X$X$X$X$X$X$X$X$X$X$X$X$X$X$X$X#X#X#X#XC.3Xz.: 0 0 0 0 0 0 0 0 0 0 0 0 0 0 0 0 0 0 0 0 0 0 0 0 = 0 0 7 4 *.6XZ.$X$X$X$X$X$X$X$X$X$X$X$X$X$X$X$X$X$X$X$X$X$X$X$XC.$X#X5X2.C C V V V V V V V V V V V V V V V V V V V V V V V V V b A j 6.w.r.e.e.e.e.e.e.e.e.e.e.e.e.e.e.e.e.e.e.e.e.e.e.e.e.e.e.e.e.e.e.e.e.e.e.e.e.e.e.e.e.e.e.e.e.e.e.e.e.e.e.e.e.e.e.e.e.e.e.7._ R ( R E E W R R R R R R R R R R R R R R R R ( R R R ^ R ' k.3X#X#X$X#X$XA.A.$X$X$X$X$X$X$X$X$X$X$X$X$X$X$X$X$XC.$X#X3X#Xv.q.e.e.e.e.e.e.e.e.e.e.e.e.e.e.e.e.e.e.e.e.e.e.e.e.e.8.e.e.3.$.S >.#.#.#.#.#.#.#.#.#.#.#.#.#.#.#.#.#.#.#.#.#.#.#.#.#.#.#.2.3X#XZ.#X$X$X$X$X$X$X$X$X$X$X$X$X$X$X$X$X#X#X#X#X#X#X#X#XA.4X2.& 8 0 & 8 0 0 0 0 0 0 0 0 0 0 0 0 0 0 0 0 0 0 0 0 0 0 0 0 & g V V V Z Z b V V V V V V V V V V V V V V V V Z Z V V V V V C oXoX#XA.#X#X#X#X$X$X$X$X$X$X$X$X$X$X$X$X$X$X$X$X3X#XZ.#XZ.3XB.,.>.>.>.>.>.#.#.#.#.#.#.#.#.#.#.#.#.#.#.#.#.#.#.#.1.S #.>.>.V 8 7 0 0 0 0 0 0 0 0 0 0 0 0 0 0 0 0 0 0 0 0 0 0 0 0 9 9 0 & b >.>.>.#.#.#.#.#.#.#.#.#.#.#.#.#.#.#.#.#.#.#.#.#.#.#.#.#.#.#.#.#.#.#.#.#.#.#.#.#.#.#.#.#.#.#.#.#.#.#.#.#.#.#.#.#.#.#.#.#.#.",
"#X#X#X#X#X#X#X#X#X#X#X#X#X#X#X#X#X#X#X#X#X#X#X#XoX%X#X+XM.oXl.: 0 0 0 0 0 0 = = 8 8 8 8 8 8 8 8 8 8 8 8 8 8 8 8 = 0 % s o =.#X@X$X$X$X$X$X$X$X$X$X$X$X$X$X$X$X$X$X$X$X$X$X$X$X$X+X$XK.6X2.V Z V m m m m m m m m m m m m m m m m V V V V V V V V m m m w.w.8.8.8.r.r.t.t.r.r.r.r.r.r.t.t.r.r.r.r.e.e.e.e.e.e.e.e.e.e.e.e.e.e.e.e.e.e.e.e.e.e.e.e.e.e.e.e.e.e.e.e.r.e.e.e.8.e.e.f.O.W U ~ ~ ) / ^ ^ ^ ^ ^ ^ ^ / / ^ ^ ^ ^ ^ ^ / / T ' Y ( ~ ( T d.%X%X%X%X%X%X%X%X#X#X#X#X#X#X#X#X#X#X#X#X#X#X#X#XA.A.4X3X3X#Xp.r.e.e.e.e.e.e.e.e.e.e.e.e.e.e.e.e.e.e.e.e.e.e.e.e.e.e.r.r.6...| O.#.#.#.#.#.#.#.#.%.%.%.%.%.%.%.%.#.#.#.#.#.#.#.#.} S #.2.3X#X+X+X#X#X#X#X#X#X#X#X#X#X#X#X#X#X#X#X#X#X#X#X#X#X#X#XoX1X1.X % 0 & 8 8 8 8 8 8 8 8 8 8 8 8 8 8 8 8 8 0 0 0 0 0 0 0 0 : g V V V C V b C C C C C C C C C C C C C C C C C C C C C C C C 1X1X#X#X#X#X#X3X#X#X#X#X#X#X#X#X#X#X#X#X#X#X#X#X%X%X#X4XZ.3XoX$.S S S S S S S S >.>.>.>.} >.>.>.} } } } } } } } >.S >.S } V & & 8 8 8 8 8 8 8 8 8 8 8 8 8 8 8 8 8 8 8 8 8 8 8 8 8 & 8 & b >.#.#.>.>.>.>.>.>.>.>.>.>.>.>.>.>.>.>.>.>.>.>.>.>.>.>.>.>.>.>.>.>.>.>.>.>.>.>.>.>.>.>.>.>.>.>.>.>.>.>.>.>.>.>.>.>.>.>.>.>.",
"+X+X+X+X#X#XZ.Z.+X+X+X+X#X#X#X#X#X#X#X#X#X#X#X#XM.#X#X#X#X3Xz.: 0 0 0 0 0 0 0 0 8 8 8 8 8 8 8 8 8 8 8 8 8 8 8 8 = 0 * 0 X *.+XC.$X$X$X$X$X$X$X$X$X$X$X$X$X$X$X$X$X$X$X$X$X$X$X$X+X$XK.6X2.V Z V Z Z Z Z Z Z Z Z V V V V Z Z V V Z Z Z Z Z Z Z Z m m g w.w.e.r.r.8.8.q.q.8.8.8.8.8.8.q.q.8.8.8.8.0.0.0.0.0.0.0.0.e.e.e.e.e.e.e.e.e.e.e.e.e.e.e.e.e.e.e.e.e.e.e.e.e.e.e.e.8.e.e.f.O.T U U R / E E Q Q Q Q R R R R Q Q Q Q R R R R T T T ( ~ ) _ s.oX+X+X+X+X#X#X#X#X#X#X#X#X#X+X+X+XC.#X#X#X#X#X#XZ.Z.4X#X#X#Xr.8.e.e.e.e.e.e.e.e.e.e.e.e.e.e.e.e.e.e.e.e.e.e.e.e.e.e.q.r.0.>.} X.S S S S S S S S ........S S } } S S S S S S S S } A #.=.3X+XC.+XZ.C.Z.Z.Z.Z.C.Z.#X#X#X#X#X#X+X+X+XC.#X#X#X#X#X#X%X8X1.% * 0 0 f 8 8 8 8 8 8 8 8 8 8 8 8 8 8 8 8 0 0 0 0 0 0 0 0 : d b b b V V b V V V V C C V V C C C C C C C C V V V V V A A A 1X3X#X#X#X#X#X3X#X#X#X#X#X#X$X$X#X#X#X#X#X#X$X$X%X$XZ.$X#X#XB.$.#.#.#.#.#.#.#.#.>.>.>.>.>.>.>.>.>.>.>.>.>.>.>.>.#.S >.>.5.Z > & & 8 & 8 8 8 8 8 8 8 & & & & & & & & & & & & & & 0 0 0 & b 1.} >.S S S S S S S S S S } S S } S S S S S S S S } S S S S S S S S S S S S S S S S S S S S S S S S S S S S S S } S S S S ",
"#X#X#X#X#X#X#X#X#X#X#X#X#X#X#X#X#X#X#X#X#X#X#X#X$X$X#X#X#X5Xz.@ 0 0 0 0 0 0 0 0 0 0 0 0 0 0 0 0 9 9 0 0 0 0 0 0 t t 9 q & 2.5X4X$X$X$X$X$X$X$X$X$X$X$X$X$X$X$X$X$X$X$X$X$X$X$X$X+X$XA.6X2.m m V b b V V b b b b V V V V V V V V b b b b b b b b Z V V w.w.8.8.8.r.r.r.r.r.r.r.r.r.r.r.r.r.r.r.r.e.e.e.e.e.e.i.i.e.r.e.e.e.e.e.e.e.e.e.e.e.e.e.e.e.e.e.e.e.e.e.e.e.e.e.e.8.e.f.f.4.' Y Y E Q E E T T Q T T T T T T T Q T T T T T R Q E ) ( Q y 6.#X#X#X#X#X$X$X$X$X#X#X#X#X#X#X#X#X#X#X#X#X#X#X#XA.A.4X4X3X#Xp.r.e.e.e.e.e.e.e.e.e.e.e.e.e.e.e.e.e.e.e.e.e.e.e.e.e.e.q.q.8.$.#.1.} S } } } } S S } } } } } } } } } } } S S } } } 1.#.$.8.3X#X#X#X#X#X#X#X#X#X#X#X$X#X#X#X#X#X#X#X#X#X#X#X#X#X#X#X3X5X2.& * 0 9 9 9 9 0 0 0 0 9 9 0 0 0 0 0 0 9 0 0 0 0 0 0 0 0 0 s x Z Z V Z Z V Z Z Z Z Z Z Z Z Z Z Z Z Z Z Z Z m m V V V V V V oX#X#XC.@X+X#X#X#X#X#X#X#X#X#X#X#X#X#X#X#X#X#X#X#X#XC.#XZ.#XB.$.#.#.#.#.#.#.#.#.#.#.#.#.#.#.#.#.#.#.#.#.#.#.#.#.>.S >.>.>.Z & & 0 0 0 0 0 0 0 0 0 0 0 0 0 0 0 0 0 0 0 0 0 0 0 0 9 0 0 & m >.} } >.>.>.>.>.>.>.>.>.>.>.>.>.>.>.>.>.>.>.>.>.>.>.>.>.>.>.>.>.>.>.>.>.>.>.>.>.>.>.>.>.>.>.>.>.>.>.>.>.>.>.>.>.>.>.>.>.>.",
"#X#X#X#X#X#X#X#X#X#X#X#X#X#X$X#X#X#X#X#XA.#X#X#X4X$XS.S.#X6Xn., 9 9 9 9 9 9 * * 9 9 9 9 9 9 9 9 9 9 9 9 9 9 9 9 ; 0 % q % 1.7X3X$X$X$X$X$X$X$X$X$X$X$X$X$X$X$X$X$X$X$X$X$X$X$X$X+X$XA.6X$.m m m Z Z Z Z Z Z Z Z Z Z Z Z Z Z Z Z Z C Z Z Z Z Z Z Z V m w.w.e.r.8.0.0.0.0.0.0.0.0.0.0.0.0.0.0.0.0.0.0.0.0.0.0.0.0.e.r.e.e.e.e.e.e.e.e.e.e.e.e.e.e.e.e.e.e.e.e.e.e.e.e.8.8.8.e.f.f.4.' Y W R / R W W R E E E W E E W R E E E W R E ) ) R ) ~ R y 7.#X#X#X#XA.A.A.A.#X#X#X#X#X#X#X#X#X#X#X#XA.#X#X#XA.A.4X3X3X#Xp.r.e.e.e.e.e.e.e.e.e.e.e.e.e.e.e.e.e.e.e.e.e.e.e.e.e.e.q.q.:.&.%.$.S S S S S S S S S S S S S S S S S S S S S S S } >.#.$.8.5X#XZ.#XA.#X#X#XA.A.A.A.#X#X#X#X#X#X#X#X#X#X#X#XA.#X#X#XJ.5X5.= = u 9 9 9 9 9 9 9 9 9 9 9 9 9 9 9 9 9 9 9 9 9 9 9 9 9 9 = z m m m Z m m m m m m N m m m m m m m m m m m N N N N V V V V 3X#X#X@X@X@X#X$X#X#X#X#X#X#X#X#X#X#X#X#X#X#X#X#X#X#XS.$X#X$XZ.$.#.#.#.#.#.#.#.#.#.#.#.#.#.#.#.#.#.#.#.#.#.#.#.#.>.S } S } b & & 9 9 9 9 9 9 9 9 9 9 9 9 9 9 9 9 9 9 9 9 9 9 9 9 9 9 0 = N | } } S S S S S S S S S S S S S S S S S S S S S S S S S S S S S S S S S S S S S S S S S S S S S S S S S S S S S S S S S S ",
"A.A.A.A.A.A.A.A.A.A.A.A.A.A.A.A.A.A.A.A.A.A.A.A.Z.$XC.A.$X9Xn., t t t t t t t t 0 0 0 0 0 0 0 0 0 0 0 0 0 0 0 0 v v 9 t 8 1.7XJ.$X$X$X$X$X$X$X$X$X$X$X$X$X$X$X$X$X$X$X$X$X$X$X$X+X$XA.6X$.m m m V V V V V V V V Z Z n n n n n n V V V V V V V V m m m w.w.e.r.r.e.e.e.e.e.e.e.e.e.e.e.e.e.e.e.e.a.a.a.0.e.e.a.a.r.r.e.e.e.e.e.e.e.e.e.e.e.e.e.e.e.e.e.e.e.e.e.e.e.e.e.e.e.e.f.f.d.{ R ~ ) ) ) ( ^ ^ ^ ^ ^ ^ ^ ^ ^ ^ ^ ^ ^ ^ ^ ^ ) ) ( ) ~ ) E k.Z.Z.Z.Z.Z.A.A.A.A.A.A.A.A.A.A.A.A.A.A.A.A.A.A.A.A.C.A.Z.#XB.r.8.e.e.e.e.e.e.e.e.e.e.e.e.e.e.e.e.e.e.e.e.e.e.e.e.e.0.q.q.:.&.%.$.#.#.$.#.#.#.#.#.#.#.#.#.#.#.#.#.#.#.#.#.#.#.#.$.} S >.2.3XZ.C.Z.Z.Z.A.A.A.A.A.A.A.A.A.A.A.A.A.A.A.A.A.A.A.A.A.A.J.9X5.= 0 y t y 0 0 0 0 0 0 0 0 0 0 0 0 0 0 0 0 t t t t t t t t 8 x N Z Z Z Z m N Z Z Z Z Z Z Z N N Z Z Z Z N N N Z Z Z Z Z Z Z B.B.C.C.C.C.C.C.C.C.C.C.C.C.C.C.C.C.C.C.C.C.C.Z.+XC.C.A.C.#XM.%.#.#.#.#.#.#.#.#.#.#.%.%.%.%.#.#.%.%.%.%.%.%.%.%.} S } >.1.Z = 0 0 0 0 0 0 0 0 0 9 9 9 9 9 9 9 9 9 9 9 9 9 9 9 9 t 0 0 0 m 4.} >.#.#.#.#.#.#.#.#.#.#.#.#.#.#.#.#.#.#.#.#.#.#.#.#.#.#.#.#.#.#.#.#.#.#.#.#.#.#.#.#.#.#.#.#.#.#.#.#.#.#.#.#.#.#.#.#.#.#.",
"$X$X$X$X$X4X4X$X$X$X$X$X$X$X4X4X$X$X$X$X$X$X$X$XZ.$X#X#X#X3Xr.O = = = = = = = = & & & & 8 8 8 8 & & & & & & & 8 = 0 * f & 5.9X9X$X$X$X$X$X$X$X$X$X$X$X$X$X$X$X$X$X$X$X$X$X$X$X$X+X$XA.4X$.m m m V V V V V V V V Z Z Z Z Z Z Z Z V V V V V V V V D Z V i.w.e.8.8.e.e.e.e.e.e.e.e.e.e.e.e.e.e.e.e.e.e.e.e.e.e.e.e.r.r.e.e.e.e.e.e.e.e.e.e.e.e.e.e.e.e.e.e.e.e.e.e.e.e.e.e.e.e.f.f.X.T W U ^ ) ^ ^ R R R R R R R R R R R R R R R R ~ ^ U R ^ ) E G.3X3X4X4X4X4X4X4X$X$X$X$X4X$X$X$X$X$X$X$X$X$X$X$XJ.A.6X4X3X%Xv.r.e.e.e.e.e.e.e.e.e.e.e.e.e.e.e.e.e.e.e.e.e.e.e.e.e.0.8.q.;.#.#.>.$.#.#.#.$.$.$.$.$.$.$.$.$.$.$.$.$.$.$.#.$.$.$.$.4.>.,.5.8X3X#X$X$X4X4X$X$X$X$X$X$X$X$X$X4X$X$X$X$X$X$X$X$X$X$X$X6X9X,.- - 0 * 0 & & & & & 8 & & 8 8 8 8 & & & & = = = = = 0 0 = a g V V Z Z Z V Z Z V V Z Z Z Z Z Z Z Z V V Z Z m m m m V V V b 1X3X#X#X#X#X%X3X$X$X$X$X$X$X$X$X$X$X$X$X$X$X$X$X%X%X#X4X#X3XoX*.S S S S S S S S S S S #.S S S S A A S S A A A A 1.>.5.5.7.D & & 0 0 0 0 0 0 0 0 0 0 0 0 0 0 0 0 0 0 0 0 0 0 0 0 9 = = & x } A } #.#.#.#.#.#.#.#.#.#.#.#.#.#.#.#.#.#.#.#.#.#.#.#.#.#.#.#.#.#.#.#.#.#.#.#.#.#.#.#.#.#.#.#.#.#.#.#.#.#.#.#.#.#.#.#.#.#.",
"#X#X#X#X#X3X#X#X#X#X#X#X#X#X#X#X#X#X#X#X#X3X#X#XM.#XC.C.M.B.r.o & & & & & & & & & & & & 8 8 8 8 & & & & & & & & : 8 & s o ,.J.J.$X$X$X$X$X$X$X$X$X$X$X$X$X$X$X$X$X$X$X$X$X$X$X$XC.$XA.4X$.m m m Z Z Z Z Z Z Z Z Z Z Z Z Z Z Z Z Z Z Z Z Z Z D D D V m i.e.e.r.q.:.:.:.:.:.:.:.:.:.:.:.:.:.:.:.:.:.:.:.:.:.:.:.:.r.r.e.e.e.e.e.e.e.e.e.e.e.e.e.e.e.e.e.e.e.e.e.e.e.e.e.e.e.e.e.f.4.c i Y T { ` ' T T ' ' ' ' T T T T ' ' ' ' ' ' _ T u M T T c d.3X3X3X3X3X3X3XJ.#X#X3X#X3X3X#X#X#X#X#X#X#X3X#X#XA.A.4X3X#X#Xp.q.e.e.e.e.e.e.e.e.e.e.e.e.e.e.e.e.e.e.e.e.e.e.e.e.0.0.q.e.2.#.} | } } } } } } } } } } } } } } } } } } } } } } } } } } } 5.2X1XoX#X#X3X#X#X#X#X#X#X#X#X3X#X3X3X#X#X#X#X#X#X#X3X#X#XZ.5X3.: 0 v = 0 & & & & 8 8 8 8 8 & 8 8 & & & & & & & & & & & & @ h V V V C C j b b b b b b V V b V V V b b b b V V V V V V V V 2X2X3X3X3X3X3X7X3X3X3X3X3X3X3X3X3X3X3X3X3X3X3X3X5X5X3X5X7X7X1X1.} } } } } } } } ..1.1.1.........} } ......} } } 1.} } D } m & = & & & & & & & & & & & & & & & & & & & & & & & & 0 8 0 & x >.S #.#.#.#.#.%.%.%.%.%.%.%.%.#.#.#.#.#.#.%.%.%.%.#.#.#.#.#.#.%.%.%.%.#.#.#.#.%.%.%.%.#.#.#.#.#.#.#.#.%.%.%.%.#.#.#.#.#.#.",
"m.m.m.m.m.m.m.m.m.m.m.m.m.m.m.m.m.m.m.m.m.m.m.m.v.b.v.c.v.B.N.V S S S S S S S S A A A A S S S S S A A A A A A A >.S V D h w.4XJ.$X$X$X$X$X$X$X$X$X$X$X$X$X$X$X$X$X$X$X$X$X$X$X$XC.$XA.4X$.j m x s s s s s s s s s s s s s s s s f f f f f f f f f f f 6.r.z.V.M.b.b.M.M.b.b.b.b.b.b.M.M.M.M.M.M.M.M.M.M.b.b.b.b.r.r.e.e.e.e.e.e.e.e.e.e.e.e.e.e.e.e.e.e.e.e.e.e.e.e.e.e.e.e.e.f.H.6.O.O.d.k.s.s.k.k.k.k.k.k.k.k.k.k.k.k.k.k.k.k.k.j.3.6.7.d.X.1Xn.n.n.n.n.V.V.V.m.m.m.m.m.m.m.m.m.m.m.m.m.m.m.m.m.c.M.m.m.m.;.=.e.e.e.e.e.e.e.e.e.e.e.e.e.e.e.e.e.e.e.e.e.e.e.e.0.8.e.e.5.} | X.{ { ] ] ] ] ] ] { { { { { { { { { ] ] ] ] ] ] ] N m m A N.V.n.n.n.n.m.m.m.m.m.m.m.m.m.m.m.m.m.m.m.m.m.m.m.m.m.m.v.oXw.V } } Z V S A A A S S S S A A S S S A A A D D D D D D D D j S *.*.*.*.*.#.1.1.1.*.1.1.1.1.1.1.1.1.*.*.*.*.*.*.#.#.#.$.$.$.s.6.w.w.w.8.e.w.e.e.e.e.e.e.e.e.e.e.e.e.e.e.e.e.e.8.8.e.w.w.5.s x x x x x N x x m m m m m m m m m m m m m m m m V g f s x x s x b b b b b b b b m m m m m m m m m m m m m m m m x x x g S w.5.5.w.w.w.w.0.0.0.0.w.0.0.0.w.w.w.w.w.w.0.0.0.0.w.w.w.w.w.w.0.0.0.0.w.w.w.w.0.0.0.0.w.w.w.w.w.w.w.w.w.0.0.0.w.w.w.w.w.w.",
"8.8.8.8.8.8.8.8.8.8.8.8.8.8.8.8.8.8.8.8.8.8.8.8.8.8.e.e.e.e.e.e.e.e.e.e.e.e.e.e.e.e.e.e.e.e.e.e.e.e.e.e.e.e.e.e.p.e.r.8.9.M.$X$X$X$X$X$X$X$X$X$X$X$X$X$X$X$X$X$X$X$X$X$X$X$X$X$X#X4XJ.5XA 7 7 0 0 0 0 0 0 0 0 0 0 0 0 0 0 0 0 0 0 0 0 0 0 0 0 0 & s a 7X3X4XZ.$X$X$X$X$X$X$X$X$X$X$X$X$X$X$X4X$X$X$X$X$X$X4X$X$X#X#Xr.8.r.8.r.r.e.e.e.e.e.e.e.e.e.e.e.e.e.e.e.e.e.e.e.e.e.e.e.e.v.%X#X#X#XZ.$X#X$X$X$X4X$X$X$X$X$X$X$X$X$X$X$X$X#X+X#X#XZ.4X#Xm.8.8.8.8.e.e.e.e.8.8.8.8.8.8.8.8.8.8.8.8.8.8.8.8.e.e.e.e.e.e.e.e.e.e.e.e.e.e.e.e.e.e.e.e.e.e.e.e.e.e.e.e.e.e.e.e.8.e.r.r.s.' E ^ ^ ^ ^ ^ ^ ^ ^ ^ R R R R R R R R R R R R R R R R ^ ^ R [ l.0.r.f.0.0.8.8.8.8.8.8.8.8.8.8.8.8.8.8.8.8.8.8.8.8.8.8.e.e.e.e.e.e.e.e.e.e.e.e.e.e.e.e.0.e.e.e.e.e.e.e.e.e.e.e.e.e.e.e.8.e.e.e.e.e.e.e.e.e.e.e.e.e.e.e.e.e.e.e.e.e.e.e.e.e.e.e.e.e.e.e.V V V V V V V V C C C C C C C C C C C C C C C C b b C C Z Z b > 0 0 0 0 9 9 & & 7 7 * * 0 0 0 0 0 0 0 0 0 0 0 0 * 0 7 7 & x >.>.>.>.>.>.>.>.>.>.#.#.#.#.#.#.#.#.>.>.#.#.#.#.#.#.>.>.$.#.2.r.r.e.e.e.e.e.e.e.e.e.e.e.e.e.e.e.e.e.e.e.e.e.e.e.e.e.e.e.e.e.e.e.e.e.8.8.e.e.e.e.e.e.e.e.e.e.e.e.e.e.e.8.8.8.e.e.e.e.e.e.",
"8.8.e.e.e.e.8.8.8.8.e.e.e.e.8.8.8.e.e.e.8.8.8.8.e.e.e.e.e.e.e.e.e.e.e.e.e.e.e.e.e.e.e.e.e.e.e.e.e.e.e.e.e.e.e.e.r.e.r.8.9.M.$X$X$X$X$X$X$X$X$X$X$X$X$X$X$X$X$X$X$X$X$X$X$X$X$X$X#X4XJ.5XA 7 7 0 0 0 0 0 0 0 0 0 0 0 0 0 0 0 0 0 0 0 0 0 0 0 0 0 & a a 7X3X4XZ.$X$X$X$X$X$X$X$X$X$X$X$X$X$X$X4X4X$X$X$X$X$X4X4X$X#X#Xr.q.q.8.r.r.e.e.e.e.e.e.e.e.e.e.e.e.e.e.e.e.e.e.e.e.e.e.e.e.v.%X#X#X#XZ.$X#X$X$X$X4X$X$X$X$X$X$X$X$X$X$X$X$X#X+X#X#XZ.$X#Xm.8.8.8.8.e.e.e.e.8.8.e.e.e.e.8.8.8.e.e.e.8.8.8.8.e.e.e.e.e.e.e.e.e.e.e.e.e.e.e.e.e.e.e.e.e.e.e.e.e.e.e.e.e.e.e.e.8.e.r.r.s.' E ^ ^ ^ ^ ^ ^ ^ ^ ^ R R R R R R R R R R R R R R R R ^ ^ R [ l.0.r.f.8.8.8.8.e.e.e.e.8.8.e.e.e.e.8.8.8.e.e.e.8.8.8.8.e.e.e.e.e.e.e.e.e.e.e.e.e.e.e.e.0.e.e.e.e.e.e.e.e.e.e.e.e.e.e.e.8.8.e.e.e.e.e.e.e.e.e.e.e.e.e.e.e.e.e.e.e.e.e.e.e.e.e.e.e.e.e.e.V V V V V V V V V V V V V V V V V V V V V V V V b b C C Z Z b = 0 0 0 0 7 9 & & 8 * * * 0 0 0 0 0 0 0 0 0 0 0 0 * 0 7 7 8 x >.>.>.>.>.>.>.>.>.>.#.#.#.#.#.#.#.#.>.>.#.#.#.#.#.#.>.>.$.#.2.r.r.e.e.e.e.e.e.e.e.e.8.e.e.e.e.e.e.e.e.e.e.e.e.e.e.e.e.e.e.e.e.e.e.e.8.8.e.e.e.e.e.e.e.e.e.e.e.e.e.e.e.e.e.8.e.e.e.e.e.e.",
"8.e.e.e.e.e.8.8.8.8.8.8.e.e.e.e.8.8.e.e.e.e.8.8.e.e.e.e.e.e.e.e.e.e.e.e.e.e.e.e.e.e.e.e.e.e.e.e.e.e.e.e.e.e.e.e.e.e.e.8.9.M.$X$X$X$X$X$X$X$X$X$X$X$X$X$X$X$X$X$X$X$X$X$X$X$X$X$X#X$XJ.5XA 7 7 0 0 0 0 0 0 0 0 0 0 0 0 0 0 0 0 0 0 0 0 0 0 0 0 0 & a a 7X3X4XZ.$X$X$X$X$X$X$X$X$X$X$X$X$X$X$X$X$X$X$X$X$X$X$X$X$X#X#Xr.q.q.8.r.r.e.e.e.e.e.e.e.e.e.e.e.e.e.e.e.e.e.e.e.e.r.e.e.e.v.%X#X#X#XZ.$X#X#X$X$X$X$X$X$X$X$X$X$X$X$X$X$X$X#X+X$X#XZ.$X#Xm.8.8.8.8.8.e.r.r.8.8.8.8.e.e.e.e.8.8.e.e.e.e.8.8.e.e.e.e.e.e.e.e.e.e.e.e.e.e.e.e.e.e.e.e.e.e.e.e.e.e.e.e.e.e.e.e.8.q.e.w.s.M E ^ ^ ^ ^ ^ ^ ^ ^ ^ R R R R R R R R R R R R R R R R ^ ^ R [ l.0.r.f.8.8.8.e.e.e.e.e.8.8.8.8.e.e.e.e.8.8.e.e.e.e.8.8.e.e.e.e.e.e.e.e.e.e.e.e.e.e.e.e.e.e.e.e.e.e.e.e.e.e.e.e.e.e.e.e.8.8.8.8.8.8.8.8.8.8.8.8.8.8.8.8.e.8.e.8.8.8.8.8.8.8.8.8.8.8.e.e.V V V V V V V V V V V V V V V V V V V V V V V V V V C Z V Z x = 0 0 0 0 0 0 0 0 0 0 0 0 0 0 0 0 0 0 0 0 0 0 0 0 & 0 7 7 8 x >.>.>.>.>.>.>.>.>.>.#.#.#.#.#.#.#.#.>.#.#.#.#.#.#.#.>.>.$.#.2.r.r.e.e.e.e.e.e.e.e.e.8.e.e.e.e.e.e.e.e.e.e.e.e.e.e.e.e.e.e.e.e.e.e.e.8.8.8.e.e.e.e.e.e.e.e.e.e.e.e.e.e.e.e.e.e.e.e.e.e.e.",
"8.e.e.8.e.e.8.e.8.8.8.8.e.e.e.e.8.8.e.e.e.e.8.8.e.e.e.e.e.e.e.e.e.e.e.e.e.e.e.e.e.e.e.e.e.e.e.e.e.e.e.e.e.e.e.e.r.e.e.8.9.M.$X$X$X$X$X$X$X$X$X$X$X$X$X$X$X$X$X$X$X$X$X$X$X$X$X$XZ.$XJ.5XA 7 7 0 0 0 0 0 0 0 0 0 0 0 0 0 0 0 0 0 0 0 0 0 0 0 0 0 & a a H.3X4XZ.$X$X$X$X$X$X$X$X$X$X$X$X$X$X$X$X$X$X$X$X$X$X$X$X$X#X#Xr.q.q.8.r.r.e.e.e.e.e.e.e.e.e.e.e.e.e.e.e.e.e.e.e.e.e.r.r.e.v.%X#X#X#XZ.$X#X#X$X$X$X$X$X$X$X$X$X$X$X$X$X$X$X#X#X$X#XA.$X#Xm.8.8.8.8.e.e.e.e.8.8.8.8.e.e.e.e.8.8.e.e.e.e.8.8.e.e.e.e.e.e.e.e.e.e.e.e.e.e.e.e.e.e.e.e.e.e.e.e.e.e.e.e.e.e.e.e.8.q.e.w.s.' E ^ ^ ^ ^ ^ ^ ^ ^ ^ R R R R R R R R R R R R R R R R / ^ R [ l.0.r.f.8.8.8.8.e.e.e.e.8.8.8.8.e.e.e.e.8.8.e.e.e.e.8.8.e.e.e.e.e.e.e.e.e.e.e.e.e.e.e.e.e.e.e.e.e.e.e.e.e.e.e.e.e.e.e.e.8.8.8.8.8.8.8.e.8.8.8.8.8.8.8.e.8.8.e.e.e.8.8.8.8.8.8.8.8.8.8.8.V V V V V V V V V V V V V V V V V V V V V V V V V V Z Z V V m 0 0 0 0 0 0 0 0 0 0 0 0 0 0 0 0 0 0 0 0 0 0 0 0 0 & 0 7 8 8 x >.>.>.>.>.>.>.>.>.>.#.#.#.#.#.#.#.#.>.>.#.#.#.#.#.#.>.>.$.#.2.r.r.e.e.e.e.e.e.e.e.e.8.8.e.e.e.e.e.e.e.e.e.e.e.e.e.e.e.e.e.e.e.e.e.e.8.8.8.e.e.e.e.e.e.e.e.e.e.e.e.e.e.e.e.e.e.e.e.e.e.e.",
"e.e.e.e.e.e.e.e.e.e.e.e.e.e.e.e.e.e.e.e.e.e.e.e.e.e.e.e.e.e.e.e.e.e.e.e.e.e.e.e.e.e.e.e.e.e.e.e.e.e.e.e.e.e.e.e.i.e.e.8.9.m.$X#X$X$X$X$X$X$X$X$X$X$X$X$X$X$X$X$X$X$X$X$X$X$X$X$X#X$XJ.5XA 7 7 0 0 0 0 0 0 0 0 0 0 0 0 0 0 0 0 0 0 0 0 0 0 0 0 0 * 8 , H.4X4XZ.$X#X#X#X#X#X#X#X#X#X#X#X#X#X#X#X#X#X#X#X#X#X#X#X#X#X#Xr.9.q.8.r.r.e.e.e.e.e.e.e.e.e.e.e.e.e.e.e.e.e.e.e.e.e.e.e.e.m.%X#X#X#XZ.4X#X#X#X#X#X#X#X#X#X$X$X$X$X$X$X$X$X#X#X$XA.A.$X#Xm.8.8.8.e.e.e.r.r.e.e.e.e.e.e.e.e.e.e.e.e.e.e.e.e.e.e.e.e.e.e.e.e.e.e.e.e.e.e.e.e.e.e.e.e.e.e.e.e.e.e.e.e.e.e.e.e.8.e.r.r.j.M E ^ ^ ^ ^ ^ ^ ^ ^ ^ R R R R R R R R R R R R R R R R / ^ R [ l.0.r.f.e.e.e.e.e.e.e.e.e.e.e.e.e.e.e.e.e.e.e.e.e.e.e.e.e.e.e.e.e.e.e.e.e.e.e.e.e.e.e.e.e.e.e.e.e.e.e.e.e.e.e.e.e.e.e.e.8.8.8.8.8.8.8.8.8.8.8.8.8.8.8.8.8.8.8.8.8.0.0.0.8.8.8.8.8.8.8.8.V V V V V V V V V V V V V V V V V V V V V V V V V V V Z V Z x 0 0 0 0 0 0 0 0 0 0 0 0 0 0 0 0 0 0 0 0 0 0 0 0 0 & 0 7 0 8 x >.>.>.>.>.>.>.>.>.>.#.#.#.#.#.#.#.#.#.#.#.#.#.#.#.#.>.>.$.#.2.r.r.e.e.e.e.e.e.e.e.e.e.e.e.e.e.e.e.e.e.e.e.e.e.e.e.e.e.e.e.e.e.e.e.e.e.e.e.e.e.e.e.e.e.e.e.e.e.e.e.e.e.e.e.e.e.e.e.e.e.e.",
"e.e.e.e.e.e.e.e.e.e.e.e.e.e.e.e.e.e.e.e.e.e.e.e.e.e.e.e.e.e.e.e.e.e.e.e.e.e.e.e.e.e.e.e.e.e.e.e.e.e.e.e.e.e.e.e.i.e.e.8.9.m.$X#X$X$X$X$X$X$X$X$X$X$X$X$X$X$X$X$X$X$X$X$X$X$X$X$X#X$XJ.5XA 7 7 0 0 0 0 0 0 0 0 0 0 0 0 0 0 0 0 0 0 0 0 0 0 0 0 0 * 8 , H.4X4XZ.$X#X#X#X#X#X#X#X#X$X$X#X#X#X#X#X#X#X#X#X#X#X#X#X#X#X#Xr.9.q.8.r.r.e.e.e.e.e.e.e.e.e.e.e.e.e.e.e.e.e.e.e.e.e.e.e.e.m.3X#X#X#XZ.$X#X#X#X#X#X#X#X#X#X$X$X$X$X$X$X$X$X#X#X$X#XA.4X#Xm.8.8.e.e.r.r.r.r.e.e.e.e.e.e.e.e.e.e.e.e.e.e.e.e.e.e.e.e.e.e.e.e.e.e.e.e.e.e.e.e.e.e.e.e.e.e.e.e.e.e.e.e.e.e.e.e.8.8.r.r.s.M E ^ ^ ^ ^ ^ ^ ^ ^ ^ R R R R R R R R R R R R R R R R / ^ R [ l.0.r.f.e.e.e.e.e.e.e.e.e.e.e.e.e.e.e.e.e.e.e.e.e.e.e.e.e.e.e.e.e.e.e.e.e.e.e.e.e.e.e.e.e.e.e.e.e.e.e.e.e.e.e.e.e.e.e.e.8.8.8.8.8.8.8.8.8.8.8.8.8.8.8.8.8.8.8.8.8.8.0.0.8.8.8.8.8.8.8.8.V V V V V V V V V V V V V V V V V V V V V V V V V V V Z V Z N 0 0 0 0 0 0 0 0 0 0 0 0 0 0 0 0 0 0 0 0 0 0 0 0 0 = 0 7 0 8 x >.>.>.>.>.>.>.>.>.>.#.#.#.#.#.#.#.#.#.#.#.#.#.#.#.#.>.>.#.#.2.r.r.e.e.e.e.e.e.e.e.e.e.e.e.e.e.e.e.e.e.e.e.e.e.e.e.e.e.e.e.e.e.e.e.e.e.e.e.e.e.e.e.e.e.e.e.e.e.e.e.e.e.e.e.e.e.e.e.e.e.e.",
"e.e.e.e.e.e.e.e.e.e.e.e.e.e.e.e.e.e.e.e.e.e.e.e.e.e.e.e.e.e.e.e.e.e.e.e.e.e.e.e.e.e.e.e.e.e.e.e.e.e.e.e.e.e.e.e.i.e.e.8.9.m.$X#X$X$X$X$X$X$X$X$X$X$X$X$X$X$X$X$X$X$X$X$X$X$X$X$X#X$XA.5XA 7 7 0 0 0 0 0 0 0 0 0 0 0 0 0 0 0 0 0 0 0 0 0 0 0 0 0 * 8 a 1X4X4XZ.$X#X#X#X#X#X#X#X#X#X#X#X#X#X#X#X#X#X#X#X#X#X#X#X#X#X#Xr.q.q.8.r.r.e.e.e.e.e.e.e.e.e.e.e.e.e.e.e.e.e.e.e.e.e.e.e.e.v.3X#X#X#XZ.$X#X#X#X#X#X#X#X#X#X$X$X$X$X$X$X$X$X#X#X$XA.A.4X$Xm.e.e.e.e.r.r.r.r.e.e.e.e.e.e.e.e.e.e.e.e.e.e.e.e.e.e.e.e.e.e.e.e.e.e.e.e.e.e.e.e.e.e.e.e.e.e.e.e.e.e.e.e.e.e.e.e.0.e.r.r.s.' E ^ ^ ^ ^ ^ ^ ^ ^ ^ R R R R R R R R R R R R R R R R / ^ R [ l.0.r.f.e.e.e.e.e.e.e.e.e.e.e.e.e.e.e.e.e.e.e.e.e.e.e.e.e.e.e.e.e.e.e.e.e.e.e.e.e.e.e.e.e.e.e.e.e.e.e.e.e.e.e.e.e.e.e.e.0.0.0.0.0.0.0.0.0.0.0.0.0.0.0.0.0.0.0.0.0.0.0.0.0.0.0.0.0.0.0.0.V V V V V V V V V V V V V V V V V V V V V V V V V V Z Z V Z N 0 0 0 0 0 0 0 0 0 0 0 0 0 0 0 0 0 0 0 0 0 0 0 0 0 = 0 9 0 8 x >.>.>.>.>.>.>.>.>.>.#.#.#.#.#.#.#.#.#.#.#.#.#.#.#.#.>.>.$.#.2.r.r.e.e.e.e.e.e.e.e.e.e.e.e.e.e.e.e.e.e.e.e.e.e.e.e.e.e.e.e.e.e.e.e.e.e.e.e.e.e.e.e.e.e.e.e.e.e.e.e.e.e.e.e.e.e.e.e.e.e.e.",
"e.e.e.e.e.e.e.e.e.e.e.e.e.e.e.e.e.e.e.e.e.e.e.e.e.e.e.e.e.e.e.e.e.e.e.e.e.e.e.e.e.e.e.e.e.e.e.e.e.e.e.e.e.e.e.e.i.e.r.8.9.m.$X#X$X$X$X$X$X$X$X$X$X$X$X$X$X$X$X$X$X$X$X$X$X$X$X$X#X$XA.5XA 7 7 0 0 0 0 0 0 0 0 0 0 0 0 0 0 0 0 0 0 0 0 0 0 0 0 0 * 8 a 1X4X4XZ.$X#X#X#X#X#X#X#X#X#X#X#X#X#X#X#X#X#X#X#X#X#X#X#X#X#X#Xr.q.q.8.r.r.e.e.e.e.e.e.e.e.e.e.e.e.e.e.e.e.e.e.e.r.r.e.e.e.v.%X#X#X#XZ.$X#X#X#X#X#X#X#X#X#X$X$X$X$X$X$X$X$X#X#X$XA.A.$X$Xm.e.e.e.r.r.r.r.r.e.e.e.e.e.e.e.e.e.e.e.e.e.e.e.e.e.e.e.e.e.e.e.e.e.e.e.e.e.e.e.e.e.e.e.e.e.e.e.e.e.e.e.e.e.e.e.e.0.e.r.r.s.' E ^ ^ ^ ^ ^ ^ ^ ^ ^ R R R R R R R R R R R R R R R R / ^ R [ l.0.r.f.e.e.e.e.e.e.e.e.e.e.e.e.e.e.e.e.e.e.e.e.e.e.e.e.e.e.e.e.e.e.e.e.e.e.e.e.e.e.e.e.e.e.e.e.e.e.e.e.e.e.e.e.e.e.e.e.0.0.0.0.0.0.0.0.0.0.0.0.0.0.0.0.0.0.0.0.0.0.0.0.0.0.0.0.0.0.0.0.V V V V V V V V V V V V V V V V V V V V V V V V V V Z Z V Z N 0 0 0 0 0 0 0 0 0 0 0 0 0 0 0 0 0 0 0 0 0 0 0 0 0 = 0 9 0 8 x >.>.>.>.>.>.>.>.>.>.#.#.#.#.#.#.#.#.#.#.#.#.#.#.#.#.>.>.$.#.2.r.r.e.e.e.e.e.e.e.e.e.e.e.e.e.e.e.e.e.e.e.e.e.e.e.e.e.e.e.e.e.e.e.e.e.e.e.e.e.e.e.e.e.e.e.e.e.e.e.e.e.e.e.e.e.e.e.e.e.e.e.",
"e.e.e.e.e.e.e.e.e.e.e.e.e.e.e.e.e.e.e.e.e.e.e.e.e.e.e.e.e.e.e.e.e.e.e.e.e.e.e.e.e.e.e.e.e.e.e.e.e.e.e.e.e.e.e.e.e.e.e.8.9.m.#X#X$X$X$X$X$X$X$X$X$X$X$X$X$X$X$X$X$X$X$X$X$X$X$X$X$X$XZ.3XD 0 9 0 0 0 0 0 0 0 0 0 0 0 0 0 0 0 0 0 0 0 0 0 0 0 0 0 0 s : H.Z.Z.Z.#X$X$X$X$X$X$X$X$X$X$X$X$X$X$X$X$X$X$X$X$X$X$X$X$X#X#Xr.q.q.8.r.r.e.e.e.e.e.e.e.e.e.e.e.e.e.e.e.e.e.e.e.e.e.e.e.e.v.%X#X#X#XZ.$X#X$X$X$X$X$X$X$X$X$X$X$X$X$X$X$X$X#X+X#X#XA.$X#Xb.8.8.8.8.e.e.r.r.e.e.e.e.e.e.e.e.e.e.e.e.e.e.e.e.e.e.e.e.e.e.e.e.e.e.e.e.e.e.e.e.e.e.e.e.e.e.e.e.e.e.e.e.e.e.e.e.q.q.8.e.s.M E ( R R R R R R R R R R R R R R R R R R R R R R R R / ^ R [ l.0.r.f.e.e.e.e.e.e.e.e.e.e.e.e.e.e.e.e.e.e.e.e.e.e.e.e.e.e.e.e.e.e.e.e.e.e.e.e.e.e.e.e.e.e.e.e.e.e.e.e.e.e.e.e.e.e.e.e.e.e.e.e.8.8.8.e.8.8.8.8.e.e.e.e.e.e.8.8.8.e.e.e.e.e.e.e.e.e.8.8.Z Z Z Z V V V V V V V V V V V V V V V V V V V V V V Z Z V Z x 0 0 0 0 0 0 0 0 0 0 0 0 0 0 0 0 0 0 0 0 0 0 0 0 0 & 0 8 0 8 z >.>.>.>.>.>.>.>.>.>.#.#.#.#.#.#.#.#.#.#.#.#.#.#.#.#.>.#.#.$.2.w.e.e.e.e.e.e.e.e.e.e.e.e.e.e.e.e.e.e.e.e.e.e.e.e.e.e.e.e.e.e.e.e.e.e.e.e.e.e.e.e.e.e.e.e.e.e.e.e.e.e.e.e.e.e.e.e.e.e.e.e.",
"e.e.e.e.e.e.e.e.e.e.e.e.e.e.e.e.e.e.e.e.e.e.e.e.e.e.e.e.e.e.e.e.e.e.e.e.e.e.e.e.e.e.e.e.e.e.e.e.e.e.e.e.e.e.e.e.e.e.e.8.9.m.#X#X$X$X$X$X$X$X$X$X$X$X$X$X$X$X$X$X$X$X$X$X$X$X$X$X$X$XZ.3XD 0 9 0 0 0 0 0 0 0 0 0 0 0 0 0 0 0 0 0 0 0 0 0 0 0 0 0 0 s : H.Z.Z.Z.#X$X$X$X$X$X$X$X$X$X$X$X$X$X$X$X$X$X$X$X$X$X$X$X$X#X#Xr.q.q.8.r.r.e.e.e.e.e.e.e.e.e.e.e.e.e.e.e.e.e.e.e.e.e.e.e.e.v.%X#X#X#XZ.$X#X$X$X$X$X$X$X$X$X$X$X$X$X$X$X$X$X#X+X#X#XA.$X#Xb.8.8.8.8.e.e.r.r.e.e.e.e.e.e.e.e.e.e.e.e.e.e.e.e.e.e.e.e.e.e.e.e.e.e.e.e.e.e.e.e.e.e.e.e.e.e.e.e.e.e.e.e.e.e.e.e.q.q.8.e.s.M E ( R R R R R R R R R R R R R R R R R R R R R R R R / ^ R [ l.0.r.f.e.e.e.e.e.e.e.e.e.e.e.e.e.e.e.e.e.e.e.e.e.e.e.e.e.e.e.e.e.e.e.e.e.e.e.e.e.e.e.e.e.e.e.e.e.e.e.e.e.e.e.e.e.e.e.e.e.e.e.e.8.8.8.e.8.8.8.8.e.e.e.e.e.e.8.8.e.e.e.e.e.8.e.e.e.e.8.8.Z Z Z Z V V V V V V V V V V V V V V V V V V V V V V Z Z V Z N 0 0 0 0 0 0 0 0 0 0 0 0 0 0 0 0 0 0 0 0 0 0 0 0 0 & 0 8 0 8 z >.>.>.>.>.>.>.>.>.>.#.#.#.#.#.#.#.#.#.#.#.#.#.#.#.#.>.#.#.$.2.w.e.e.e.e.e.e.e.e.e.e.e.e.e.e.e.e.e.e.e.e.e.e.e.e.e.e.e.e.e.e.e.e.e.e.e.e.e.e.e.e.e.e.e.e.e.e.e.e.e.e.e.e.e.e.e.e.e.e.e.e.",
"e.e.e.e.e.e.e.e.e.e.e.e.e.e.e.e.e.e.e.e.e.e.e.e.e.e.e.e.e.e.e.e.e.e.e.e.e.e.e.e.e.e.e.e.e.e.e.e.e.e.e.e.e.e.e.e.e.e.e.8.9.m.#X#X$X$X$X$X$X$X$X$X$X$X$X$X$X$X$X$X$X$X$X$X$X$X$X$X$X$XZ.3XD 0 9 0 0 0 0 0 0 0 0 0 0 0 0 0 0 0 0 0 0 0 0 0 0 0 0 0 0 s : H.Z.A.Z.$X$X$X$X$X$X$X$X$X$X$X$X$X$X$X$X$X$X$X$X$X$X$X$X$X#X#Xr.q.q.8.r.r.e.e.e.e.e.e.e.e.e.e.e.e.e.e.e.e.e.e.e.e.e.e.e.e.v.%X#X#X#XZ.4X#X$X$X$X$X$X$X$X$X$X$X$X$X$X$X$X$X#X+X#X#XA.$X#Xb.e.e.8.8.e.e.r.r.e.e.e.e.e.e.e.e.e.e.e.e.e.e.e.e.e.e.e.e.e.e.e.e.e.e.e.e.e.e.e.e.e.e.e.e.e.e.e.e.e.e.e.e.e.e.e.e.q.q.8.e.s.M E ( R R R R R R R R R R R R R R R R R R R R R R R R / ^ R [ l.0.r.f.e.e.e.e.e.e.e.e.e.e.e.e.e.e.e.e.e.e.e.e.e.e.e.e.e.e.e.e.e.e.e.e.e.e.e.e.e.e.e.e.e.e.e.e.e.e.e.e.e.e.e.e.e.e.e.e.e.e.8.e.8.8.e.e.8.e.8.8.e.e.e.e.8.8.8.8.e.e.e.e.8.8.8.8.e.8.8.8.A A Z Z V V V V V V V V V V V V V V V V V V V V V V Z Z m Z x 0 0 0 0 0 0 0 0 0 0 0 0 0 0 0 0 0 0 0 0 0 0 0 0 0 & 0 8 0 8 z >.>.>.>.>.>.>.>.>.>.#.#.#.#.#.#.#.#.#.#.#.#.#.#.#.#.>.#.#.$.2.w.e.e.e.e.e.e.e.e.e.e.e.e.e.e.e.e.e.e.e.e.e.e.e.e.e.e.e.e.e.e.e.e.e.e.e.e.e.e.e.e.e.e.e.e.e.e.e.e.e.e.e.e.e.e.e.e.e.e.e.e.",
"e.e.e.e.e.e.e.e.e.e.e.e.e.e.e.e.e.e.e.e.e.e.e.e.e.e.e.e.e.e.e.e.e.e.e.e.e.e.e.e.e.e.e.e.e.e.e.e.e.e.e.e.e.e.e.e.e.e.e.8.9.m.#X#X$X$X$X$X$X$X$X$X$X$X$X$X$X$X$X$X$X$X$X$X$X$X$X$X$X$XZ.3XD 0 9 0 0 0 0 0 0 0 0 0 0 0 0 0 0 0 0 0 0 0 0 0 0 0 0 0 0 s : H.Z.Z.Z.$X$X$X$X$X$X$X$X$X$X$X$X$X$X$X$X$X$X$X$X$X$X$X$X$X#X#Xr.q.q.8.r.r.e.e.e.e.e.e.e.e.e.e.e.e.e.e.e.e.e.e.e.e.e.e.e.e.v.%X#X#X#XZ.4X#X$X$X$X$X$X$X$X$X$X$X$X$X$X$X$X$X+X+X#X#XA.$X#Xb.e.e.e.e.e.e.r.r.e.e.e.e.e.e.e.e.e.e.e.e.e.e.e.e.e.e.e.e.e.e.e.e.e.e.e.e.e.e.e.e.e.e.e.e.e.e.e.e.e.e.e.e.e.e.e.e.q.q.8.e.s.M E ( R R R R R R R R R R R R R R R R R R R R R R R R / ^ R [ l.0.r.f.e.e.e.e.e.e.e.e.e.e.e.e.e.e.e.e.e.e.e.e.e.e.e.e.e.e.e.e.e.e.e.e.e.e.e.e.e.e.e.e.e.e.e.e.e.e.e.e.e.e.e.e.e.e.e.e.e.e.8.8.8.8.e.e.e.e.8.8.e.e.8.8.8.8.8.8.8.e.e.e.8.8.8.8.e.e.8.8.A A Z Z V V V V V V V V V V V V V V V V V V V V V V Z Z m Z x 0 0 0 0 0 0 0 0 0 0 0 0 0 0 0 0 0 0 0 0 0 0 0 0 0 & 0 8 0 8 z >.>.>.>.>.>.>.>.>.>.#.#.#.#.#.#.#.#.#.#.#.#.#.#.#.#.>.#.#.#.2.w.e.e.e.e.e.e.e.e.e.e.e.e.e.e.e.e.e.e.e.e.e.e.e.e.e.e.e.e.e.e.e.e.e.e.e.e.e.e.e.e.e.e.e.e.e.e.e.e.e.e.e.e.e.e.e.e.e.e.e.e.",
"e.e.e.e.e.e.e.e.e.e.e.e.e.e.e.e.e.e.e.e.e.e.e.e.e.e.e.e.e.e.e.e.e.e.e.e.e.e.e.e.e.e.e.e.e.e.e.e.e.e.e.e.e.e.e.e.e.e.e.8.9.m.#X#X$X$X$X$X$X$X$X$X$X$X$X$X$X$X$X$X$X$X$X$X$X$X$X$X$X$XA.3XD 0 9 0 0 0 0 0 0 0 0 0 0 0 0 0 0 0 0 0 0 0 0 0 0 0 0 0 0 s : H.Z.Z.Z.$X$X$X$X$X$X$X$X$X$X$X$X$X$X$X$X$X$X$X$X$X$X$X$X$X#X#Xr.8.r.8.r.r.e.e.e.e.e.e.e.e.e.e.e.e.e.e.e.e.e.e.e.e.e.e.e.e.v.%X#X#X#XZ.$X#X$X$X$X$X$X$X$X$X$X$X$X$X$X$X$X$X+X+X#X#XA.$X#Xm.e.e.8.8.e.e.r.r.e.e.e.e.e.e.e.e.e.e.e.e.e.e.e.e.e.e.e.e.e.e.e.e.e.e.e.e.e.e.e.e.e.e.e.e.e.e.e.e.e.e.e.e.e.e.e.e.q.q.e.e.s.M E ( R R R R R R R R R R R R R R R R R R R R R R R R / ^ R [ l.0.r.f.e.e.e.e.e.e.e.e.e.e.e.e.e.e.e.e.e.e.e.e.e.e.e.e.e.e.e.e.e.e.e.e.e.e.e.e.e.e.e.e.e.e.e.e.e.e.e.e.e.e.e.e.e.e.e.e.e.8.8.8.e.e.e.e.e.e.e.e.8.8.8.8.8.e.e.e.8.8.8.8.e.e.8.8.8.8.8.8.A A V V V V V V V V V V V V V V V V V V V V V V V V V Z V Z x 0 0 0 0 0 0 0 0 0 0 0 0 0 0 0 0 0 0 0 0 0 0 0 0 0 & 0 8 0 8 z >.>.>.>.>.>.>.>.>.>.#.#.#.#.#.#.#.#.#.#.#.#.#.#.#.#.>.#.#.#.2.w.e.e.e.e.e.e.e.e.e.e.e.e.e.e.e.e.e.e.e.e.e.e.e.e.e.e.e.e.e.e.e.e.e.e.e.e.e.e.e.e.e.e.e.e.e.e.e.e.e.e.e.e.e.e.e.e.e.e.e.e.",
"e.e.e.e.e.e.e.e.e.e.e.e.e.e.e.e.e.e.e.e.e.e.e.e.e.e.e.e.e.e.e.e.e.e.e.e.e.e.e.e.e.e.e.e.e.e.e.e.e.e.e.e.e.e.e.e.e.e.e.8.9.m.#X#X$X$X$X$X$X$X$X$X$X$X$X$X$X$X$X$X$X$X$X$X$X$X$X$X$XA.A.3XD 0 9 0 0 0 0 0 0 0 0 0 0 0 0 0 0 0 0 0 0 0 0 0 0 0 0 0 0 s : H.Z.Z.Z.$X$X$X$X$X$X$X$X$X$X$X$X$X$X$X$X$X$X$X$X$X$X$X$X$X#X#Xr.8.q.8.r.r.e.e.e.e.e.e.e.e.e.e.e.e.e.e.e.e.e.e.e.e.e.e.e.e.v.%X#X#X#XZ.$X#X$X$X$X$X$X$X$X$X$X$X$X$X$X$X$X$X+X+X#X#XA.$X#Xm.e.e.8.8.r.e.r.r.e.e.e.e.e.e.e.e.e.e.e.e.e.e.e.e.e.e.e.e.e.e.e.e.e.e.e.e.e.e.e.e.e.e.e.e.e.e.e.e.e.e.e.e.e.e.e.e.q.q.8.e.s.M E ( R R R R R R R R R R R R R R R R R R R R R R R R / ^ R [ l.0.r.f.e.e.e.e.e.e.e.e.e.e.e.e.e.e.e.e.e.e.e.e.e.e.e.e.e.e.e.e.e.e.e.e.e.e.e.e.e.e.e.e.e.e.e.e.e.e.e.e.e.e.e.e.e.e.e.e.8.8.8.8.e.e.e.e.e.e.e.e.8.8.8.8.8.e.e.e.8.8.8.8.e.e.8.8.8.8.8.8.A A V V V V V V V V V V V V V V V V V V V V V V V V V Z V Z m 0 0 0 0 0 0 0 0 0 0 0 0 0 0 0 0 0 0 0 0 0 0 0 0 0 & 0 0 0 8 z >.>.>.>.>.>.>.>.>.>.#.#.#.#.#.#.#.#.#.#.#.#.#.#.#.#.>.#.#.$.2.w.e.e.e.e.e.e.e.e.e.e.e.e.e.e.e.e.e.e.e.e.e.e.e.e.e.e.e.e.e.e.e.e.e.e.e.e.e.e.e.e.e.e.e.e.e.e.e.e.e.e.e.e.e.e.e.e.e.e.e.e.",
"e.e.e.e.e.e.e.e.e.e.e.e.e.e.e.e.e.e.e.e.e.e.e.e.e.e.e.e.e.e.e.e.e.e.e.e.e.e.e.e.e.e.e.e.e.e.e.e.e.e.e.e.e.e.e.e.e.e.e.8.9.m.#X#X$X$X$X$X$X$X$X$X$X$X$X$X$X$X$X$X$X$X$X$X$X$X$X$X$X$XA.3XD 0 9 0 0 0 0 0 0 0 0 0 0 0 0 0 0 0 0 0 0 0 0 0 0 0 0 0 0 s : H.Z.Z.Z.$X$X$X$X$X$X$X$X$X$X$X$X$X$X$X$X$X$X$X$X$X$X$X$X$X#X#Xr.8.q.8.r.r.e.e.e.e.e.e.e.e.e.e.e.e.e.e.e.e.e.e.e.e.e.e.e.e.v.%X#X#X#XZ.$X#X$X$X$X$X$X$X$X$X$X$X$X$X$X$X$X$X#X+X#X#XA.$X#Xm.e.e.8.8.r.r.r.r.e.e.e.e.e.e.e.e.e.e.e.e.e.e.e.e.e.e.e.e.e.e.e.e.e.e.e.e.e.e.e.e.e.e.e.e.e.e.e.e.e.e.e.e.e.e.e.e.q.q.8.e.s.M E ( R R R R R R R R R R R R R R R R R R R R R R R R / ^ R [ l.0.r.f.e.e.e.e.e.e.e.e.e.e.e.e.e.e.e.e.e.e.e.e.e.e.e.e.e.e.e.e.e.e.e.e.e.e.e.e.e.e.e.e.e.e.e.e.e.e.e.e.e.e.e.e.e.e.e.e.e.8.8.8.8.8.8.8.8.8.e.e.8.8.e.e.8.8.e.e.e.e.8.8.e.e.e.e.8.8.8.8.A V V V V V V V V V V V V V V V V V V V V V V V V V Z Z V Z m 0 0 0 0 0 0 0 0 0 0 0 0 0 0 0 0 0 0 0 0 0 0 0 0 0 & 0 0 0 8 z >.>.>.>.>.>.>.>.>.>.#.#.#.#.#.#.#.#.#.#.#.#.#.#.#.#.>.#.#.$.2.w.e.e.e.e.e.e.e.e.e.e.e.e.e.e.e.e.e.e.e.e.e.e.e.e.e.e.e.e.e.e.e.e.e.e.e.e.e.e.e.e.e.e.e.e.e.e.e.e.e.e.e.e.e.e.e.e.e.e.e.e.",
"e.e.e.e.e.e.e.e.e.e.e.e.e.e.e.e.e.e.e.e.e.e.e.e.e.e.e.e.e.e.e.e.e.e.e.e.e.e.e.e.e.e.e.e.e.e.e.e.e.e.e.e.e.e.e.e.e.e.e.8.9.m.#X#X$X$X$X$X$X$X$X$X$X$X$X$X$X$X$X$X$X$X$X$X$X$X$X$X$X$XZ.3XD 0 9 0 0 0 0 0 0 0 0 0 0 0 0 0 0 0 0 0 0 0 0 0 0 0 0 0 0 s : H.Z.Z.Z.$X$X$X$X$X$X$X$X$X$X$X$X$X$X$X$X$X$X$X$X$X$X$X$X$X#X#Xr.8.q.8.r.r.e.e.e.e.e.e.e.e.e.e.e.e.e.e.e.e.e.e.e.e.e.e.e.e.v.%X#X#X#XZ.$X#X$X$X$X$X$X$X$X$X$X$X$X$X$X$X$X$X#X+X#X#XA.$X#Xm.e.e.8.8.r.r.r.r.e.e.e.e.e.e.e.e.e.e.e.e.e.e.e.e.e.e.e.e.e.e.e.e.e.e.e.e.e.e.e.e.e.e.e.e.e.e.e.e.e.e.e.e.e.e.e.e.q.q.8.e.s.M E ( R R R R R R R R R R R R R R R R R R R R R R R R / ^ R [ l.0.r.f.e.e.e.e.e.e.e.e.e.e.e.e.e.e.e.e.e.e.e.e.e.e.e.e.e.e.e.e.e.e.e.e.e.e.e.e.e.e.e.e.e.e.e.e.e.e.e.e.e.e.e.e.e.e.e.e.e.8.8.8.8.8.8.8.8.8.8.e.8.e.e.e.8.8.e.e.e.e.8.8.e.e.e.e.e.e.8.e.V V V V V V V V V V V V V V V V V V V V V V V V V V Z Z V Z m 0 0 0 0 0 0 0 0 0 0 0 0 0 0 0 0 0 0 0 0 0 0 0 0 0 & 0 0 0 8 z >.>.>.>.>.>.>.>.>.>.#.#.#.#.#.#.#.#.#.#.#.#.#.#.#.#.>.#.#.$.2.w.e.e.e.e.e.e.e.e.e.e.e.e.e.e.e.e.e.e.e.e.e.e.e.e.e.e.e.e.e.e.e.e.e.e.e.e.e.e.e.e.e.e.e.e.e.e.e.e.e.e.e.e.e.e.e.e.e.e.e.e.",
"e.e.e.e.e.e.e.e.e.e.e.e.e.e.e.e.e.e.e.e.e.e.e.e.e.e.e.e.e.e.e.e.e.e.e.e.e.e.e.e.e.e.e.e.e.e.e.e.e.e.e.e.e.e.e.e.e.e.8.8.9.m.#X#X$X$X$X$X$X$X$X$X$X$X$X$X$X$X$X$X$X$X$X$X$X$X$X$X$X$XZ.3XD 0 9 0 0 0 0 0 0 0 0 0 0 0 0 0 0 0 0 0 0 0 0 0 0 0 0 0 0 s : H.Z.Z.Z.$X$X$X$X$X$X$X$X$X$X$X$X$X$X$X$X$X$X$X$X$X$X$X$X$X#X#Xr.q.q.8.r.r.e.e.e.e.e.e.e.e.e.e.e.e.e.e.e.e.e.e.e.e.e.e.e.e.m.3X#X#X#XZ.$X#X$X$X$X$X$X$X$X$X$X$X$X$X$X$X$X$X+X+X#X#XA.$X#Xm.8.8.8.8.e.e.r.r.e.e.e.e.e.e.e.e.e.e.e.e.e.e.e.e.e.e.e.e.e.e.e.e.e.e.e.e.e.e.e.e.e.e.e.e.e.e.e.e.e.e.e.e.e.e.e.e.q.q.8.e.s.M E ( R R R R R R R R R R R R R R R R R R R R R R R R / ^ R [ l.0.r.f.e.e.e.e.e.e.e.e.e.e.e.e.e.e.e.e.e.e.e.e.e.e.e.e.e.e.e.e.e.e.e.e.e.e.e.e.e.e.e.e.e.e.e.e.e.e.e.e.e.e.e.e.e.e.e.e.e.e.8.8.8.8.8.8.8.8.8.8.8.8.e.e.8.8.8.8.8.8.8.e.e.e.e.e.e.e.e.e.A A V V V V V V V V V V V V V V V V V V V V V V V V Z Z V Z x 0 0 0 0 0 0 0 0 0 0 0 0 0 0 0 0 0 0 0 0 0 0 0 0 0 & 0 8 0 8 z >.>.>.>.>.>.>.>.>.>.#.#.#.#.#.#.#.#.#.#.#.#.#.#.#.#.>.#.#.$.2.w.e.e.e.e.e.e.e.e.e.e.e.e.e.e.e.e.e.e.e.e.e.e.e.e.e.e.e.e.e.e.e.e.e.e.e.e.e.e.e.e.e.e.e.e.e.e.e.e.e.e.e.e.e.e.e.e.e.e.e.e.",
"e.e.e.e.e.e.e.e.e.e.e.e.e.e.e.e.e.e.e.e.e.e.e.e.e.e.e.e.e.e.e.e.e.e.e.e.e.e.e.e.e.e.e.e.e.e.e.e.e.e.e.e.e.e.e.e.e.e.8.8.9.m.#X#X$X$X$X$X$X$X$X$X$X$X$X$X$X$X$X$X$X$X$X$X$X$X$X$X$X$XZ.3XD 0 9 0 0 0 0 0 0 0 0 0 0 0 0 0 0 0 0 0 0 0 0 0 0 0 0 0 0 s : H.Z.Z.Z.$X$X$X$X$X$X$X$X$X$X$X$X$X$X$X$X$X$X$X$X$X$X$X$X$X#X#Xr.q.q.8.r.r.e.e.e.e.e.e.e.e.e.e.e.e.e.e.e.e.e.e.e.e.e.e.e.e.m.%X#X#X#XZ.$X#X$X$X$X$X$X$X$X$X$X$X$X$X$X$X$X$X+X+X#X#XA.$X#Xb.8.8.8.8.e.e.r.r.e.e.e.e.e.e.e.e.e.e.e.e.e.e.e.e.e.e.e.e.e.e.e.e.e.e.e.e.e.e.e.e.e.e.e.e.e.e.e.e.e.e.e.e.e.e.e.e.q.q.8.e.s.M E ( R R R R R R R R R R R R R R R R R R R R R R R R / ^ R [ l.0.r.f.e.e.e.e.e.e.e.e.e.e.e.e.e.e.e.e.e.e.e.e.e.e.e.e.e.e.e.e.e.e.e.e.e.e.e.e.e.e.e.e.e.e.e.e.e.e.e.e.e.e.e.e.e.e.e.e.e.e.8.8.8.8.8.8.e.e.8.8.8.8.e.e.8.8.e.8.8.8.e.e.e.e.e.e.e.e.e.e.A A V V V V V V V V V V V V V V V V V V V V V V V V Z Z V Z x 0 0 0 0 0 0 0 0 0 0 0 0 0 0 0 0 0 0 0 0 0 0 0 0 0 & 0 8 0 8 z >.>.>.>.>.>.>.>.>.>.#.#.#.#.#.#.#.#.#.#.#.#.#.#.#.#.>.#.#.$.2.w.e.e.e.e.e.e.e.e.e.e.e.e.e.e.e.e.e.e.e.e.e.e.e.e.e.e.e.e.e.e.e.e.e.e.e.e.e.e.e.e.e.e.e.e.e.e.e.e.e.e.e.e.e.e.e.e.e.e.e.e.",
"e.e.e.e.e.e.e.e.e.e.e.e.e.e.e.e.e.e.e.e.e.e.e.e.e.e.e.e.e.e.e.e.e.e.e.e.e.e.e.e.e.e.e.e.e.e.e.e.e.e.e.e.e.e.e.e.e.e.8.8.9.m.#X#X$X$X$X$X$X$X$X$X$X$X$X$X$X$X$X$X$X$X$X$X$X$X$X$X$X$XZ.3XD 0 9 0 0 0 0 0 0 0 0 0 0 0 0 0 0 0 0 0 0 0 0 0 0 0 0 0 0 s : H.Z.A.Z.$X$X$X$X$X$X$X$X$X$X$X$X$X$X$X$X$X$X$X$X$X$X$X$X$X#X#Xr.q.q.8.r.r.e.e.e.e.e.e.e.e.e.e.e.e.e.e.e.e.e.e.e.e.e.e.e.e.v.%X#X#X#XZ.$X#X$X$X$X$X$X$X$X$X$X$X$X$X$X$X$X$X+X+X#X#XA.$X#Xb.8.e.8.8.e.e.r.r.e.e.e.e.e.e.e.e.e.e.e.e.e.e.e.e.e.e.e.e.e.e.e.e.e.e.e.e.e.e.e.e.e.e.e.e.e.e.e.e.e.e.e.e.e.e.e.e.q.q.e.e.s.' E ( R R R R R R R R R R R R R R R R R R R R R R R R / ^ R [ l.8.r.f.e.e.e.e.e.e.e.e.e.e.e.e.e.e.e.e.e.e.e.e.e.e.e.e.e.e.e.e.e.e.e.e.e.e.e.e.e.e.e.e.e.e.e.e.e.e.e.e.e.e.e.e.e.e.e.e.e.e.e.e.e.e.8.e.e.e.e.e.8.e.e.e.e.e.e.e.8.8.8.8.8.8.e.e.e.e.8.8.A A V V V V V V V V V V V V V V V V V V V V V V V V Z Z V Z x 0 0 0 0 0 0 0 0 0 0 0 0 0 0 0 0 0 0 0 0 0 0 0 0 0 & 0 0 0 8 z >.>.>.>.>.>.>.>.>.>.#.#.#.#.#.#.#.#.#.#.#.#.#.#.#.#.>.#.#.$.2.w.e.e.e.e.e.e.e.e.e.e.e.e.e.e.e.e.e.e.e.e.e.e.e.e.e.e.e.e.e.e.e.e.e.e.e.e.e.e.e.e.e.e.e.e.e.e.e.e.e.e.e.e.e.e.e.e.e.e.e.e.",
"e.e.e.e.e.e.e.e.e.e.e.e.e.e.e.e.e.e.e.e.e.e.e.e.e.e.e.e.e.e.e.e.e.e.e.e.e.e.e.e.e.e.e.e.e.e.e.e.e.e.e.e.e.e.e.e.e.e.8.8.9.m.#X#X$X$X$X$X$X$X$X$X$X$X$X$X$X$X$X$X$X$X$X$X$X$X$X$X$X$XZ.3XD 0 9 0 0 0 0 0 0 0 0 0 0 0 0 0 0 0 0 0 0 0 0 0 0 0 0 0 0 s : H.Z.A.Z.#X$X$X$X$X$X$X$X$X$X$X$X$X$X$X$X$X$X$X$X$X$X$X$X$X#X#Xr.q.q.8.r.r.e.e.e.e.e.e.e.e.e.e.e.e.e.e.e.e.e.e.e.e.e.e.e.e.v.%X#X#X#XZ.$X#X$X$X$X$X$X$X$X$X$X$X$X$X$X$X$X$X+X+X#X#XA.$X#Xm.e.e.8.8.e.e.r.r.e.e.e.e.e.e.e.e.e.e.e.e.e.e.e.e.e.e.e.e.e.e.e.e.e.e.e.e.e.e.e.e.e.e.e.e.e.e.e.e.e.e.e.e.e.e.e.e.q.q.e.e.s.' E ( R R R R R R R R R R R R R R R R R R R R R R R R / ^ R [ l.8.r.f.e.e.e.e.e.e.e.e.e.e.e.e.e.e.e.e.e.e.e.e.e.e.e.e.e.e.e.e.e.e.e.e.e.e.e.e.e.e.e.e.e.e.e.e.e.e.e.e.e.e.e.e.e.e.e.e.e.e.e.e.e.e.e.e.e.e.e.e.8.8.e.e.e.e.e.e.8.8.8.8.8.8.8.e.e.e.e.8.A A V V V V V V V V V V V V V V V V V V V V V V V V Z Z V Z x 0 0 0 0 0 0 0 0 0 0 0 0 0 0 0 0 0 0 0 0 0 0 0 0 0 = 0 0 0 8 z >.>.>.>.>.>.>.>.>.>.#.#.#.#.#.#.#.#.#.#.#.#.#.#.#.#.>.#.#.$.2.w.e.e.e.e.e.e.e.e.e.e.e.e.e.e.e.e.e.e.e.e.e.e.e.e.e.e.e.e.e.e.e.e.e.e.e.e.e.e.e.e.e.e.e.e.e.e.e.e.e.e.e.e.e.e.e.e.e.e.e.e.",
"e.e.e.e.e.e.e.e.e.e.e.e.e.e.e.e.e.e.e.e.e.e.e.e.e.e.e.e.e.e.e.e.e.e.e.e.e.e.e.e.e.e.e.e.e.e.e.e.e.e.e.e.e.e.e.e.e.e.e.8.9.m.#X#X$X$X$X$X$X$X$X$X$X$X$X$X$X$X$X$X$X$X$X$X$X$X$X$X$X$XZ.3XD 0 9 0 0 0 0 0 0 0 0 0 0 0 0 0 0 0 0 0 0 0 0 0 0 0 0 0 0 s : H.Z.A.Z.#X$X$X$X$X$X$X$X$X$X$X$X$X$X$X$X$X$X$X$X$X$X$X$X$X#X#Xr.q.q.8.r.r.e.e.e.e.e.e.e.e.e.e.e.e.e.e.e.e.e.e.e.e.e.e.e.e.v.%X#X#X$XZ.$X#X$X$X$X$X$X$X$X$X$X$X$X$X$X$X$X$X#X+X#X#XA.$X#Xm.e.e.e.e.e.e.r.r.e.e.e.e.e.e.e.e.e.e.e.e.e.e.e.e.e.e.e.e.e.e.e.e.e.e.e.e.e.e.e.e.e.e.e.e.e.e.e.e.e.e.e.e.e.e.e.e.q.q.8.e.s.M E ( R R R R R R R R R R R R R R R R R R R R R R R R / ^ R [ l.0.r.f.e.e.e.e.e.e.e.e.e.e.e.e.e.e.e.e.e.e.e.e.e.e.e.e.e.e.e.e.e.e.e.e.e.e.e.e.e.e.e.e.e.e.e.e.e.e.e.e.e.e.e.e.e.e.e.e.e.e.e.e.e.e.e.e.8.8.e.e.e.e.e.e.e.e.8.8.8.8.e.e.8.8.e.e.e.e.8.8.A Z V V V V V V V V V V V V V V V V V V V V V V V V Z Z V Z x 0 0 0 0 0 0 0 0 0 0 0 0 0 0 0 0 0 0 0 0 0 0 0 0 0 & 0 8 0 8 z >.>.>.>.>.>.>.>.>.>.#.#.#.#.#.#.#.#.#.#.#.#.#.#.#.#.>.S #.$.2.w.e.e.e.e.e.e.e.e.e.e.e.e.e.e.e.e.e.e.e.e.e.e.e.e.e.e.e.e.e.e.e.e.e.e.e.e.e.e.e.e.e.e.e.e.e.e.e.e.e.e.e.e.e.e.e.e.e.e.e.e.",
"e.e.e.e.e.e.e.e.e.e.e.e.e.e.e.e.e.e.e.e.e.e.e.e.e.e.e.e.e.e.e.e.e.e.e.e.e.e.e.e.e.e.e.e.e.e.e.e.e.e.e.e.e.e.e.e.e.e.e.8.9.m.#X#X$X$X$X$X$X$X$X$X$X$X$X$X$X$X$X$X$X$X$X$X$X$X$X$X$X$XA.3XD 0 9 0 0 0 0 0 0 0 0 0 0 0 0 0 0 0 0 0 0 0 0 0 0 0 0 0 0 s : H.Z.Z.Z.#X$X$X$X$X$X$X$X$X$X$X$X$X$X$X$X$X$X$X$X$X$X$X$X$X#X#Xr.q.q.8.r.r.e.e.e.e.e.e.e.e.e.e.e.e.e.e.e.e.e.e.e.e.e.e.e.e.v.%X#X#X$XZ.$X#X$X$X$X$X$X$X$X$X$X$X$X$X$X$X$X$X#X+X#X#XA.$X#Xm.e.e.e.e.e.e.r.r.e.e.e.e.e.e.e.e.e.e.e.e.e.e.e.e.e.e.e.e.e.e.e.e.e.e.e.e.e.e.e.e.e.e.e.e.e.e.e.e.e.e.e.e.e.e.e.e.q.q.8.e.s.M E ( R R R R R R R R R R R R R R R R R R R R R R R R / ^ R [ l.0.r.f.e.e.e.e.e.e.e.e.e.e.e.e.e.e.e.e.e.e.e.e.e.e.e.e.e.e.e.e.e.e.e.e.e.e.e.e.e.e.e.e.e.e.e.e.e.e.e.e.e.e.e.e.e.e.e.e.e.e.e.e.e.e.8.e.8.8.e.e.e.e.e.e.e.e.8.8.e.e.e.e.8.8.e.e.e.e.8.8.Z Z V V V V V V V V V V V V V V V V V V V V V V V V Z Z m Z x 0 0 0 0 0 0 0 0 0 0 0 0 0 0 0 0 0 0 0 0 0 0 0 0 0 & 0 8 0 8 z >.>.>.>.>.>.>.>.>.>.#.#.#.#.#.#.#.#.#.#.#.#.#.#.#.#.>.S #.$.2.w.e.e.e.e.e.e.e.e.e.e.e.e.e.e.e.e.e.e.e.e.e.e.e.e.e.e.e.e.e.e.e.e.e.e.e.e.e.e.e.e.e.e.e.e.e.e.e.e.e.e.e.e.e.e.e.e.e.e.e.e.",
"e.e.e.e.e.e.e.e.e.e.e.e.e.e.e.e.e.e.e.e.e.e.e.e.e.e.e.e.e.e.e.e.e.e.e.e.e.e.e.e.e.e.e.e.e.e.e.e.e.e.e.e.e.e.e.e.e.e.e.8.9.m.$X#X$X$X$X$X$X$X$X$X$X$X$X$X$X$X$X$X$X$X$X$X$X$X$X$X$X$XA.3XD 0 9 0 0 0 0 0 0 0 0 0 0 0 0 0 0 0 0 0 0 0 0 0 0 0 0 0 0 s : H.Z.Z.Z.#X$X$X$X$X$X$X$X$X$X$X$X$X$X$X$X$X$X$X$X$X#X#X$X$X#X#Xr.8.q.8.q.q.e.e.e.e.e.e.e.e.e.e.e.e.e.e.e.e.e.e.e.e.e.e.e.e.v.%X#X#X$XZ.$X#X$X$X$X$X$X$X$X$X$X$X$X$X$X$X$X$X#X+X#X#XA.$X#Xm.8.8.e.e.e.e.r.r.e.e.e.e.e.e.e.e.e.e.e.e.e.e.e.e.e.e.e.e.e.e.e.e.e.e.e.e.e.e.e.e.e.e.e.e.e.e.e.e.e.e.e.e.e.e.e.e.q.q.8.e.s.M E ( R R R R R R R R R R R R R R R R R R R R R R R R / ^ R [ l.0.r.f.e.e.e.e.e.e.e.e.e.e.e.e.e.e.e.e.e.e.e.e.e.e.e.e.e.e.e.e.e.e.e.e.e.e.e.e.e.e.e.e.e.e.e.e.e.e.e.e.e.e.e.e.e.e.e.e.e.e.8.8.8.8.8.8.8.8.8.8.e.e.e.e.e.8.8.8.e.e.e.e.8.8.e.e.e.8.8.8.V V V V V V V V V V V V V V V V V V V V V V V V V V Z Z V Z N 0 0 0 0 0 0 0 0 0 0 0 0 0 0 0 0 0 0 0 0 0 0 0 0 0 & 0 8 0 8 z >.>.>.>.>.>.>.>.>.>.#.#.#.#.#.#.#.#.#.#.#.#.#.#.#.#.>.S A $.2.w.e.e.e.e.e.e.e.e.e.e.e.e.e.e.e.e.e.e.e.e.e.e.e.e.e.e.e.e.e.e.e.e.e.e.e.e.e.e.e.e.e.e.e.e.e.e.e.e.e.e.e.e.e.e.e.e.e.e.e.e.",
"e.e.e.e.e.e.e.e.e.e.e.e.e.e.e.e.e.e.e.e.e.e.e.e.e.e.e.e.e.e.e.e.e.e.e.e.e.e.e.e.e.e.e.e.e.e.e.e.e.e.e.e.e.e.e.e.e.e.e.8.9.m.$X#X$X$X$X$X$X$X$X$X$X$X$X$X$X$X$X$X$X$X$X$X$X$X$X$X$X$XA.3XD 0 9 0 0 0 0 0 0 0 0 0 0 0 0 0 0 0 0 0 0 0 0 0 0 0 0 0 0 s : H.Z.Z.Z.#X$X$X$X$X$X$X$X$X$X$X$X$X$X$X$X$X$X$X$X$X$X$X$X$X#X#Xr.8.q.8.q.q.e.e.e.e.e.e.e.e.e.e.e.e.e.e.e.e.e.e.e.e.e.e.e.e.v.%X#X#X$XZ.$X#X$X$X$X$X$X$X$X$X$X$X$X$X$X$X$X$X#X+X#X#XA.$X#Xm.8.8.8.e.e.e.r.r.e.e.e.e.e.e.e.e.e.e.e.e.e.e.e.e.e.e.e.e.e.e.e.e.e.e.e.e.e.e.e.e.e.e.e.e.e.e.e.e.e.e.e.e.e.e.e.e.q.q.8.e.s.M E ( R R R R R R R R R R R R R R R R R R R R R R R R / ^ R [ l.0.r.f.e.e.e.e.e.e.e.e.e.e.e.e.e.e.e.e.e.e.e.e.e.e.e.e.e.e.e.e.e.e.e.e.e.e.e.e.e.e.e.e.e.e.e.e.e.e.e.e.e.e.e.e.e.e.e.e.e.e.8.8.8.8.8.8.8.8.8.8.8.e.e.8.8.8.8.8.e.e.e.e.8.8.e.e.e.8.8.8.Z V V V V V V V V V V V V V V V V V V V V V V V V V Z Z V Z m 0 0 0 0 0 0 0 0 0 0 0 0 0 0 0 0 0 0 0 0 0 0 0 0 0 & 0 8 0 8 z >.>.>.>.>.>.>.>.>.>.#.#.#.#.#.#.#.#.#.#.#.#.#.#.#.#.>.S A $.2.w.e.e.e.e.e.e.e.e.e.e.e.e.e.e.e.e.e.e.e.e.e.e.e.e.e.e.e.e.e.e.e.e.e.e.e.e.e.e.e.e.e.e.e.e.e.e.e.e.e.e.e.e.e.e.e.e.e.e.e.e.",
"e.e.e.e.e.e.e.e.e.e.e.e.e.e.e.e.e.e.e.e.e.e.e.e.0.i.i.0.3.0.p.r.8.8.e.e.e.e.8.8.e.e.e.e.e.e.8.8.8.8.e.e.e.8.8.8.3.3.0.0.q.M.#X3XA.A.A.A.A.A.A.A.A.A.A.A.A.A.A.A.A.A.A.A.A.A.A.A.Z.4X5XH.#.: s f = = = = = = = = & & & & & & & & & & & & & & & & > > : J.4XZ.+X$X4X4X4X4X4X4X4X4X4X4X4X4X4X4XJ.J.3X3X4X4X3X3X3X3X$X+Xq.:.8.:.p.a.e.e.e.e.e.e.e.e.e.e.e.e.e.e.e.e.e.e.e.e.e.e.e.e.b.$X#X#X#X#X$X#X$X$X$X$X$X$X$X$X$X$X$X$X$X$X$X$X+X+X#X#X#X$X%Xn.e.e.e.e.r.r.r.r.8.8.e.e.e.e.e.e.e.e.e.e.e.e.8.8.r.r.r.r.r.r.r.r.e.e.e.e.e.e.e.e.e.e.e.e.e.e.e.e.e.e.e.e.e.e.e.e.q.;.r.8.s.y Q ^ ^ ^ ^ ^ ^ ^ ^ ^ ^ ^ ^ ^ ^ ^ ^ ^ ^ ^ ^ ^ ^ ^ ^ ^ Y E E [ 6.r.g.h.e.e.e.e.e.e.e.e.e.e.e.e.e.e.e.e.e.e.e.e.e.e.e.e.e.e.e.e.e.e.e.e.e.e.e.e.e.e.e.e.e.e.e.e.e.e.e.e.e.e.e.e.e.e.e.e.8.8.8.8.e.e.8.8.8.8.8.8.8.8.8.8.e.e.8.8.e.e.e.e.0.0.0.0.0.0.8.w.Z Z Z Z Z Z Z n b b C V C V V C V V V V C V V C V V V V m m g X & & & & & & & & & & & & & & & & & & & & & & & & X 8 8 8 s x 1.} S S } } } } } } S S S S S S S S #.#.#.#.S S S S } } } S >.w.w.3.0.0.0.0.0.0.0.0.0.0.0.0.0.0.0.0.0.0.0.0.0.0.0.0.8.8.8.r.r.e.8.r.e.e.e.e.e.e.e.e.e.e.e.e.e.e.e.e.e.e.e.e.e.e.e.e.e.e.",
"e.e.e.e.e.e.e.e.e.e.e.e.e.e.e.e.e.e.e.e.e.e.e.e.3.e.e.3.2.e.r.e.8.8.8.8.e.e.8.8.e.8.8.e.e.e.8.8.e.8.e.e.8.8.8.8.0.i.p.8.q.M.#XZ.#X#X#X#X#X#X#X#X#X#X#X#X#X#X#X#X#X#X#X#X#X#X#X#X4X4X3XB.A O % % 0 0 0 0 0 0 0 0 0 0 0 0 0 0 0 0 0 0 0 0 0 0 0 0 s d , H.J.Z.#X#X#X#X#X#X#X#X#X#X#X#X#X#X#X#XZ.Z.Z.Z.Z.Z.Z.#XZ.Z.#XM.9.9.8.q.a.q.e.e.e.e.e.e.e.e.e.e.e.e.e.e.e.e.e.e.e.e.e.e.e.e.v.#XC.C.#XC.#XC.#X#X#X#X#X#X#X#X#X#X#X#X#X#X#X#X+XC.+XA.C.$X+Xv.8.8.8.8.8.8.8.8.8.8.e.8.e.e.e.e.e.8.8.e.e.e.8.8.e.e.r.r.r.e.8.8.e.e.e.e.e.e.e.e.e.e.e.e.e.e.e.e.e.e.e.e.e.e.e.e.a.;.r.w.x.y Q ( R R R R R R R R R R R R R R R R R R R R R R R R Q ) Q [ j.n.g.g.e.e.e.e.e.e.e.e.e.e.e.e.e.e.e.e.e.e.e.e.e.e.e.e.e.e.e.e.e.e.e.e.e.e.e.e.e.e.e.e.e.e.e.e.e.e.e.e.e.e.e.e.e.e.e.e.8.8.8.8.e.e.e.e.8.8.8.8.8.8.8.8.e.e.8.8.8.e.e.e.0.0.0.0.0.0.8.w.C C C C Z Z Z Z C C C C C C C C C C C C C C C C Z Z Z Z V N x 8 0 0 0 0 0 0 0 0 0 0 0 0 0 0 0 0 0 0 0 0 0 0 0 0 0 0 0 0 8 x ....>.>.>.>.>.>.>.>.>.>.>.>.>.>.>.>.>.>.>.>.>.>.>.>.1.1.>.>.5.r.r.e.r.r.r.r.r.r.r.r.r.r.r.r.r.r.r.r.r.r.r.r.r.r.r.r.e.8.8.p.p.e.8.e.e.e.e.e.e.e.e.e.e.e.e.e.e.e.e.e.e.e.e.e.e.e.e.e.e.e.",
"e.e.e.e.e.e.e.e.e.e.e.e.e.e.e.e.e.e.e.e.e.e.e.e.3.0.0.0.0.e.r.8.0.0.0.0.0.0.e.e.8.8.8.8.e.8.8.8.e.e.e.e.e.e.8.8.-.q.q.;.:.b.C.M.3X3X3X3X3X3X3X3X3X3X3X3X3X3X3X3X3X3X3X3X3X3X3X3X#XC.3X1XS & z z 0 0 0 0 0 0 0 0 0 0 0 0 0 0 0 0 0 0 0 0 0 0 0 0 = > : N.4XaXaX$X+X+X+X+X+X+X+X+X+X+X+X+X+X+X+X+XZ.Z.Z.Z.Z.Z.Z.Z.#XM.9.8.q.e.p.;.e.e.e.e.e.e.e.e.e.e.e.e.e.e.e.e.e.e.e.e.e.e.e.e.v.%X#X#X#XZ.#XZ.#X#X#X#X#X#X#X#X$X#X$X$X#X#X#X#X+X+X#XA.A.$X#Xm.r.e.r.r.r.r.r.r.8.8.8.8.8.8.e.8.8.8.8.8.e.8.8.8.8.e.r.r.r.8.8.8.e.e.e.e.e.e.e.e.e.e.e.e.e.e.e.e.e.e.e.e.e.e.e.e.i.2.r.z.x.` Q ) E E E E E E E E E E E E E E E E E E E E E E E E R R R { 6.p.8.w.e.e.e.e.e.e.e.e.e.e.e.e.e.e.e.e.e.e.e.e.e.e.e.e.e.e.e.e.e.e.e.e.e.e.e.e.e.e.e.e.e.e.e.e.e.e.e.e.e.e.e.e.e.e.e.e.8.8.e.e.e.e.e.e.e.e.8.8.8.8.e.e.e.e.8.8.8.8.e.e.0.0.0.0.0.0.0.w.V V V V Z Z Z Z Z Z Z Z Z Z Z Z Z Z Z Z Z Z Z Z Z Z Z V m V m 8 0 0 0 0 0 0 0 0 0 0 0 0 0 0 0 0 0 0 0 0 0 0 0 0 9 0 0 0 & f } D >.>.>.>.>.>.>.>.A A A A A A A A A A A A A A A A S } S S >.w.e.8.e.e.e.e.e.e.e.e.e.e.e.e.e.e.e.e.e.e.e.e.e.e.e.e.r.r.r.p.r.e.8.e.e.e.e.e.e.e.e.e.e.e.e.e.e.e.e.e.e.e.e.e.e.e.e.e.e.e.",
"e.e.e.e.e.e.e.e.e.e.e.e.e.e.e.e.e.e.e.e.e.e.e.e.r.r.r.r.r.g.r.r.e.e.e.e.e.e.e.e.e.e.e.e.e.e.e.e.r.r.r.r.r.e.e.e.q.v.p.9.q.+X6X$X#X#X#X#X#X#X#X#X#X#X#X#X#X#X#X#X#X#X#X#X#X#X#X#X$XZ.3X7XA X 0 9 9 9 9 9 9 9 9 9 9 9 9 9 9 9 9 9 9 9 9 9 9 9 9 9 z s d H.4X4XA.C.$X$X$X$X$X$X$X$X$X$X$X$X$X$X$X$X$X$X$X$X$X$X$X$X3XB.q.8.q.e.a.;.e.e.e.e.e.e.e.e.e.e.e.e.e.e.e.e.e.e.e.e.e.e.e.e.v.#X+XZ.#XC.Z.Z.#X#X#X#X#X#X#X#X#X#X#X#X#X#X#X#X+XC.A.A.S.A.Z.m.e.e.e.e.e.e.e.e.e.e.e.e.e.e.r.r.e.e.e.e.e.e.e.e.e.e.r.r.r.e.8.8.e.e.e.e.e.e.e.e.e.e.e.e.e.e.e.e.e.e.e.e.e.e.e.e.i.3.e.z.x.y E R Q Q Q Q Q Q ) ) Q Q Q Q Q Q ) Q Q Q Q Q Q Q ) ) ^ ^ R { 6.p.r.w.e.e.e.e.e.e.e.e.e.e.e.e.e.e.e.e.e.e.e.e.e.e.e.e.e.e.e.e.e.e.e.e.e.e.e.e.e.e.e.e.e.e.e.e.e.e.e.e.e.e.e.e.e.e.e.e.8.8.8.e.e.e.e.e.e.e.e.8.8.8.e.e.e.e.8.8.8.8.e.e.0.0.0.0.0.0.0.w.A A A A A A A A Z Z Z Z Z Z Z Z Z Z Z Z Z Z Z A A Z A Z V Z V s 9 9 9 9 9 9 9 9 9 9 9 9 9 9 9 9 9 9 9 9 9 9 9 9 0 t 0 0 0 z ....S S S S S S S S #.#.#.#.S #.#.#.#.#.#.#.#.#.#.#.} #.#.#.2.r.r.e.r.r.r.r.r.r.r.r.r.r.r.r.r.r.r.r.r.r.r.r.r.r.r.r.r.e.e.r.r.e.8.8.e.e.e.e.e.e.e.e.e.e.e.e.e.e.e.e.e.e.e.e.e.e.e.e.e.e.",
"0.0.0.0.0.0.0.0.0.0.0.0.0.0.0.0.0.0.0.0.0.0.0.0.w.w.r.r.w.e.e.e.r.r.r.r.r.r.r.r.r.r.r.r.r.r.r.r.r.r.r.r.r.r.r.r.8.q.8.;.9.M.4X4XS.S.S.S.@X@X@X@X@XS.S.S.S.S.S.S.S.S.S.S.@X@X@X@XC.B.3X1X} & 0 0 0 0 0 0 0 0 0 0 0 0 0 0 0 0 0 0 0 0 0 0 0 0 0 0 8 X d N.9X6XZ.$X$X#X#X#XA.A.A.A.#X#X#X#XA.A.A.A.#X#X#X#X#X#X#X#X6X#Xr.e.e.e.p.0.e.e.e.e.e.e.e.e.e.e.e.e.e.e.e.e.e.e.e.e.e.e.e.e.M.6X3X4X6X$X4X4X4X4X4X4X4X4X4X4X4X4X4X4X4X4X4X4X$X$XaX$X$XaX6XB.e.e.e.r.r.r.r.r.r.r.r.r.r.r.r.r.r.r.r.r.r.r.r.r.e.r.r.r.r.r.w.w.e.e.e.e.e.e.e.e.e.e.e.e.e.e.e.e.e.e.e.e.e.e.e.e.i.0.w.z.s.c _ E R R R R R R R R R R R R R R R R R R R R R R R R T E Y ] 6.q.q.w.e.e.e.e.8.8.8.8.8.e.e.e.e.e.e.e.8.8.e.e.e.e.8.8.e.e.e.e.e.e.e.e.e.e.e.e.e.e.e.e.e.e.e.e.e.e.e.e.e.e.e.e.e.e.e.e.e.e.e.e.8.8.e.e.e.e.8.8.8.8.e.e.e.e.e.e.8.8.8.e.0.0.0.8.0.0.0.w.b b b b b b b b b b b b b b b b b b b b b b b b b b b b x V x 0 0 0 0 0 0 0 0 0 0 0 0 0 0 0 0 0 0 0 0 0 0 0 0 0 - 0 & = & s } D #.#.#.#.#.#.#.#.#.#.#.#.#.#.#.#.#.#.#.#.#.#.#.#.S #.#.#.2.r.p.r.8.8.8.8.8.8.8.8.8.8.8.8.8.8.8.8.8.8.8.8.8.8.8.8.8.8.8.8.8.e.e.e.e.e.e.e.e.e.e.e.e.e.e.e.e.e.e.e.e.e.e.e.e.e.e.e.e.e.",
"l.l.l.l.l.l.l.l.l.l.l.l.l.l.l.l.l.l.l.l.l.l.l.l.l.l.l.l.f.w.l.x.w.w.w.w.w.w.w.w.w.w.w.w.w.w.w.w.w.w.w.w.w.w.w.w.r.p.r.r.p.N.oX1X%X%X%X%X%X%X%X%X%X%X%X%X%X%X%X%X%X%X%X%X%X%X%X%X8X8X1XN.#.& o O & & & & & & & & & & & & & & & & & & & & & & & & 8 O j z.J.Z.B.#X4X4X4X4X4X4X4X4X4X4X4X6X4X4X4X4X3X3X3X3X3X3X5X5XoXB.r.e.e.0.p.e.e.e.e.e.e.e.e.e.e.e.e.e.e.e.e.e.e.e.e.e.e.e.e.e.v.3X#X#X%X#X$X#X#X#X#X%X#X#X#X#X%X%X#X#X#X#X#X#X#X#X$X$XZ.4X3XV.w.w.e.e.r.r.r.r.w.w.w.w.w.w.w.w.w.w.w.w.w.w.w.w.w.w.w.w.w.w.e.r.e.e.e.e.e.e.e.e.e.e.e.e.e.e.e.e.e.e.e.e.e.e.e.e.e.e.8.r.6.m ' Q T T T T T T T T T T T T T T Q Q T T T T T T T T ' ' ' D 2.9.8.3.e.e.e.e.8.8.8.8.8.8.e.e.e.e.e.e.8.8.e.e.e.e.8.8.e.e.e.e.e.e.e.e.e.e.e.e.e.e.e.e.e.e.e.e.e.e.e.e.e.e.e.e.e.e.e.e.e.e.e.e.8.e.e.e.e.e.8.8.8.8.e.e.e.e.8.8.8.8.8.e.0.0.0.0.0.0.0.w.C C C C C C C C V V V V Z V Z Z V V V V V V V V C V V V b Z Z g & & & & & & & & & & & & & & & & & & & & & & & & 0 f s s s x >.S $.$.>.>.$.$.$.$.#.#.#.#.#.#.#.#.#.#.#.#.#.#.#.#.#.#.#.#.2.r.p.r.8.8.8.8.8.e.8.e.8.8.8.8.8.8.8.8.8.e.8.8.8.8.8.8.r.r.r.8.8.8.e.8.e.e.e.e.e.e.e.e.e.e.e.e.e.e.e.e.e.e.e.e.e.e.e.e.e.e.",
"f f s s s s s s s s s s s s s s f f s s s s s s s s f s a 8 g S 1.1.1.1.1.1.1.1.2.2.2.2.2.2.2.2.2.2.2.2.2.2.2.2.#.#.#.>.#.C b j g g g g g g g g g g g g g g g g g g g g g g g g s m g V >.1.5.6.5.5.5.5.5.5.5.5.6.6.6.6.6.6.6.6.6.6.6.6.6.6.6.6.5.>.2.t.w.8.*.*.*.*.*.*.*.*.*.*.*.*.*.*.*.*.*.*.$.$.$.$.$.$.$.$.8.r.8.r.e.0.i.e.e.e.e.e.e.e.e.e.e.e.e.e.e.e.e.e.e.e.e.e.e.e.e.e.=.p.r.r.c.t.c.c.r.r.r.r.r.r.r.r.r.r.r.r.r.r.r.r.q.q.r.c.t.c.r.2.>.$.$.>.>.>.1.1.2.2.2.2.2.2.2.2.2.2.2.2.2.2.2.2.2.2.1.1.2.5.w.w.e.e.e.e.e.e.e.e.e.e.e.e.e.e.e.e.e.e.e.e.e.e.e.e.8.q.9.q.8.} X.O.7.7.7.7.7.7.7.7.7.7.7.7.7.7.7.7.7.7.7.7.7.7.7.7.1.7.7.5.q.q.8.w.8.8.e.e.e.e.8.8.8.8.8.8.e.e.8.e.8.8.8.8.e.e.e.8.e.e.e.e.e.e.e.e.e.e.e.e.e.e.e.e.e.e.e.e.e.e.e.e.e.e.e.e.e.e.e.e.e.e.8.8.8.8.e.e.e.e.e.8.8.e.e.e.8.8.8.8.8.8.8.8.;.0.0.8.0.0.8.w.w.w.w.w.6.w.w.w.w.w.w.w.w.w.w.w.w.w.w.w.w.w.w.w.w.5.6.5.5.6.6.1.6.6.6.6.6.6.6.6.6.6.6.6.6.6.6.6.6.6.6.6.6.6.6.6.>.5.5.5.>.2.g.w.3.3.3.3.3.3.3.3.0.3.3.3.3.3.3.3.3.3.3.3.3.3.3.3.5.w.w.8.p.B.oXB.B.B.B.B.B.B.B.B.B.B.B.B.B.B.B.B.B.B.B.B.B.B.B.B.V.N.n.r.8.r.r.8.e.e.e.e.e.e.e.e.e.e.e.e.e.e.e.e.e.e.e.e.e.e.e.e.e.e.",
"= = & & & & & & & & & & & & & & = = & & & & & & % 8 8 8 X & x ..#.#.S S S S S S #.#.#.#.#.#.#.#.#.#.#.#.#.#.#.#.,.,.5.5.>.x & O t t t t t t t t t t t t t t t t t t t t t t t t 8 z X o #.w.e.e.w.w.e.e.e.e.e.e.r.r.w.w.w.w.w.w.w.w.w.r.w.w.w.w.z.f.g.,.%.#.#.C D D D D D D D D D D D D D D D D #.#.#.#.#.#.#.#.C *.2.r.e.0.e.e.e.e.e.e.e.e.e.e.e.e.e.e.e.e.e.e.e.e.e.e.e.e.e.e.%.r.8.q.q.9.q.9.q.q.q.q.q.q.q.q.q.q.q.q.q.q.q.q.0.8.q.q.9.r.e.*.#.#.#.#.#.#.$.$.#.#.#.#.#.#.#.#.#.#.#.#.#.#.#.#.$.#.#.A #.2.6.w.e.e.e.e.e.e.e.e.e.e.e.e.e.e.e.e.e.e.e.e.e.e.e.e.:.q.:.q.w.5.k.k.0.0.0.w.w.w.e.e.w.0.0.0.w.w.0.w.w.0.0.0.0.0.0.0.r.g.l.e.q.:.;.6.8.8.8.8.8.8.8.8.8.8.8.8.8.8.8.8.8.8.8.8.8.8.8.8.e.e.e.e.e.e.e.e.e.e.e.e.e.e.e.e.e.e.e.e.e.e.e.e.e.e.e.e.e.e.e.e.e.8.8.8.8.8.e.e.e.e.8.8.8.e.e.e.8.8.8.8.8.8.8.8.;.0.0.0.0.8.8.w.e.e.e.e.e.e.e.e.e.e.e.e.e.e.e.r.e.e.e.e.e.e.e.e.i.e.e.6.3.i.i.3.w.w.w.w.w.w.w.r.w.w.w.w.w.w.w.w.w.w.w.w.w.w.w.w.5.g.r.r.8.8.r.8.r.r.r.r.r.r.r.r.e.e.e.e.e.e.e.e.e.e.e.e.e.e.e.e.w.e.e.e.n.oX%XoX3X3X3X3X3X3X3X3X3X3X3X3X3X3X3X3X3X3X3X3X3X3X3X3X3X3XB.z.r.r.r.0.e.e.e.e.e.e.e.e.e.e.e.e.e.e.e.e.e.e.e.e.e.e.e.e.e.e.",
"0 0 0 0 0 0 0 0 0 0 0 0 0 0 0 0 0 0 0 0 0 0 0 0 0 0 7 0 0 & f >.>.>.>.>.>.>.>.>.#.#.#.#.#.#.#.#.#.#.#.#.#.#.#.#.$.$.#.#.>.m 0 7 0 0 0 0 0 0 0 0 0 0 0 0 0 0 0 0 0 0 0 0 0 0 0 0 0 & 0 & 1.e.8.q.e.r.r.r.e.e.e.e.e.e.e.e.e.e.e.e.e.e.r.r.e.e.e.e.e.w.e.$.#.1.#.S #.#.#.#.#.#.#.#.#.#.#.#.#.#.#.#.#.#.#.#.#.#.#.#.#.2.w.r.e.8.8.e.e.e.e.e.e.e.e.e.e.e.e.e.e.e.e.e.e.e.e.e.e.e.e.e.e.e.e.e.e.e.e.e.e.e.e.e.e.e.e.e.e.e.e.e.e.e.e.e.e.8.e.e.0.i.e.*.#.#.#.#.#.#.#.#.#.#.#.#.#.#.#.#.#.#.#.#.#.#.#.#.#.>.S A #.$.2.e.8.8.8.8.e.e.e.e.e.e.e.e.8.8.8.8.8.8.e.e.e.e.e.e.e.8.8.8.e.e.r.r.e.r.e.e.e.e.r.r.e.e.e.e.e.e.e.e.e.e.e.e.r.r.e.e.e.e.e.e.8.8.8.0.8.8.e.e.e.e.e.e.e.e.e.e.e.e.8.8.0.0.0.0.8.8.0.0.8.8.e.e.e.e.e.e.e.e.e.e.e.e.e.e.e.e.e.e.e.e.e.e.e.e.e.e.e.e.e.e.e.8.8.e.8.8.8.0.8.8.8.8.e.e.e.e.8.8.e.e.e.8.8.8.8.8.8.0.0.0.8.8.e.e.8.8.e.e.e.e.e.e.e.e.e.e.e.e.e.e.e.e.e.e.e.e.e.e.e.e.e.e.e.e.e.e.e.e.e.e.e.e.e.e.e.e.e.e.e.e.e.e.e.e.e.e.e.e.e.e.e.e.e.e.e.e.e.e.e.r.r.r.e.e.e.e.e.e.e.e.e.e.8.8.e.e.e.e.e.e.e.0.e.8.m.4X#X#X$X$X$X$X$X$X$X$X$X$X$X$X$X$X$X$X$X$X$X$X$X$X$X$X$X#X+Xv.8.e.0.e.e.e.e.e.e.e.e.e.e.e.e.e.e.e.e.e.e.e.e.e.e.e.e.e.e.e.",
"0 0 0 0 0 0 0 0 0 0 0 0 0 0 0 0 0 0 0 0 0 0 0 0 0 0 7 0 0 & f >.>.>.>.>.>.>.>.>.#.#.#.#.#.#.#.#.#.#.#.#.#.#.#.#.$.$.#.#.>.m 0 7 0 0 0 0 0 0 0 0 0 0 0 0 0 0 0 0 0 0 0 0 0 0 0 0 0 & 0 & 1.e.8.q.e.r.e.r.e.e.e.e.e.e.e.e.e.e.e.e.e.e.e.e.e.r.e.e.e.w.e.$.#.1.S S #.#.#.#.#.#.#.#.#.#.#.#.#.#.#.#.#.#.#.#.#.#.#.#.#.2.w.r.e.e.8.e.e.e.e.e.e.e.e.e.e.e.e.e.e.e.e.e.e.e.e.e.e.e.e.e.e.e.e.e.e.e.e.e.e.e.e.e.e.e.e.e.e.e.e.e.e.e.e.e.e.8.e.8.0.i.e.*.#.#.#.#.#.#.#.#.#.#.#.#.#.#.#.#.#.#.#.#.#.#.#.#.#.>.S A #.$.2.e.8.8.8.8.e.e.e.e.e.e.e.e.8.8.8.8.8.8.e.8.e.e.e.e.e.e.8.8.e.e.r.r.e.r.r.e.e.e.e.e.e.e.e.e.e.e.e.e.e.e.e.e.e.e.e.e.e.e.e.e.8.8.8.0.8.8.e.e.e.e.8.e.e.e.e.e.e.e.8.8.0.0.0.0.8.8.8.0.8.8.e.8.e.e.e.e.e.e.e.e.e.e.e.e.e.e.e.e.e.e.e.e.e.e.e.e.e.e.e.e.e.8.8.8.8.8.8.0.8.8.8.8.e.e.e.e.e.8.e.e.8.8.8.8.8.8.8.8.0.0.0.0.e.e.8.8.8.e.e.e.e.e.e.e.e.e.r.r.e.r.e.e.e.e.e.e.e.e.e.e.e.e.e.e.e.e.e.e.e.e.e.e.e.e.e.e.e.e.e.e.e.e.e.e.e.e.e.e.e.e.e.e.e.e.e.e.e.e.e.e.e.e.e.e.e.e.e.e.e.e.e.e.8.8.e.e.e.e.e.e.e.0.e.8.m.4X#X#X$X$X$X$X$X$X$X$X$X$X$X$X$X$X$X$X$X$X$X$X$X$X$X$X$X#X+Xv.8.e.0.e.e.e.e.e.e.e.e.e.e.e.e.e.e.e.e.e.e.e.e.e.e.e.e.e.e.e.",
"0 0 0 0 0 0 0 0 0 0 0 0 0 0 0 0 0 0 0 0 0 0 0 0 0 0 7 0 0 & f >.>.>.>.>.>.>.>.>.#.#.#.#.#.#.#.#.#.#.#.#.#.#.#.#.$.$.#.#.>.m 0 7 0 0 0 0 0 0 0 0 0 0 0 0 0 0 0 0 0 0 0 0 0 0 0 0 0 8 0 & 1.e.8.q.e.e.e.e.e.e.e.e.e.e.e.e.e.e.e.e.e.e.e.e.e.r.e.e.e.w.e.$.#.1.S S #.#.#.#.#.#.#.#.#.#.#.#.#.#.#.#.#.#.#.#.#.#.#.#.#.2.w.r.r.e.e.r.e.e.e.e.e.e.e.e.e.e.e.e.e.e.e.e.e.e.e.e.e.e.e.e.e.e.e.e.e.e.e.e.e.e.e.e.e.e.e.e.e.e.e.e.e.e.e.e.e.8.e.e.0.i.e.*.#.#.#.#.#.#.#.#.#.#.#.#.#.#.#.#.#.#.#.#.#.#.#.#.#.>.S A #.$.2.e.q.e.8.8.8.e.e.e.8.8.e.e.8.8.8.8.8.8.8.8.8.8.e.e.e.e.e.e.e.r.r.r.e.e.e.e.e.e.e.e.e.e.e.e.r.r.e.e.e.e.e.e.e.e.e.e.e.8.e.e.8.8.8.0.8.8.8.e.8.8.8.8.8.8.8.8.e.8.8.8.8.8.0.0.8.0.0.0.8.8.8.8.e.e.e.e.e.e.e.e.e.e.e.e.e.e.e.e.e.e.e.e.e.e.e.e.e.e.e.e.e.8.8.8.8.8.8.0.8.8.8.8.e.e.8.8.e.e.e.e.e.8.8.8.8.8.0.0.0.0.0.0.e.e.8.8.8.8.e.e.e.e.e.e.e.e.e.e.e.r.e.e.e.e.e.r.e.e.e.e.r.r.e.e.e.e.e.e.e.e.e.e.e.e.e.e.e.e.e.e.e.e.e.e.e.e.e.e.e.e.e.e.e.e.e.e.e.e.e.e.e.e.e.e.e.e.e.e.e.e.e.e.e.e.e.e.e.e.e.e.e.0.e.8.m.3X#X#X$X$X$X$X$X$X$X$X$X$X$X$X$X$X$X$X$X$X$X$X$X$X$X$X$X#X+Xv.8.e.0.e.e.e.e.e.e.e.e.e.e.e.e.e.e.e.e.e.e.e.e.e.e.e.e.e.e.e.",
"0 0 0 0 0 0 0 0 0 0 0 0 0 0 0 0 0 0 0 0 0 0 0 0 0 0 7 0 0 8 f >.>.>.>.>.>.>.>.>.#.#.#.>.#.#.#.#.#.#.#.#.#.#.#.#.$.$.#.#.>.m 0 7 0 0 0 0 0 0 0 0 0 0 0 0 0 0 0 0 0 0 0 0 0 0 0 0 0 8 0 & 1.e.8.q.e.e.e.e.e.e.e.e.e.e.e.e.e.e.e.e.e.e.e.e.e.e.e.e.e.w.e.$.#.1.S S #.#.#.#.#.#.#.#.#.#.#.#.#.#.#.#.#.#.#.#.#.#.#.#.#.2.w.r.e.e.e.r.e.e.e.e.e.e.e.e.e.e.e.e.e.e.e.e.e.e.e.e.e.e.e.e.e.e.e.e.e.e.e.e.e.e.e.e.e.e.e.e.e.e.e.e.e.e.e.e.e.8.e.e.0.i.e.*.#.#.#.#.#.#.#.#.#.#.#.#.#.#.#.#.#.#.#.#.#.#.#.#.#.>.#.A #.$.2.e.q.e.e.8.8.e.e.e.8.8.e.e.e.e.8.e.8.8.8.8.8.8.8.e.e.e.e.e.e.r.r.r.e.e.e.e.e.e.e.e.e.e.e.e.r.e.e.e.e.e.e.e.e.e.e.e.e.8.e.e.8.8.8.0.8.8.e.e.8.8.8.8.8.8.8.8.e.8.8.8.8.8.0.0.0.0.0.0.8.8.8.8.e.e.e.e.e.e.e.e.e.e.e.e.e.e.e.e.e.e.e.e.e.e.e.e.e.e.e.e.e.8.8.e.8.8.8.0.e.8.e.e.e.e.8.8.e.e.e.e.e.8.8.8.8.0.0.0.0.0.0.0.e.e.8.8.8.8.e.e.e.e.e.e.e.e.e.e.e.e.e.e.e.e.r.r.r.e.e.e.e.r.e.e.e.e.e.e.e.e.e.e.e.e.e.e.e.e.e.e.e.e.e.e.e.e.e.e.e.e.e.e.e.e.e.e.e.e.e.e.e.e.e.e.e.e.e.e.e.e.e.e.e.e.e.e.e.e.e.e.e.0.e.8.m.3X#X#X$X$X$X$X$X$X$X$X$X$X$X$X$X$X$X$X$X$X$X$X$X$X$X$X#X#X+Xv.8.e.0.e.e.e.e.e.e.e.e.e.e.e.e.e.e.e.e.e.e.e.e.e.e.e.e.e.e.e.",
"0 0 0 0 0 0 0 0 0 0 0 0 0 0 0 0 0 0 0 0 0 0 0 0 s 0 7 0 0 & f >.>.>.>.>.>.>.>.>.#.#.#.#.#.#.#.#.#.#.#.#.#.#.#.#.$.#.#.#.>.m 0 7 0 0 0 0 0 0 0 0 0 0 0 0 0 0 0 0 0 0 0 0 0 0 0 0 0 8 0 & 1.e.8.q.e.e.e.e.e.e.e.e.e.e.e.e.e.e.e.e.e.e.e.e.e.e.e.e.e.e.w.*.S 1.S S #.#.#.#.#.#.#.#.#.#.#.#.#.#.#.#.#.#.#.#.#.#.#.#.#.1.w.r.e.8.e.e.e.e.e.e.e.e.e.e.e.e.e.e.e.e.e.e.e.e.e.e.e.e.e.e.e.e.e.e.e.e.e.e.e.e.e.e.e.e.e.e.e.e.e.e.e.e.e.e.r.8.e.e.0.p.e.*.#.#.#.#.#.#.#.#.#.#.#.#.#.#.#.#.#.#.#.#.#.#.#.#.#.>.#.S #.$.2.e.q.e.8.8.8.8.e.e.8.8.8.8.e.e.e.e.8.8.8.e.8.8.8.8.8.8.8.e.e.e.r.r.e.e.e.e.e.e.e.e.e.e.e.e.e.e.e.e.e.e.r.r.e.e.e.e.e.8.8.8.8.8.8.0.8.8.8.8.8.8.e.e.e.8.8.8.8.8.8.8.8.8.8.0.0.0.0.0.8.8.8.8.e.e.e.e.e.e.e.e.e.e.e.e.e.e.e.e.e.e.e.e.e.e.e.e.e.e.e.e.e.e.e.e.8.8.8.0.e.e.e.e.8.8.8.8.e.e.8.8.e.e.e.e.0.0.0.0.8.8.8.8.e.e.e.e.8.8.8.e.e.e.e.e.e.e.e.e.e.e.e.e.e.e.e.e.r.e.e.e.e.e.e.e.e.e.e.e.e.e.e.e.e.e.e.e.e.e.e.e.e.e.e.e.e.e.e.e.e.e.e.e.e.e.e.e.e.e.r.e.e.e.e.e.e.e.e.e.e.e.e.e.e.e.e.e.e.e.e.e.e.0.e.8.m.4X#X#X$X$X$X$X$X$X$X$X$X$X$X$X$X$X$X$X$X$X$X$X$X$X#X#X#X#X+Xv.8.e.0.e.e.e.e.e.e.e.e.e.e.e.e.e.e.e.e.e.e.e.e.e.e.e.e.e.e.e.",
"0 0 0 0 0 0 0 0 0 0 0 0 0 0 0 0 0 0 0 0 0 0 0 0 0 0 7 0 0 & f >.>.#.#.#.#.#.#.#.#.#.#.#.#.#.#.#.#.#.#.#.#.#.#.#.$.#.#.#.>.m 0 7 0 0 0 0 0 0 0 0 0 0 0 0 0 0 0 0 0 0 0 0 0 0 0 0 0 8 0 & 1.e.8.q.e.e.e.e.e.e.e.e.e.e.e.e.e.e.e.e.e.e.e.e.r.e.e.e.e.e.w.*.#.1.S S #.#.#.#.#.#.#.#.#.#.#.#.#.#.#.#.#.#.#.#.#.#.#.#.#.1.w.r.e.8.8.e.e.e.e.e.e.e.e.e.e.e.e.e.e.e.e.e.e.e.e.e.e.e.e.e.e.e.e.e.e.e.e.e.e.e.e.e.e.e.e.e.e.e.e.e.e.e.e.e.e.8.e.e.0.e.e.*.#.#.#.#.#.#.#.#.#.#.#.#.#.#.#.#.#.#.#.#.#.#.#.#.#.>.#.S #.$.2.e.q.e.8.8.8.8.e.e.8.8.8.8.e.e.e.e.8.8.8.e.8.8.8.8.8.8.e.e.e.e.r.r.e.e.e.e.e.e.e.e.e.e.e.e.e.e.e.e.e.e.r.r.e.e.e.e.e.8.8.8.8.8.8.0.8.8.8.8.8.8.e.e.e.e.8.8.8.8.8.8.8.8.0.0.0.0.0.0.e.8.8.8.e.e.e.e.e.e.e.e.e.e.e.e.e.e.e.e.e.e.e.e.e.e.e.e.e.e.e.e.e.e.e.e.8.8.8.0.e.e.e.e.8.8.8.8.e.8.8.8.e.e.e.e.0.0.0.0.8.8.8.8.e.e.8.8.8.8.e.e.r.e.e.e.e.e.e.e.e.e.e.e.e.e.e.e.r.e.e.e.e.e.e.e.e.e.e.e.e.e.e.e.e.e.e.e.e.e.e.e.e.e.e.e.e.e.e.e.e.e.e.e.e.e.e.e.e.e.r.r.e.e.e.e.e.e.e.e.e.e.e.e.e.e.e.e.e.e.e.e.e.0.e.8.m.4X#X#X$X$X$X$X$X$X$X$X$X$X$X$X$X$X$X$X$X$X$X$X$X#X#X#X#X#X+Xv.8.e.0.e.e.e.e.e.e.e.e.e.e.e.e.e.e.e.e.e.e.e.e.e.e.e.e.e.e.e.",
"0 0 0 0 0 0 0 0 0 0 0 0 0 0 0 0 0 0 0 0 0 0 0 0 0 0 7 0 0 & f >.#.#.#.#.#.#.#.#.#.#.#.#.#.#.#.#.#.#.#.#.#.#.#.#.$.#.#.#.>.m 0 7 0 0 0 0 0 0 0 0 0 0 0 0 0 0 0 0 0 0 0 0 0 0 0 0 0 8 0 & 1.e.8.q.e.e.e.e.e.e.e.e.e.e.e.e.e.e.e.e.e.e.e.e.r.e.e.e.e.e.e.*.#.1.S S #.#.#.#.#.#.#.#.#.#.#.#.#.#.#.#.#.#.#.#.#.#.#.#.#.2.w.r.e.8.8.e.e.e.e.e.e.e.e.e.e.e.e.e.e.e.e.e.e.e.e.e.e.e.e.e.e.e.e.e.e.e.e.e.e.e.e.e.e.e.e.e.e.e.e.e.e.e.e.e.e.8.e.e.0.e.e.*.#.#.#.#.#.#.#.#.#.#.#.#.#.#.#.#.#.#.#.#.#.#.#.#.#.>.#.S #.$.2.e.q.e.e.8.8.e.e.e.e.e.8.e.e.e.8.8.8.8.e.e.e.e.e.e.8.8.8.8.e.e.r.r.e.e.e.e.e.e.r.e.e.e.e.e.e.e.e.e.e.e.e.e.e.e.e.e.e.e.8.8.8.8.8.0.8.8.8.8.e.e.e.e.e.e.e.e.8.e.8.8.0.0.0.0.0.0.8.8.e.e.8.8.e.e.e.e.e.e.e.e.e.e.e.e.e.e.e.e.e.e.e.e.e.e.e.e.e.e.e.e.e.e.8.e.8.8.8.0.8.8.e.e.e.8.e.e.e.e.8.8.8.8.e.e.0.0.0.0.8.8.8.8.8.8.8.8.8.8.8.8.r.e.e.e.e.e.r.r.r.e.e.e.e.e.r.r.e.e.e.e.e.e.e.e.e.e.e.e.e.e.e.e.e.e.e.e.e.e.e.e.e.e.e.e.e.e.e.e.e.e.e.e.e.e.e.e.e.e.e.e.e.e.e.e.e.e.e.e.e.e.e.e.e.e.e.e.e.e.e.e.0.0.e.8.m.4X#X#X$X$X$X$X$X$X$X$X$X$X$X$X$X$X$X$X$X$X$X$X$X$X#X#X$X#X+Xv.8.e.0.e.e.e.e.e.e.e.e.e.e.e.e.e.e.e.e.e.e.e.e.e.e.e.e.e.e.e.",
"0 0 0 0 0 0 0 0 0 0 0 0 0 0 0 0 0 0 0 0 0 0 0 0 0 0 7 0 0 & f >.#.#.#.#.#.#.#.#.#.#.#.#.#.#.#.#.#.#.#.#.#.#.#.#.$.#.#.#.>.m 0 7 0 0 0 0 0 0 0 0 0 0 0 0 0 0 0 0 0 0 0 0 0 0 0 0 0 8 0 & 1.e.8.q.e.e.e.e.e.e.e.e.e.e.e.e.e.e.e.e.e.e.e.e.r.r.e.e.e.e.e.*.S 1.S S #.#.#.#.#.#.#.#.#.#.#.#.#.#.#.#.#.#.#.#.#.#.#.#.#.1.w.r.e.8.8.e.e.e.e.e.e.e.e.e.e.e.e.e.e.e.e.e.e.e.e.e.e.e.e.e.e.e.e.e.e.e.e.e.e.e.e.e.e.e.e.e.e.e.e.e.e.e.e.e.e.8.e.e.0.e.e.*.#.#.#.#.#.#.#.#.#.#.#.#.#.#.#.#.#.#.#.#.#.#.#.#.#.>.#.S #.$.2.e.q.e.e.8.8.e.e.e.e.e.e.e.e.e.e.8.8.8.e.e.e.e.e.e.8.8.8.8.e.e.r.r.e.e.r.r.e.r.r.e.e.e.r.r.e.e.e.e.e.e.e.e.e.e.e.e.e.e.e.e.8.8.8.0.e.8.e.e.e.e.e.e.e.e.e.e.e.e.8.8.0.0.0.0.0.0.8.8.e.e.8.8.e.e.e.e.e.e.e.e.e.e.e.e.e.e.e.e.e.e.e.e.e.e.e.e.e.e.e.e.e.e.8.8.8.8.8.0.8.e.e.e.e.e.e.e.e.e.8.8.8.8.e.e.0.0.0.0.0.0.8.8.8.8.8.8.8.8.8.8.e.e.e.e.e.e.e.r.r.r.e.e.e.e.e.e.e.e.e.e.e.e.e.e.e.e.e.e.e.e.e.e.e.e.e.e.e.e.e.e.e.e.e.e.e.e.e.e.e.e.e.e.e.e.e.e.e.e.e.e.e.e.e.e.e.e.e.e.e.e.e.e.e.e.e.e.e.e.e.e.e.0.e.8.m.4X#X#X$X$X$X$X$X$X$X$X$X$X$X$X$X$X$X$X$X$X$X$X$X$X$X$X$X#X+Xv.8.e.0.e.e.e.e.e.e.e.e.e.e.e.e.e.e.e.e.e.e.e.e.e.e.e.e.e.e.e.",
"0 0 0 0 0 0 0 0 0 0 0 0 0 0 0 0 0 0 0 0 0 0 0 0 0 0 9 0 0 8 f >.#.#.#.#.#.#.#.#.#.#.#.#.#.#.#.#.#.#.#.#.#.#.#.#.$.$.#.S } m 0 8 0 0 0 0 0 0 0 0 0 0 0 0 0 0 0 0 0 0 0 0 0 0 0 0 0 7 0 & ,.r.9.8.e.e.e.e.e.e.e.e.e.e.e.e.e.e.e.e.e.e.e.e.e.e.e.e.e.w.e.$.#.1.S S #.#.#.#.#.#.#.#.#.#.#.#.#.#.#.#.#.#.#.#.#.#.#.#.#.2.w.r.r.e.e.e.e.e.e.e.e.e.e.e.e.e.e.e.e.e.e.e.e.e.e.e.e.e.e.e.e.e.e.e.e.e.e.e.e.e.e.e.e.e.e.e.e.e.e.e.e.e.e.e.e.8.e.e.0.i.e.*.#.#.#.#.#.#.#.#.#.#.#.#.#.#.#.#.#.#.#.#.#.#.#.#.#.#.#.S S #.3.0.e.8.8.8.8.e.e.e.e.e.e.e.e.e.e.8.8.8.e.e.e.e.e.e.8.8.8.8.e.e.e.e.e.e.e.e.e.e.e.e.e.e.e.e.e.e.e.e.e.e.e.e.e.e.e.e.e.8.8.8.8.8.8.0.e.e.8.8.8.8.8.8.8.8.8.8.8.8.e.e.0.0.0.0.0.0.0.0.8.8.e.e.e.e.e.e.e.e.e.e.e.e.e.e.e.e.e.e.e.e.e.e.e.e.e.e.e.e.e.e.e.e.e.e.8.8.8.0.e.e.e.e.e.e.8.8.8.8.e.e.e.e.e.e.0.0.8.8.8.8.0.0.8.8.8.8.8.8.8.8.8.8.e.e.e.8.8.8.e.e.8.8.8.8.e.e.e.e.e.e.e.e.e.e.e.e.e.e.e.e.e.e.e.e.e.e.e.e.e.e.e.e.e.e.e.e.e.e.e.e.e.e.e.e.e.e.e.e.e.e.e.e.e.e.e.e.e.e.e.e.e.e.e.e.e.e.e.e.e.e.0.e.r.8.m.%X#X$X#X#X#X#X#X#X#X#X$X$X$X$X$X$X$X$X$X$X$X$X$X$X$X$X4X3X3Xc.w.e.0.e.e.8.e.e.e.e.e.e.e.e.e.e.e.e.e.e.e.e.e.e.e.e.e.e.e.e.",
"0 0 0 0 0 0 0 0 0 0 0 0 0 0 0 0 0 0 0 0 0 0 0 0 0 0 9 0 0 8 f >.#.#.#.#.#.#.#.#.#.#.#.#.#.#.#.#.#.#.#.#.#.#.#.#.$.$.#.} } m 0 & 0 0 0 0 0 0 0 0 0 0 0 0 0 0 0 0 0 0 0 0 0 0 0 0 0 7 0 & ,.r.9.8.e.e.e.e.e.e.e.e.e.e.e.e.e.e.e.e.e.e.e.e.e.e.e.e.e.w.e.$.#.1.S S #.#.#.#.#.#.#.#.#.#.#.#.#.#.#.#.#.#.#.#.#.#.#.#.#.2.w.r.r.e.e.e.e.e.e.e.e.e.e.e.e.e.e.e.e.e.e.e.e.e.e.e.e.e.e.e.e.e.e.e.e.e.e.e.e.e.e.e.e.e.e.e.e.e.e.e.e.e.e.e.e.8.8.e.0.i.e.*.#.#.#.#.#.#.#.#.#.#.#.#.#.#.#.#.#.#.#.#.#.#.#.#.#.#.#.S S #.3.0.e.8.8.e.8.e.e.e.e.e.8.e.e.e.8.8.8.8.e.e.e.e.e.e.8.e.8.8.e.e.e.e.e.e.e.e.e.e.e.e.e.e.e.e.e.e.e.e.e.e.e.e.e.e.e.e.e.8.8.8.8.8.8.0.e.e.8.8.8.8.8.8.e.e.8.8.8.8.e.e.0.0.0.0.0.0.0.0.8.8.8.8.e.e.e.e.e.e.e.e.e.e.e.e.e.e.e.e.e.e.e.e.e.e.e.e.e.e.e.e.e.8.e.e.8.8.8.0.e.e.8.e.e.e.8.8.8.8.e.e.e.e.8.e.0.0.8.8.8.8.0.0.8.8.8.8.8.8.8.8.8.8.e.e.e.8.8.8.e.e.8.8.8.8.e.e.e.e.e.e.e.e.e.e.e.e.e.e.e.e.e.e.e.e.e.e.e.e.e.e.e.e.e.e.e.e.e.e.e.e.e.e.e.e.e.e.e.e.e.e.e.e.e.e.e.e.e.e.e.e.e.e.e.e.e.e.e.e.e.e.0.e.r.8.m.%X#X$X#X#X#X#X#X#X#X#X$X$X$X$X$X$X$X$X$X$X$X$X$X$X$X$X4X3X3Xc.w.e.0.e.8.8.e.e.e.e.e.e.e.e.e.e.e.e.e.e.e.e.e.e.e.e.e.e.e.e.",
"0 0 0 0 0 0 0 0 0 0 0 0 0 0 0 0 0 0 0 0 0 0 0 0 0 0 9 0 0 & f >.#.#.#.#.#.#.#.#.#.#.#.#.#.#.#.#.#.#.#.#.#.#.#.#.$.$.S } } m 0 & 0 0 0 0 0 0 0 0 0 0 0 0 0 0 0 0 0 0 0 0 0 0 0 0 0 7 0 & ,.r.9.8.e.e.e.e.e.e.e.e.e.e.e.e.e.e.e.e.e.e.e.e.e.e.e.e.e.w.e.$.#.1.S S #.#.#.#.#.#.#.#.#.#.#.#.#.#.#.#.#.#.#.#.#.#.#.#.#.2.w.r.r.8.8.e.e.e.e.e.e.e.e.e.e.e.e.e.e.e.e.e.e.e.e.e.e.e.e.e.e.e.e.e.e.e.e.e.e.e.e.e.e.e.e.e.e.e.e.e.e.e.e.e.e.8.8.e.0.i.e.*.#.#.#.#.#.#.#.#.#.#.#.#.#.#.#.#.#.#.#.#.#.#.#.#.#.#.#.S S *.3.0.8.8.8.e.8.e.e.e.8.8.8.8.e.e.e.e.8.8.8.e.8.8.8.8.e.e.e.e.e.e.e.e.e.e.e.e.e.e.e.e.e.e.e.e.e.e.e.e.e.e.e.e.e.e.e.e.e.8.8.8.8.8.8.0.e.e.e.8.e.e.e.e.e.e.e.e.8.e.e.e.0.0.0.0.0.0.0.0.8.8.8.8.e.e.e.e.e.e.e.e.e.e.e.e.e.e.e.e.e.e.e.e.e.e.e.e.e.e.e.e.e.8.8.8.8.8.8.0.8.8.8.8.e.e.e.e.8.8.8.e.8.8.8.8.0.0.0.0.0.0.0.0.e.8.8.8.e.8.e.e.e.e.e.e.8.8.8.8.e.e.e.e.8.8.8.e.e.e.e.e.e.e.e.e.e.e.e.e.r.r.e.e.e.e.e.e.e.e.e.e.e.e.e.e.e.e.e.e.e.e.e.e.e.e.e.e.e.e.e.e.e.e.e.e.e.e.e.e.e.e.e.e.e.e.e.e.e.e.e.e.0.e.r.8.m.%X+X$X#X#X#X#X#X#X#X#X$X$X$X$X$X$X$X$X$X$X$X$X$X$X$X$X4X3X3Xc.w.e.0.e.8.e.e.e.e.e.e.e.e.e.e.e.e.e.e.e.e.e.e.e.e.e.e.e.e.e.",
"0 0 0 0 0 0 0 0 0 0 0 0 0 0 0 0 0 0 0 0 0 0 0 0 0 0 9 0 0 & f >.#.#.#.#.#.#.#.#.#.#.#.#.#.#.#.#.#.#.#.#.#.#.#.#.$.$.A S } m 0 & 0 0 0 0 0 0 0 0 0 0 0 0 0 0 0 0 0 0 0 0 0 0 0 0 0 7 0 & ,.r.q.e.e.e.e.e.e.e.e.e.e.e.e.e.e.e.e.e.e.e.e.e.e.e.e.e.e.w.e.*.#.1.S S #.#.#.#.#.#.#.#.#.#.#.#.#.#.#.#.#.#.#.#.#.#.#.#.#.2.w.r.e.8.8.e.e.e.e.e.e.e.e.e.e.e.e.e.e.e.e.e.e.e.e.e.e.e.e.e.e.e.e.e.e.e.e.e.e.e.e.e.e.e.e.e.e.e.e.e.e.e.e.e.e.8.e.e.0.i.e.*.#.#.#.#.#.#.#.#.#.#.#.#.#.#.#.#.#.#.#.#.#.#.#.#.#.#.#.S S *.3.0.q.e.8.8.e.e.e.e.8.8.8.8.e.e.e.e.8.8.8.e.8.8.8.8.e.e.e.e.e.e.e.e.e.e.e.e.e.e.e.e.e.e.e.e.e.e.e.e.e.e.e.e.e.e.e.e.e.8.8.8.8.8.8.0.e.e.e.e.e.e.e.e.e.e.e.e.8.8.e.e.0.0.0.0.0.0.0.8.8.8.8.8.e.e.e.e.e.e.e.e.e.e.e.e.e.e.e.e.e.e.e.e.e.e.e.e.e.e.e.e.e.8.8.8.8.8.8.0.8.8.8.8.e.e.e.e.8.8.e.e.8.8.8.8.0.0.0.0.0.0.0.0.e.8.8.8.e.e.e.e.e.e.e.e.e.8.8.8.e.e.e.e.8.8.e.e.e.e.e.e.e.e.e.e.e.e.e.e.e.r.e.e.e.e.e.e.e.e.e.e.e.e.e.e.e.e.e.e.e.e.e.e.e.e.e.e.e.e.e.e.e.e.e.e.e.e.e.e.e.e.e.e.e.e.e.e.e.e.e.e.0.e.r.8.m.%X#X$X#X#X#X#X#X#X#X#X$X$X$X$X$X$X$X$X$X$X$X$X$X$X$X$X4X3X3Xc.w.e.0.e.8.e.e.e.e.e.e.e.e.e.e.e.e.e.e.e.e.e.e.e.e.e.e.e.e.e.",
"0 0 0 0 0 0 0 0 0 0 0 0 0 0 0 0 0 0 0 0 0 0 0 0 0 0 9 0 0 & f >.#.#.#.#.#.#.#.#.#.#.#.#.#.#.#.#.#.#.#.#.#.#.#.#.$.$.A S } m 0 & 0 0 0 0 0 0 0 0 0 0 0 0 0 0 0 0 0 0 0 0 0 0 0 0 0 7 0 & ,.r.q.e.e.e.e.e.e.e.e.e.e.e.e.e.e.e.e.e.e.e.e.e.e.e.e.e.e.e.e.*.#.1.S S #.#.#.#.#.#.#.#.#.#.#.#.#.#.#.#.#.#.#.#.#.#.#.#.#.1.w.r.e.8.8.e.e.e.e.e.e.e.e.e.e.e.e.e.e.e.e.e.e.e.e.e.e.e.e.e.e.e.e.e.e.e.e.e.e.e.e.e.e.e.e.e.e.e.e.e.e.e.e.e.e.8.8.e.0.i.e.*.#.#.#.#.#.#.#.#.#.#.#.#.#.#.#.#.#.#.#.#.#.#.#.#.#.#.#.S S #.3.0.e.e.e.8.e.e.e.e.8.8.e.e.e.e.8.e.8.8.8.8.8.8.8.e.8.e.e.e.e.e.e.e.e.e.e.e.e.e.e.e.e.e.e.e.e.e.e.e.e.e.e.e.e.e.e.e.e.e.8.8.8.8.8.0.e.e.e.e.e.e.e.e.8.8.e.e.e.e.e.e.0.0.0.0.0.0.8.8.8.8.8.8.e.e.e.e.e.e.e.e.e.e.e.e.e.e.e.e.e.e.e.e.e.e.e.e.e.e.e.e.e.e.e.8.8.8.8.0.8.8.e.e.e.8.e.e.8.8.8.8.8.8.e.e.8.8.8.0.0.0.0.8.e.e.8.8.8.8.e.e.e.8.8.8.e.e.e.e.8.8.8.e.e.e.e.e.e.e.e.e.e.e.e.e.e.e.e.e.e.e.e.e.e.e.e.e.e.e.e.e.e.e.e.e.e.e.e.e.e.e.e.e.e.e.e.e.e.e.e.e.e.e.e.e.e.e.e.e.e.e.e.e.e.e.e.e.e.e.e.e.0.e.r.8.v.%X#X$X#X#X#X#X#X#X#X#X$X$X$X$X$X$X$X$X$X$X$X$X$X$X$X$X4X3X3Xc.w.e.0.e.e.e.e.e.e.e.e.e.e.e.e.e.e.e.e.e.e.e.e.e.e.e.e.e.e.e.",
"0 0 0 0 0 0 0 0 0 0 0 0 0 0 0 0 0 0 0 0 0 0 0 0 0 0 9 0 0 & f >.#.#.#.#.#.#.#.#.#.#.#.#.#.#.#.#.#.#.#.#.#.#.#.#.$.$.A S } m 0 & 0 0 0 0 0 0 0 0 0 0 0 0 0 0 0 0 0 0 0 0 0 0 0 0 0 7 0 & ,.r.q.e.e.e.e.e.e.e.e.e.e.e.e.e.e.e.e.e.e.e.e.e.e.e.e.e.r.e.e.*.#.1.S S #.#.#.#.#.#.#.#.#.#.#.#.#.#.#.#.#.#.#.#.#.#.#.#.#.1.w.r.e.8.8.e.e.e.e.e.e.e.e.e.e.e.e.e.e.e.e.e.e.e.e.e.e.e.e.e.e.e.e.e.e.e.e.e.e.e.e.e.e.e.e.e.e.e.e.e.e.e.e.e.e.8.q.e.0.i.e.*.#.#.#.#.#.#.#.#.#.#.#.#.#.#.#.#.#.#.#.#.#.#.#.#.#.#.#.S S *.3.0.q.e.e.8.8.e.e.e.8.8.e.e.8.8.8.8.8.8.8.8.8.8.e.e.8.8.e.e.e.e.e.e.e.e.e.e.e.e.e.e.e.e.e.e.e.e.e.e.e.e.e.e.e.e.e.e.e.e.8.e.8.8.8.0.e.e.e.e.e.e.8.8.8.8.e.e.e.e.e.e.8.8.0.0.0.0.8.8.e.8.8.8.e.e.e.e.e.e.e.e.e.e.e.e.e.e.e.e.e.e.e.e.e.e.e.e.e.e.e.e.e.e.8.8.8.8.8.0.e.8.e.e.8.8.8.8.8.8.8.8.8.8.e.e.8.8.0.0.0.0.0.8.e.e.8.8.8.8.e.e.e.8.8.8.e.e.e.e.8.8.8.e.e.e.e.e.e.e.e.e.e.e.e.e.e.e.e.e.e.e.e.e.e.e.e.e.e.e.e.e.e.e.e.e.e.e.e.e.e.e.e.e.e.e.e.e.e.e.e.e.e.e.e.e.e.e.e.e.e.e.e.e.e.e.e.e.e.e.e.e.0.e.r.8.v.%XZ.$X#X#X#X#X#X#X#X#X$X$X$X$X$X$X$X$X$X$X$X$X$X$X$X$X4X3X3Xc.w.e.0.e.e.e.e.e.e.e.e.e.e.e.e.e.e.e.e.e.e.e.e.e.e.e.e.e.e.e.",
"0 0 0 0 0 0 0 0 0 0 0 0 0 0 0 0 0 0 0 0 0 0 0 0 s 0 9 0 0 & f >.#.#.#.#.#.#.#.#.#.#.#.#.#.#.#.#.#.#.#.#.#.#.#.#.$.#.A S } m 0 & 0 0 0 0 0 0 0 0 0 0 0 0 0 0 0 0 0 0 0 0 0 0 0 0 0 7 0 & ,.r.q.8.e.e.e.e.e.e.e.e.e.e.e.e.e.e.e.e.e.e.e.e.e.e.e.e.e.e.e.*.#.1.S S #.#.#.#.#.#.#.#.#.#.#.#.#.#.#.#.#.#.#.#.#.#.#.#.#.2.w.r.r.e.e.r.e.e.e.e.e.e.e.e.e.e.e.e.e.e.e.e.e.e.e.e.e.e.e.e.e.e.e.e.e.e.e.e.e.e.e.e.e.e.e.e.e.e.e.e.e.e.e.e.r.e.q.e.0.i.e.*.#.#.#.#.#.#.#.#.#.#.#.#.#.#.#.#.#.#.#.#.#.#.#.#.#.#.#.S S *.3.a.8.e.e.8.8.e.e.e.e.e.e.e.8.8.8.8.8.8.e.8.e.e.e.e.8.8.8.8.e.e.e.e.e.e.e.e.e.e.e.e.e.e.e.e.e.e.e.e.e.e.e.e.e.e.e.e.e.e.e.e.8.8.8.0.e.e.8.e.8.8.8.8.8.8.8.8.e.e.e.e.8.8.8.0.0.0.0.8.e.e.8.8.e.e.e.e.e.e.e.e.e.e.e.e.e.e.e.e.e.e.e.e.e.e.e.e.e.e.e.e.e.e.e.e.8.8.8.0.e.e.e.e.8.8.8.8.8.8.8.8.e.e.e.e.8.8.0.0.0.0.8.8.e.e.e.e.8.8.8.e.e.e.8.8.8.8.e.e.8.8.8.8.e.e.8.e.e.e.e.e.e.e.e.e.e.e.e.e.e.e.e.e.e.e.e.e.e.e.e.e.e.e.e.e.e.e.e.e.e.e.e.e.e.e.e.e.e.e.e.e.e.e.e.e.e.e.e.e.e.e.e.e.e.e.e.e.e.e.e.e.0.e.r.8.v.%XZ.$X#X#X#X#X#X#X#X#X$X$X$X$X$X$X$X$X$X$X$X$X$X$X$X$X4X3X3Xc.w.e.0.e.e.e.e.e.e.e.e.e.e.e.e.e.e.e.e.e.e.e.e.e.e.e.e.e.e.e.",
"0 0 0 0 0 0 0 0 0 0 0 0 0 0 0 0 0 0 0 0 0 0 0 0 s 0 9 0 0 8 f >.#.#.#.#.#.#.#.#.#.#.#.#.#.#.#.#.#.#.#.#.#.#.#.#.$.#.A S } m 0 & 0 0 0 0 0 0 0 0 0 0 0 0 0 0 0 0 0 0 0 0 0 0 0 0 0 7 0 & ,.r.q.8.e.e.e.e.e.e.e.e.e.e.e.e.e.e.e.e.e.e.e.e.e.e.e.e.r.e.e.*.#.1.S S #.#.#.#.#.#.#.#.#.#.#.#.#.#.#.#.#.#.#.#.#.#.#.#.#.2.w.r.r.e.e.r.e.e.e.e.e.e.e.e.e.e.e.e.e.e.e.e.e.e.e.e.e.e.e.e.e.e.e.e.e.e.e.e.e.e.e.e.e.e.e.e.e.e.e.e.e.e.e.e.e.e.8.e.0.i.e.*.#.#.#.#.#.#.#.#.#.#.#.#.#.#.#.#.#.#.#.#.#.#.#.#.#.#.#.S S *.3.a.q.e.e.8.e.e.e.e.e.e.e.e.8.8.8.8.8.8.e.e.e.e.e.e.8.8.8.8.e.e.e.e.e.e.e.e.e.e.e.e.e.e.e.e.e.e.e.e.e.e.e.e.e.e.e.e.e.e.e.e.8.8.8.0.e.e.8.8.8.8.8.8.8.8.8.8.8.e.e.8.8.8.8.8.0.0.0.8.e.e.8.8.e.e.e.e.e.e.e.e.e.e.e.e.e.e.e.e.e.e.e.e.e.e.e.e.e.e.e.e.e.e.e.e.8.8.8.0.e.e.e.e.8.8.8.8.e.8.e.e.e.e.e.e.8.0.0.0.0.0.8.8.e.e.e.e.8.8.e.e.e.e.8.8.8.e.e.e.8.8.8.e.e.e.8.8.e.e.e.e.e.e.e.e.e.e.r.r.r.e.e.e.e.e.e.e.e.e.e.e.e.e.e.e.e.e.e.e.e.e.e.e.e.e.e.e.e.e.e.e.e.e.e.e.e.e.e.e.e.e.e.e.e.e.e.e.e.e.e.e.0.e.r.8.m.%XZ.$X#X#X#X#X#X#X#X#X$X$X$X$X$X$X$X$X$X$X$X$X$X$X$X$X4X3X3Xc.w.e.0.e.e.e.e.e.e.e.e.e.e.e.e.e.e.e.e.e.e.e.e.e.e.e.e.e.e.e.",
"0 0 0 0 0 0 0 0 0 0 0 0 0 0 0 0 0 0 0 0 0 0 0 0 0 0 9 0 0 & f >.#.#.#.#.#.#.#.#.#.#.#.#.#.#.#.#.#.#.#.#.#.#.#.#.$.$.S S ..m 0 & 0 0 0 0 0 0 0 0 0 0 0 0 0 0 0 0 0 0 0 0 0 0 0 0 0 9 0 & ,.r.9.e.e.e.e.e.e.e.e.e.e.e.e.e.e.e.e.e.e.e.e.e.e.e.e.e.e.e.w.$.#.1.S S #.#.#.#.#.#.#.#.#.#.#.#.#.#.#.#.#.#.#.#.#.#.#.#.#.1.w.r.e.8.e.e.e.e.e.e.e.e.e.e.e.e.e.e.e.e.e.e.e.e.e.e.e.e.e.e.e.e.e.e.e.e.e.e.e.e.e.e.e.e.e.e.e.e.e.e.e.e.e.e.e.8.8.e.0.p.e.*.#.#.#.#.#.#.#.#.#.#.#.#.#.#.#.#.#.#.#.#.#.#.#.#.#.>.#.A A #.3.e.q.e.e.8.8.8.e.e.8.8.8.8.e.e.e.e.e.e.8.8.8.8.8.8.8.8.8.8.e.e.e.e.e.e.e.e.e.e.e.e.e.e.e.e.e.e.e.e.e.e.e.e.e.e.e.e.e.e.e.e.8.8.8.0.e.8.e.e.e.e.e.e.e.e.e.e.e.e.8.8.8.8.8.8.0.0.0.0.e.e.e.e.e.e.e.e.e.e.e.e.e.e.e.e.e.e.e.e.e.e.e.e.e.e.e.e.e.e.e.e.e.8.8.e.8.8.8.0.8.8.8.8.e.e.e.e.e.e.e.e.e.e.e.e.0.0.0.0.0.0.0.8.e.e.e.8.8.8.e.e.e.e.8.8.8.8.8.e.e.e.e.e.e.e.8.8.e.e.e.e.e.e.e.e.e.r.e.e.r.r.e.e.e.e.e.e.e.e.e.e.e.e.e.e.e.e.e.e.e.e.e.e.e.e.e.e.e.e.e.e.e.e.e.e.e.e.e.e.e.e.e.e.e.e.e.e.e.e.e.e.0.e.r.8.m.%X#X$X#X#X#X#X#X#X#X#X$X$X$X$X$X$X$X$X$X$X$X$X$X$X$X$X4X3X#Xc.8.e.0.e.e.e.e.e.e.e.e.e.e.e.e.e.e.e.e.e.e.e.e.e.e.e.e.e.e.e.",
"0 0 0 0 0 0 0 0 0 0 0 0 0 0 0 0 0 0 0 0 0 0 0 0 0 0 9 0 0 & f >.#.#.#.#.#.#.#.#.#.#.#.#.#.#.#.#.#.#.#.#.#.#.#.#.$.#.S S ..m 0 8 0 0 0 0 0 0 0 0 0 0 0 0 0 0 0 0 0 0 0 0 0 0 0 0 0 9 0 & ,.r.9.e.e.e.e.e.e.e.e.e.e.e.e.e.e.e.e.e.e.e.e.e.e.e.e.e.e.e.e.$.S 1.S S #.#.#.#.#.#.#.#.#.#.#.#.#.#.#.#.#.#.#.#.#.#.#.#.#.1.w.r.e.8.e.e.e.e.e.e.e.e.e.e.e.e.e.e.e.e.e.e.e.e.e.e.e.e.e.e.e.e.e.e.e.e.e.e.e.e.e.e.e.e.e.e.e.e.e.e.e.e.e.e.e.8.8.e.0.p.e.*.#.#.#.#.#.#.#.#.#.#.#.#.#.#.#.#.#.#.#.#.#.#.#.#.#.>.#.A A #.3.e.q.e.e.8.8.8.e.e.8.8.8.8.e.e.e.e.e.e.e.e.8.8.8.8.e.e.8.8.e.e.e.e.e.e.e.e.e.e.e.e.e.e.e.e.e.e.e.e.e.e.e.e.e.e.e.e.e.e.e.e.8.8.8.0.8.8.8.8.e.e.e.e.e.e.e.e.e.e.8.8.8.8.8.8.0.0.0.8.e.e.e.e.e.e.e.e.e.e.e.e.e.e.e.e.e.e.e.e.e.e.e.e.e.e.e.e.e.e.e.e.e.8.8.8.8.8.8.0.8.8.8.8.e.e.e.e.e.e.e.e.e.e.e.e.0.0.0.0.0.0.0.8.e.e.e.8.8.e.e.e.e.e.8.8.8.8.e.e.e.e.e.e.e.e.8.8.e.e.e.e.e.e.e.e.e.r.e.e.r.e.e.e.e.e.e.e.e.e.e.e.e.e.e.e.e.e.e.e.e.e.e.e.e.e.e.e.e.e.e.e.e.e.e.e.e.e.e.e.e.e.e.e.e.e.e.e.e.e.e.e.0.e.r.8.v.%X#X$X#X#X#X#X#X#X#X#X$X$X$X$X$X$X$X$X$X$X$X$X$X$X$X$X4X3X#Xv.8.e.0.e.e.e.e.e.e.e.e.e.e.e.e.e.e.e.e.e.e.e.e.e.e.e.e.e.e.e.",
"0 0 0 0 0 0 0 0 0 0 0 0 0 0 0 0 0 0 0 0 0 0 0 0 s 0 9 0 0 & f >.#.#.#.#.#.#.#.#.#.#.#.#.#.#.#.#.#.#.#.#.#.#.#.#.$.#.A S } m 0 & 0 0 0 0 0 0 0 0 0 0 0 0 0 0 0 0 0 0 0 0 0 0 0 0 0 9 0 & ,.r.9.e.e.e.e.e.e.e.e.e.e.e.e.e.e.e.e.e.e.e.e.e.e.e.e.e.e.e.e.*.S 1.S S #.#.#.#.#.#.#.#.#.#.#.#.#.#.#.#.#.#.#.#.#.#.#.#.#.1.w.r.e.8.8.e.e.e.e.e.e.e.e.e.e.e.e.e.e.e.e.e.e.e.e.e.e.e.e.e.e.e.e.e.e.e.e.e.e.e.e.e.e.e.e.e.e.e.e.e.e.e.e.e.e.8.8.e.0.i.e.*.#.#.#.#.#.#.#.#.#.#.#.#.#.#.#.#.#.#.#.#.#.#.#.#.#.>.#.A #.*.3.e.q.e.e.e.8.e.e.e.e.e.8.8.e.e.e.e.e.e.e.e.e.e.8.8.e.e.e.e.e.e.e.e.e.e.e.e.e.e.e.e.e.e.e.e.e.e.e.e.e.e.e.e.e.e.e.e.e.8.e.e.8.8.8.0.8.8.8.8.8.8.e.e.e.e.8.8.8.8.8.8.0.0.0.0.0.0.8.8.8.8.e.8.e.e.e.e.e.e.e.e.e.e.e.e.e.e.e.e.e.e.e.e.e.e.e.e.e.e.e.e.e.8.8.8.8.8.8.0.8.8.8.8.e.e.8.8.8.8.e.e.e.e.8.8.0.0.0.0.0.0.0.0.e.e.8.8.8.8.e.e.e.e.8.8.e.e.e.e.8.8.8.8.e.8.8.8.e.e.e.e.e.e.e.e.e.e.e.e.e.e.e.e.e.e.e.e.e.e.e.e.e.e.e.e.e.e.e.e.e.e.e.e.e.e.e.e.e.e.e.e.e.e.e.e.e.e.e.e.e.e.e.e.e.e.e.e.e.e.e.e.0.e.r.8.m.%X#X$X#X#X#X#X#X#X#X#X$X$X$X$X$X$X$X$X$X$X$X$X$X$X$X$X4X3X#Xv.8.e.0.e.e.e.e.e.e.e.e.e.e.e.e.e.e.e.e.e.e.e.e.e.e.e.e.e.e.e.",
"0 0 0 0 0 0 0 0 0 0 0 0 0 0 0 0 0 0 0 0 0 0 0 0 s 0 9 0 0 & f >.#.#.#.#.#.#.#.#.#.#.#.#.#.#.#.#.#.#.#.#.#.#.#.#.$.#.A S } m 0 & 0 0 0 0 0 0 0 0 0 0 0 0 0 0 0 0 0 0 0 0 0 0 0 0 0 9 0 & ,.r.9.e.e.e.e.e.e.e.e.e.e.e.e.e.e.e.e.e.e.e.e.e.e.e.e.e.e.e.e.*.#.1.S S #.#.#.#.#.#.#.#.#.#.#.#.#.#.#.#.#.#.#.#.#.#.#.#.#.1.w.r.e.8.8.e.e.e.e.e.e.e.e.e.e.e.e.e.e.e.e.e.e.e.e.e.e.e.e.e.e.e.e.e.e.e.e.e.e.e.e.e.e.e.e.e.e.e.e.e.e.e.e.e.e.8.8.e.0.i.e.*.#.#.#.#.#.#.#.#.#.#.#.#.#.#.#.#.#.#.#.#.#.#.#.#.#.>.#.A #.*.3.i.q.e.e.8.8.8.e.e.e.e.8.8.8.e.e.8.e.e.e.e.e.e.e.8.e.e.e.e.e.e.e.e.e.e.e.e.e.e.e.e.e.e.e.e.e.e.e.e.e.e.e.e.e.e.e.e.e.8.e.e.8.8.8.0.8.8.8.8.8.8.e.e.8.8.8.8.8.8.8.8.0.0.0.0.0.0.8.8.8.8.8.8.e.e.e.e.e.e.e.e.e.e.e.e.e.e.e.e.e.e.e.e.e.e.e.e.e.e.e.e.e.8.8.e.8.8.8.0.e.8.e.e.e.e.8.8.8.e.e.e.e.8.8.8.0.0.0.0.0.0.0.0.e.e.8.8.8.8.e.e.e.e.8.8.e.e.e.e.8.8.8.8.e.8.8.8.e.e.e.e.e.e.e.e.e.e.e.e.e.e.e.e.e.e.e.e.e.e.e.e.e.e.e.e.e.e.e.e.e.e.e.e.e.e.e.e.e.e.e.e.e.e.e.e.e.e.e.e.e.e.e.e.e.e.e.e.e.e.e.e.0.e.r.8.m.%X#X$X#X#X#X#X#X#X#X#X$X$X$X$X$X$X$X$X$X$X$X$X$X$X$X$X3X3X#Xv.8.e.0.e.e.e.e.e.e.e.e.e.e.e.e.e.e.e.e.e.e.e.e.e.e.e.e.e.e.e.",
"0 0 0 0 0 0 0 0 0 0 0 0 0 0 0 0 0 0 0 0 0 0 0 0 0 0 9 0 0 & f >.#.#.#.#.#.#.#.#.#.#.#.#.#.#.#.#.#.#.#.#.#.#.#.#.$.$.S S } m 0 & 0 0 0 0 0 0 0 0 0 0 0 0 0 0 0 0 0 0 0 0 0 0 0 0 0 9 0 & ,.r.9.e.e.e.e.e.e.e.e.e.e.e.e.e.e.e.e.e.e.e.e.e.e.e.e.e.e.w.e.*.#.1.S S #.#.#.#.#.#.#.#.#.#.#.#.#.#.#.#.#.#.#.#.#.#.#.#.#.2.w.r.e.8.8.e.e.e.e.e.e.e.e.e.e.e.e.e.e.e.e.e.e.e.e.e.e.e.e.e.e.e.e.e.e.e.e.e.e.e.e.e.e.e.e.e.e.e.e.e.e.e.e.e.e.8.e.e.0.i.e.*.#.#.#.#.#.#.#.#.#.#.#.#.#.#.#.#.#.#.#.#.#.#.#.#.#.>.#.S S #.2.e.8.8.8.8.e.e.e.e.e.e.e.e.8.8.8.8.e.e.e.8.e.e.e.e.8.8.e.e.e.e.e.e.e.e.e.e.e.e.e.e.e.e.e.e.e.e.e.e.e.e.e.e.e.e.e.e.e.8.8.8.8.8.8.0.8.8.e.e.8.8.8.8.8.8.8.8.8.8.8.8.0.0.0.0.0.0.0.8.8.8.e.e.e.e.e.e.e.e.e.e.e.e.e.e.e.e.e.e.e.e.e.e.e.e.e.e.e.e.e.e.e.e.e.e.8.8.8.0.e.e.e.e.8.8.8.8.8.8.e.e.e.e.8.8.8.8.0.0.0.0.8.0.e.e.8.8.8.e.e.e.e.e.e.e.e.8.8.8.e.8.8.8.8.8.8.8.e.e.e.e.e.e.e.e.e.e.e.e.e.e.e.e.e.e.e.e.e.e.e.e.e.e.e.e.e.e.e.e.e.e.e.e.e.e.e.e.e.e.e.e.e.e.e.e.e.e.e.e.e.e.e.e.e.e.e.e.e.e.e.e.0.e.e.8.m.%X#X$X#X#X#X#X#X#X#X#X$X$X$X$X$X$X$X$X$X$X$X$X$X$X#X#X3XJ.Z.c.w.e.0.e.e.e.e.e.e.e.e.e.e.e.e.e.e.e.e.e.e.e.e.e.e.e.e.e.e.e.",
"0 0 0 0 0 0 0 0 0 0 0 0 0 0 0 0 0 0 0 0 0 0 0 0 0 0 9 0 0 & f >.#.#.#.#.#.#.#.#.#.#.#.#.#.#.#.#.#.#.#.#.#.#.#.#.$.$.S S } m 0 & 0 0 0 0 0 0 0 0 0 0 0 0 0 0 0 0 0 0 0 0 0 0 0 0 0 * 0 & ,.r.9.e.e.e.e.e.e.e.e.e.e.e.e.e.e.e.e.e.e.e.e.e.e.e.e.e.e.w.e.$.#.1.S S #.#.#.#.#.#.#.#.#.#.#.#.#.#.#.#.#.#.#.#.#.#.#.#.#.2.w.r.e.8.8.e.e.e.e.e.e.e.e.e.e.e.e.e.e.e.e.e.e.e.e.e.e.e.e.e.e.e.e.e.e.e.e.e.e.e.e.e.e.e.e.e.e.e.e.e.e.e.e.e.e.8.e.e.0.i.e.*.#.#.#.#.#.#.#.#.#.#.#.#.#.#.#.#.#.#.#.#.#.#.#.#.#.>.#.S S *.2.e.8.8.e.8.e.e.e.e.e.e.e.e.8.8.8.8.e.e.e.8.e.e.e.e.8.8.e.e.e.e.e.e.e.e.e.e.e.e.e.e.e.e.e.e.e.e.e.e.e.e.e.e.e.e.e.e.e.8.8.8.8.8.8.0.8.8.8.e.8.8.8.8.8.e.8.8.e.8.8.8.0.0.0.0.0.0.0.8.8.8.e.e.e.e.e.e.e.e.e.e.e.e.e.e.e.e.e.e.e.e.e.e.e.e.e.e.e.e.e.e.e.e.e.e.8.8.8.0.e.e.e.e.8.8.8.8.8.8.e.e.e.e.8.8.8.8.0.0.0.0.8.8.e.e.8.8.8.8.e.e.e.e.e.e.e.e.8.8.e.e.8.8.8.8.8.8.e.e.e.e.e.e.e.e.e.e.e.e.e.e.e.e.e.e.e.e.e.e.e.e.e.e.e.e.e.e.e.e.e.e.e.e.e.e.e.e.e.e.e.e.e.e.e.e.e.e.e.e.e.e.e.e.e.e.e.e.e.e.e.e.0.e.e.8.m.%X#X$X#X#X#X#X#X#X#X#X$X$X$X$X$X$X$X$X$X$X$X$X$X#X#X#X3XJ.Z.c.w.e.0.e.e.e.e.e.e.e.e.e.e.e.e.e.e.e.e.e.e.e.e.e.e.e.e.e.e.e.",
"0 0 0 0 0 0 0 0 0 0 0 0 0 0 0 0 0 0 0 0 0 0 0 0 0 0 9 0 0 & f >.#.#.#.#.#.#.#.#.#.#.#.#.#.#.#.#.#.#.#.#.#.#.#.#.$.$.S S } m 0 & 0 0 0 0 0 0 0 0 0 0 0 0 0 0 0 0 0 0 0 0 0 0 0 0 0 * 0 & ,.t.9.e.e.e.e.e.e.e.e.e.e.e.e.e.e.e.e.e.e.e.e.e.e.e.e.e.e.w.e.*.#.1.S S #.#.#.#.#.#.#.#.#.#.#.#.#.#.#.#.#.#.#.#.#.#.#.#.#.2.w.r.e.e.8.e.e.e.e.e.e.e.e.e.e.e.e.e.e.e.e.e.e.e.e.e.e.e.e.e.e.e.e.e.e.e.e.e.e.e.e.e.e.e.e.e.e.e.e.e.e.e.e.8.e.8.8.e.0.i.e.*.#.#.#.#.#.#.#.#.#.#.#.#.#.#.#.#.#.#.#.#.#.#.#.#.#.#.#.S A #.2.e.8.8.8.8.e.e.e.e.8.8.e.e.8.8.e.e.e.e.8.8.8.8.e.8.8.8.8.8.e.e.e.e.e.e.e.e.e.e.8.e.e.e.e.e.e.e.e.e.e.e.e.e.e.e.e.e.e.e.8.8.8.8.8.0.8.8.e.e.e.e.8.e.e.e.e.e.e.e.8.8.8.8.0.0.0.0.0.0.8.e.e.e.e.e.e.e.e.e.e.e.e.e.e.e.e.e.e.e.e.e.e.e.e.e.e.e.e.e.e.e.e.e.8.e.8.8.8.0.8.8.e.e.e.8.e.e.8.8.8.e.e.e.8.8.8.8.8.0.0.0.8.8.8.8.8.8.8.8.8.8.e.e.e.e.8.8.8.8.e.e.e.e.8.e.8.8.e.e.e.e.8.8.8.8.r.e.e.e.e.r.r.e.e.e.e.e.e.e.e.e.e.e.e.e.e.e.e.e.e.e.e.e.e.e.e.e.e.e.e.e.e.e.e.e.e.e.e.e.e.e.e.e.e.e.e.e.e.e.e.e.0.e.r.8.m.%X#X$X#X#X#X#X#X#X#X#X$X$X$X$X$X$X$X$X$X$X$X$X$X$X#X#X4XJ.Z.c.w.e.0.e.e.e.e.e.e.e.e.e.e.e.e.e.e.e.e.e.e.e.e.e.e.e.e.e.e.e.",
"0 0 0 0 0 0 0 0 0 0 0 0 0 0 0 0 0 0 0 0 0 0 0 0 0 0 9 0 0 & f >.#.#.#.#.#.#.#.#.#.#.#.#.#.#.#.#.#.#.#.#.#.#.#.#.$.$.S S } m 0 & 0 0 0 0 0 0 0 0 0 0 0 0 0 0 0 0 0 0 0 0 0 0 0 0 0 9 0 & ,.r.9.e.e.e.e.e.e.e.e.e.e.e.e.e.e.e.e.e.e.e.e.e.e.e.e.e.e.w.e.*.#.1.S S #.#.#.#.#.#.#.#.#.#.#.#.#.#.#.#.#.#.#.#.#.#.#.#.#.2.w.r.r.e.8.e.e.e.e.e.e.e.e.e.e.e.e.e.e.e.e.e.e.e.e.e.e.e.e.e.e.e.e.e.e.e.e.e.e.e.e.e.e.e.e.e.e.e.e.e.e.e.e.e.e.8.8.q.0.i.e.*.#.#.#.#.#.#.#.#.#.#.#.#.#.#.#.#.#.#.#.#.#.#.#.#.#.#.#.S S #.2.e.8.8.8.e.e.e.e.e.8.8.8.8.8.8.e.e.e.e.8.8.8.8.8.8.8.8.8.8.e.e.e.e.e.e.e.e.e.e.e.e.e.e.e.e.e.e.e.e.e.e.e.e.e.e.e.e.e.e.e.e.8.8.8.0.8.8.e.e.e.e.e.e.e.e.e.e.e.e.8.8.8.8.8.0.0.0.0.0.8.e.e.e.e.e.e.e.e.e.e.e.e.e.e.e.e.e.e.e.e.e.e.e.e.e.e.e.e.e.e.e.e.e.8.8.8.8.8.0.8.e.e.e.e.e.e.e.8.8.8.e.e.e.8.8.8.8.0.0.0.0.8.8.8.8.8.8.8.8.8.8.8.8.e.e.8.8.8.8.e.e.e.e.e.e.8.8.e.e.e.e.e.e.e.e.r.r.e.e.e.e.e.e.e.e.e.e.e.e.e.e.e.e.e.e.e.e.e.e.e.e.e.e.e.e.e.e.e.e.e.e.e.e.e.e.e.e.e.e.e.e.e.e.e.e.e.e.e.e.e.e.0.e.r.8.m.%X#X$X#X#X#X#X#X#X#X#X$X$X$X$X$X$X$X$X$X$X$X$X$X$X#X$X4XJ.Z.c.8.e.0.e.e.e.e.e.e.e.e.e.e.e.e.e.e.e.e.e.e.e.e.e.e.e.e.e.e.e.",
"0 0 0 0 0 0 0 0 0 0 0 0 0 0 0 0 0 0 0 0 0 0 0 0 8 f 0 7 7 - d 5.#.#.#.#.#.#.#.#.#.#.#.#.#.#.#.#.#.#.#.#.#.#.#.#.A 1.>.} 4.V & - 0 0 0 0 0 0 0 0 0 0 8 0 0 0 0 0 0 0 0 0 0 0 0 0 9 t * O 1.e.r.c.e.e.e.e.e.e.e.e.e.e.e.e.e.e.e.e.e.e.e.e.e.e.e.e.0.e.e.2.#.S >.#.#.#.#.#.#.#.#.#.#.#.#.#.#.#.#.#.#.#.#.#.#.#.#.#.#.2.e.r.r.r.r.e.r.r.r.r.r.r.r.r.r.r.r.r.r.r.r.r.e.e.e.e.e.e.r.r.e.e.e.e.e.e.r.r.e.e.e.e.e.e.e.e.e.e.e.e.e.e.e.e.e.e.e.e.0.e.r.1.#.#.#.#.#.#.#.#.#.#.#.#.#.#.#.#.#.#.#.$.#.#.#.#.A >.} >.>.#.2.2.8.8.8.8.8.8.8.8.8.8.8.8.8.8.8.8.8.8.8.8.8.8.8.8.8.e.2.6.i.i.p.w.q.q.q.q.q.q.q.q.q.q.q.q.q.q.q.q.q.q.q.q.q.q.q.q.q.q.q.0.=.e.g.w.8.8.8.8.8.0.0.0.8.8.8.0.0.0.0.0.0.0.0.0.8.8.8.0.8.8.8.8.w.e.r.g.e.e.e.e.e.e.e.e.e.e.e.e.e.e.e.e.e.e.e.e.e.e.e.e.e.8.8.e.8.8.8.0.e.e.8.8.8.8.e.e.e.e.e.e.8.8.e.e.0.0.0.0.0.0.3.3.w.6.3.u.3.w.t.g.e.e.e.e.q.e.e.e.e.e.e.e.e.e.q.q.a.e.0.;.;.0.6.i.e.e.e.e.e.e.e.e.e.e.e.e.e.e.e.e.e.e.e.e.e.e.e.e.e.e.e.e.e.e.e.e.e.e.e.e.e.e.e.e.e.e.e.e.e.e.e.e.e.e.e.e.e.e.e.e.6.6.w.0.z.#X#X#X#X#X#X#XZ.A.A.Z.#X#X#X#X#X#X#X#X#X#X#X#X#X#X#X#X4X3X3Xr.8.0.3.0.e.e.e.e.e.e.e.e.e.e.e.e.e.e.e.e.e.e.e.e.e.e.e.e.e.e.",
"0 0 0 0 0 0 0 0 0 0 = = 0 0 0 0 0 0 0 0 0 0 0 = 0 0 7 7 q 0 v } #.#.#.#.#.#.#.#.#.#.#.#.#.#.#.#.#.#.#.#.#.#.#.#.#.>.S S } V 0 0 0 0 0 0 0 0 0 0 8 0 8 8 0 0 0 0 0 0 0 0 8 0 8 8 9 y v & >.8.r.v.e.e.e.e.e.e.e.e.e.e.e.e.e.e.e.e.e.e.e.e.e.e.e.e.0.e.e.2.#.S >.#.#.#.#.#.#.#.#.#.#.#.#.#.#.#.#.#.#.#.#.#.#.#.#.#.%.,.8.e.e.8.8.8.r.r.r.r.r.r.r.r.r.r.r.r.r.r.r.r.e.e.e.r.r.r.r.r.e.e.e.e.e.e.r.r.e.e.e.e.e.e.e.e.e.e.e.e.e.e.e.e.f.e.e.e.0.e.r.1.#.#.#.>.#.#.#.#.#.#.#.#.#.#.#.#.#.#.#.#.#.#.#.#.A 1.} >.>.#.8.0.8.8.8.8.8.8.e.e.8.8.e.e.e.e.8.8.8.8.e.e.e.e.8.8.8.e.3.e.i.e.p.8.8.8.8.8.e.e.e.e.e.e.e.e.8.8.8.q.e.e.e.e.8.8.8.q.p.p.p.8.=.2.0.2.8.8.0.0.8.0.0.0.8.8.0.0.0.0.0.8.0.0.0.0.8.8.0.0.r.e.e.e.e.r.r.r.e.e.e.e.e.e.e.e.e.e.e.e.e.e.e.e.e.e.e.e.e.e.e.e.e.8.8.8.8.8.8.8.e.e.8.8.8.8.e.e.e.e.e.8.8.8.e.e.0.0.0.0.0.0.3.3.w.0.3.3.3.8.t.t.8.8.8.8.8.8.8.8.8.8.8.8.8.8.8.8.e.e.8.:.0.0.0.0.e.e.e.e.e.e.e.e.e.e.e.e.e.e.e.e.e.e.e.e.e.e.e.e.e.e.e.e.e.e.e.e.e.e.e.e.e.e.e.e.e.e.e.e.e.e.e.e.e.e.e.e.e.e.e.e.e.r.e.r.m.#X$X#X$X$X$X$X$X$X$X$X$X$X$X$X$X$X$X$X$X$X$X$X$X$X$X$X6X4X3Xn.8.r.0.e.e.e.e.e.e.e.e.e.e.e.e.e.e.e.e.e.e.e.e.e.e.e.e.e.e.e.",
"0 0 0 0 0 0 0 0 0 0 0 0 0 0 0 0 0 0 0 0 0 0 0 0 & * % 9 0 0 v } #.#.#.#.>.>.>.>.#.#.#.#.#.#.#.#.>.>.>.>.#.#.#.#.>.,.>.>.} m 8 * 0 0 0 0 0 0 0 0 0 0 0 0 0 0 0 0 0 0 0 0 0 0 0 0 * 0 s a $.8.r.v.e.e.e.e.e.e.e.e.e.e.e.e.e.e.e.e.e.e.e.e.e.e.e.e.0.e.e.2.#.S >.#.#.#.#.#.#.#.#.#.#.#.#.#.#.#.#.#.#.#.#.#.#.#.#.#.#.2.w.e.e.0.0.0.0.0.0.0.0.0.3.3.3.3.0.0.0.0.3.0.0.0.0.0.0.0.0.0.8.8.e.e.e.e.e.e.e.e.e.e.e.e.e.e.e.e.e.e.e.e.e.e.f.e.e.e.0.e.r.1.A A A A A A A A A A A A A A A A A A A A A A A A A 1.} >.>.#.0.0.e.e.8.8.8.8.8.8.8.e.e.e.e.e.8.8.8.8.8.8.e.e.e.e.2.2.*.8.q.8.e.;.r.r.r.r.r.r.r.r.r.r.r.r.r.r.r.r.r.r.r.r.r.r.r.r.-.0.8.0.3.0.i.p.0.0.0.3.0.0.3.0.0.0.0.0.3.0.0.0.8.8.3.3.0.0.8.0.8.8.e.e.e.e.e.e.e.e.e.e.e.e.e.e.e.e.e.e.e.e.e.e.e.e.e.e.e.e.e.e.e.8.8.8.8.8.8.0.e.e.e.e.8.8.8.e.e.e.8.8.8.8.e.e.0.0.8.0.0.0.3.3.e.0.0.0.0.8.t.t.e.e.e.e.e.e.e.e.e.e.e.e.e.e.e.e.e.e.e.r.e.0.0.e.e.e.e.e.e.e.e.e.e.e.e.e.e.e.e.e.e.e.e.e.e.e.e.e.e.e.e.e.e.e.e.e.e.e.e.e.e.e.e.e.e.e.e.e.e.e.e.e.e.e.e.e.e.e.e.e.e.8.8.q.m.#X#XC.#X#X#X#X#X#X#X#X#X#X#X#X#X#X#X#X#X#X#X#X#X#X#X#X4X3X3Xc.8.e.0.e.w.w.w.w.e.e.e.e.w.w.w.w.e.e.e.e.e.e.e.e.w.w.w.w.8.8.",
"= = = = 0 0 0 = = = = = = = = = 0 = = 0 = = = = * * 0 0 0 0 m 7.#.#.#.#.>.>.>.>.S S S S S S S S >.>.>.>.#.#.#.#.A #.>.5.1.N 0 % 8 0 0 0 0 0 0 0 0 0 8 8 8 0 0 0 = = = = 0 0 8 8 s s & a $.8.8.8.e.e.e.e.e.e.e.e.e.e.e.e.e.e.e.e.e.e.e.e.e.e.e.e.0.e.e.2.#.S >.#.#.#.#.#.#.#.#.#.#.#.#.#.#.#.#.#.#.#.#.#.#.#.#.#.,.5.w.r.e.w.e.e.e.e.e.e.e.e.e.e.e.e.e.e.e.e.e.e.e.e.e.e.e.e.e.e.8.8.8.e.e.e.e.e.e.e.e.e.e.e.e.e.e.e.e.e.e.e.e.e.f.t.e.e.0.e.r.1.>.>.>.>.>.>.>.>.>.>.>.>.>.>.>.>.>.>.>.>.>.>.>.>.A >.S >.>.#.0.e.e.8.8.8.8.8.8.8.8.8.e.e.e.e.e.8.8.8.8.8.e.e.e.e.6.0.8.q.v.8.p.r.w.w.w.w.w.w.w.w.w.w.w.w.w.w.w.w.w.w.w.w.w.w.w.w.w.i.e.0.0.-.-.;.e.e.e.e.e.e.e.e.e.e.e.e.0.0.e.e.e.e.0.0.e.e.e.e.;.8.8.8.e.e.w.w.e.e.e.e.e.e.e.e.e.e.e.e.e.e.e.e.e.e.e.e.e.e.e.e.e.8.8.8.8.8.8.0.e.e.e.e.8.8.e.e.e.e.8.8.8.8.e.e.0.0.8.0.0.0.3.0.8.3.3.5.3.3.w.w.w.w.w.w.w.w.w.w.w.w.w.w.w.w.w.w.0.0.e.w.w.3.8.8.e.e.e.e.e.e.e.e.e.e.e.e.e.e.e.e.e.e.e.e.e.e.e.e.e.e.e.e.e.e.e.e.e.e.e.e.e.e.e.e.e.e.e.e.e.e.e.e.e.e.e.e.e.e.e.e.q.q.q.v.M.$X4X$X#X$X$X$X$X$X$X#X$X$X$X$X#X#X#X#X$X$X$X$X$X$X$X$X4X3X3Xn.8.r.e.p.r.r.r.r.r.r.r.r.r.r.r.r.r.r.r.r.r.r.r.r.r.r.r.r.e.e.",
"& & & & & & & & & & & & & & & & & & & & & & & & & & s s = & f m >.>.>.>.>.>.>.>.>.>.>.>.>.>.>.>.>.>.>.>.>.>.>.>.5.5.5.S V g s & o o o o o o o o o o o o o o o o o o o o o o o o O O O h #.e.r.p.e.e.e.e.e.e.e.e.e.e.e.e.e.e.e.e.e.e.e.e.e.e.e.e.0.e.e.1.S S >.#.#.#.#.#.#.#.#.#.#.#.#.#.#.#.#.#.#.#.#.#.#.#.#.#.,.5.w.w.3.3.0.e.w.w.w.w.w.w.w.w.w.w.w.w.w.w.w.w.w.w.w.w.w.w.w.w.8.8.e.e.e.e.e.e.e.e.e.e.e.e.e.e.e.e.e.e.e.e.e.e.e.e.e.e.0.e.r.1.>.>.>.>.>.>.} } >.>.>.>.>.>.} } } >.>.>.>.>.>.>.A #.A S S #.0.e.r.r.e.e.e.e.e.e.e.e.e.e.e.e.e.e.e.e.e.e.e.e.e.e.l.e.r.q.v.*.6.5.s.s.s.s.s.s.s.s.s.s.s.s.s.s.s.s.s.s.s.s.s.s.s.s.7.s.6.5.i.e.;.a.;.;.;.;.;.;.;.;.;.;.;.;.;.;.;.;.;.;.;.;.;.;.;.;.9.9.8.8.8.8.0.0.e.e.e.e.e.e.e.e.e.e.e.e.e.e.e.e.e.e.e.e.e.e.e.e.e.e.e.8.8.8.8.0.8.8.8.e.e.e.e.e.e.8.8.8.e.e.e.e.8.8.8.8.0.0.3.0.w.w.6.j.j.s.s.f.s.s.s.s.s.s.s.s.s.s.s.s.s.s.s.s.f.s.k.k.k.6.r.n.e.e.e.e.e.e.e.e.e.e.e.e.e.e.e.e.e.e.e.e.e.e.e.e.e.e.e.e.e.e.e.e.e.e.e.e.e.e.e.e.e.e.e.e.e.e.e.e.e.e.e.e.e.e.e.e.:.8.8.r.v.m.M.M.+X+X#X#X#X#XoXoXZ.Z.Z.Z.Z.Z.Z.Z.Z.Z.Z.Z.Z.Z.Z.Z.3XZ.B.p.0.e.e.i.f.f.f.f.f.f.f.g.f.f.f.f.f.f.f.f.f.f.g.f.f.f.f.f.e.e.",
"6.6.6.6.6.6.6.6.6.6.6.6.6.6.6.6.6.6.6.6.6.6.6.6.s.5.6.6.6.s...g & & & & & & & & & & & & & & & & & & & & & & & & & & & & s 5.1X2X7X7X7X7X7X7X7X7X7X7X7X7X7X7X7X7X7X7X7X7X7X7X7X7X0X8X3X1Xp.e.;.8.e.e.e.e.e.e.e.e.e.e.e.e.e.e.e.e.e.e.e.e.e.e.e.e.0.e.w.1.S S >.#.#.#.#.#.#.#.#.#.#.#.#.#.#.#.#.#.#.#.#.#.#.#.#.#.#.>.2.2.>.$.*.2.#.#.#.$.$.$.#.#.$.$.$.$.$.$.#.#.$.#.$.#.$.$.$.$.8.8.8.e.e.e.e.e.e.e.e.e.e.e.e.e.e.e.e.e.e.e.e.e.e.e.e.e.0.e.r.1.V V V V V V V V V V V V V V V V V V V V V V V V A A Z A A A 0.e.r.r.e.e.e.e.e.e.e.e.e.e.e.e.e.e.e.e.e.e.e.e.e.e.i.0.r.;.0.x N ' c c c c c c c c M c c M c c c c M M c M c c c c y ' N ..N.oX+X$X%X%X%X%X%X%X%X%X%X%X%X%X%X%X%X%X%X%X%X%X%X%X%X%XC.M.v.r.e.0.0.3.e.e.e.e.e.e.e.e.e.e.e.e.e.e.e.e.e.e.e.e.e.e.e.e.e.e.e.e.8.8.8.0.8.8.8.e.e.e.e.e.e.e.8.8.8.8.e.e.8.8.8.8.0.0.3.3.x x M M ' M c c c c c c c c c c c c c c c c c c c c T { ' z V #.e.e.e.e.e.e.e.e.e.e.e.e.e.e.e.e.e.e.e.e.e.e.e.e.e.e.e.e.e.e.e.e.e.e.e.e.e.e.e.e.e.e.e.e.e.e.e.e.e.e.e.e.e.e.e.e.8.8.8.8.$.%.C %.k k k k k k b b k k k k k k k k k k k k k k k k n k V : X : o 8 8 8 8 8 8 8 8 8 8 8 8 8 8 8 8 8 8 8 8 8 8 8 8 8 8 8 ",
"0.0.0.0.w.w.w.w.0.0.w.w.w.w.w.0.w.w.w.w.0.0.0.0.i.w.e.r.r.l.S O 0 0 0 0 0 0 0 0 0 9 0 0 0 0 0 0 0 0 0 0 0 0 0 0 0 0 0 O O ,.7X7X#X3X3X3X3X3X3X3X3X3X3X3X3X3X3X3X3X3X3X3X3X3X3X3X#X3X3X5Xp.r.e.v.e.e.e.e.e.e.e.e.e.e.e.e.e.e.e.e.e.e.e.e.e.e.e.e.0.e.e.1.S S >.#.#.#.#.#.#.#.#.#.#.#.#.#.#.#.#.#.#.#.#.#.#.#.#.#.S } >.#.S A #.#.#.#.#.#.#.#.#.#.#.#.#.#.#.#.#.#.#.#.#.#.#.#.#.#.8.8.8.8.e.e.e.e.e.e.e.e.e.e.e.e.e.e.e.e.e.e.e.e.e.e.e.e.0.e.r.1.Z Z Z Z Z Z Z Z Z Z Z Z Z Z Z Z Z Z Z Z Z Z Z Z C A b V C A 2.0.r.r.r.r.r.r.r.r.e.e.e.e.e.e.e.e.e.e.e.e.e.e.e.e.z.e.p.8.w.v { R E E E E E E E E E E E E E E E E E E E E E E E E E T ` | 1X5XC.pX#X#X#X#X#X#X#X#X#X#X#X#X#X#X#X#X#X#X#X#X#X#X#X#X6X#XM.p.e.0.3.e.e.e.e.e.e.e.e.e.e.e.e.e.e.e.e.e.e.e.e.e.e.e.e.e.e.e.e.e.8.8.8.0.8.8.8.8.e.e.8.e.8.8.8.8.8.8.8.8.8.8.w.0.0.0.3.3.' ' T R / R E T E E E E E E E E E E E E E E E E T Y R ( R T ] j.e.e.e.e.e.e.e.e.e.e.e.e.e.e.e.e.e.e.e.e.e.e.e.e.e.e.e.e.e.e.e.e.e.e.e.e.e.e.e.e.e.e.e.e.e.e.e.e.e.e.e.e.e.e.e.e.p.p.z.r.$.j g b V V V V Z Z Z Z V V Z V V V C C V V V V V V V V C V Z s & 8 8 0 0 8 8 8 8 8 8 8 0 8 8 8 8 8 8 8 8 8 8 8 8 8 0 0 8 8 ",
"q.q.q.q.e.e.r.r.q.q.r.r.r.r.q.q.r.r.r.r.q.q.q.q.0.8.r.t.w.z.1.4 0 0 0 0 0 0 0 0 9 9 9 9 9 9 9 9 0 0 0 0 0 0 0 0 $ 9 0 O o w.8XJ.$X$X$X$XA.A.$X$XA.A.$X$X$X$X$X$X$X$X$XA.$X$X$X$X3XZ.M.3Xr.r.0.e.e.e.e.e.e.e.e.e.e.e.e.e.e.e.e.e.e.e.e.e.e.e.e.e.0.e.e.1.#.S >.#.#.#.#.#.#.#.#.#.#.#.#.#.#.#.#.#.#.#.#.#.#.#.#.#.} >.>.>.S A #.*.S S S #.#.#.#.#.#.#.S S S S S S S S S S #.#.#.#.0.8.8.8.e.e.e.e.e.e.e.e.e.e.e.e.e.e.e.e.e.e.e.e.e.e.e.e.0.e.r.1.V V V V V V V V V V V V V V V V V V V V V V V V j V x b b C 2.0.r.r.r.r.r.r.r.r.e.e.e.e.e.e.e.e.e.e.e.e.e.e.e.e.e.8.q.8.f.y ) ~ ( ( ( ( ( ( ( ( ( ( ( ( ( ( ( ( ( ( ( ( ( ( ( ( ( ) _ | 2X9XC.K.A.A.A.A.A.Z.Z.Z.A.A.A.A.A.A.A.A.A.A.A.Z.A.A.A.A.4X#Xv.q.0.3.0.e.e.e.e.e.e.e.e.e.e.e.e.e.e.e.e.e.e.e.e.e.e.e.e.e.e.8.e.e.8.8.8.0.8.8.8.e.e.e.8.8.8.8.8.8.8.8.8.8.8.8.8.0.0.0.0.3.{ T / ) ) ) ( ( ^ ^ ^ ^ ^ ^ ^ ^ ^ ^ ^ ^ ^ ^ ^ ^ Q R ~ ~ ( E [ k.e.e.e.e.e.e.e.e.e.e.e.e.e.e.e.e.e.e.e.e.e.e.e.e.e.e.e.e.e.e.e.e.e.e.e.e.e.e.e.e.e.e.e.e.e.e.e.e.e.e.e.e.e.e.e.e.2.3.r.w.>.b b } V V V V Z Z Z Z Z Z Z Z Z Z Z Z V V V V V V V V Z V Z s * 0 9 q 7 7 7 7 7 7 7 7 7 7 7 7 7 7 7 7 7 7 7 7 7 7 7 7 7 7 ",
"e.e.e.e.e.e.e.e.e.e.e.e.e.e.e.e.e.e.e.e.e.e.e.e.e.p.e.q.8.i.6.8 0 0 0 0 0 0 0 0 0 0 0 0 0 0 0 0 0 0 0 0 0 0 0 0 = 9 9 0 X 3.#X#X$X$X$X$X$X$X$X$X$X$X$X$X$X$X$X$X$X$X$X$X$X$X$X$X#X#X#X4Xr.r.w.r.e.e.e.e.e.e.e.e.e.e.e.e.e.e.e.e.e.e.e.e.e.e.e.e.0.e.e.2.#.S >.#.#.#.#.#.#.#.#.#.#.#.#.#.#.#.#.#.#.#.#.#.#.#.#.#.#.#.#.#.#.#.#.#.#.#.#.#.#.#.#.#.#.#.#.#.#.#.#.#.#.#.#.#.#.#.#.#.,.r.r.e.e.e.8.e.e.e.e.e.e.e.e.e.e.e.e.e.e.e.e.e.g.e.r.e.0.e.e.>.b V V V V V Z Z V V V V V V V V V V V V V V V V V V A Z Z b 6.e.e.e.e.e.e.e.e.e.e.e.e.e.e.e.e.e.e.e.e.e.e.e.e.e.q.q.e.e.s.' R ( R R R R R R R R R R R R R R R R R R R R R R R R ( ( R | 7X$XZ.3X$X$X$X$X$X$X$X$X$X$X$X$X$X$X$X$X$X$X$X$X$X$X$X$X#X$XM.q.q.e.0.e.e.e.e.e.e.e.e.e.e.e.e.e.e.e.e.e.e.e.e.e.e.e.e.e.e.e.e.e.e.e.e.e.8.8.8.8.8.8.8.8.e.e.8.8.8.8.8.8.e.e.e.e.e.e.e.y.Q T E W W R R / R R R R R R R R R R R R R R R R R R ^ R R T B j.q.q.q.q.e.8.8.8.e.e.e.e.e.e.e.e.e.e.e.e.e.e.e.e.e.e.e.e.e.e.e.e.e.e.e.e.e.e.e.e.e.e.e.e.e.e.e.e.e.e.e.e.e.e.e.e.e.e.e.r.>.b C V V V V V V V V V Z Z V V V V V V V V V V V V V V V N Z z 0 0 0 0 0 0 0 0 0 0 0 0 0 0 0 0 0 0 0 0 0 0 0 0 0 0 0 0 0 0 ",
"e.e.e.e.e.e.e.e.e.e.e.e.e.e.e.e.e.e.e.e.e.e.e.e.e.p.q.q.8.i.6.8 0 0 0 0 0 0 0 0 0 0 0 0 0 0 0 0 0 0 0 0 0 0 0 0 = 9 9 0 X 3.#XA.$X$X$X$X$X$X$X$X$X$X$X$X$X$X$X$X$X$X$X$X$X$X$X$X#X#X#X4Xr.r.w.r.e.e.e.e.e.e.e.e.e.e.e.e.e.e.e.e.e.e.e.e.e.e.e.e.0.e.e.2.#.S >.#.#.#.#.#.#.#.#.#.#.#.#.#.#.#.#.#.#.#.#.#.#.#.#.#.#.#.#.#.#.#.#.#.#.#.#.#.#.#.#.#.#.#.#.#.#.#.#.#.#.#.#.#.#.#.#.#.,.r.r.e.e.e.8.e.e.e.e.e.e.e.e.e.e.e.e.e.e.e.e.e.g.e.r.e.0.e.e.>.b V V V V V Z Z V V V V V V V V V V V V V V V V V V A n Z b 6.e.e.e.e.e.e.e.e.e.e.e.e.e.e.e.e.e.e.e.e.e.e.e.e.e.q.q.e.e.s.' R ( R R R R R R R R R R R R R R R R R R R R R R R R ( ( R | 7X$XZ.3X$X$X$X$X$X$X$X$X$X$X$X$X$X$X$X$X$X$X$X$X$X$X$X$X#X$XM.q.q.e.0.e.e.e.e.e.e.e.e.e.e.e.e.e.e.e.e.e.e.e.e.e.e.e.e.e.e.e.e.e.e.e.e.e.8.8.8.8.8.8.8.8.e.e.e.e.8.8.8.8.e.e.e.e.e.e.e.y.Q Q E W W R R / R R R R R R R R R R R R R R R R R R ^ R R T B j.q.q.q.q.e.8.8.8.e.e.e.e.e.e.e.e.e.e.e.e.e.e.e.e.e.e.e.e.e.e.e.e.e.e.e.e.e.e.e.e.e.e.e.e.e.e.e.e.e.e.e.e.e.e.e.e.e.e.e.r.$.b C V V V V V V V V V Z V V V V V V V V V V V V V V V V N Z z 0 0 0 0 0 0 0 0 0 0 0 0 0 0 0 0 0 0 0 0 0 0 0 0 0 0 0 0 0 0 ",
"e.e.e.e.e.e.e.e.e.e.e.e.e.e.e.e.e.e.e.e.e.e.e.e.e.p.q.q.8.w.6.8 0 0 0 0 0 0 0 0 0 0 0 0 0 0 0 0 0 0 0 0 0 0 0 0 = 9 0 0 X 3.#X#X$X$X$X$X$X$X$X$X$X$X$X$X$X$X$X$X$X$X$X$X$X$X$X$XA.#X#X4Xr.r.w.r.e.e.e.e.e.e.e.e.e.e.e.e.e.e.e.e.e.e.e.e.e.e.e.e.0.e.e.2.#.S #.#.#.#.#.#.#.#.#.#.#.#.#.#.#.#.#.#.#.#.#.#.#.#.#.#.#.#.#.#.#.#.#.#.#.#.#.#.#.#.#.#.#.#.#.#.#.#.#.#.#.#.#.#.#.#.#.#.,.r.r.e.e.e.8.r.e.e.e.e.e.e.e.e.e.e.e.e.e.e.e.e.g.e.r.e.0.e.e.>.b V V V V V Z Z V V V V V V V V V V V V V V V V V V A Z Z b 6.e.e.e.r.e.e.e.e.e.e.e.e.e.e.e.e.e.e.e.e.e.e.e.e.e.q.q.e.e.s.' R ( R R R R R R R R R R R R R R R R R R R R R R R R ( ^ R | 7X$XZ.3X$X$X$X$X$X$X$X$X$X$X$X$X$X$X$X$X$X$X$X$X$X$X$X$X#X$XM.q.q.e.8.e.e.e.e.e.e.e.e.e.e.e.e.e.e.e.e.e.e.e.e.e.e.e.e.r.e.e.e.e.e.e.e.e.e.e.8.8.8.8.e.e.e.e.e.e.e.e.8.8.e.e.e.e.e.e.6.y.Q Q E W W R R / R R R R R R R R R R R R R R R R R R ^ U R T B j.q.q.e.q.e.e.8.e.e.e.e.e.e.e.e.e.e.e.e.e.e.e.e.e.e.e.e.e.e.e.e.e.e.e.e.e.e.e.e.e.e.e.e.e.e.e.e.e.e.e.e.e.e.e.e.e.e.e.e.r.$.b C V V V V V V V V V Z Z Z V V V V V V V V V V V V V V N Z z 0 0 0 0 0 0 0 0 0 0 0 0 0 0 0 0 0 0 0 0 0 0 0 0 0 0 0 0 0 0 ",
"e.e.e.e.e.e.e.e.e.e.e.e.e.e.e.e.e.e.e.e.e.e.e.e.8.p.q.q.8.w.6.8 0 0 0 0 0 0 0 0 0 0 0 0 0 0 0 0 0 0 0 0 0 0 0 0 = 9 9 0 X 3.#X#X$X$X$X$X$X$X$X$X$X$X$X$X$X$X$X$X$X$X$X$X$X$X$X$X#X#X#X4Xr.r.w.r.e.e.e.e.e.e.e.e.e.e.e.e.e.e.e.e.e.e.e.e.e.e.e.e.0.e.e.2.#.S >.#.#.#.#.#.#.#.#.#.#.#.#.#.#.#.#.#.#.#.#.#.#.#.#.#.#.#.#.#.#.#.#.#.#.#.#.#.#.#.#.#.#.#.#.#.#.#.#.#.#.#.#.#.#.#.#.#.,.r.r.e.e.e.8.r.e.e.e.e.e.e.e.e.e.e.e.e.e.e.e.e.f.e.r.e.0.e.e.>.b V V V V V Z Z V V V V V V V V V V V V V V V V V V A Z Z b 6.e.e.e.r.e.e.e.e.r.e.e.e.e.e.e.e.e.e.e.e.e.e.e.e.e.r.q.e.e.s.' R ) R R R R R R R R R R R R R R R R R R R R R R R R ( ^ R | 7X$XZ.3X$X$X$X$X$X$X$X$X$X$X$X$X$X$X$X$X$X$X$X$X$X$X$X$X#X$XM.q.q.e.8.e.e.e.e.e.e.e.e.e.e.e.e.e.e.e.e.e.e.e.e.e.e.e.e.r.e.e.e.e.e.e.e.e.e.8.8.8.e.e.e.e.e.e.e.e.e.e.e.8.e.e.e.e.e.e.6.y.Q Q E W W R R / R R R R R R R R R R R R R R R R R R ^ U R T B j.q.q.e.e.e.e.e.e.e.e.e.e.e.e.e.e.e.e.e.e.e.e.e.e.e.e.e.e.e.e.e.e.e.e.e.e.e.e.e.e.e.e.e.e.e.e.e.e.e.e.e.e.e.e.e.e.e.e.e.r.$.b C V V V V V V V V V Z Z V V V V V V V V V V V V V V V N Z z 0 0 0 0 0 0 0 0 0 0 0 0 0 0 0 0 0 0 0 0 0 0 0 0 0 0 0 0 0 0 ",
"e.e.e.e.e.e.e.e.e.e.e.e.e.e.e.e.e.e.e.e.e.e.e.e.8.r.q.q.8.w.5.8 0 0 0 0 0 0 0 0 0 0 0 0 0 0 0 0 0 0 0 0 0 0 0 0 = 9 9 0 X 3.#X#X$X$X$X$X$X$X$X$X$X$X$X$X$X$X$X$X$X$X$X$X$X$X$X$XZ.#X#X4Xr.r.8.e.e.e.e.e.e.e.e.e.e.e.e.e.e.e.e.e.e.e.e.e.e.e.e.e.0.e.e.1.#.S >.#.#.#.#.#.#.#.#.#.#.#.#.#.#.#.#.#.#.#.#.#.#.#.#.#.#.#.#.#.#.#.#.#.#.#.#.#.#.#.#.#.#.#.#.#.#.#.#.#.#.#.#.#.>.>.>.>.,.r.r.e.e.e.8.r.e.e.e.e.e.e.e.e.e.e.e.e.e.e.e.e.g.e.r.e.0.e.e.>.b V V V V V Z Z V V V V V V V V V V V V V V V V V V A Z Z b 6.e.e.r.r.r.e.e.e.r.e.e.e.e.e.e.e.e.e.e.e.e.e.e.e.e.r.r.e.w.s.` R ) R R R R R R R R R R R R R R R R R R R R R R R R ) ^ R | 7X$XZ.3X$X$X$X$X$X$X$X$X$X$X$X$X$X$X$X$X$X$X$X$X$X$X$X$X#X$XM.q.q.e.0.e.e.e.e.e.e.e.e.e.e.e.e.e.e.e.e.e.e.e.r.e.e.e.e.r.e.e.e.e.e.e.e.e.e.e.8.8.8.8.e.e.e.e.e.8.e.e.e.e.e.e.e.e.e.e.6.6.Q Q E W W R R / R R R R R R R R R R R R R R R R R R ^ R R T B j.q.q.e.e.e.e.e.e.e.e.e.e.e.e.e.e.e.e.e.e.e.e.e.e.e.e.e.e.e.e.e.e.e.e.e.e.e.e.e.e.e.e.e.e.e.e.e.e.e.e.e.e.e.e.e.e.e.e.e.r.$.b C V V V V V V V V V V V V V V V V V V V V V V V V V V N Z f 0 0 0 0 0 0 0 0 0 0 0 0 0 0 0 0 0 0 0 0 0 0 0 0 0 0 0 0 0 0 ",
"e.e.e.e.e.e.e.e.e.e.e.e.e.e.e.e.e.e.e.e.e.e.e.e.8.r.e.q.8.w.5.8 0 0 0 0 0 0 0 0 0 0 0 0 0 0 0 0 0 0 0 0 0 0 0 0 = 9 9 0 X 3.#X#X$X$X$X$X$X$X$X$X$X$X$X$X$X$X$X$X$X$X$X$X$X$X$X$XZ.#X#X4Xr.r.8.e.e.e.e.e.e.e.e.e.e.e.e.e.e.e.e.e.e.e.e.e.e.e.e.e.0.e.e.1.#.S >.#.#.#.#.#.#.#.#.#.#.#.#.#.#.#.#.#.#.#.#.#.#.#.#.#.#.#.#.#.#.#.#.#.#.#.#.#.#.#.#.#.#.#.#.#.#.#.#.#.#.#.#.#.>.>.>.>.,.r.r.e.e.e.8.r.e.e.e.e.e.e.e.e.e.e.e.e.e.e.e.e.g.e.r.e.0.e.e.>.b b V V V V Z Z V V V V V V V V V V V V V V V V V V A Z Z b 6.e.e.e.e.e.e.e.e.r.e.e.e.e.e.e.e.e.e.e.e.e.e.e.e.e.r.r.e.e.s.` R ) R R R R R R R R R R R R R R R R R R R R R R R R ) ^ R | 7X$XZ.3X$X$X$X$X$X$X$X$X$X$X$X$X$X$X$X$X$X$X$X$X$X$X$X$X#X$XM.q.q.e.0.e.e.e.e.e.e.e.e.e.e.e.e.e.e.e.e.e.e.e.r.r.e.e.e.e.e.e.e.e.e.e.e.e.e.e.8.8.8.8.e.e.e.e.e.8.e.e.e.e.e.e.e.e.e.e.6.6.Q Q E W W R R / R R R R R R R R R R R R R R R R R R ^ R R T B j.q.q.e.e.e.e.e.e.e.e.e.e.e.e.e.e.e.e.e.e.e.e.e.e.e.e.e.e.e.e.e.e.e.e.e.e.e.e.e.e.e.e.e.e.e.e.e.e.e.e.e.e.e.e.e.e.e.e.e.r.$.b C V V V V V V V V V V V V V V V V V V V V V V V V V V N Z z 0 0 0 0 0 0 0 0 0 0 0 0 0 0 0 0 0 0 0 0 0 0 0 0 0 0 0 0 0 0 ",
"e.e.e.e.e.e.e.e.e.e.e.e.e.e.e.e.e.e.e.e.e.e.e.e.8.p.e.q.8.w.5.8 0 0 0 0 0 0 0 0 0 0 0 0 0 0 0 0 0 0 0 0 0 0 0 0 = 9 9 0 X 3.#XA.$X$X$X$X$X$X$X$X$X$X$X$X$X$X$X$X$X$X$X$X$X$X$X$XZ.#X#X4Xr.r.8.e.e.e.e.e.e.e.e.e.e.e.e.e.e.e.e.e.e.e.e.e.e.e.e.e.0.e.e.1.#.S >.#.#.#.#.#.#.#.#.#.#.#.#.#.#.#.#.#.#.#.#.#.#.#.#.#.#.#.#.#.#.#.#.#.#.#.#.#.#.#.#.#.#.#.#.#.#.#.#.#.#.#.#.#.#.#.>.>.,.r.r.e.e.e.8.e.e.e.e.e.e.e.e.e.e.e.e.e.e.e.e.e.g.e.r.e.0.e.e.>.n V V V V V Z Z V V V V V V V V V V V V V V V V V V A Z Z b 6.e.e.e.e.e.e.e.e.e.e.e.e.e.e.e.e.e.e.e.e.e.e.e.e.e.r.q.e.e.s.` R ) R R R R R R R R R R R R R R R R R R R R R R R R ( ^ R | 7X$XZ.3X$X$X$X$X$X$X$X$X$X$X$X$X$X$X$X$X$X$X$X$X$X$X$X$X#X$XM.q.q.e.e.e.e.e.e.e.e.e.e.e.e.e.e.e.e.e.e.e.e.e.e.e.e.e.e.e.e.e.e.e.e.e.e.e.e.e.e.8.8.8.e.e.e.e.8.8.8.8.e.8.e.e.e.e.e.e.e.6.{ Q E W W R R / R R R R R R R R R R R R R R R R R R ^ R R T B j.q.q.e.e.e.e.e.e.e.e.e.e.e.e.e.e.e.e.e.e.e.e.e.e.e.e.e.e.e.e.e.e.e.e.e.e.e.e.e.e.e.e.e.e.e.e.e.e.e.e.e.e.e.e.e.e.e.e.e.r.$.b C V V V V V V V V V V V V V V V V V V V V V V V V V V N Z f 0 0 0 0 0 0 0 0 0 0 0 0 0 0 0 0 0 0 0 0 0 0 0 0 0 0 0 0 0 0 ",
"e.e.e.e.e.e.e.e.e.e.e.e.e.e.e.e.e.e.e.e.e.e.e.e.8.r.q.q.8.w.5.8 0 0 0 0 0 0 0 0 0 0 0 0 0 0 0 0 0 0 0 0 0 0 0 0 = 9 9 0 X 3.#XA.$X$X$X$X$X$X$X$X$X$X$X$X$X$X$X$X$X$X$X$X$X$X$X$XZ.#X#X4Xr.r.8.e.e.e.e.e.e.e.e.e.e.e.e.e.e.e.e.e.e.e.e.e.e.e.e.e.0.e.e.1.#.S >.#.#.#.#.#.#.#.#.#.#.#.#.#.#.#.#.#.#.#.#.#.#.#.#.#.#.#.#.#.#.#.#.#.#.#.#.#.#.#.#.#.#.#.#.#.#.#.#.#.#.#.#.#.#.#.>.>.,.r.r.e.e.e.8.e.e.e.e.e.e.e.e.e.e.e.e.e.e.e.e.e.g.e.r.e.0.e.e.>.n V V V V V Z Z V V V V V V V V V V V V V V V V V V A Z Z b 6.e.e.e.e.e.e.e.e.e.e.e.e.e.e.e.e.e.e.e.e.e.e.e.e.e.r.r.e.w.s.` R ) R R R R R R R R R R R R R R R R R R R R R R R R ( ^ R | 7X$XZ.3X$X$X$X$X$X$X$X$X$X$X$X$X$X$X$X$X$X$X$X$X$X$X$X$X#X$XM.q.q.e.e.e.e.e.e.e.e.e.e.e.e.e.e.e.e.e.e.e.e.e.e.e.e.e.e.e.e.e.e.e.e.e.e.e.e.e.e.e.8.8.e.e.e.e.8.8.8.8.8.8.0.e.e.e.e.e.e.6.{ Q E W W R R / R R R R R R R R R R R R R R R R R R ^ R R T B j.q.q.e.e.e.e.e.e.e.e.e.e.e.e.e.e.e.e.e.e.e.e.e.e.e.e.e.e.e.e.e.e.e.e.e.e.e.e.e.e.e.e.e.e.e.e.e.e.e.e.e.e.e.e.e.e.e.e.e.r.$.b C V V V V V V V V V V V V V V V V V V V V V V V V V V N Z z 0 0 0 0 0 0 0 0 0 0 0 0 0 0 0 0 0 0 0 0 0 0 0 0 0 0 0 0 0 0 ",
"e.e.e.e.e.e.e.e.e.e.e.e.e.e.e.e.e.e.e.e.e.e.e.e.8.r.q.q.8.i.5.8 0 0 0 0 0 0 0 0 0 0 0 0 0 0 0 0 0 0 0 0 0 0 9 9 0 9 0 0 X 3.#XA.$X$X$X$X$X$X$X$X$X$X$X$X$X$X$X$X$X$X$X$X$X$X$X$X#X#X#X4Xc.r.8.e.e.e.e.e.e.e.e.e.e.e.e.e.e.e.e.e.e.e.e.e.e.e.e.e.0.e.e.2.#.S >.#.#.#.#.#.#.#.#.#.#.#.#.#.#.#.#.#.#.#.#.#.#.#.#.#.#.#.#.#.#.#.#.#.#.#.#.#.#.#.#.#.#.#.#.#.#.#.#.#.#.#.#.#.#.#.#.#.,.r.r.t.e.e.8.e.e.e.e.e.e.e.e.e.e.e.e.e.e.e.e.e.g.e.r.e.0.e.e.>.b V V V V V Z V V V V V V V V V V V V V V V V V V V A Z Z b 6.e.r.r.e.e.e.e.e.e.e.e.e.e.e.e.e.e.e.e.e.e.e.e.e.e.q.q.8.e.s.M E ( R R R R R R R R R R R R R R R R R R R R R R R R ( ^ R | 7X$XZ.3X#X#X#X#X#X#X#X#X$X$X$X$X$X$X$X$X$X$X$X$X$X$X$X$X#X$XM.q.q.e.0.e.e.e.e.e.e.e.e.e.e.e.e.e.e.e.e.e.e.e.e.e.e.e.r.r.e.e.e.e.e.e.e.e.e.e.e.e.8.8.8.8.e.e.8.8.8.8.8.8.e.e.e.e.e.e.e.y.Q R E E R R R ^ R R R R R R R R R R R R R R R R R R ^ R R T B j.q.q.q.q.e.8.e.e.e.8.8.8.e.e.e.e.e.e.e.e.e.e.e.e.e.e.e.e.e.e.e.e.e.e.e.e.e.e.e.e.e.e.e.e.e.e.e.e.e.e.e.e.e.e.e.e.e.0.r.r.#.C V Z V V V V V V V V V V V V V V V V V V V V V V V V V V Z s = 0 = 0 0 0 0 0 0 0 0 0 0 0 0 0 0 0 0 0 0 0 0 0 0 0 0 0 0 0 ",
"e.e.e.e.e.e.e.e.e.e.e.e.e.e.e.e.e.e.e.e.e.e.e.e.8.r.q.q.8.i.5.8 0 0 0 0 0 0 0 0 0 0 0 0 0 0 0 0 0 0 0 0 0 0 9 9 = 9 0 0 X 3.#XA.$X$X$X$X$X$X$X$X$X$X$X$X$X$X$X$X$X$X$X$X$X$X$X$X#X#X#X4Xc.r.8.e.e.e.e.e.e.e.e.e.e.e.e.e.e.e.e.e.e.e.e.e.e.e.e.e.0.e.e.2.S S >.S #.#.#.#.#.#.#.#.#.#.#.#.#.#.#.#.#.#.#.#.#.#.#.#.#.#.#.#.#.#.#.#.#.#.#.#.#.#.#.#.#.#.#.#.#.#.#.#.#.#.#.#.#.#.#.#.,.r.r.t.e.e.8.e.e.e.e.e.e.e.e.e.e.e.e.e.e.e.e.e.g.e.r.e.0.e.e.>.V V V V V V Z Z V V V V V V V V V V V V V V V V V V A Z Z b 6.e.r.e.e.e.e.e.r.r.e.e.e.e.e.e.e.e.e.e.e.e.e.e.e.e.q.q.8.e.s.M E ( R R R R R R R R R R R R R R R R R R R R R R R R ( ^ R | 7X$XZ.3X#X#X#X#X#X#X#X#X$X$X$X$X$X$X$X$X$X$X$X$X$X$X$X$X#X$XM.q.q.e.0.e.e.e.e.e.e.e.e.e.e.e.e.e.e.e.e.e.e.r.r.e.e.e.e.r.e.e.e.e.e.e.e.e.e.e.e.e.8.8.8.8.e.e.8.8.e.e.8.8.e.e.e.e.e.e.e.y.Q R E E E R R ( R R R R R R R R R R R R R R R R R R ^ R R T B j.q.q.q.q.e.8.e.e.e.e.e.e.e.e.e.e.e.e.e.e.e.e.e.e.e.e.e.e.e.e.e.e.e.e.e.e.e.e.e.e.e.e.e.e.e.e.e.e.e.e.e.e.e.e.e.e.e.8.r.r.#.C V Z V V V V V V V V V V V V V V V V V V V V V V V V V V Z s = 0 = 0 0 0 0 0 0 0 0 0 0 0 0 0 0 0 0 0 0 0 0 0 0 0 0 0 0 0 ",
"e.e.e.e.e.e.e.e.e.e.e.e.e.e.e.e.e.e.e.e.e.e.e.e.8.r.q.q.8.i.5.8 0 0 0 0 0 0 0 0 0 0 0 0 0 0 0 0 0 0 0 0 0 0 9 9 = 9 9 0 X 3.#XA.$X$X$X$X$X$X$X$X$X$X$X$X$X$X$X$X$X$X$X$X$X$X$X$X#X#X#X4Xc.r.8.e.e.e.e.e.e.e.e.e.e.e.e.e.e.e.e.e.e.e.e.e.e.e.e.e.0.e.e.1.S S >.#.#.#.#.#.#.#.#.#.#.#.#.#.#.#.#.#.#.#.#.#.#.#.#.#.#.#.#.#.#.#.#.#.#.#.#.#.#.#.#.#.#.#.#.#.#.#.#.#.#.#.#.#.#.#.#.#.,.r.r.e.e.e.8.e.e.e.e.e.e.e.e.e.e.e.e.e.e.e.e.e.g.e.r.e.0.e.e.1.V V V V V V Z Z V V V V V V V V V V V V V V V V V V A Z Z b 6.e.e.e.e.e.e.e.e.e.e.e.e.e.e.e.e.e.e.e.e.e.e.e.e.e.q.q.8.e.s.M E ( R R R R R R R R R R R R R R R R R R R R R R R R ) ^ R | 7X$XZ.3X#X#X#X#X#X#X#X#X$X$X$X$X$X$X$X$X$X$X$X$X$X$X$X$X#X$XM.q.q.e.0.e.e.e.e.e.e.e.e.e.e.e.e.e.e.e.e.e.e.e.e.e.e.e.e.e.e.e.e.e.e.e.e.e.8.8.e.e.8.8.8.8.8.8.8.8.e.e.e.e.e.e.e.e.e.e.e.y.Q R E E E R R ( R R R R R R R R R R R R R R R R R R ^ R R T B j.q.q.q.q.e.e.e.e.e.e.e.e.e.e.e.e.e.e.e.e.e.e.e.e.e.e.e.e.e.e.e.e.e.e.e.e.e.e.e.e.e.e.e.e.e.e.e.e.e.e.e.e.e.e.e.e.e.8.i.r.#.C V Z V V V V V V V V V V V V V V V V V V V V V V V V V V Z s = 0 = 0 0 0 0 0 0 0 0 0 0 0 0 0 0 0 0 0 0 0 0 0 0 0 0 0 0 0 ",
"e.e.e.e.e.e.e.e.e.e.e.e.e.e.e.e.e.e.e.e.e.e.e.e.8.r.q.q.8.i.5.8 0 0 0 0 0 0 0 0 0 0 0 0 0 0 0 0 0 0 0 0 0 0 9 9 = 9 9 0 X 3.#XA.$X$X$X$X$X$X$X$X$X$X$X$X$X$X$X$X$X$X$X$X$X$X$X$X#X#X#X4Xc.r.8.e.e.e.e.e.e.e.e.e.e.e.e.e.e.e.e.e.e.e.e.e.e.e.e.e.0.e.e.1.S S >.S #.#.#.#.#.#.#.#.#.#.#.#.#.#.#.#.#.#.#.#.#.#.#.#.#.#.#.#.#.#.#.#.#.#.#.#.#.#.#.#.#.#.#.#.#.#.#.#.#.#.#.#.#.#.#.#.,.r.r.e.e.e.8.e.e.e.e.e.e.e.e.e.e.e.e.e.e.e.e.e.g.e.r.e.0.e.e.>.V V V V V V Z Z V V V V V V V V V V V V V V V V V V A Z Z b 6.e.e.e.e.e.e.e.e.e.e.e.e.e.e.e.e.e.e.e.e.e.e.e.e.e.q.q.8.e.s.M E ( R R R R R R R R R R R R R R R R R R R R R R R R ) ^ R | 7X#XZ.3X#X#X#X#X#X#X#X#X$X$X$X$X$X$X$X$X$X$X$X$X$X$X$X$X#X$XM.q.q.e.0.e.e.e.e.e.e.e.e.e.e.e.e.e.e.e.e.e.e.e.e.e.e.e.e.e.e.e.e.e.e.e.e.e.8.8.e.e.e.e.8.e.8.8.8.8.e.e.e.e.e.e.e.e.e.e.e.y.Q R E E R R R ( R R R R R R R R R R R R R R R R R R ^ R R T B j.q.q.q.q.e.e.e.e.e.e.e.e.e.e.e.e.e.e.e.e.e.e.e.e.e.e.e.e.e.e.e.e.e.e.e.e.e.e.e.e.e.e.e.e.e.e.e.e.e.e.e.e.e.e.e.e.e.8.i.r.#.C V Z V V V V V V V V V V V V V V V V V V V V V V V V V V Z v = 0 = 0 0 0 0 0 0 0 0 0 0 0 0 0 0 0 0 0 0 0 0 0 0 0 0 0 0 0 ",
"e.e.e.e.e.e.e.e.e.e.e.e.e.e.e.e.e.e.e.e.e.e.e.e.e.r.q.q.8.w.5.8 0 0 0 0 0 0 0 0 0 0 0 0 0 0 0 0 0 0 0 0 0 0 9 9 = 0 0 0 X 3.#XA.$X$X$X$X$X$X$X$X$X$X$X$X$X$X$X$X$X$X$X$X$X$X$X$X#X#X#X4Xc.r.8.e.e.e.e.e.e.e.e.e.e.e.e.e.e.e.e.e.e.e.e.e.e.e.e.e.0.e.e.1.#.S >.#.#.#.#.#.#.#.#.#.#.#.#.#.#.#.#.#.#.#.#.#.#.#.#.#.#.#.#.#.#.#.#.#.#.#.#.#.#.#.#.#.#.#.#.#.#.#.#.#.#.#.#.#.#.#.#.#.,.r.r.e.e.e.8.e.e.e.e.e.e.e.e.e.e.e.e.e.e.e.e.e.g.e.e.8.0.e.e.1.b V V V V V Z Z V V V V V V V V V V V V V V V V V V A V Z b 6.e.e.e.e.e.e.e.r.r.e.e.e.e.e.e.e.e.e.e.e.e.e.e.e.e.q.q.e.e.s.M E ( R R R R R R R R R R R R R R R R R R R R R R R R ) ^ R | 7X$XZ.3X#X#X#X#X#X#X#X#X$X$X$X$X$X$X$X$X$X$X$X$X$X$X$X$X#X$XM.q.q.e.0.e.e.e.e.e.e.e.e.e.e.e.e.e.e.e.e.e.e.e.e.e.e.e.e.e.e.e.e.e.e.e.e.e.8.8.8.8.e.e.e.e.8.e.e.8.8.8.e.e.e.e.e.8.e.e.6.y.Q E E E R R R ( R R R R R R R R R R R R R R R R R R ^ U R T B j.q.q.q.q.e.e.e.8.e.e.e.e.e.e.e.e.e.e.e.e.e.e.e.e.e.e.e.e.e.e.e.e.e.e.e.e.e.e.e.e.e.e.e.e.e.e.e.e.e.e.e.e.e.e.e.e.e.0.r.r.#.b V V V V V V V V V V V V V V V V V V V V V V V V V V V V Z v = 0 = 0 0 0 0 0 0 0 0 0 0 0 0 0 0 0 0 0 0 0 0 0 0 0 0 0 0 0 ",
"e.e.e.e.e.e.e.e.e.e.e.e.e.e.e.e.e.e.e.e.e.e.e.e.e.r.q.q.8.w.5.8 0 0 0 0 0 0 0 0 0 0 0 0 0 0 0 0 0 0 0 0 0 0 9 9 = 0 0 0 X 3.#XA.$X$X$X$X$X$X$X$X$X$X$X$X$X$X$X$X$X$X$X$X$X$X$X$X#X#X#X4Xc.r.8.e.e.e.e.e.e.e.e.e.e.e.e.e.e.e.e.e.e.e.e.e.e.e.e.e.0.e.e.1.#.S >.#.#.#.#.#.#.#.#.#.#.#.#.#.#.#.#.#.#.#.#.#.#.#.#.#.#.#.#.#.#.#.#.#.#.#.#.#.#.#.#.#.#.#.#.#.#.#.#.#.#.#.#.#.#.#.#.#.,.r.r.e.e.e.8.e.e.e.e.e.e.e.e.e.e.e.e.e.e.e.e.e.g.e.r.8.0.e.e.1.b V V V V V Z Z V V V V V V V V V V V V V V V V V V A Z Z b 6.e.e.r.e.e.e.e.e.r.e.e.e.e.e.e.e.e.e.e.e.e.e.e.e.e.q.q.8.e.s.M E ( R R R R R R R R R R R R R R R R R R R R R R R R ( ^ R | 7X$XZ.3X#X#X#X#X#X#X#X#X$X$X$X$X$X$X$X$X$X$X$X$X$X$X$X$X#X$XM.q.q.e.0.e.e.e.e.e.e.e.e.e.e.e.e.e.e.e.e.e.e.e.e.e.e.e.e.e.e.e.e.e.e.e.e.e.8.8.8.8.e.e.e.e.e.e.e.e.8.8.e.e.e.e.e.e.e.e.6.y.Q E E E R R R ( R R R R R R R R R R R R R R R R R R ^ R R T B j.q.q.q.q.e.e.e.8.e.e.e.e.e.e.e.e.e.e.e.e.e.e.e.e.e.e.e.e.e.e.e.e.e.e.e.e.e.e.e.e.e.e.e.e.e.e.e.e.e.e.e.e.e.e.e.e.e.8.r.r.$.b V V V V V V V V V V V V V V V V V V V V V V V V V V V V Z v = 0 = 0 0 0 0 0 0 0 0 0 0 0 0 0 0 0 0 0 0 0 0 0 0 0 0 0 0 0 ",
"e.e.e.e.e.e.e.e.e.e.e.e.e.e.e.e.e.e.e.e.e.e.e.e.e.p.q.q.8.i.5.8 0 0 0 0 0 0 0 0 0 0 0 0 0 0 0 0 0 0 0 0 0 9 9 9 = 0 0 0 X 3.#XA.$X$X$X$X$X$X$X$X$X$X$X$X$X$X$X$X$X$X$X$X$X$X$X$X#X#X#X4Xc.r.8.e.e.e.e.e.e.e.e.e.e.e.e.e.e.e.e.e.e.e.e.e.e.e.e.e.0.e.e.2.#.S #.#.#.#.#.#.#.#.#.#.#.#.#.#.#.#.#.#.#.#.#.#.#.#.#.#.#.#.#.#.#.#.#.#.#.#.#.#.#.#.#.#.#.#.#.#.#.#.#.#.#.#.#.#.#.#.#.#.,.r.r.e.e.e.8.e.e.e.e.e.e.e.e.e.e.e.e.e.e.e.e.e.g.e.r.8.0.e.e.1.b V V V V V Z Z V V V V V V V V V V V V V V V V V V A Z Z b 6.e.e.r.e.e.e.e.e.e.e.e.e.e.e.e.e.e.e.e.e.e.e.e.e.e.q.q.8.e.s.M E ( R R R R R R R R R R R R R R R R R R R R R R R R ( ^ R | 7X$XZ.3X#X#X#X#X#X#X#X#X$X$X$X$X$X$X$X$X$X$X$X$X$X$X$X$X#X$XM.q.q.e.0.e.e.e.e.e.e.e.e.e.e.e.e.e.e.e.e.e.e.e.e.r.e.e.r.e.e.e.e.e.e.e.e.e.e.e.8.e.e.e.8.8.e.e.e.e.8.8.8.8.e.e.e.e.e.e.6.y.Q E E E R R R ( R R R R R R R R R R R R R R R R R R ^ R R T B j.q.q.e.e.e.e.e.8.e.e.e.e.e.e.e.e.e.e.e.e.e.e.e.e.e.e.e.e.e.e.e.e.e.e.e.e.e.e.e.e.e.e.e.e.e.e.e.e.e.e.e.e.e.e.e.e.e.8.r.r.$.C V V V V V V V V V V V V V V V V V V V V V V V V V V V V Z v = 0 0 0 0 0 0 0 0 0 0 0 0 0 0 0 0 0 0 0 0 0 0 0 0 0 0 0 0 0 ",
"e.e.e.e.e.e.e.e.e.e.e.e.e.e.e.e.e.e.e.e.e.e.e.e.8.p.q.q.8.i.6.8 0 0 0 0 0 0 0 0 0 0 0 0 0 0 0 0 0 0 0 0 0 9 9 9 = 0 0 0 X 3.#XA.$X$X$X$X$X$X$X$X$X$X$X$X$X$X$X$X$X$X$X$X$X$X$X$X#X#X#X4Xc.r.8.e.e.e.e.e.e.e.e.e.e.e.e.e.e.e.e.e.e.e.e.e.e.e.e.e.0.e.e.2.#.S >.#.#.#.#.#.#.#.#.#.#.#.#.#.#.#.#.#.#.#.#.#.#.#.#.#.#.#.#.#.#.#.#.#.#.#.#.#.#.#.#.#.#.#.#.#.#.#.#.#.#.#.#.#.#.#.#.#.,.r.r.e.e.e.8.e.e.e.e.e.e.e.e.e.e.e.e.e.e.e.e.e.r.e.r.8.0.e.e.1.b b V V V V Z Z V V V V V V V V V V V V V V V V V V A Z Z b 6.e.e.e.e.e.e.e.e.e.e.e.e.e.e.e.e.e.e.e.e.e.e.e.e.e.q.q.8.e.s.M E ( R R R R R R R R R R R R R R R R R R R R R R R R ( ^ R | 7X$XZ.3X#X#X#X#X#X#X#X#X$X$X$X$X$X$X$X$X$X$X$X$X$X$X$X$X#X$XM.q.q.e.0.e.e.e.e.e.e.e.e.e.e.e.e.e.e.e.e.e.e.e.r.r.e.e.r.e.e.e.e.e.e.e.e.e.e.e.e.e.e.e.e.8.e.e.e.e.8.8.8.8.e.e.e.e.e.e.6.y.Q R E E R R R ( R R R R R R R R R R R R R R R R R R ^ U R T B j.q.q.e.e.e.e.e.e.e.e.e.e.e.e.e.e.e.e.e.e.e.e.e.e.e.e.e.e.e.e.e.e.e.e.e.e.e.e.e.e.e.e.e.e.e.e.e.e.e.e.e.e.e.e.e.e.e.8.r.r.$.C V V V V V V V V V V V V V V V V V V V V V V V V V V V V Z v = 0 0 0 0 0 0 0 0 0 0 0 0 0 0 0 0 0 0 0 0 0 0 0 0 0 0 0 0 0 ",
"e.e.e.e.e.e.e.e.e.e.e.e.e.e.e.e.e.e.e.e.e.e.e.e.8.r.q.q.8.i.5.8 0 0 0 0 0 0 0 0 0 0 0 0 0 0 0 0 0 0 0 0 0 0 0 0 = 0 9 9 X 5.%X#X$X$X$X$X$X$X$X$X$X$X$X$X$X$X$X$X$X$X$X$X$X$X$X$XZ.$XC.6Xv.8.8.e.e.e.e.e.e.e.e.e.e.e.e.e.e.e.e.e.e.e.e.e.e.e.e.e.0.e.e.2.#.S >.#.#.#.#.#.#.#.#.#.#.#.#.#.#.#.#.#.#.#.#.#.#.#.#.#.#.#.#.#.#.#.#.#.#.#.#.#.#.#.#.#.#.#.#.#.#.#.#.#.#.#.#.#.#.#.#.#.,.e.r.e.e.e.8.e.e.e.e.e.e.e.e.e.e.e.e.e.e.e.e.e.g.e.r.q.8.e.e.1.V V V V V V Z Z V V V V V V V V V V V V V V V V V V A Z Z b 6.e.e.e.e.e.e.e.e.e.e.e.e.e.e.e.e.e.e.e.e.e.e.e.e.e.e.q.8.w.s.M E ( R R R R R R R R R R R R R R R R R R R R R R R R R ^ R | 7X$XZ.%X#X#X#X#X#X#X#X#XZ.Z.#X#X#X#XZ.Z.Z.#X#X#X#XZ.Z.#X$X$XM.9.8.e.e.e.e.e.e.e.e.e.e.e.e.e.e.e.e.e.e.e.e.e.e.r.r.r.e.e.e.e.e.e.e.e.e.e.e.e.e.e.e.e.8.8.e.e.8.8.e.e.e.e.e.e.e.e.e.e.6.y.E E E R R R R R R R R R R R R R R R R R R R R R R R ^ R R T B j.q.q.q.q.e.8.e.e.e.e.e.e.e.e.e.e.e.e.e.e.e.e.e.e.e.e.e.e.e.e.e.e.e.e.e.e.e.e.e.e.e.e.e.e.e.e.e.e.e.e.e.e.e.e.e.e.e.8.r.r.$.C V V V V V V V V V V V V V V V V V V V V V V V V V V Z Z Z s & 0 0 0 0 0 0 0 0 0 0 0 0 0 0 0 0 0 0 0 0 0 0 0 0 0 0 0 0 0 ",
"e.e.e.e.e.e.e.e.e.e.e.e.e.e.e.e.e.e.e.e.e.e.e.e.8.r.q.q.8.i.5.8 0 0 0 0 0 0 0 0 0 0 0 0 0 0 0 0 0 0 0 0 0 0 0 0 = = 9 9 X 5.%X$X$X$X$X$X$X$X$X$X$X$X$X$X$X$X$X$X$X$X$X$X$X$X$X$XZ.$XC.6Xv.8.8.e.e.e.e.e.e.e.e.e.e.e.e.e.e.e.e.e.e.e.e.e.e.e.e.e.0.e.e.2.#.S >.#.#.#.#.#.#.#.#.#.#.#.#.#.#.#.#.#.#.#.#.#.#.#.#.#.#.#.#.#.#.#.#.#.#.#.#.#.#.#.#.#.#.#.#.#.#.#.#.#.#.#.#.#.#.#.#.#.,.e.r.e.e.e.8.e.e.e.e.e.e.e.e.e.e.e.e.e.e.e.e.e.g.e.r.q.8.e.e.1.V V V V V V Z Z V V V V V V V V V V V V V V V V V V A V Z b 6.e.e.e.e.e.e.e.e.e.e.e.e.e.e.e.e.e.e.e.e.e.e.e.e.e.e.q.8.w.s.M E ( R R R R R R R R R R R R R R R R R R R R R R R R R R R | 7X$XZ.%X#X#X#X#X#X#X#X#XZ.Z.#X#X#X#XZ.Z.Z.#X#X#X#XZ.Z.#X$X$XM.9.8.e.e.e.e.e.e.e.e.e.e.e.e.e.e.e.e.e.e.e.e.e.e.e.e.e.e.e.e.e.e.e.e.e.e.e.e.e.e.e.e.e.8.8.e.e.8.8.8.e.e.e.e.e.e.e.e.e.e.y.E E E R R R R R R R R R R R R R R R R R R R R R R R ^ R R T B j.q.q.q.q.e.8.e.e.e.e.e.e.e.e.e.e.e.e.e.e.e.e.e.e.e.e.e.e.e.e.e.e.e.e.e.e.e.e.e.e.e.e.e.e.e.e.e.e.e.e.e.e.e.e.e.e.e.8.r.r.$.C V C V V V V V V V V V V V V V V V V V V V V V V V V Z Z Z s & 0 8 0 0 0 0 0 0 0 0 0 0 0 0 0 0 0 0 0 0 0 0 0 0 0 0 0 0 0 ",
"e.e.e.e.e.e.e.e.e.e.e.e.e.e.e.e.e.e.e.e.e.e.e.e.8.r.q.q.8.i.5.8 0 0 0 0 0 0 0 0 0 0 0 0 0 0 0 0 0 0 0 0 0 0 0 0 0 0 9 9 X 5.%X#X$X$X$X$X$X$X$X$X$X$X$X$X$X$X$X$X$X$X$X$X$X$X$X$XZ.#XC.6Xv.8.8.e.e.e.e.e.e.e.e.e.e.e.e.e.e.e.e.e.e.e.e.e.e.e.e.e.0.e.e.2.#.S >.#.#.#.#.#.#.#.#.#.#.#.#.#.#.#.#.#.#.#.#.#.#.#.#.#.#.#.#.#.#.#.#.#.#.#.#.#.#.#.#.#.#.#.#.#.#.#.#.#.#.#.#.#.#.#.#.#.,.e.r.e.e.e.8.e.e.e.e.e.e.e.e.e.e.e.e.e.e.e.e.e.g.e.r.q.8.e.e.1.V V V V V V Z Z V V V V V V V V V V V V V V V V V V A Z Z b 6.e.e.e.e.e.e.e.r.e.e.e.e.e.e.e.e.e.e.e.e.e.e.e.e.e.e.q.e.w.s.' E ( R R R R R R R R R R R R R R R R R R R R R R R R R ^ R | 7X$XZ.%X#X#X#X#X#X#X#X#X#X#X#X#X#X#X#X#XZ.Z.#X#X#X#X#X#X$X$XM.9.8.e.e.e.e.e.e.e.e.e.e.e.e.e.e.e.e.e.e.e.e.e.e.e.e.e.e.e.e.e.e.e.e.e.e.e.8.8.8.8.e.8.8.8.e.e.8.8.8.8.e.e.e.e.e.e.e.e.e.y.E E E R R R R R R R R R R R R R R R R R R R R R R R ^ R R T B j.q.q.q.q.e.e.e.e.e.e.e.e.e.e.e.e.e.e.e.e.e.e.e.e.e.e.e.e.e.e.e.e.e.e.e.e.e.e.e.e.e.e.e.e.e.e.e.e.e.e.e.e.e.e.e.e.e.8.r.r.#.C V Z V V V V V V V V V V V V V V V V V V V V V V V V Z Z Z s & 0 0 0 0 0 0 0 0 0 0 0 0 0 0 0 0 0 0 0 0 0 0 0 0 0 0 0 0 0 ",
"e.e.e.e.e.e.e.e.e.e.e.e.e.e.e.e.e.e.e.e.e.e.e.e.8.r.q.q.8.i.5.8 0 0 0 0 0 0 0 0 0 0 0 0 0 0 0 0 0 0 0 0 0 0 0 0 0 0 9 9 X 5.%X#X$X$X$X$X$X$X$X$X$X$X$X$X$X$X$X$X$X$X$X$X$X$X$X$XZ.$XC.6Xv.8.8.e.e.e.e.e.e.e.e.e.e.e.e.e.e.e.e.e.e.e.e.e.e.e.e.e.0.e.e.2.#.S >.#.#.#.#.#.#.#.#.#.#.#.#.#.#.#.#.#.#.#.#.#.#.#.#.#.#.#.#.#.#.#.#.#.#.#.#.#.#.#.#.#.#.#.#.#.#.#.#.#.#.#.#.#.#.#.#.#.,.e.r.e.e.e.8.e.e.e.e.e.e.e.e.e.e.e.e.e.e.e.e.e.g.e.r.8.8.e.e.1.V V V V V V Z Z V V V V V V V V V V V V V V V V V V Z V Z b 6.e.e.e.e.e.e.e.r.e.e.e.e.e.e.e.e.e.e.e.e.e.e.e.e.e.e.q.8.w.s.' E ( R R R R R R R R R R R R R R R R R R R R R R R R R ^ R | 7X$XZ.%X#X#X#X#X#X#X#X#X#X#X#X#X#X#X#X#X#XZ.#X#X#X#X#X#X$X$XM.9.8.e.e.e.e.e.e.e.e.e.e.e.e.e.e.e.e.e.e.e.e.e.e.e.e.e.e.e.e.e.e.e.e.e.e.e.8.8.8.8.e.8.8.8.e.e.8.8.8.8.e.e.e.e.e.e.e.e.e.y.E E E R R R R R R R R R R R R R R R R R R R R R R R ^ R R T B j.q.q.q.q.e.e.e.e.e.e.e.e.e.e.e.e.e.e.e.e.e.e.e.e.e.e.e.e.e.e.e.e.e.e.e.e.e.e.e.e.e.e.e.e.e.e.e.e.e.e.e.e.e.e.e.e.e.8.r.r.#.C V Z V V V V V V V V V V V V V V V V V V V V V V V V Z Z Z s & 0 8 0 0 0 0 0 0 0 0 0 0 0 0 0 0 0 0 0 0 0 0 0 0 0 0 0 0 0 ",
"e.e.e.e.e.e.e.e.e.e.e.e.e.e.e.e.e.e.e.e.e.e.e.e.e.r.q.q.8.w.5.8 0 0 0 0 0 0 0 0 0 0 0 0 0 0 0 0 0 0 0 0 0 0 0 0 0 0 0 9 X 5.%X#X$X$X$X$X$X$X$X$X$X$X$X$X$X$X$X$X$X$X$X$X$X$X$X$X+X#XC.6Xv.8.8.e.e.e.e.e.e.e.e.e.e.e.e.e.e.e.e.e.e.e.e.e.e.e.e.e.0.e.e.1.S S >.#.#.#.#.#.#.#.#.#.#.#.#.#.#.#.#.#.#.#.#.#.#.#.#.#.#.#.#.#.#.#.#.#.#.#.#.#.#.#.#.#.#.#.#.#.#.#.#.#.#.#.#.#.#.#.#.#.,.e.r.e.e.e.8.e.e.e.e.e.e.e.e.e.e.e.e.e.e.e.e.e.g.e.r.8.8.r.e.1.V V V V V V Z Z V V V V V V V V V V V V V V V V V V Z V Z b 6.e.e.e.e.r.r.r.e.e.e.e.e.e.e.e.e.e.e.e.e.e.e.e.e.e.e.q.8.w.s.M T ) R R R R R R R R R R R R R R R R R R R R R R R R R ^ / | 7X$XZ.%X#X#X#X#X#X#X#X#X#X#X#X#X#X#X#X#X#X#X#X#X#X#X#X#X$X$XM.9.8.e.e.e.e.e.e.e.e.e.e.e.e.e.e.e.e.e.e.e.e.e.r.e.e.e.e.e.e.e.e.e.e.e.e.e.e.8.8.8.8.8.8.8.e.e.e.e.8.8.8.e.e.e.e.8.e.e.6.y.E E E R R R R R R R R R R R R R R R R R R R R R R R ^ U R T B j.q.q.q.q.e.e.e.e.e.e.e.e.e.e.e.e.e.e.e.e.e.e.e.e.e.e.e.e.e.e.e.e.e.e.e.e.e.e.e.e.e.e.e.e.e.e.e.e.e.e.e.e.e.e.e.e.e.8.i.r.#.C V Z V V V V V V V V V V V V V V V V V V V V V V V V Z Z Z v & 0 8 0 0 0 0 0 0 0 0 0 0 0 0 0 0 0 0 0 0 0 0 0 0 0 0 0 0 0 ",
"e.e.e.e.e.e.e.e.e.e.e.e.e.e.e.e.e.e.e.e.e.e.e.e.e.r.q.q.8.w.5.8 0 0 0 0 0 0 0 0 0 0 0 0 0 0 0 0 0 0 0 0 0 0 0 0 = = 0 9 X 5.%X#X$X$X$X$X$X$X$X$X$X$X$X$X$X$X$X$X$X$X$X$X$X$X$X$X+X#XC.6Xv.8.8.e.e.e.e.e.e.e.e.e.e.e.e.e.e.e.e.e.e.e.e.e.e.e.e.e.0.e.w.1.S S >.#.#.#.#.#.#.#.#.#.#.#.#.#.#.#.#.#.#.#.#.#.#.#.#.#.#.#.#.#.#.#.#.#.#.#.#.#.#.#.#.#.#.#.#.#.#.#.#.#.#.#.#.#.#.#.#.#.,.e.r.e.e.e.8.e.e.e.e.e.e.e.e.e.e.e.e.e.e.e.e.e.g.e.r.8.8.r.e.1.V V V V V V Z Z V V V V V V V V V V V V V V V V V Z Z V Z b 6.e.e.e.e.e.e.e.e.e.e.e.e.e.e.e.e.e.e.e.e.e.e.e.e.e.e.q.8.w.s.c E ) R R R R R R R R R R R R R R R R R R R R R R R R Q ^ R | 7X$XZ.%X#X#X#X#X#X#X#X#X#X#X#X#X#X#X#X#X#X#X#X#X#X#X#X#X$X$XM.9.8.e.e.e.e.e.e.e.e.e.e.e.e.e.e.e.e.e.e.e.e.e.r.r.e.e.e.e.e.e.e.e.e.e.e.e.e.e.8.8.8.8.8.8.e.e.8.8.8.8.e.e.e.e.e.e.e.e.6.y.E E E R R R R R R R R R R R R R R R R R R R R R R R ^ U R T B j.q.q.q.q.e.e.e.e.e.e.e.e.e.e.e.e.e.e.e.e.e.e.e.e.e.e.e.e.e.e.e.e.e.e.e.e.e.e.e.e.e.e.e.e.e.e.e.e.e.e.e.e.e.e.e.e.e.8.i.r.#.C V Z V V V V V V V V V V V V V V V V V V V V V V Z V Z Z Z v & 0 8 0 0 0 0 0 0 0 0 0 0 0 0 0 0 0 0 0 0 0 0 0 0 0 0 0 0 0 ",
"e.e.e.e.e.e.e.e.e.e.e.e.e.e.e.e.e.e.e.e.e.e.e.e.e.p.q.q.8.i.5.8 0 0 0 0 0 0 0 0 0 0 0 0 0 0 0 0 0 0 0 0 0 0 0 0 = = 0 0 X 5.%X$X$X$X$X$X$X$X$X$X$X$X$X$X$X$X$X$X$X$X$X$X$X$X$X$XC.#XC.6Xv.8.8.e.e.e.e.e.e.e.e.e.e.e.e.e.e.e.e.e.e.e.e.e.e.e.e.e.0.e.e.1.S S >.#.#.#.#.#.#.#.#.#.#.#.#.#.#.#.#.#.#.#.#.#.#.#.#.#.#.#.#.#.#.#.#.#.#.#.#.#.#.#.#.#.#.#.#.#.#.#.#.#.#.#.#.#.#.#.#.#.,.e.r.e.e.e.8.e.e.e.e.e.e.e.e.e.e.e.e.e.e.e.e.e.g.e.r.8.8.r.e.1.V V V V V V Z Z V V V V V V V V V V V V V V V V V V A Z Z b 6.e.e.e.e.e.e.e.e.e.e.e.e.e.e.e.e.e.e.e.e.e.e.e.e.e.e.q.8.w.s.M E ( R R R R R R R R R R R R R R R R R R R R R R R R R R R | 7X$X#X%X#X#X#X#X#X#X#X#XZ.Z.#X#X#X#XZ.#X#X#X#X#X#X#X#X#X$X$XM.9.8.e.e.e.e.e.e.e.e.e.e.e.e.e.e.e.e.e.e.e.e.e.e.e.e.e.e.e.e.e.e.e.e.e.e.e.e.e.e.e.8.e.8.8.8.8.8.8.8.8.8.8.e.e.e.e.e.e.6.y.E E E R R R R R R R R R R R R R R R R R R R R R R R ^ R R T B j.q.q.e.e.e.e.e.e.e.e.e.e.e.e.e.e.e.e.e.e.e.e.e.e.e.e.e.e.e.e.e.e.e.e.e.e.e.e.e.e.e.e.e.e.e.e.e.e.e.e.e.e.e.e.e.e.e.0.i.r.#.C V Z V V V V V V V V V V V V V V V V V V V V V V Z Z Z Z Z v & 0 8 0 0 0 0 0 0 0 0 0 0 0 0 0 0 0 0 0 0 0 0 0 0 0 0 0 0 0 ",
"e.e.e.e.e.e.e.e.e.e.e.e.e.e.e.e.e.e.e.e.e.e.e.e.8.p.q.q.8.i.6.8 0 0 0 0 0 0 0 0 0 0 0 0 0 0 0 0 0 0 0 0 0 0 0 0 = = 0 0 X 5.%X$X$X$X$X$X$X$X$X$X$X$X$X$X$X$X$X$X$X$X$X$X$X$X$X$XC.#XC.6Xv.8.8.e.e.e.e.e.e.e.e.e.e.e.e.e.e.e.e.e.e.e.e.e.e.e.e.e.0.e.e.1.#.S >.#.#.#.#.#.#.#.#.#.#.#.#.#.#.#.#.#.#.#.#.#.#.#.#.#.#.#.#.#.#.#.#.#.#.#.#.#.#.#.#.#.#.#.#.#.#.#.#.#.#.#.#.#.#.#.#.#.,.e.r.e.e.e.8.e.e.e.e.e.e.e.e.e.e.e.e.e.e.e.e.e.g.e.r.8.8.r.e.1.V V V V V V Z Z V V V V V V V V V V V V V V V V V Z A Z Z b 6.e.e.e.e.e.e.e.e.e.e.e.e.e.e.e.e.e.e.e.e.e.e.e.e.e.e.q.8.w.s.c E ( R R R R R R R R R R R R R R R R R R R R R R R R R R R | 7X$X#X%X#X#X#X#X#X#X#X#XZ.Z.Z.#X#X#XZ.Z.Z.#X#X#X#X#X#X#X$X$XM.9.8.e.e.e.e.e.e.e.e.e.e.e.e.e.e.e.e.e.e.e.e.e.e.e.e.e.e.e.e.e.e.e.e.e.e.e.e.e.e.e.e.e.8.8.8.8.8.8.8.8.8.8.e.e.e.e.e.e.6.y.E E E R R R R R R R R R R R R R R R R R R R R R R R ^ U R T B j.q.q.e.e.e.e.e.e.e.e.e.e.e.e.e.e.e.e.e.e.e.e.e.e.e.e.e.e.e.e.e.e.e.e.e.e.e.e.e.e.e.e.e.e.e.e.e.e.e.e.e.e.e.e.e.e.e.0.i.r.#.C V Z V V V V V V V V V V V V V V V V V V V V V V V V Z Z Z v & 0 8 0 0 0 0 0 0 0 0 0 0 0 0 0 0 0 0 0 0 0 0 0 0 0 0 0 0 0 ",
"e.e.e.e.e.e.e.e.e.e.e.e.e.e.e.e.e.e.e.e.e.e.e.e.q.8.r.r.2.f.5.s 0 0 0 0 0 0 0 0 0 0 0 0 0 0 0 0 0 0 0 0 0 0 0 0 = 0 0 2 4 2.3XA.$X$X$X$X$X$X$X$X$X$X$X$X$X$X$X$X$X$X$X$X$X$X$X$X$X$XC.%Xr.r.p.0.8.8.8.8.8.8.8.8.e.8.8.e.8.8.8.8.8.8.8.8.8.8.8.8.3.2.w.A #.S #.A #.#.#.#.#.#.#.#.#.#.#.#.#.#.#.#.#.#.#.#.#.#.#.#.#.#.#.#.#.#.#.#.#.#.#.#.#.#.#.#.#.#.#.#.#.#.#.#.>.>.>.>.>.>.>.>.$.r.r.e.r.e.r.e.8.e.e.e.8.8.8.8.8.e.e.e.8.8.8.8.w.3.q.9.;.w.f.<.V V V V V V V V V V V V V V V V V V V V V V V V N V x b S b w.z.8.8.8.8.8.8.8.8.8.8.8.8.8.8.8.8.8.8.e.e.e.8.8.e.8.n.r.6.d.y / ) R R R R R R R R E E E E E E E E E E E E E E E E ( ^ Q O.0X1XC.@X$X$X$X$X$X$X$X$X$X$X$X$X$X$X$X$X$X$X$X$X$X$X$X$X$X$Xm.8.e.e.8.8.8.e.e.e.8.8.8.8.8.8.8.8.8.8.8.8.8.8.e.e.e.e.e.e.w.r.e.e.e.8.8.p.e.e.e.e.e.e.e.e.e.e.e.e.e.e.e.e.e.e.e.e.e.e.e.e.E E R R R ( ( ( E E E E E E E E E E E E E E E E / ^ ( U W ! ] s.e.e.e.e.e.e.e.e.e.e.e.e.e.e.e.e.e.e.e.e.e.e.e.e.0.e.0.8.8.8.;.8.r.r.r.r.r.r.r.r.r.r.r.r.r.r.r.r.r.r.r.r.r.r.r.r.q.8.e.e.>.C n n V V V V V V V V Z Z Z Z Z Z Z Z Z Z Z Z Z Z Z Z V Z m s & 7 7 7 8 8 8 8 8 8 8 8 8 8 8 8 8 8 8 8 8 8 8 8 8 8 8 8 8 8 ",
"e.e.e.e.e.e.e.e.e.e.e.e.e.e.e.e.e.e.e.e.e.e.e.e.r.8.r.r.w.f.1.& 0 0 0 0 0 0 0 0 0 0 0 0 0 0 0 0 0 0 0 0 0 0 0 0 = 0 0 X X *.#X$X$X$X$X$X$X$X$X$X$X$X$X$X$X$X$X$X$X$X$X$X$X$X$X$X#X#XM.%Xr.r.z.e.e.e.e.e.e.e.e.e.r.e.e.e.e.e.e.e.e.e.e.e.e.e.e.e.i.6.e.#.#.#.#.A *.*.*.*.1.1.1.1.*.*.*.*.1.1.1.1.1.1.1.1.1.1.1.1.1.*.*.*.*.*.*.*.1.1.1.1.1.*.*.*.*.*.*.*.1.1.1.1.#.#.#.#.#.>.>.>.>.r.r.w.e.w.e.w.e.r.r.r.e.e.e.e.e.r.r.r.e.e.e.e.w.0.r.q.8.z.z.4.V V V V V V V V m V V m m m V m V V m V V V m V V V V b A g 5.g.e.e.e.e.e.e.e.e.e.e.e.e.e.e.e.e.r.e.r.r.r.r.e.e.8.r.8.6.d.y E ) R R R R ^ ^ ^ ^ R R R E R R R R R R R E E R R R ^ R T X.0X7XC.@X#X#X#X#X#X#X#X#X#X#X#X#X#X#X#X#X#X#X#X#X#X#X#X$X#X$Xn.3.e.e.0.e.e.r.r.r.e.e.e.e.e.e.e.e.e.e.e.e.r.e.r.r.r.r.r.r.r.g.w.8.e.8.8.r.e.e.e.e.e.e.e.e.e.e.e.e.e.e.e.e.e.e.e.e.e.e.e.e.E E R R R ^ ^ ~ ( ( ( ( ( ( ( ( ( ( ( ( ( ( ( ( ^ ^ ( U U E { d.e.e.e.e.e.e.e.e.e.e.e.e.e.e.e.e.e.e.e.e.e.e.e.e.0.e.0.8.e.e.8.r.e.e.e.e.e.e.e.e.e.e.e.e.e.e.e.e.e.e.e.e.e.e.e.e.r.w.e.e.>.Z Z V m m m m m m m m V m V V V V V m V V V V V V b V m V m f 0 0 0 0 0 0 0 0 0 0 0 0 0 0 0 0 0 0 0 0 0 0 0 0 0 0 0 0 0 0 ",
"e.e.e.e.e.e.e.e.e.e.e.e.e.e.e.e.e.e.e.e.e.e.e.e.r.q.r.r.e.g.,.: & & & & & & & & & & & & & & & & & & & & & & & & & & 8 X o *.3X4X$X$X$X$X$X$X$X$X$X$X$X$X$X$X$X$X$X$X$X$X$X$X$X$XZ.#XC.6Xr.e.z.i.w.w.w.w.w.w.w.w.w.w.w.w.w.w.w.0.0.0.3.0.0.0.0.0.i.6.3.#.>.#.$.#.#.#.#.#.#.#.#.#.#.#.#.#.#.#.#.#.#.#.#.#.#.#.#.#.#.#.#.#.#.#.#.#.#.#.#.#.#.#.#.#.#.#.#.#.#.#.#.#.$.$.$.$.#.#.$.$.w.r.l.g.r.r.r.r.w.w.w.w.w.w.0.0.w.w.w.w.w.w.w.w.i.6.w.e.8.e.5.} V V V V V V V V V V V V V V V V V V V V V V V V x V V V A b 3.w.w.w.w.w.w.w.w.w.w.w.w.w.w.w.w.0.w.w.w.w.w.w.w.w.z.z.r.f.d.c _ E R R R R ^ ^ ^ ^ R R E E R R R R R R E E R R R R R T ' X.2X5X#X#X#X#X#X#X#X#X#X#X#X#X#X#X$X$X$X$X$X$X$X$X#X#X#X#X$X4Xn.8.i.i.e.p.w.w.w.w.w.w.w.w.w.w.w.w.w.w.w.0.w.w.w.w.w.w.w.w.w.r.3.2.0.e.0.e.e.e.e.e.e.e.e.e.e.e.e.e.e.e.e.e.e.e.e.e.e.e.e.e.E E E R R R ^ ^ W W W W E E E W E E E E E E W E R R ( R W T { d.e.e.e.e.e.e.e.e.e.e.e.e.e.e.e.e.e.e.e.e.e.e.e.e.0.e.e.e.p.i.8.e.r.r.r.r.r.r.r.r.r.r.r.r.r.r.r.r.r.r.r.r.r.r.r.r.r.8.r.r.1.A Z Z V V V V V V V V m m m m m m m m V m V V V V b V Z Z m z 0 0 0 0 8 8 8 8 8 8 8 8 8 8 8 8 8 8 8 8 8 8 8 8 8 8 8 8 8 8 ",
"e.e.e.e.e.e.e.e.e.e.e.e.e.e.e.e.e.e.e.e.e.e.e.e.r.8.r.r.e.r.2.b x x x x b b b x b b b b x x x x x x b b b x x x V V V g j 8.4X4X$X$X$X$X$X$X$X$X$X$X$X$X$X$X$X$X$X$X$X$X$X$X$X$X$X$X#X3X8.$.1.S 1.1.1.1.1.1.1.1.1.1.1.1.1.1.1.1.1.1.1.1.1.1.1.1...S A #.2.2.8.2.$.$.$.$.$.*.*.*.$.$.$.$.$.$.*.*.$.$.$.$.$.$.$.*.$.$.$.$.$.$.$.$.*.*.*.$.$.$.$.$.$.$.$.$.$.$.$.*.2.2.1.1.1.1.2.2.5.S 1.>.>.1.#.1.1.1.1.1.1.1.1.1.1.1.1.1.1.1.1.1.5.5.5.5.1.1.1.>.A A A A A A A A #.#.#.#.S S S S S S S S #.#.#.#.A D S #.>.S >.#.1.1.1.1.1.1.1.1.1.1.1.1.1.1.1.1.1.1.1.1.1.1.1.1.2.1.1.1.X.| [ | [ [ [ [ [ [ [ [ [ [ [ [ [ [ [ [ [ [ [ [ [ [ [ [ [ [ ] 7.N.B.v.b.M.M.M.M.M.M.M.M.M.M.M.M.M.M.M.M.M.M.M.M.M.M.M.M.M.B.w.S 1.1.#.*.1.1.1.1.1.1.1.1.1.1.1.1.1.1.1.1.1.1.1.1.1.1.1.1.#.6.w.3.w.e.0.e.e.e.e.e.e.e.e.e.e.e.e.e.e.e.e.e.e.e.e.e.e.e.e.e.' ] ] { { { { { ' ' ' ' ' ' ' ' ' ' ' ' ' ' ' ' { { [ ' ' B Z 6.e.e.e.e.e.e.e.e.e.e.e.e.e.e.e.e.e.e.e.e.e.e.e.e.8.e.e.e.i.w.2.2.5.5.5.5.5.5.5.5.5.5.5.5.5.5.5.5.5.5.5.5.5.5.5.5.w.2.3.5.S V V m x x x x x x x x x x x x x x x x x x x x x x x x m N x z v s 0 0 s s s s s s s s s s s s s s s s s s s s s s s s s s ",
"e.e.e.e.e.e.e.e.e.e.e.e.e.e.e.e.e.e.e.e.e.e.e.e.8.8.r.e.8.w.w.2.6.6.6.6.6.6.6.6.6.6.6.6.6.6.6.6.6.6.6.6.6.6.6.6.6.6.i.3.*.n.4X#X$X$X$X$X$X$X$X$X$X$X$X$X$X$X$X$X$X$X$X$X$X$X$X$X$X#XC.B.C a & & & & & & & & & & & & & & & & & & & & & & & & & & 8 h h *.e.0.r.r.0.0.0.0.0.w.w.w.0.0.0.0.0.0.0.0.0.0.0.0.0.0.0.0.w.w.w.w.0.0.0.0.w.w.w.0.0.0.0.0.0.0.0.0.0.0.0.0.8.8.8.8.3.3.3.8.Z 8 s s a s 8 a & & & & & & & & & & & & & & & & O & & & X o h V w.w.w.w.w.w.w.w.e.e.e.e.e.e.e.e.e.e.e.e.e.e.w.w.r.w.6.w.6.2.b a & & & & & & & & & & & & & & & & & & & & & & & & o a s s x 7.k.d.s.s.s.s.s.s.s.s.s.s.s.6.s.s.s.s.s.s.s.6.s.s.s.s.d.s.7.l.z.r.8.9.q.q.q.q.q.q.q.q.q.q.q.q.q.q.q.q.q.q.q.q.q.q.q.q.8.0.C : a s o a & & & & & & & & & & & & & & & & & & & & & & & & h 1.i.r.e.0.8.p.e.e.e.e.e.e.e.e.e.e.e.e.e.e.e.e.e.e.e.e.e.e.e.e.A A S S D D D D } } } } } } } } } } } } } } } } D S } } D A %.r.e.e.e.e.e.e.e.e.e.e.e.e.e.e.e.e.e.e.e.e.e.e.e.e.0.r.e.w.e.1.A A C C C C C C C C C C V C V C C C C C C C C C C C A C A D x a 8 8 0 0 0 0 0 0 s s 0 0 0 0 0 0 0 0 0 0 0 0 0 0 0 0 0 0 s z x m m V m m m m m m m m m m m m m m m m m m m m m m m m m m ",
"e.e.e.e.e.e.e.e.e.e.e.e.e.e.e.e.e.e.e.e.e.e.e.e.2.8.e.8.8.8.e.r.e.e.e.e.e.e.e.e.e.e.e.e.e.e.e.e.e.e.e.e.e.e.e.e.3.0.p.r.8.n.6X#X$X$X$X$X$X$X$X$X$X$X$X$X$X$X$X$X$X$X$X$X$X$X$X$XS.+XC.B.l o X - 0 0 0 0 0 0 0 0 0 0 0 0 0 0 8 8 8 8 8 8 8 8 8 8 X 8 o 1.r.0.r.8.e.e.e.e.e.e.e.e.e.e.e.e.e.e.e.e.e.e.e.e.e.e.e.e.e.e.e.e.e.e.e.e.e.e.e.e.e.e.e.e.e.e.e.e.e.e.e.e.r.r.r.r.r.r.r.r.} X & 8 - 8 - & 0 0 0 0 0 0 0 0 0 0 0 0 0 0 0 0 & s 0 * * % f 1.p.p.p.p.i.i.p.p.e.e.e.e.e.e.e.e.e.e.e.e.e.e.r.r.n.r.r.g.r.f.g o 0 0 0 0 0 0 0 0 0 0 0 0 0 0 8 8 0 0 0 8 0 0 0 0 O & 0 - & s.x.w.r.r.r.r.r.r.r.r.q.q.q.q.q.q.q.q.q.q.q.q.q.q.q.q.w.w.e.p.0.8.8.8.w.w.w.w.w.w.w.w.w.8.w.w.w.w.w.w.w.w.w.w.w.8.w.8.8.w.V o & % X o 0 0 0 0 0 0 0 0 0 0 0 0 0 0 8 8 0 0 0 0 0 0 0 0 X A i.i.e.0.e.p.e.e.e.e.e.e.e.e.e.e.e.e.e.e.e.e.e.e.e.e.e.e.e.e.$.%.%.#.#.#.$.#.$.$.$.$.$.$.$.$.$.$.$.$.$.$.$.$.#.#.2.$.$.#.&.a.e.e.e.e.e.e.e.e.e.e.e.e.e.e.e.e.e.e.e.e.e.e.e.e.8.r.e.w.6.>.V x b x b b b b b b b b x x b b b b x x b b b b b b b b b V s & 8 % 8 8 8 8 8 8 8 8 & & & & & & & & 8 8 8 8 8 8 8 8 & & 0 x V Z Z } V V V V V V V V V V V V V V V V V V V V V V V V V V ",
"e.e.e.e.e.e.e.e.e.e.e.e.e.e.e.e.e.e.e.e.e.e.e.e.2.e.e.8.e.0.8.p.0.0.0.0.0.0.0.0.0.0.0.0.0.0.0.0.0.0.0.0.0.0.0.0.-.-.e.q.:.v.%X+X$X$X$X$X$X$X$X$X$X$X$X$X$X$X$X$X$X$X$X$X$X$X$X$XS.S.#X3XA 8 0 z 0 0 0 0 0 0 0 0 0 0 0 0 0 0 0 0 0 0 0 0 0 0 0 0 8 s o 5.r.8.8.:.8.8.8.8.e.e.8.8.8.8.8.8.8.8.8.8.8.8.8.8.e.e.e.e.e.e.8.8.8.8.8.8.8.e.e.e.8.8.8.8.8.8.8.8.e.e.e.e.e.e.r.r.r.e.r.e.j.* 0 f 0 z 8 0 0 0 0 0 0 0 0 0 0 0 0 0 0 0 0 0 8 v t 9 9 % 8 S e.e.8.8.8.8.8.8.0.0.0.0.0.0.0.0.0.0.0.0.0.0.0.0.p.8.e.r.w.x.b : 0 0 0 0 0 0 0 0 0 0 0 0 0 0 0 0 0 0 0 0 0 0 0 0 s s v = & f.e.=.8.8.8.8.8.8.8.8.8.8.8.8.8.8.8.8.8.8.8.8.8.8.8.8.0.8.0.p.8.r.r.r.r.r.r.r.r.r.r.r.r.r.r.r.r.r.r.r.r.r.r.r.r.r.r.r.z.l.D 0 0 0 8 s 0 0 0 0 0 0 0 0 0 0 0 0 0 0 0 0 0 0 0 0 0 0 0 0 O A i.w.6.0.e.e.e.e.e.e.e.e.e.e.e.e.e.e.e.e.e.e.e.e.e.e.e.e.e.e.#.#.$.$.#.>.>.>.>.>.>.>.>.>.>.>.>.>.>.>.>.>.>.>.#.#.5.,.>.$.#.i.e.e.e.e.e.e.e.e.e.e.e.e.e.e.e.e.e.e.e.e.e.e.e.e.;.r.r.r.w.>.m x V V V V V V V V V V V V V V V V V V V V V V V V Z b Z Z f 8 8 8 0 0 0 0 0 0 0 0 0 0 0 0 0 0 0 0 0 0 0 0 0 0 0 0 0 & 0 x Z Z Z Z V V V V V V V V V V V V V V V V V V V V V V V V V V ",
"e.e.e.e.e.e.e.e.e.e.e.e.e.e.e.e.e.e.e.e.e.e.e.e.3.e.e.e.p.8.8.e.q.q.q.q.q.q.q.q.q.q.q.q.q.q.q.q.q.q.q.q.q.q.q.q.p.q.p.r.8.v.+XM.$X$X$X$X$X$X$X$X$X$X$X$X$X$X$X$X$X$X$X$X$X$X$X$X@X$X$X5XA & 0 0 0 0 0 0 0 0 0 0 0 0 0 0 = = = = 0 0 0 0 0 0 0 0 8 s O 5.r.0.r.r.e.r.r.r.r.r.r.r.e.r.r.r.r.r.r.r.r.r.r.e.r.r.r.r.r.r.r.r.e.r.r.e.r.r.r.r.r.r.r.r.r.r.r.e.r.r.r.r.e.e.e.e.e.e.e.e.j.X 8 0 % 0 - 0 = = 0 0 = = = = = = 0 0 = 0 0 0 & 0 9 9 9 7 8 D 8.8.8.8.8.8.8.8.8.e.8.e.e.8.8.8.8.8.8.8.e.e.e.e.r.8.8.0.5.l.b a 0 0 0 0 0 0 0 0 0 0 0 0 = = = = = = = = = = 0 0 & - = = & f.r.:.g.g.g.g.r.r.r.r.e.e.e.e.e.e.e.e.e.e.e.e.e.e.e.e.q.q.:.p.;.r.e.8.r.r.r.r.r.r.r.r.r.r.r.r.r.r.r.r.r.r.r.r.r.r.r.r.e.6.V * 9 8 7 8 = = 0 0 = 0 0 0 0 0 0 0 = = = = 0 0 0 0 0 0 0 0 o S 6.6.3.0.0.e.e.e.e.e.e.e.e.e.e.e.e.e.e.e.e.e.e.e.e.e.e.e.e.e.} } } } } } } } <.<.<.<.<.<.<.<.<.<.<.<.<.<.<.<.} ..4.<.<.} D j.e.e.e.e.e.e.e.e.e.e.e.e.e.e.e.e.e.e.e.e.e.e.e.e.;.r.p.i.l.4.Z x Z Z Z Z Z Z Z Z Z Z Z Z Z Z Z Z Z Z Z Z Z Z Z Z Z n V Z f 8 8 8 0 0 0 0 0 0 0 0 0 0 0 0 0 0 0 0 0 0 0 0 0 0 0 0 & * & x Z A } } C C C C C C C C C C C C C C C C C C C C C C C C C C ",
"8.8.e.e.e.e.e.e.e.e.8.8.8.8.e.e.e.e.8.8.e.e.e.e.e.e.e.e.e.e.e.e.e.e.e.e.e.e.e.e.e.e.e.e.e.e.e.e.e.e.e.e.e.e.e.e.i.e.e.0.8.n.#X+X$X$X$X$X$X$X$X$X$X$X$X$X$X$X$X$X$X$X$X$X$X$X$X$X#XA.A.3XC 4 0 0 0 0 0 0 0 0 0 0 0 0 0 0 0 0 0 0 0 0 0 0 0 0 0 0 0 8 8 5.3.e.q.q.e.e.e.e.e.e.e.e.e.e.e.e.e.e.e.e.e.e.e.e.e.e.e.e.e.e.e.e.e.e.e.e.e.e.e.e.e.e.e.e.e.e.e.e.e.e.e.e.e.e.e.e.e.e.e.e.} & s 8 0 8 0 9 0 0 0 0 0 0 0 0 0 0 0 0 0 0 0 0 8 * 0 9 0 8 8 A i.i.e.e.e.e.e.e.e.e.e.e.e.e.e.e.e.e.e.e.e.e.e.e.0.e.0.e.e.g.g & 0 0 0 0 0 0 0 0 0 0 0 0 0 0 0 0 0 0 0 0 0 0 0 0 = 0 0 0 - l.0.r.e.e.e.e.e.e.e.e.e.e.e.e.e.e.e.e.e.e.e.e.e.e.e.e.e.r.e.e.e.e.r.r.r.r.e.e.8.e.e.e.e.e.e.e.r.r.e.e.e.e.e.r.e.e.e.e.e.l.Z * 9 9 0 8 0 0 0 0 0 0 0 0 0 0 0 0 0 0 0 0 0 0 0 0 0 0 0 0 o S i.r.8.8.e.r.e.e.e.e.e.e.e.e.e.e.e.e.e.e.e.e.e.e.e.e.e.e.e.e.>.>.>.>.>.S } } #.#.#.#.#.#.#.#.#.#.#.#.#.#.#.#.#.S >.#.>.>.#.f.8.8.8.8.e.e.e.e.e.e.e.e.e.e.e.e.e.e.e.e.e.e.e.e.8.e.r.0.e.1.b A V V V V V V V V V V V V V V V V V V V V V V V V V V V V x 8 & 0 0 0 0 0 0 0 0 0 0 0 0 0 0 0 0 0 0 0 0 0 0 0 9 9 8 8 8 x Z Z V V V V V V V V V V V V V V V V V V V V V V V V V V V V ",
"8.8.e.8.e.e.e.e.e.e.8.8.8.8.e.e.e.e.8.8.8.e.e.e.e.e.e.e.e.e.e.e.e.e.e.e.e.e.e.e.e.e.e.e.e.e.e.e.e.e.e.e.e.e.e.e.i.e.e.0.8.m.#X+X$X$X$X$X$X$X$X$X$X$X$X$X$X$X$X$X$X$X$X$X$X$X$X$X#XA.A.3XC 4 0 0 0 0 0 0 0 0 0 0 0 0 0 0 0 0 0 0 0 0 0 0 0 0 0 0 0 8 8 5.3.e.q.q.e.e.e.e.e.e.e.e.e.e.e.e.e.e.e.e.e.e.e.e.e.e.e.e.e.e.e.e.e.e.e.e.e.e.e.e.e.e.e.e.e.e.e.e.e.e.e.e.e.e.e.e.e.e.e.e.} & s 8 0 8 0 9 0 0 0 0 0 0 0 0 0 0 0 0 0 0 0 0 8 * 0 9 0 & 8 A i.i.e.e.e.e.e.e.e.e.e.e.e.e.e.e.e.e.e.e.e.e.e.e.0.e.8.e.e.g.g & 0 0 0 0 0 0 0 0 0 0 0 0 0 0 0 0 0 0 0 0 0 0 0 0 = 0 0 0 - l.0.r.e.e.e.e.e.e.e.e.e.e.e.e.e.e.e.e.e.e.e.e.e.e.e.e.e.r.r.e.e.e.e.e.r.r.e.e.8.e.e.e.e.e.e.e.e.e.e.e.e.e.r.e.e.e.e.e.e.l.Z & 9 9 0 8 0 0 0 0 0 0 0 0 0 0 0 0 0 0 0 0 0 0 0 0 0 0 0 0 o S i.r.8.8.e.r.e.e.e.e.e.e.e.e.e.e.e.e.e.e.e.e.e.e.e.e.e.e.e.e.>.>.>.>.>.S >.} #.#.#.#.#.#.#.#.#.#.#.#.#.#.#.#.#.S >.#.>.>.#.f.8.8.8.8.e.e.e.e.e.e.e.e.e.e.e.e.e.e.e.e.e.e.e.e.8.e.r.0.e.1.b A V V V V V V V V V V V V V V V V V V Z Z V V V V V V V V x 8 & 0 0 0 0 0 0 0 0 0 0 0 0 0 0 0 0 0 0 0 0 0 0 0 9 9 8 8 8 x Z Z V V V V V V V V V V V V V V V V V V V V V V V V V V V V ",
"8.8.8.8.8.8.e.e.e.e.e.e.8.8.8.e.e.e.8.8.8.8.e.e.e.e.e.e.e.e.e.e.e.e.e.e.e.e.e.e.e.e.e.e.e.e.e.e.e.e.8.e.e.e.e.e.i.e.e.8.8.n.%X#X$X$X$X$X$X$X$X$X$X$X$X$X$X$X$X$X$X$X$X$X$X$X$X$X#XA.A.4XV 4 0 0 0 0 0 0 0 0 0 0 0 0 0 0 0 0 0 0 0 0 0 0 0 0 0 0 0 8 a 5.0.e.q.q.e.e.e.e.e.e.e.e.e.e.e.e.e.e.e.e.e.e.e.e.e.e.e.e.e.e.e.e.e.e.e.e.e.e.e.e.e.e.e.e.e.e.e.e.e.e.e.e.e.e.e.e.e.e.e.e.} & 0 8 0 7 0 9 0 0 0 0 0 0 0 0 0 0 0 0 0 0 0 0 8 * 0 9 0 8 8 A i.i.e.e.e.e.e.e.e.e.e.e.e.e.e.e.e.e.e.e.e.e.e.e.0.e.0.e.e.g.g & 0 0 0 0 0 0 0 0 0 0 0 0 0 0 0 0 0 0 0 0 0 0 0 0 = 0 0 0 - l.0.r.e.e.e.e.r.r.e.e.e.e.e.e.e.e.e.e.e.e.e.e.e.e.e.e.e.e.e.e.e.e.e.e.r.q.e.e.r.r.e.e.e.e.e.e.e.e.e.e.e.e.e.e.e.e.e.e.e.l.Z & 9 8 0 8 0 0 0 0 0 0 0 0 0 0 0 0 0 0 0 0 0 0 0 0 0 0 0 0 o S i.r.8.8.w.r.e.e.e.e.e.e.e.e.e.e.e.e.e.e.e.e.e.e.e.e.e.e.e.e.>.>.>.>.>.S } } #.#.#.#.#.#.#.#.#.#.#.#.#.#.#.#.#.S >.#.>.>.#.e.e.e.8.8.e.e.e.e.e.e.e.e.e.e.e.e.e.e.e.e.e.e.e.e.8.e.r.0.r.1.b A V V V V V V V V V V V V V V V V V Z Z Z V V V V V V V V x 8 & 0 0 0 0 0 0 0 0 0 0 0 0 0 0 0 0 0 0 0 0 0 0 0 9 9 8 8 8 x Z Z V V V V V V V V V V V V V V V V V V V V V V V V V V V V ",
"8.8.8.8.8.8.8.e.e.e.e.e.8.8.e.e.e.e.8.8.8.8.e.e.e.e.e.e.e.e.e.e.e.e.e.e.e.e.e.e.e.e.e.e.e.e.e.e.e.e.e.e.e.e.e.e.i.e.e.8.9.m.#X#X$X$X$X$X$X$X$X$X$X$X$X$X$X$X$X$X$X$X$X$X$X$X$X$X#XA.A.4XV 4 0 0 0 0 0 0 0 0 0 0 0 0 0 0 0 0 0 0 0 0 0 0 0 0 0 0 0 8 a 5.0.r.q.q.e.e.e.e.e.e.e.e.e.e.e.e.e.e.e.e.e.e.e.e.e.e.e.e.e.e.e.e.e.e.e.e.e.e.e.e.e.e.e.e.e.e.e.e.e.e.e.e.e.e.e.e.e.e.e.e.} & s 8 0 7 0 9 0 0 0 0 0 0 0 0 0 0 0 0 0 0 0 0 8 * 0 9 0 8 8 A i.i.e.e.e.e.e.e.e.e.e.e.e.e.e.e.e.e.e.e.e.e.e.e.0.e.8.e.e.g.g & 0 0 0 0 0 0 0 0 0 0 0 0 0 0 0 0 0 0 0 0 0 0 0 0 = 0 0 0 - l.0.r.r.e.e.e.e.r.e.e.e.e.e.e.e.e.e.e.e.e.e.e.e.e.e.e.e.e.e.e.e.e.e.e.r.r.e.e.r.e.e.e.e.e.e.e.e.e.e.e.e.e.e.e.e.e.e.e.e.l.Z & 9 0 0 8 0 0 0 0 0 0 0 0 0 0 0 0 0 0 0 0 0 0 0 0 0 0 0 0 o S i.r.8.8.w.r.e.e.e.e.e.e.e.e.e.e.e.e.e.e.e.e.e.e.e.e.e.e.e.e.>.>.>.>.>.} } } #.#.#.#.#.#.#.#.#.#.#.#.#.#.#.#.#.S >.#.>.>.#.e.e.8.8.8.e.e.e.e.e.e.e.e.e.e.e.e.e.e.e.e.e.e.e.e.8.e.r.0.r.1.b A V V V V V V V V V V V V V V V V V V Z Z V V V V V V V V x 8 & 0 0 0 0 0 0 0 0 0 0 0 0 0 0 0 0 0 0 0 0 0 0 0 9 9 8 8 8 x Z Z V V V V V V V V V V V V V V V V V V V V V V V V V V V V ",
"8.8.8.e.8.8.8.8.8.8.8.e.e.e.e.e.e.e.e.e.8.8.8.e.e.e.e.e.e.e.e.e.e.e.e.e.e.e.e.e.e.e.e.e.e.e.e.e.e.e.e.e.e.e.e.e.e.8.r.8.9.m.$X#X$X$X$X$X$X$X$X$X$X$X$X$X$X$X$X$X$X$X$X$X$X$X$X$X#XA.A.3XV 7 0 t 0 0 0 0 0 0 0 0 0 0 0 0 0 0 0 0 0 0 0 0 0 0 0 0 0 8 a 5.3.i.q.q.e.e.e.e.e.e.e.e.e.e.e.e.e.e.e.e.e.e.e.e.e.e.e.e.e.e.e.e.e.e.e.e.e.e.e.e.e.e.e.e.e.e.e.e.e.e.e.e.e.e.e.e.e.e.e.e.} & s 8 0 8 0 9 0 0 0 0 0 0 0 0 0 0 0 0 0 0 0 0 8 * 0 9 0 8 8 A e.e.e.e.e.e.e.e.e.e.e.e.e.e.e.e.e.e.e.e.e.e.e.e.0.e.8.r.e.g.g & 0 0 0 0 0 0 0 0 0 0 0 0 0 0 0 0 0 0 0 0 0 0 0 0 0 0 0 0 - l.0.r.r.e.e.e.e.e.e.e.e.e.e.e.e.e.e.e.e.e.e.e.e.e.e.e.e.e.e.e.e.e.e.e.e.e.e.e.r.e.e.e.e.e.e.r.e.e.e.e.e.e.e.e.e.e.e.e.e.l.Z & 9 8 8 8 0 0 0 0 0 0 0 0 0 0 0 0 0 0 0 0 0 0 0 0 0 0 0 0 o S i.r.8.8.w.r.e.e.e.e.e.e.e.e.e.e.e.e.e.e.e.e.e.e.e.e.e.e.e.e.>.>.>.>.>.>.} } #.#.#.#.#.#.#.#.#.#.#.#.#.#.#.#.#.S >.#.>.>.#.e.e.e.8.8.e.e.e.e.e.e.e.e.e.e.e.e.e.e.e.e.8.e.e.e.w.e.e.0.r.1.x } V V V V V V V V V V V V V V V V V V V V V V V V V V V V x 8 & 0 0 0 0 0 0 0 0 0 0 0 0 0 0 0 0 0 0 0 0 0 0 0 0 0 8 8 8 x Z Z V V V V V V V V V V V V V V V V V V V V V V V V V V V V ",
"8.8.8.e.8.8.8.8.8.8.8.e.e.e.e.e.e.e.8.8.8.8.e.e.e.e.e.e.e.e.e.e.e.e.e.e.e.e.e.e.e.e.e.e.e.e.e.e.e.e.e.e.e.e.e.e.r.8.r.9.9.m.$XZ.$X$X$X$X$X$X$X$X$X$X$X$X$X$X$X$X$X$X$X$X$X$X$X$X#XA.A.3XV 7 9 0 0 0 0 0 0 0 0 0 0 0 0 0 0 0 0 0 0 0 0 0 0 0 0 0 0 8 8 5.3.i.q.q.e.e.e.e.e.e.e.e.e.e.e.e.e.e.e.e.e.e.e.e.e.e.e.e.e.e.e.e.e.e.e.e.e.e.e.e.e.e.e.e.e.e.e.e.e.e.e.e.e.e.e.e.e.e.e.e.} & s 8 0 8 0 9 0 0 0 0 0 0 0 0 0 0 0 0 0 0 0 0 8 * 0 9 0 8 8 A e.e.e.e.e.e.e.e.e.e.e.e.e.e.e.e.e.e.e.e.e.e.e.e.0.e.e.r.e.g.g & 0 0 0 0 0 0 0 0 0 0 0 0 0 0 0 0 0 0 0 0 0 0 0 0 0 0 0 0 - l.0.r.r.e.e.e.e.e.e.e.e.e.e.e.e.e.e.e.e.e.e.e.e.e.e.e.e.e.e.e.e.e.e.e.e.e.e.e.e.e.e.e.e.e.r.r.r.e.e.e.e.e.e.e.e.e.e.e.e.l.Z & 9 8 8 8 0 0 0 0 0 0 0 0 0 0 0 0 0 0 0 0 0 0 0 0 0 0 0 0 o S i.r.8.8.w.r.e.e.e.e.e.e.e.e.e.e.e.e.e.e.e.e.e.e.e.e.e.e.e.e.>.>.>.>.>.>.} >.#.#.#.#.#.#.#.#.#.#.#.#.#.#.#.#.#.S >.#.>.>.#.e.e.e.8.8.e.e.e.e.e.e.e.e.e.e.e.e.e.e.e.e.e.e.e.e.w.e.r.0.r.1.x } V V V V V V V V V V V V V V V V V V V V V V V V V V V V x 8 & 0 0 0 0 0 0 0 0 0 0 0 0 0 0 0 0 0 0 0 0 0 0 0 0 0 8 8 8 x Z Z V V V V V V V V V V V V V V V V V V V V V V V V V V V V ",
"8.8.e.e.e.e.e.e.8.8.8.8.e.e.8.e.8.8.8.8.8.8.8.8.e.e.e.e.e.e.e.e.e.e.e.e.e.e.e.e.e.e.e.e.e.e.e.e.e.e.e.e.e.e.e.e.r.8.r.8.9.m.$XZ.$X$X$X$X$X$X$X$X$X$X$X$X$X$X$X$X$X$X$X$X$X$X$X$X#XZ.A.3XC 4 9 0 0 0 0 0 0 0 0 0 0 0 0 0 0 0 0 0 0 0 0 0 0 0 0 0 0 8 8 5.3.i.q.q.e.e.e.e.e.e.e.e.e.e.e.e.e.e.e.e.e.e.e.e.e.e.e.e.e.e.e.e.e.e.e.e.e.e.e.e.e.e.e.e.e.e.e.e.e.e.e.e.e.e.e.e.e.e.e.e.} & s 8 0 8 0 9 0 0 0 0 0 0 0 0 0 0 0 0 0 0 0 0 8 * 0 0 0 8 8 A e.e.e.e.e.e.e.e.e.e.e.e.e.e.e.e.e.e.e.e.e.e.e.e.0.e.8.e.e.g.g & 0 0 0 0 0 0 0 0 0 0 0 0 0 0 0 0 0 0 0 0 0 0 0 0 = 0 0 0 - l.0.r.e.e.e.e.e.e.e.e.e.e.e.e.e.e.e.e.e.e.e.e.e.e.e.e.e.e.e.e.e.e.r.e.e.e.e.e.e.e.e.e.e.e.e.e.r.e.e.e.e.e.r.r.e.e.e.e.e.l.Z & 9 0 8 8 0 0 0 0 0 0 0 0 0 0 0 0 0 0 0 0 0 0 0 0 0 0 0 0 o S i.r.8.e.w.r.e.e.e.e.e.e.e.e.e.e.e.e.e.e.e.e.e.e.e.e.e.e.e.e.>.>.>.>.>.>.>.>.#.#.#.#.#.#.#.#.#.#.#.#.#.#.#.#.#.S >.#.>.>.#.e.e.e.e.8.e.e.e.e.e.e.e.e.e.e.e.e.e.e.e.e.e.e.e.e.w.e.r.0.e.1.x } V V V V V V V V V V V V V V V V V V V V V V V V V V V V x 8 & 0 0 0 0 0 0 0 0 0 0 0 0 0 0 0 0 0 0 0 0 0 0 0 9 0 q 8 8 x Z Z V V V V V V V V V V V V V V V V V V V V V V V V V V V V ",
"8.8.e.e.e.e.e.e.8.8.8.e.e.e.8.8.8.8.8.8.8.8.8.8.e.e.e.e.e.e.e.e.e.e.e.e.e.e.e.e.e.e.e.e.e.e.e.e.e.e.e.e.e.e.e.e.r.8.r.8.9.m.$XZ.$X$X$X$X$X$X$X$X$X$X$X$X$X$X$X$X$X$X$X$X$X$X$X$X#XA.A.3XC 2 9 0 0 0 0 0 0 0 0 0 0 0 0 0 0 0 0 0 0 0 0 0 0 0 0 0 0 8 8 5.3.i.q.q.e.e.e.e.e.e.e.e.e.e.e.e.e.e.e.e.e.e.e.e.e.e.e.e.e.e.e.e.e.e.e.e.e.e.e.e.e.e.e.e.e.e.e.e.e.e.e.e.e.e.e.e.e.e.e.e.} & s 8 0 8 0 9 0 0 0 0 0 0 0 0 0 0 0 0 0 0 0 0 8 * 0 0 0 8 8 A i.i.e.e.r.e.e.e.e.e.e.e.e.e.e.e.e.e.e.e.e.e.e.e.0.e.8.e.e.g.g & 0 0 0 0 0 0 0 0 0 0 0 0 0 0 0 0 0 0 0 0 0 0 0 0 = 0 0 0 - l.0.r.e.e.e.e.e.e.e.e.e.e.e.e.e.e.e.e.e.e.e.e.e.e.e.e.e.e.r.r.e.r.r.e.e.e.r.e.e.e.e.e.e.e.e.e.e.e.e.e.e.e.e.r.e.e.e.e.e.l.Z & 9 0 0 8 0 0 0 0 0 0 0 0 0 0 0 0 0 0 0 0 0 0 0 0 0 0 0 0 o S i.e.e.e.w.r.e.e.e.e.e.e.e.e.e.e.e.e.e.e.e.e.e.e.e.e.e.e.e.e.>.>.>.>.>.>.>.>.#.#.#.#.#.#.#.#.#.#.#.#.#.#.#.#.#.S >.#.>.>.#.e.e.e.e.e.e.e.e.e.e.e.e.e.e.e.e.e.e.e.e.e.e.e.e.e.w.e.r.0.e.1.b } V V V V V V V V V V V V V V V V V V V V V V V V V V V V x 8 & 0 0 0 0 0 0 0 0 0 0 0 0 0 0 0 0 0 0 0 0 0 0 0 9 9 q 8 8 x Z Z V V V V V V V V V V V V V V V V V V V V V V V V V V V V ",
"8.e.e.e.e.e.e.e.e.e.8.8.8.8.e.e.e.e.e.e.e.e.8.8.e.e.e.e.e.e.e.e.e.e.e.e.e.e.e.e.e.e.e.e.e.e.e.e.e.e.e.e.e.e.e.e.e.e.e.8.9.m.#X#X$X$X$X$X$X$X$X$X$X$X$X$X$X$X$X$X$X$X$X$X$X$X$X$X#XA.S.3XZ * 0 8 8 8 0 0 0 0 0 0 0 0 0 0 0 0 0 0 0 0 0 0 0 0 0 0 0 0 8 3.3.i.r.e.e.e.e.e.e.e.e.e.e.e.e.e.e.e.e.e.e.e.e.e.e.e.e.e.e.e.e.e.e.e.e.e.e.e.e.e.e.e.e.e.e.e.e.e.e.e.e.e.e.e.e.e.e.e.e.e.} & s 8 0 8 0 9 0 0 0 0 0 0 0 0 0 0 0 0 0 0 0 0 8 * 0 9 0 & 8 A i.i.e.e.e.e.e.e.e.e.e.e.e.e.e.e.e.e.e.e.e.e.e.e.0.e.8.e.e.g.g & 0 0 0 0 0 0 0 0 0 0 0 0 0 0 0 0 0 0 0 0 0 0 0 0 & 0 0 0 - l.w.r.e.e.e.e.e.e.e.e.e.e.e.e.e.e.e.e.e.e.e.e.e.e.e.e.e.e.e.e.e.e.e.e.e.e.e.e.e.e.e.e.e.e.e.e.e.e.e.e.e.e.e.r.r.r.e.e.e.l.Z & 9 0 0 8 0 0 0 0 0 0 0 0 0 0 0 0 0 0 0 0 0 0 0 0 0 0 0 0 o S i.r.8.8.w.r.e.e.e.e.e.e.e.e.e.e.e.e.e.e.e.e.e.e.e.e.e.e.e.e.>.>.>.>.>.#.#.#.#.#.#.#.#.#.#.#.#.#.#.#.#.#.#.#.#.#.>.#.>.>.#.r.8.8.8.8.e.e.e.e.e.e.e.e.e.e.e.e.e.e.e.e.e.e.e.e.w.e.r.0.e.1.b A V V V V V V V V V V V V V V V V V V V V V V V V V V V V x 8 & 0 0 0 0 0 0 0 0 0 0 0 0 0 0 0 0 0 0 0 0 0 0 0 0 0 8 8 8 x Z Z V V V V V V V V V V V V V V V V V V V V V V V V V V V V ",
"8.8.e.e.e.8.e.e.e.e.8.8.8.8.e.e.e.e.e.e.e.e.8.8.e.e.e.e.e.e.e.e.e.e.e.e.e.e.e.e.e.e.e.e.e.e.e.e.e.e.e.e.e.e.e.e.e.e.e.8.9.m.#X#X$X$X$X$X$X$X$X$X$X$X$X$X$X$X$X$X$X$X$X$X$X$X$X$X#XA.S.3XZ * 0 8 8 8 0 0 0 0 0 0 0 0 0 0 0 0 0 0 0 0 0 0 0 0 0 0 0 0 8 3.3.i.r.e.e.e.e.e.e.e.e.e.e.e.e.e.e.e.e.e.e.e.e.e.e.e.e.e.e.e.e.e.e.e.e.e.e.e.e.e.e.e.e.e.e.e.e.e.e.e.e.e.e.e.e.e.e.e.e.e.} & s 8 0 8 0 9 0 0 0 0 0 0 0 0 0 0 0 0 0 0 0 0 8 * 0 9 0 & 8 A i.i.e.e.e.e.e.e.e.e.e.e.e.e.e.e.e.e.e.e.e.e.e.e.0.e.e.e.e.g.g & 0 0 0 0 0 0 0 0 0 0 0 0 0 0 0 0 0 0 0 0 0 0 0 0 & 0 0 0 % l.w.r.e.e.e.e.e.e.e.e.e.e.e.e.e.e.e.e.e.e.e.e.e.e.e.e.e.e.e.e.e.e.e.e.e.e.e.e.e.e.e.e.e.e.e.e.e.e.e.e.e.e.e.e.e.e.e.e.e.l.Z & 9 8 0 8 0 0 0 0 0 0 0 0 0 0 0 0 0 0 0 0 0 0 0 0 0 0 0 0 o S i.r.8.8.e.r.e.e.e.e.e.e.e.e.e.e.e.e.e.e.e.e.e.e.e.e.e.e.e.e.>.>.>.>.>.#.#.#.#.#.#.#.#.#.#.#.#.#.#.#.#.#.#.#.#.#.>.#.>.>.#.r.8.8.8.8.e.e.e.e.e.e.e.e.e.e.e.e.e.e.e.e.e.e.e.e.w.e.r.0.e.1.b A V V V V V V V V V V V V V V V V V V V V V V V V V V V V x 8 & 0 0 0 0 0 0 0 0 0 0 0 0 0 0 0 0 0 0 0 0 0 0 0 0 0 8 8 8 x Z Z V V V V V V V V V V V V V V V V V V V V V V V V V V V V ",
"e.e.e.e.8.8.8.8.e.8.8.8.e.e.e.e.8.8.8.8.e.8.8.8.e.e.e.e.e.e.e.e.e.e.e.e.e.e.e.e.e.e.e.e.e.e.e.e.e.e.e.e.e.e.e.e.e.e.e.8.9.m.#X#X$X$X$X$X$X$X$X$X$X$X$X$X$X$X$X$X$X$X$X$X$X$X$X$X#XA.S.3XZ * 0 8 8 8 0 0 0 0 0 0 0 0 0 0 0 0 0 0 0 0 0 0 0 0 0 0 0 0 8 3.3.i.r.r.e.e.e.e.e.e.e.e.e.e.e.e.e.e.e.e.e.e.e.e.e.e.e.e.e.e.e.e.e.e.e.e.e.e.e.e.e.e.e.e.e.e.e.e.e.e.e.e.e.e.e.e.e.e.e.e.} & s 8 0 8 0 9 0 0 0 0 0 0 0 0 0 0 0 0 0 0 0 0 8 * 0 9 0 8 8 A i.i.e.e.e.e.e.e.e.e.e.e.e.e.e.e.e.e.e.e.e.e.e.e.0.e.8.e.e.g.g & 0 0 0 0 0 0 0 0 0 0 0 0 0 0 0 0 0 0 0 0 0 0 0 0 & 0 0 0 % l.w.r.e.e.e.e.e.e.e.e.e.e.e.e.e.e.e.e.e.e.e.e.e.e.e.e.e.e.e.e.e.e.e.e.e.e.e.e.e.e.e.e.e.e.e.e.e.e.e.e.e.e.e.e.e.e.e.e.e.l.Z & 9 8 8 8 0 0 0 0 0 0 0 0 0 0 0 0 0 0 0 0 0 0 0 0 0 0 0 0 o S i.r.e.e.e.r.e.e.e.e.e.e.e.e.e.e.e.e.e.e.e.e.e.e.e.e.e.e.e.e.>.>.>.>.>.S #.#.#.#.#.#.#.#.#.#.#.#.#.#.#.#.#.#.#.#.>.#.>.>.#.r.e.e.8.8.e.e.e.e.e.e.e.e.e.e.e.e.e.e.e.e.e.e.e.e.w.e.r.0.e.1.b A V V V V V V V V V V V V V V V V V V V V V V V V V V V V x 8 & 0 0 0 0 0 0 0 0 0 0 0 0 0 0 0 0 0 0 0 0 0 0 0 0 0 q 8 8 x Z Z V V V V V V V V V V V V V V V V V V V V V V V V V V V V ",
"e.e.e.e.8.8.8.8.e.e.8.8.e.e.e.e.8.8.8.8.e.8.8.8.e.e.e.e.e.e.e.e.e.e.e.e.e.e.e.e.e.e.e.e.e.e.e.e.e.e.e.e.e.e.e.e.e.e.e.8.9.m.#X#X$X$X$X$X$X$X$X$X$X$X$X$X$X$X$X$X$X$X$X$X$X$X$X$X#XA.S.5XZ * 0 8 8 8 0 0 0 0 0 0 0 0 0 0 0 0 0 0 0 0 0 0 0 0 0 0 0 0 8 3.0.p.r.e.e.e.e.e.e.e.e.e.e.e.e.e.e.e.e.e.e.e.e.e.e.e.e.e.e.e.e.e.e.e.e.e.e.e.e.e.e.e.e.e.e.e.e.e.e.e.e.e.e.e.e.e.e.e.e.e.} & s 8 0 8 0 9 0 0 0 0 0 0 0 0 0 0 0 0 0 0 0 0 8 * 0 9 0 & 8 A i.i.e.e.e.e.e.e.e.e.e.e.e.e.e.e.e.e.e.e.e.e.e.e.0.e.0.e.e.g.g & 0 0 0 0 0 0 0 0 0 0 0 0 0 0 0 0 0 0 0 0 0 0 0 0 & 0 0 0 % l.w.r.e.e.e.e.e.e.e.e.e.e.e.e.e.e.e.e.e.e.e.e.e.e.e.e.e.e.e.e.e.e.e.e.e.e.e.e.e.e.e.e.e.e.e.e.e.e.e.e.e.e.e.e.e.e.e.e.e.l.Z & 9 8 8 8 0 0 0 0 0 0 0 0 0 0 0 0 0 0 0 0 0 0 0 0 0 0 0 0 o S i.r.e.e.e.r.e.e.e.e.e.e.e.e.e.e.e.e.e.e.e.e.e.e.e.e.e.e.e.e.>.>.>.>.>.S #.#.#.#.#.#.#.#.#.#.#.#.#.#.#.#.#.#.#.#.>.#.>.>.#.f.e.e.8.8.e.e.e.e.e.e.e.e.e.e.e.e.e.e.e.e.e.e.e.e.w.e.r.0.r.1.b A V V V V V V V V V V V V V V V V V V V V V V V V V V V V x 8 & 0 0 0 0 0 0 0 0 0 0 0 0 0 0 0 0 0 0 0 0 0 0 0 0 0 q 8 8 x Z Z V V V V V V V V V V V V V V V V V V V V V V V V V V V V ",
"e.8.e.e.e.e.8.8.e.e.e.e.e.8.8.8.e.8.8.8.8.8.8.8.e.e.e.e.e.e.e.e.e.e.e.e.e.e.e.e.e.e.e.e.e.e.e.e.e.e.e.e.e.e.e.e.e.e.e.8.9.m.#X#X$X$X$X$X$X$X$X$X$X$X$X$X$X$X$X$X$X$X$X$X$X$X$X$X#XA.@X5XZ * 0 8 8 8 0 0 0 0 0 0 0 0 0 0 0 0 0 0 0 0 0 0 0 0 0 0 0 8 a 3.0.i.q.8.e.e.e.e.e.e.e.e.e.e.e.e.e.e.e.e.e.e.e.e.e.e.e.e.e.e.e.e.e.e.e.e.e.e.e.e.e.e.e.e.e.e.e.e.e.e.e.e.e.e.e.e.e.e.e.e.} & s 8 0 8 0 9 0 0 0 0 0 0 0 0 0 0 0 0 0 0 0 0 8 7 0 9 0 8 8 A e.e.e.e.e.e.e.e.e.e.e.e.e.e.e.e.e.e.e.e.e.e.e.e.0.e.w.e.e.g.g & 0 0 0 0 0 0 0 0 0 0 0 0 0 0 0 0 0 0 0 0 0 0 0 0 & 0 0 0 - f.w.r.e.e.e.e.e.e.e.e.e.e.e.e.e.e.e.e.e.e.e.e.e.e.e.e.e.e.e.e.e.e.e.e.e.e.e.e.e.e.e.e.e.e.e.e.e.e.e.e.e.e.r.e.e.e.e.e.e.l.Z * 9 0 8 8 0 0 0 0 0 0 0 0 0 0 0 0 0 0 0 0 0 0 0 0 0 0 0 0 o S i.p.e.e.e.w.e.e.e.e.e.e.e.e.e.e.e.e.e.e.e.e.e.e.e.e.e.e.e.e.>.>.>.>.>.#.#.#.#.#.#.#.#.#.#.#.#.#.#.#.#.#.#.#.#.#.>.#.>.>.#.f.e.e.e.e.e.e.e.e.e.e.e.e.e.e.e.e.e.e.e.e.e.e.e.e.w.e.e.0.r.1.x } V V V V V V V V V V V V V V V V V V V V V V V V V V V V x 8 & 0 0 0 0 0 0 0 0 0 0 0 0 0 0 0 0 0 0 0 0 0 0 0 0 0 q 8 8 x Z Z V V V V V V V V V V V V V V V V V V V V V V V V V V V V ",
"8.8.8.8.e.e.8.8.e.e.e.e.e.8.8.8.e.e.8.8.8.8.8.8.e.e.e.e.e.e.e.e.e.e.e.e.e.e.e.e.e.e.e.e.e.e.e.e.e.e.e.e.e.e.e.e.e.e.e.8.9.m.#X#X$X$X$X$X$X$X$X$X$X$X$X$X$X$X$X$X$X$X$X$X$X$X$X$X#XA.S.5XZ * 0 8 8 8 0 0 0 0 0 0 0 0 0 0 0 0 0 0 0 0 0 0 0 0 0 0 0 8 a 3.3.i.q.8.e.e.e.e.e.e.e.e.e.e.e.e.e.e.e.e.e.e.e.e.e.e.e.e.e.e.e.e.e.e.e.e.e.e.e.e.e.e.e.e.e.e.e.e.e.e.e.e.e.e.e.e.e.e.e.e.} & s 8 0 8 0 9 0 0 0 0 0 0 0 0 0 0 0 0 0 0 0 0 8 7 0 0 0 8 8 A e.e.e.e.e.e.e.e.e.e.e.e.e.e.e.e.e.e.e.e.e.e.e.e.0.e.0.e.e.g.g & 0 0 0 0 0 0 0 0 0 0 0 0 0 0 0 0 0 0 0 0 0 0 0 0 & 0 0 0 - f.w.r.e.e.e.e.e.e.e.e.e.e.e.e.e.e.e.e.e.e.e.e.e.e.e.e.e.e.e.e.e.e.e.e.e.e.e.e.e.e.e.e.e.e.e.e.e.e.e.e.e.e.r.r.e.e.e.e.e.l.Z & 9 9 0 8 0 0 0 0 0 0 0 0 0 0 0 0 0 0 0 0 0 0 0 0 0 0 0 0 o S i.r.e.e.w.w.e.e.e.e.e.e.e.e.e.e.e.e.e.e.e.e.e.e.e.e.e.e.e.e.>.>.>.>.>.#.#.#.#.#.#.#.#.#.#.#.#.#.#.#.#.#.#.#.#.#.>.#.>.>.#.f.e.e.e.e.e.e.e.e.e.e.e.e.e.e.e.e.e.e.e.e.e.e.e.e.w.e.r.0.r.1.x } V V V V V V V V V V V V V V V V V V V V V V V V V V V V x 8 & 0 0 0 0 0 0 0 0 0 0 0 0 0 0 0 0 0 0 0 0 0 0 0 0 0 8 8 8 x Z Z V V V V V V V V V V V V V V V V V V V V V V V V V V V V ",
"8.8.8.8.e.e.e.e.e.8.e.e.8.8.8.8.e.e.e.e.8.e.8.8.e.e.e.e.e.e.e.e.e.e.e.e.e.e.e.e.e.e.e.e.e.e.e.e.e.e.e.e.e.e.e.e.e.e.8.8.9.m.#X#X$X$X$X$X$X$X$X$X$X$X$X$X$X$X$X$X$X$X$X$X$X$X$X$X#XA.S.3XZ * 9 8 8 8 0 0 0 0 0 0 0 0 0 0 0 0 0 0 0 0 0 0 0 0 0 0 0 8 8 3.3.i.q.8.e.e.e.e.e.e.e.e.e.e.e.e.e.e.e.e.e.e.e.e.e.e.e.e.e.e.e.e.e.e.e.e.e.e.e.e.e.e.e.e.e.e.e.e.e.e.e.e.e.e.e.e.e.e.e.e.} & s 8 0 8 0 9 0 0 0 0 0 0 0 0 0 0 0 0 0 0 0 0 8 * 0 9 0 & 8 A e.e.e.e.e.e.e.e.e.e.e.e.e.e.e.e.e.e.e.e.e.e.e.e.0.e.8.e.e.g.g & 0 0 0 0 0 0 0 0 0 0 0 0 0 0 0 0 0 0 0 0 0 0 0 0 & 0 0 0 - f.w.r.e.e.e.e.e.e.e.e.e.e.e.e.e.e.e.e.e.e.e.e.e.e.e.e.e.e.e.e.e.e.e.e.e.e.e.e.e.e.e.e.e.e.e.e.e.e.e.e.e.e.e.e.e.e.e.e.e.l.Z & 9 9 0 8 0 0 0 0 0 0 0 0 0 0 0 0 0 0 0 0 0 0 0 0 0 0 0 0 o S i.r.e.e.w.w.e.e.e.e.e.e.e.e.e.e.e.e.e.e.e.e.e.e.e.e.e.e.e.e.,.,.>.>.>.#.#.#.#.#.#.#.#.#.#.#.#.#.#.#.#.#.#.#.#.S >.#.>.>.#.e.8.8.e.e.e.e.e.e.e.e.e.e.e.e.e.e.e.e.e.e.e.e.e.e.w.e.r.0.r.1.x } V V V V V V V V V V V V V V V V V V V V V V V V V V V V x 8 & 0 0 0 0 0 0 0 0 0 0 0 0 0 0 0 0 0 0 0 0 0 0 0 0 0 8 8 8 x Z Z V V V V V V V V V V V V V V V V V V V V V V V V V V V V ",
"8.8.8.8.e.e.e.e.8.8.e.e.e.8.8.8.e.e.e.e.e.e.8.8.e.e.e.e.e.e.e.e.e.e.e.e.e.e.e.e.e.e.e.e.e.e.e.e.e.e.e.e.e.e.e.e.e.e.8.8.9.m.#X#X$X$X$X$X$X$X$X$X$X$X$X$X$X$X$X$X$X$X$X$X$X$X$X$X#XA.S.3XZ * 0 8 8 8 0 0 0 0 0 0 0 0 0 0 0 0 0 0 0 0 0 0 0 0 0 0 0 8 8 3.3.i.e.8.e.e.e.e.e.e.e.e.e.e.e.e.e.e.e.e.e.e.e.e.e.e.e.e.e.e.e.e.e.e.e.e.e.e.e.e.e.e.e.e.e.e.e.e.e.e.e.e.e.e.e.e.e.e.e.e.} & s 8 0 8 0 9 0 0 0 0 0 0 0 0 0 0 0 0 0 0 0 0 8 * 0 9 0 & 8 A e.e.e.e.e.e.e.e.e.e.e.e.e.e.e.e.e.e.e.e.e.e.e.e.0.e.8.e.e.g.g & 0 0 0 0 0 0 0 0 0 0 0 0 0 0 0 0 0 0 0 0 0 0 0 0 & 0 0 0 - f.w.r.e.e.e.e.e.e.e.e.e.e.e.e.e.e.e.e.e.e.e.e.e.e.e.e.e.e.e.e.e.e.e.e.e.e.e.e.e.e.e.e.e.e.e.e.e.e.e.e.e.e.e.e.e.e.e.e.e.l.Z & 9 0 0 8 0 0 0 0 0 0 0 0 0 0 0 0 0 0 0 0 0 0 0 0 0 0 0 0 o S i.r.e.e.0.r.e.e.e.e.e.e.e.e.e.e.e.e.e.e.e.e.e.e.e.e.e.e.e.e.,.,.>.>.>.#.#.#.#.#.#.#.#.#.#.#.#.#.#.#.#.#.#.#.#.S >.#.>.>.#.e.8.8.8.8.e.e.e.e.e.e.e.e.e.e.e.e.e.e.e.e.e.e.e.e.w.e.r.0.e.1.b } V V V V V V V V V V V V V V V V V V V V V V V V V V V V x 8 & 0 0 0 0 0 0 0 0 0 0 0 0 0 0 0 0 0 0 0 0 0 0 0 0 0 8 8 8 x Z V V V V V V V V V V V V V V V V V V V V V V V V V V V V V ",
"e.e.e.e.e.e.e.e.e.e.e.e.e.e.e.e.e.e.e.e.e.e.e.e.e.e.e.e.e.e.e.e.e.e.e.e.e.e.e.e.e.e.e.e.e.e.e.e.e.e.e.e.e.e.e.e.e.e.r.8.8.v.#X$X#X#X#XZ.Z.Z.#X#X#X#X#X#X#X#X#X#X#X#X#X#X#XZ.Z.#X#XA.S.3XZ * 0 8 0 0 0 0 0 0 0 0 0 0 0 0 0 0 0 0 0 0 0 0 0 0 0 0 0 8 8 3.3.p.q.e.e.e.e.e.e.e.e.e.e.e.e.e.e.e.e.e.e.e.e.e.e.e.e.e.e.e.e.e.e.e.e.e.e.e.e.e.e.e.e.e.e.r.e.e.r.r.e.e.e.e.e.e.e.e.e.e.} & s 8 0 8 0 9 0 0 0 0 0 0 0 0 0 0 0 0 0 0 0 0 8 8 0 9 0 & & A r.r.e.e.e.e.e.e.e.e.e.e.e.e.e.e.e.e.e.e.e.e.e.e.0.e.8.e.e.g.g & 0 0 0 0 0 0 0 0 0 0 0 0 0 0 0 0 0 0 0 0 0 0 0 0 & 0 0 0 % l.w.r.e.e.e.e.e.e.e.e.e.e.e.e.e.e.e.e.e.e.e.e.e.e.e.e.e.e.e.e.e.e.e.e.e.e.e.e.e.e.e.e.e.e.e.e.e.e.e.e.e.e.e.e.e.e.e.e.e.p.V & 7 7 0 8 0 0 0 0 0 0 0 0 0 0 0 0 0 0 0 0 0 0 0 0 0 0 0 0 o S i.r.8.8.e.w.e.e.e.e.e.e.e.e.e.e.e.e.e.e.e.e.e.e.e.e.e.e.e.e.#.#.#.#.#.#.#.#.#.#.#.#.#.#.#.#.#.#.#.#.#.#.#.#.#.S >.#.>.>.#.w.8.8.e.e.e.e.e.e.e.e.e.e.e.e.e.e.e.e.e.e.e.e.e.e.8.e.r.8.r.1.x Z V V V V V V V V V V V V V V V V V V V V V V V V V V V V x 8 & 0 0 0 0 0 0 0 0 0 0 0 0 0 0 0 0 0 0 0 0 0 0 0 0 0 0 0 0 x Z Z V Z V V V V V V V V V V V V V V V V V V V V V V V V V V ",
"e.e.e.e.e.e.e.e.e.e.e.e.e.e.e.e.e.e.e.e.e.e.e.e.e.e.e.e.e.e.e.e.e.e.e.e.e.e.e.e.e.e.e.e.e.e.e.e.e.e.e.e.e.e.e.e.e.e.r.8.8.v.#X$X#X#X#XZ.#XZ.#X#X#X#X#X#XZ.#X#X#X#X#X#X#X#X#XZ.#X#XA.S.3XZ * 0 8 0 0 0 0 0 0 0 0 0 0 0 0 0 0 0 0 0 0 0 0 0 0 0 0 0 8 8 3.3.i.q.8.e.e.e.e.e.e.e.e.e.e.e.e.e.e.e.e.e.e.e.e.e.e.e.e.e.e.e.e.e.e.e.e.e.e.e.e.e.e.e.e.e.r.e.e.r.e.e.e.e.e.e.e.e.e.e.e.} & s 8 0 8 0 9 0 0 0 0 0 0 0 0 0 0 0 0 0 0 0 0 8 8 0 9 0 & & A r.r.e.e.e.e.e.e.e.e.e.e.e.e.e.e.e.e.e.e.e.e.e.e.0.e.e.e.e.g.g & 0 0 0 0 0 0 0 0 0 0 0 0 0 0 0 0 0 0 0 0 0 0 0 0 & 0 0 0 % l.w.r.e.e.e.e.e.e.e.e.e.e.e.e.e.e.e.e.e.e.e.e.e.e.e.e.e.e.e.e.e.e.e.e.e.e.e.e.e.e.e.e.e.e.e.e.e.e.e.e.e.e.e.e.e.e.e.e.e.p.V & 7 9 0 8 0 0 0 0 0 0 0 0 0 0 0 0 0 0 0 0 0 0 0 0 0 0 0 0 o S i.r.8.e.e.w.e.e.e.e.e.e.e.e.e.e.e.e.e.e.e.e.e.e.e.e.e.e.e.e.#.#.#.#.#.#.#.#.#.#.#.#.#.#.#.#.#.#.#.#.#.#.#.#.#.S >.#.>.>.#.w.8.8.e.e.e.e.e.e.e.e.e.e.e.e.e.e.e.e.e.e.e.e.e.e.8.e.r.8.r.1.x Z V V V V V V V V V V V V V V V V V V V V V V V V V V V V x 8 & 0 0 0 0 0 0 0 0 0 0 0 0 0 0 0 0 0 0 0 0 0 0 0 0 0 0 0 0 x Z Z V Z V V V V V V V V V V V V V V V V V V V V V V V V V V ",
"e.e.e.e.e.e.e.e.e.e.e.e.e.e.e.e.e.e.e.e.e.e.e.e.e.e.e.e.e.e.e.e.e.e.e.e.e.e.e.e.e.e.e.e.e.e.e.e.e.e.e.e.e.e.e.e.e.e.r.8.8.v.#X$X#X#X#X#X#X#X#X#X#X#X#X#XZ.Z.#X#X#X#X#X#X#X#X#X#X#XA.S.3XZ * 0 8 0 0 0 0 0 0 0 0 0 0 0 0 0 0 0 0 0 0 0 0 0 0 0 0 0 8 8 3.3.i.e.8.e.e.e.e.e.e.e.e.e.e.e.e.e.e.e.e.e.e.e.e.e.e.e.e.e.e.e.e.e.e.e.e.e.e.e.e.e.e.e.r.e.e.e.e.e.e.e.e.e.e.e.e.e.e.e.e.} & 0 8 0 8 0 9 0 0 0 0 0 0 0 0 0 0 0 0 0 0 0 0 8 8 0 9 0 & & S r.r.e.e.e.e.e.e.e.e.e.e.e.e.e.e.e.e.e.e.e.e.e.e.0.e.8.e.e.g.g & 0 0 0 0 0 0 0 0 0 0 0 0 0 0 0 0 0 0 0 0 0 0 0 0 & 0 0 0 % l.w.r.e.e.e.e.e.e.e.e.e.e.e.e.e.e.e.e.e.e.e.e.e.e.e.e.e.e.e.e.e.e.e.e.e.e.e.e.e.e.e.e.e.e.e.e.e.e.e.e.e.e.e.e.e.e.e.e.e.p.V & 7 9 0 7 0 0 0 0 0 0 0 0 0 0 0 0 0 0 0 0 0 0 0 0 0 0 0 0 o S i.r.e.e.e.r.e.e.e.e.e.e.e.e.e.e.e.e.e.e.e.e.e.e.e.e.e.e.e.e.#.#.#.#.#.#.#.#.#.#.#.#.#.#.#.#.#.#.#.#.#.#.#.#.#.S >.#.>.>.#.w.8.e.e.e.e.e.e.e.e.e.e.e.e.e.e.e.e.e.e.e.e.e.e.e.8.e.r.8.r.1.x Z V V V V V V V V V V V V V V V V V V V V V V V V V V V V x 8 & 0 0 0 0 0 0 0 0 0 0 0 0 0 0 0 0 0 0 0 0 0 0 0 0 0 0 0 0 x Z Z V Z V V V V V V V V V V V V V V V V V V V V V V V V V V ",
"e.e.e.e.e.e.e.e.e.e.e.e.e.e.e.e.e.e.e.e.e.e.e.e.e.e.e.e.e.e.e.e.e.e.e.e.e.e.e.e.e.e.e.e.e.e.e.e.e.e.e.e.e.e.e.e.e.e.r.8.9.v.#X$X#X#X#X#X#X#X#X#X#X#XZ.Z.Z.Z.#X#X#X#X#X#X#X#X#X#X#XA.S.3XZ * 0 8 0 0 0 0 0 0 0 0 0 0 0 0 0 0 0 0 0 0 0 0 0 0 0 0 0 8 8 3.3.p.e.8.e.e.e.e.e.e.e.e.e.e.e.e.e.e.e.e.e.e.e.e.e.e.e.e.e.e.e.e.e.e.e.e.e.e.e.e.e.e.e.r.e.e.e.e.e.e.e.e.e.e.e.e.e.e.e.e.} & 0 8 0 8 0 9 0 0 0 0 0 0 0 0 0 0 0 0 0 0 0 0 0 0 0 9 0 & & S r.r.e.e.e.e.e.e.e.e.e.e.e.e.e.e.e.e.e.e.e.e.e.e.0.e.0.e.e.g.g & 0 0 0 0 0 0 0 0 0 0 0 0 0 0 0 0 0 0 0 0 0 0 0 0 & 0 0 0 % f.w.r.e.e.e.e.e.e.e.e.e.e.e.e.e.e.e.e.e.e.e.e.e.e.e.e.e.e.e.e.e.e.e.e.e.e.e.e.e.e.e.e.e.e.e.e.e.e.e.e.e.e.e.e.e.e.e.e.e.z.V & 9 9 0 7 0 0 0 0 0 0 0 0 0 0 0 0 0 0 0 0 0 0 0 0 0 0 0 0 o S i.r.e.e.e.r.e.e.e.e.e.e.e.e.e.e.e.e.e.e.e.e.e.e.e.e.e.e.e.e.#.#.#.#.#.#.#.#.#.#.#.#.#.#.#.#.#.#.#.#.#.#.#.#.#.S >.#.>.>.#.w.8.e.e.e.e.e.e.e.e.e.e.e.e.e.e.e.e.e.e.e.e.e.e.e.8.e.r.8.r.1.x Z V V V V V V V V V V V V V V V V V V V V V V V V V V V V x 8 & 0 0 0 0 0 0 0 0 0 0 0 0 0 0 0 0 0 0 0 0 0 0 0 0 0 0 0 0 x Z Z V Z V V V V V V V V V V V V V V V V V V V V V V V V V V ",
"e.e.e.e.e.e.e.e.e.e.e.e.e.e.e.e.e.e.e.e.e.e.e.e.e.e.e.e.e.e.e.e.e.e.e.e.e.e.e.e.e.e.e.e.e.e.e.e.e.e.e.e.e.e.e.e.e.e.r.8.9.v.#X$XZ.Z.Z.#X#XZ.Z.Z.#XZ.Z.#X#X#X#X#XZ.#X#X#X#X#X#X#X#XA.A.3XZ * 0 8 0 0 0 0 0 0 0 0 0 0 0 0 0 0 0 0 0 0 0 0 0 0 0 0 0 0 8 3.3.i.r.e.e.e.e.e.e.e.e.e.e.e.e.e.e.e.e.e.e.e.e.e.e.e.e.e.e.e.e.e.e.e.e.e.e.e.r.e.e.e.e.r.e.e.e.e.e.e.e.e.e.e.e.e.e.e.e.e.} & s 8 0 8 0 9 0 0 0 0 0 0 0 0 0 0 0 0 0 0 0 0 0 0 0 * t = & S r.r.e.e.e.e.e.e.e.e.e.e.e.e.e.e.e.e.e.e.e.e.e.e.0.e.w.e.e.g.g & 0 0 0 0 0 0 0 0 0 0 0 0 0 0 0 0 0 0 0 0 0 0 0 0 & 0 0 0 - f.w.r.e.e.e.e.e.e.e.e.e.e.e.e.e.e.e.e.e.e.e.e.e.e.e.e.e.e.e.e.e.e.e.e.e.e.e.e.e.e.e.e.e.e.e.e.e.e.e.e.e.e.e.e.e.e.e.e.e.l.V * 9 9 0 7 0 0 0 0 0 0 0 0 0 0 0 0 0 0 0 0 0 0 0 0 0 0 0 0 o S i.r.8.8.e.r.e.e.e.e.e.e.e.e.e.e.e.e.e.e.e.e.e.e.e.e.e.e.e.e.#.#.#.#.#.#.#.#.#.#.#.#.#.#.#.#.#.#.#.#.#.#.#.#.#.S >.#.>.>.#.w.e.e.e.e.e.e.e.e.e.e.e.e.e.e.e.e.e.e.e.e.e.e.e.e.e.e.r.e.r.1.x Z V V V V V V V V V V V V V V V V V V V V V V V V V V V V x 8 & 0 0 0 0 0 0 0 0 0 0 0 0 0 0 0 0 0 0 0 0 0 0 0 0 0 0 0 0 x Z Z V Z V V V V V V V V V V V V V V V V V V V V V V V V V V ",
"e.e.e.e.e.e.e.e.e.e.e.e.e.e.e.e.e.e.e.e.e.e.e.e.e.e.e.e.e.e.e.e.e.e.e.e.e.e.e.e.e.e.e.e.e.e.e.e.e.e.e.e.e.e.e.e.e.e.r.8.8.v.#X$X#X#XZ.#X#XZ.Z.#X#XZ.#X#X#X#X#X#XZ.#X#X#X#X#X#X#X#XA.S.3XZ * 0 8 0 0 0 0 0 0 0 0 0 0 0 0 0 0 0 0 0 0 0 0 0 0 0 0 0 8 a 3.3.p.q.8.e.e.e.e.e.e.e.e.e.e.e.e.e.e.e.e.e.e.e.e.e.e.e.e.e.e.e.e.e.e.e.e.e.e.r.r.e.e.e.e.e.e.e.e.e.e.e.e.e.e.e.e.e.e.e.e.} & s 8 0 8 0 9 0 0 0 0 0 0 0 0 0 0 0 0 0 0 0 0 0 0 t 9 t = & S r.r.e.e.e.e.e.e.e.e.e.e.e.e.e.e.e.e.e.e.e.e.e.e.0.e.0.e.e.g.g & 0 0 0 0 0 0 0 0 0 0 0 0 0 0 0 0 0 0 0 0 0 0 0 0 & 0 0 0 - f.w.r.e.e.e.e.e.e.e.e.e.e.e.e.e.e.e.e.e.e.e.e.e.e.e.e.e.e.e.e.e.e.e.e.e.e.e.e.e.e.e.e.e.e.e.e.e.e.e.e.e.e.e.e.e.e.e.e.e.l.Z & 9 9 0 7 0 0 0 0 0 0 0 0 0 0 0 0 0 0 0 0 0 0 0 0 0 0 0 0 o S i.r.8.8.e.r.e.e.e.e.e.e.e.e.e.e.e.e.e.e.e.e.e.e.e.e.e.e.e.e.#.#.#.#.#.#.#.#.#.#.#.#.#.#.#.#.#.#.#.#.#.#.#.#.#.S >.#.1.>.#.w.8.e.e.e.e.e.e.e.e.e.e.e.e.e.e.e.e.e.e.e.e.e.e.e.8.e.r.e.r.1.x Z V V V V V V V V V V V V V V V V V V V V V V V V V V V V x 8 & 0 0 0 0 0 0 0 0 0 0 0 0 0 0 0 0 0 0 0 0 0 0 0 0 0 0 0 0 x Z Z V Z V V V V V V V V V V V V V V V V V V V V V V V V V V ",
"e.e.e.e.e.e.e.e.e.e.e.e.e.e.e.e.e.e.e.e.e.e.e.e.e.e.e.e.e.e.e.e.e.e.e.e.e.e.e.e.e.e.e.e.e.e.e.e.e.e.e.e.e.e.e.e.e.e.r.8.9.v.#X$X#X#X#X#X#X#X#X#X#X#X#X#X#X#X#X#X#X#X#X#XZ.Z.Z.#X$XA.S.3XZ * 0 8 0 0 0 0 0 0 0 0 0 0 0 0 0 0 0 0 0 0 0 0 0 0 0 0 0 0 a 3.0.p.r.r.e.e.e.e.e.e.e.e.e.e.e.e.e.e.e.e.e.e.e.e.e.e.e.e.e.e.e.e.e.e.e.e.e.e.e.e.e.e.e.e.r.e.e.e.e.r.r.e.e.e.e.e.e.e.e.e.} & s 8 0 8 0 9 0 0 0 0 0 0 0 0 0 0 0 0 0 0 0 0 0 0 t 9 t = & } r.r.e.e.e.e.e.e.e.e.e.e.e.e.e.e.e.e.e.e.e.e.e.e.0.e.8.e.e.g.g & 0 0 0 0 0 0 0 0 0 0 0 0 0 0 0 0 0 0 0 0 0 0 0 0 & 0 0 0 - f.w.r.e.e.e.e.e.e.e.e.e.e.e.e.e.e.e.e.e.e.e.e.e.e.e.e.e.e.e.e.e.e.e.e.e.e.e.e.e.e.e.e.e.e.e.e.e.e.e.e.e.e.e.e.e.e.e.e.e.z.V & 9 9 0 9 0 0 0 0 0 0 0 0 0 0 0 0 0 0 0 0 0 0 0 0 0 0 0 0 o S i.r.8.8.w.r.e.e.e.e.e.e.e.e.e.e.e.e.e.e.e.e.e.e.e.e.e.e.e.e.#.#.#.#.#.#.#.#.#.#.#.#.#.#.#.#.#.#.#.#.#.#.#.#.#.S >.#.>.>.#.w.8.8.e.e.e.e.e.e.e.e.e.e.e.e.8.8.e.e.e.e.e.e.e.e.8.e.r.e.r.1.x Z V V V V V V V V V V V V V V V V V V V V V V V V V V V V x 8 & 0 0 0 0 0 0 0 0 0 0 0 0 0 0 0 0 0 0 0 0 0 0 0 0 0 0 0 0 x Z Z V Z V V V V V V V V V V V V V V V V V V V V V V V V V V ",
"e.e.e.e.e.e.e.e.e.e.e.e.e.e.e.e.e.e.e.e.e.e.e.e.e.e.e.e.e.e.e.e.e.e.e.e.e.e.e.e.e.e.e.e.e.e.e.e.e.e.e.e.e.e.e.e.e.e.r.q.8.v.#X$X#X#X#X#X#X#X#X#X#X#X#X#X#X#X#X#X#X#X#X#XZ.Z.Z.Z.$XA.S.3XZ * 0 8 0 0 0 0 0 0 0 0 0 0 0 0 0 0 0 0 0 0 0 0 0 0 0 0 0 0 a 3.0.p.r.e.e.e.e.e.e.e.e.e.e.e.e.e.e.e.e.e.e.e.e.e.e.e.e.e.e.e.e.e.e.e.e.e.e.e.e.e.e.e.e.e.r.r.e.e.e.e.e.e.e.e.e.e.e.e.e.e.} & s 8 0 8 0 9 0 0 0 0 0 0 0 0 0 0 0 0 0 0 0 0 0 0 t 9 t = & } r.r.e.e.e.e.e.e.e.e.e.e.e.e.e.e.e.e.e.e.e.e.e.e.0.e.8.r.e.g.g & 0 0 0 0 0 0 0 0 0 0 0 0 0 0 0 0 0 0 0 0 0 0 0 0 & 0 0 0 - f.w.r.e.e.e.e.e.e.e.e.e.e.e.e.e.e.e.e.e.e.e.e.e.e.e.e.e.e.e.e.e.e.e.e.e.e.e.e.e.e.e.e.e.e.e.e.e.e.e.e.e.e.e.e.e.e.e.e.e.z.V = 9 9 0 9 0 0 0 0 0 0 0 0 0 0 0 0 0 0 0 0 t t t t t t t t o S i.r.8.8.e.r.e.e.e.e.e.e.e.e.e.e.e.e.e.e.e.e.e.e.e.e.e.e.e.e.#.#.#.#.#.#.#.#.#.#.#.#.#.#.#.#.#.#.#.#.#.#.#.#.#.S >.#.>.>.#.w.8.8.e.e.e.e.e.e.e.e.e.e.e.e.8.8.e.e.e.e.e.e.e.e.8.e.r.e.r.1.x Z V V V V V V V V V V V V V V V V V V V V V V V V V V V V x 8 & 0 0 0 0 0 0 0 0 0 0 0 0 0 0 0 0 0 0 0 0 0 0 0 0 0 0 0 0 x Z Z V Z V V V V V V V V V V V V V V V V V V V V V V V V V V ",
"0.0.0.0.0.0.0.0.0.0.0.0.0.0.0.0.0.0.0.0.0.0.0.0.q.q.r.r.w.w.r.z.8.8.e.e.e.e.e.e.e.e.e.e.e.e.e.e.e.e.e.e.e.e.e.e.0.0.e.8.q.n.#XZ.$X$X$X$X$X$X$X$X$X$X$X$X$X$X$X$X#X#X#X#X#X#X#X#XaXA.4X9Xn & - = 8 8 0 8 0 8 8 8 = = = = = = = = & = = = = = 0 = z & s 1.z.8.8.8.e.e.e.e.e.e.e.e.e.e.e.e.e.e.e.e.e.e.e.e.e.e.e.e.q.m.8.r.w.e.e.r.e.e.e.e.e.e.e.e.e.e.e.e.e.e.e.e.e.e.e.e.e.e.e.e.X.% 0 0 & 0 = = = = = = = = = = = = = = = = = = : & * t * % f A e.e.e.e.e.e.e.e.e.e.e.e.e.e.e.e.e.e.e.e.e.e.e.e.e.8.r.e.w.l.d & 0 0 0 0 0 0 0 0 0 0 0 0 0 0 0 0 0 0 0 0 0 0 0 0 0 0 0 0 - f.0.q.8.8.e.e.e.e.e.e.e.e.e.e.e.e.e.e.e.e.e.e.e.e.e.e.r.p.r.e.q.e.;.q.e.e.e.e.e.e.e.e.8.e.e.e.8.8.8.8.q.q.q.q.q.q.q.q.r.e.A 0 * * * 0 0 = = = = = = = = = = = = = = = = = = 0 9 9 9 9 @ %.r.e.8.r.r.2.e.e.e.e.e.e.e.e.e.e.e.e.e.e.e.e.e.e.e.e.e.e.e.e.#.#.#.S S S S #.S S S S S S S S S S S S S S S S } } 1.1.*.#.#.i.e.e.e.e.e.e.e.e.e.e.e.e.e.e.e.e.e.e.e.e.e.e.e.e.8.z.e.e.e.#.A V Z Z Z Z Z Z Z Z V V V V V V V V V V V V V V V V C b b Z g 8 0 8 0 0 0 0 0 0 0 0 0 0 0 0 0 0 0 0 0 0 0 0 0 0 0 0 * 0 - m n A A A V V b b C C C C V C n b V V C C C C V b b b V V C C ",
"8.8.8.8.8.8.8.8.8.8.8.8.8.8.8.8.8.8.8.8.8.8.8.8.9.9.r.r.w.8.r.8.r.r.r.r.r.r.g.g.r.r.r.r.r.r.r.r.r.r.r.r.r.r.r.r.r.e.i.r.r.M.%X#X$X$X$X$X$X$X%X%X#X#X$X$X%X%X$X$X$X$X$X$X$X$X$X$XpXA.4X5XA a & 0 X X X X X X X X & & & & & & - & o o & & & - - - s o a #.e.8.8.q.e.e.e.e.e.e.e.e.e.e.e.e.e.e.e.e.e.e.e.e.e.e.e.e.q.z.5.f.f.l.g.z.i.l.i.l.l.l.l.l.i.l.l.l.l.l.l.l.l.l.l.l.l.l.l.l.m - 0 0 & s & & & & & & & & - & & & & & & & & & @ X * 9 * % a k e.e.e.e.e.e.e.e.e.e.e.e.e.e.e.e.e.e.e.e.e.e.e.e.e.8.r.e.w.l.d & 0 0 0 0 0 0 0 0 0 0 0 0 0 0 0 0 0 0 0 0 0 0 0 0 0 0 0 0 - s.0.q.e.8.e.e.e.e.e.e.e.e.e.e.e.e.e.e.e.e.e.e.e.e.e.e.r.r.r.8.q.8.;.8.8.8.8.8.8.8.8.8.8.8.8.8.8.8.8.8.q.q.9.9.q.q.q.q.8.8.C & - * - & & & & & & & & & & & & & & & - & & - & - - - % % h #.r.e.8.r.r.8.e.e.e.e.e.e.e.e.e.e.e.e.e.e.e.e.e.e.e.e.e.e.e.e.$.$.*.1.1.1.>.>.1.1.1.1.1.1.1.1.1.1.1.1.1.1.1.1.} } 1.>.#.S S i.r.r.r.r.r.r.r.r.r.r.r.r.r.r.r.r.r.r.r.r.r.r.r.r.e.z.r.r.e.#.A b b b b b b b b b j j j j j j j j j j j j j j j j k b b Z f - 8 8 0 0 0 0 0 0 0 0 0 0 0 0 0 0 0 0 0 0 0 0 0 0 0 0 0 0 - m b b b j C C b C C C C C C C b b C C C C C C C C b b b C C C ",
"n.n.n.n.n.n.n.n.n.n.n.n.n.n.n.n.n.n.n.n.n.n.n.n.v.m.M.m.n.V.n.$.2.2.2.2.3.3.3.3.3.3.3.3.3.3.3.3.2.2.2.2.2.2.2.2.2.2.2.2.8.v.M.m.v.v.v.v.v.v.v.v.v.v.v.v.v.v.v.v.m.m.m.m.m.m.m.m.b.c.m.B.*.C V A A A A A A A A A S S S S S S S S A A A A D D D D A b C 2.e.r.q.q.e.e.e.e.e.e.e.e.e.e.e.e.e.e.e.e.e.e.e.e.e.e.e.e.8.w.V Z Z D V V V V V V V V V V V V V V V V V V V V V V V V V V S S >.D S >.A >.S S S S S A A S S S S S S S S S %.A D } | V #.8.e.e.e.e.e.e.e.e.e.e.e.e.e.e.e.e.e.e.e.e.e.e.e.e.e.8.r.e.w.l.d & 0 0 0 0 0 0 0 0 0 0 0 0 0 0 0 0 0 0 0 0 0 0 0 0 0 0 0 0 - s.3.e.8.8.8.8.8.8.e.e.8.8.8.8.e.8.8.8.8.8.e.e.8.8.8.8.8.r.e.r.v.n.v.M.m.m.n.n.m.m.m.m.v.v.v.v.v.v.v.v.v.v.v.v.v.v.v.v.M.M.r.#.D D A S S S A S S A S S S S S S S S S S S S A D A D A D C =.e.r.e.r.e.0.e.e.e.e.e.e.e.e.e.e.e.e.e.e.e.e.e.e.e.e.e.e.e.e.k k j g x x x x x x x x x x x x x x x x x x x x x x V x g g j 1.2.2.2.2.2.2.2.2.3.3.3.3.3.3.3.3.3.3.3.3.3.3.3.3.2.w.2.8.8.2.t.w.e.e.e.r.e.e.e.e.e.e.e.e.e.e.e.e.e.e.e.e.e.e.e.e.p.z.z.l.D 8 0 0 0 0 0 0 0 0 0 0 0 0 0 0 0 0 0 0 0 0 0 0 0 0 0 0 0 0 & } S >.#.>.$.$.#.#.$.$.$.$.$.$.#.#.$.$.$.$.$.$.$.$.$.$.$.$.$.$.",
"%X%X%X%X%X%X%X%X%X%X%X%X%X%X%X%X%X%X%X%X%X%X%X%X#X$X4X#X#X5XB.$.%.%.%.#.#.#.#.#.#.#.#.#.#.#.#.#.#.#.#.#.#.#.#.#.A A #.%.%.8.r.q.8.8.8.8.9.9.8.9.9.9.9.9.8.8.8.8.9.9.9.9.9.9.9.9.:.;.q.v.e.-.3.e.e.e.e.e.e.e.e.e.r.r.r.r.e.e.e.e.r.e.e.e.r.r.w.w.g.e.t.r.r.r.t.q.e.e.e.e.e.e.e.e.e.e.e.e.e.e.e.e.e.e.e.e.e.e.e.e.r.5.& * % = - o & & * * * * & & & & * * * * & & & & & & & & & & A w.i.3.r.r.8.r.e.r.r.r.e.e.e.e.e.e.e.e.r.r.r.e.8.8.w.f.6.2.8.q.e.e.e.e.e.e.e.e.e.e.e.e.e.e.e.e.e.e.e.e.e.e.e.e.e.8.r.e.w.l.d & 0 0 0 0 0 0 0 0 0 0 0 0 0 0 0 0 0 0 0 0 0 0 0 0 0 0 0 0 - j.3.e.8.8.8.8.8.8.8.e.8.8.8.8.e.e.8.8.8.8.8.8.8.8.8.e.8.8.8.p.B.%X+X6X%X%X%X%X%X%X%X%X%X%X%X%X%X%X%X%X#X#X#X#X#X#X#X#X#X$XM.e.e.e.0.8.e.e.e.e.e.e.e.e.r.r.r.r.e.e.e.e.e.e.e.e.e.e.e.e.=.8.e.r.r.r.e.e.e.e.e.e.e.e.e.e.e.e.e.e.e.e.e.e.e.e.e.e.e.e.e.e.h a a 8 8 8 a a s s s s s s s s s s s s s s s s 8 & 0 & 8 8 a V #.#.#.#.#.#.#.#.#.#.#.#.#.#.#.#.#.#.#.#.#.#.#.#.#.$.%.%.$.w.H.1X#X#X#X#X#X#X#X#X#X#X#X#X#X#X#X#X#X#X#X#X#X#X#X#X6X5X7X1X1.& 8 0 0 0 0 0 0 0 0 0 0 0 0 0 0 0 0 0 0 0 0 0 0 0 0 0 0 0 0 1.6.g.g.z.r.r.r.r.r.r.r.r.r.r.r.r.r.r.r.r.r.r.r.r.r.r.r.r.r.r.",
"#X#X#X#X#X#X#X#X#X#X#X#X#X#X#X#X#X#X#X#X#X#X#X#X#X$X$X#X%X9XB.%.#.#.#.#.#.#.#.>.#.#.#.#.#.#.#.#.#.#.#.#.#.#.#.#.#.A #.#.%.2.r.q.8.8.8.8.8.8.8.8.q.q.8.8.8.8.8.8.8.8.8.8.8.8.8.8.q.:.q.p.q.0.0.e.8.8.e.e.8.e.8.8.8.q.8.q.q.q.8.8.8.8.8.8.8.w.w.e.r.e.e.8.r.r.r.r.e.e.e.e.e.e.e.e.e.e.e.e.e.e.e.e.e.e.e.e.e.e.e.e.z.6.0 * % 0 0 8 9 9 9 9 9 9 9 9 9 9 9 9 9 9 9 9 9 9 9 9 9 9 9 9 h e.e.2.e.e.8.w.q.q.q.q.8.8.8.8.8.8.8.q.q.q.8.8.;.8.0.0.0.=.=.8.e.e.e.e.e.e.e.e.e.e.e.e.e.e.e.e.e.e.e.e.e.e.e.e.e.8.r.e.w.l.d & 0 0 0 0 0 0 0 0 0 0 0 0 0 0 0 0 0 0 0 0 0 0 0 0 0 0 0 0 - f.3.e.8.8.8.8.8.8.8.8.8.0.0.0.8.8.8.8.8.8.8.8.8.8.8.8.8.8.8.r.M.#X#X#X%X%X%X%X%X%X%X$X%X%X%X%X%X%X%X%X$X$X$X$X$X$X$X$XC.C.m.8.8.8.0.:.q.q.q.q.8.8.8.8.8.8.8.q.q.q.q.8.8.8.q.8.e.8.0.0.e.8.8.r.r.r.e.e.e.e.e.e.e.e.e.e.e.e.e.e.e.e.e.e.e.e.e.e.e.e.e.e., a 8 8 8 8 & = 0 0 0 0 0 0 0 0 0 0 0 0 0 0 0 0 0 8 0 8 8 8 s D #.#.#.#.#.#.#.#.#.#.#.#.#.#.#.#.#.#.#.#.#.#.#.#.>.>.#.%.%.w.7X5X#X#X#X#X#X#X#X#X#X#X#X#X#X#X#X#X#X#X#X#X#X#X#X#X#X#X3X1X1.& & 0 0 0 0 0 0 0 0 0 0 0 0 0 0 0 0 0 0 0 0 0 0 0 0 0 0 0 & 1.w.r.r.r.r.r.r.r.r.r.r.r.r.r.r.r.r.r.r.r.r.r.r.r.r.r.r.r.r.r.",
"C.C.C.C.C.C.Z.Z.C.C.C.C.Z.Z.Z.Z.C.C.C.C.C.C.Z.Z.#X#X$X#X#X6Xm.%.$.$.$.$.>.>.>.>.$.$.$.$.$.$.$.$.$.$.>.$.>.>.$.>.1.>.#.#.#.8.r.8.r.r.e.e.r.r.r.r.r.r.r.r.r.r.r.r.8.8.8.8.8.8.8.8.q.q.r.8.r.8.8.8.8.8.8.8.8.8.8.8.8.8.8.8.8.8.8.8.:.:.0.0.0.0.0.0.8.8.8.8.e.r.r.r.e.e.e.e.e.e.e.e.e.e.e.e.e.e.e.e.e.e.e.e.e.e.e.e.r.5.s 0 0 t q 8 0 9 0 9 0 0 0 0 0 9 0 0 0 0 0 0 9 0 0 9 0 0 0 0 h p.p.8.r.e.w.r.8.8.8.8.8.8.8.8.8.8.8.8.8.8.8.8.8.8.8.8.8.8.0.8.e.e.e.e.e.e.e.e.e.e.e.e.e.e.e.e.e.e.e.e.e.e.e.e.e.8.r.e.w.l.d & 0 0 0 0 0 0 0 0 0 0 0 0 0 0 0 0 0 0 0 0 0 0 0 0 0 0 0 0 - f.0.q.8.8.8.8.8.8.8.8.8.8.0.0.8.8.8.8.8.8.8.8.8.8.8.8.0.8.8.r.Z.$X$X$X#X#X%X%X#X#X#X#X#X#X#X#X#X#X#X#X#X#X#X#X#X#X#X#XC.#XM.r.e.r.9.q.8.8.8.8.8.8.8.8.8.8.8.8.8.8.8.8.8.8.8.8.8.8.0.0.e.e.8.r.r.e.e.e.e.e.e.e.e.e.e.e.e.e.e.e.e.e.e.e.e.e.e.e.e.e.e.e.: & & 8 * * * = * * * * * * * * * * * * * * * * 0 0 0 0 0 0 f ..>.>.>.>.>.>.>.>.$.$.$.$.$.$.$.#.$.$.$.$.$.$.$.$.S >.>.>.#.8.5X#X#X#X#X#X#X#X#X#X#X#X#X#X#X#X#X#X#X#X#X#X#X#X#X#XA.Z.#X1X2.& 0 v 0 0 0 0 0 0 0 0 0 0 0 0 0 0 0 0 0 0 0 0 0 0 0 0 0 & o 1.w.r.8.e.q.q.q.q.q.q.q.q.q.q.q.q.q.q.q.q.q.q.q.q.q.q.e.e.q.q.",
"#X#X#X#X#X#X#X#X#X#X#X#X#X#X#X#X#X#X#X#X#X#X#X#X#X#X#X#X%X6XV.%.#.#.#.#.#.>.>.>.#.#.#.#.#.#.#.#.>.>.>.>.>.>.>.>.1.#.>.#.%.2.r.w.e.e.e.e.e.e.e.e.e.e.e.e.e.e.e.e.0.0.0.0.0.0.0.0.0.e.r.8.p.8.q.q.8.8.8.8.8.8.8.8.8.8.8.8.8.8.8.8.;.;.0.0.0.3.3.3.e.8.e.e.e.e.e.e.e.e.e.e.e.e.e.e.e.e.e.e.e.e.e.e.e.e.e.e.e.e.e.e.e.2.a 8 * 8 % 7 0 0 0 0 0 0 0 0 0 0 0 0 0 0 0 0 0 0 0 0 0 0 0 0 j i.r.w.e.w.r.t.8.8.8.8.8.8.8.8.8.8.8.8.8.8.8.8.e.e.8.8.8.8.e.e.e.e.e.e.e.e.e.e.e.e.e.e.e.e.e.e.e.e.e.e.e.e.e.e.e.8.r.e.w.l.d & 0 0 0 0 0 0 0 0 0 0 0 0 0 0 0 0 0 0 0 0 0 0 0 0 0 0 0 0 - f.0.q.0.0.0.0.0.0.0.0.0.0.0.0.0.0.0.0.0.0.0.0.0.0.0.0.0.8.8.v.#X6X4XaX#X#X#X#X#X#X#X#X#X#X#X#X#X#X#X#X#X#X#X#X#X#X#X#X#X3XV.e.w.e.q.q.8.8.8.8.8.8.8.8.8.8.8.8.8.8.8.8.8.8.8.8.0.0.0.0.8.8.r.8.8.e.e.8.e.e.e.e.e.e.e.e.e.e.e.e.e.e.e.e.e.e.e.e.e.e.e.e.s s 0 0 0 0 0 0 0 0 0 0 0 0 0 0 0 0 0 0 0 0 0 0 9 9 0 * 0 0 s } >.>.>.>.>.>.>.>.#.#.#.#.#.#.#.#.#.#.#.#.#.#.#.#.A } 1.2.%.r.6X+X#X#X#X#X#X#X#X#X#X#X#X#X#X#X#X#X#X#X#X#X#X#X#X#XS.C.Z.oX2.& - = 0 0 0 0 0 0 0 0 0 0 0 0 0 0 0 0 0 0 0 0 0 0 0 0 8 & X 1.r.p.q.r.e.e.8.q.q.q.q.q.e.e.8.8.q.q.q.q.q.q.q.q.q.e.e.e.q.q.",
"#X#X#X#X#X#X#X#X#X#X#X#X#X#X#X#X#X#X#X#X#X#X#X#X+XC.#X#X#X4Xm.&.#.#.#.>.>.>.>.>.>.>.>.>.>.>.>.>.>.>.>.>.>.>.>.>.1.1.>.#.#.2.r.w.0.0.0.0.0.0.0.0.0.0.0.0.0.0.0.0.e.e.e.e.e.e.e.e.w.e.p.8.r.8.q.q.e.e.e.e.e.e.e.e.8.8.8.8.e.e.e.8.q.8.0.0.0.e.e.e.0.-.0.i.i.0.3.e.e.e.e.e.e.e.e.e.e.e.e.e.e.e.e.e.e.e.e.e.e.e.e.e.r.8.a 8 % 8 q q & 8 8 8 & & & & & 8 8 8 & & & & 8 8 & & & & & & C l.w.w.w.5.g.w.8.8.8.8.e.e.8.8.8.8.8.8.e.8.8.8.w.w.0.0.0.e.r.l.e.e.e.e.e.e.e.e.e.e.e.e.e.e.e.e.e.e.e.e.e.e.e.e.e.8.r.e.t.l.d & 0 0 0 0 0 0 0 0 0 0 0 0 0 0 0 0 0 0 0 0 0 0 0 0 0 0 0 0 - f.0.q.0.0.0.0.0.0.0.0.0.0.0.0.0.0.0.0.0.0.0.0.0.0.0.0.e.e.8.r.C.$XC.C.#X#X#X#X#X#X#X#XZ.Z.Z.Z.C.C.Z.Z.#X#X#X#XZ.Z.Z.#X3X3XN.w.w.e.8.q.e.8.8.8.8.8.8.8.8.8.8.e.e.e.8.8.8.8.8.8.e.e.0.0.=.8.r.8.8.e.e.8.e.e.e.e.e.e.e.e.e.e.e.e.e.e.e.e.e.e.e.e.e.e.e.e.s 0 0 9 9 9 0 = 0 0 0 0 0 0 0 0 0 0 0 0 0 0 0 0 9 9 9 % * 0 f ..>.>.>.>.>.>.>.>.>.>.>.>.>.>.>.>.>.>.>.>.>.>.>.>.} >.5.2.%.9.6XZ.4X4X4X4X4X4X4X4X$X$X$X$X$X$X$X$X$X$X$X$X$X$X$X$XpX#X#X3Xw.s = 0 0 0 0 0 0 0 0 0 0 0 0 0 0 0 0 0 0 0 0 0 0 0 0 0 8 o O 1.e.r.8.q.8.8.8.8.8.8.8.8.8.8.8.8.8.8.8.8.8.8.8.8.8.8.8.8.8.8.",
"$X$X$X$X$X$X$X$X$X$X$X$X$X$X$X$X$X$X$X$X$X$X$X$X#X#XA.$X#X#XB.%.#.#.#.#.#.#.#.#.#.#.#.#.#.#.#.#.#.#.#.#.#.#.#.#.,.} >.>.#.2.e.e.e.e.e.e.e.e.e.e.e.e.e.e.e.e.e.e.e.e.e.e.e.e.e.e.e.e.e.e.8.8.e.e.8.e.e.8.e.e.e.8.8.8.8.8.8.8.8.8.8.8.8.8.8.8.8.8.8.8.e.e.e.e.e.e.e.e.e.e.e.e.e.e.e.e.e.e.e.e.e.e.e.e.e.e.e.e.e.e.e.5.a 0 = 0 & & 0 0 0 0 0 0 0 0 0 0 0 0 0 0 0 0 0 0 0 0 0 0 8 8 V w.e.8.r.w.8.0.8.8.8.e.e.e.8.8.8.e.e.e.8.8.8.8.8.8.e.e.e.e.e.8.e.e.e.e.e.e.e.e.e.e.e.e.e.e.e.e.e.e.e.e.e.e.e.e.0.0.e.e.w.l.f 8 0 0 0 0 0 0 0 0 0 0 0 0 0 0 0 0 0 0 0 0 0 0 0 0 = 0 0 0 - f.8.q.8.8.8.e.e.8.8.8.8.8.8.8.8.8.e.e.e.e.e.e.8.8.8.8.8.0.w.v.#X$XZ.#X$X$X$X$X$X$X$X$X$X$X$X$X$X$X$X$X#X#X#XZ.Z.Z.#X#X#X#Xm.8.8.0.0.0.8.8.e.e.e.e.e.e.e.e.e.e.e.e.8.8.0.0.0.0.8.8.0.0.8.8.8.8.e.e.e.e.e.e.e.e.e.e.e.e.e.e.e.e.e.e.e.e.e.e.e.e.r.r.e.e.a 8 = 9 0 t 0 & 0 0 0 0 0 0 0 0 0 0 0 0 0 0 0 0 0 * 0 7 8 8 s >.#.#.#.#.#.#.#.#.#.#.#.#.#.#.#.#.#.#.#.#.#.#.#.#.$.#.S >.#.t.5X$XZ.Z.Z.#X#X#X#X#X$X$X$X$X$X$X$X$X$X$X$X$X$X$X$X$X#XZ.4X6X1.X 9 0 0 0 0 0 0 0 0 0 0 0 0 0 0 0 0 0 0 0 0 0 0 0 0 0 8 8 8 1.6.e.8.e.e.e.e.e.e.e.e.e.e.e.e.e.e.e.e.e.e.e.e.e.e.e.e.e.e.e.",
"$X$X$X$X$X$X$X$X$X$X$X$X$X$X$X$X$X$X$X$X$X$X$X$X#X#XA.$X#X#XB.%.#.#.#.#.#.#.#.#.#.#.#.#.#.#.#.#.#.#.#.#.#.#.#.#.,.} >.#.#.2.e.e.e.e.e.e.e.e.e.e.e.e.e.e.e.e.e.e.e.e.e.e.e.e.e.e.e.e.e.e.8.8.e.e.e.e.e.e.e.e.e.8.8.8.8.8.8.8.8.8.8.8.8.8.8.8.8.8.8.8.e.e.e.e.e.e.e.e.e.e.e.e.e.e.e.e.e.e.e.e.e.e.e.e.e.e.e.e.e.e.e.5.a 0 = 0 = & 0 0 0 0 0 0 0 0 0 0 0 0 0 0 0 0 0 0 0 0 0 0 8 8 V w.e.8.r.8.e.0.8.8.e.e.e.e.8.8.8.e.e.e.8.8.8.8.8.8.e.e.e.e.e.e.e.e.e.e.e.e.e.e.e.e.e.e.e.e.e.e.e.e.e.e.e.e.e.e.0.0.e.e.w.l.f 8 0 0 0 0 0 0 0 0 0 0 0 0 0 0 0 0 0 0 0 0 0 0 0 0 = 0 0 0 & f.8.q.e.8.8.8.e.8.e.e.8.8.8.8.e.8.e.e.e.e.e.e.8.8.8.e.8.0.w.v.#X$XC.#X$X$X$X$X$X$X$X$X$X$X$X$X$X$X$X$X#X#X#XZ.#X#X#X#X#X#Xm.8.8.0.0.0.8.8.e.e.e.e.e.e.e.e.e.e.e.e.8.8.0.0.0.0.8.8.8.0.e.e.e.e.e.e.e.e.e.e.e.e.e.e.e.e.e.e.e.e.e.e.e.e.e.e.e.e.r.r.e.e.a a = 9 0 t 0 & 0 0 0 0 0 0 0 0 0 0 0 0 0 0 0 0 0 7 0 7 8 8 s >.#.#.#.#.#.#.#.#.#.#.#.#.#.#.#.#.#.#.#.#.#.#.#.#.$.#.S >.#.t.5X$XZ.Z.#X#X#X#X#X#X$X$X$X$X$X$X$X$X$X$X$X$X$X$X$X$X#XZ.4X6X1.X 9 0 0 0 0 0 0 0 0 0 0 0 0 0 0 0 0 0 0 0 0 0 0 0 0 0 8 8 4 1.6.e.8.e.e.e.e.e.e.e.e.e.e.e.e.e.e.e.e.e.e.e.e.e.e.e.e.e.e.e.",
"$X$X$X$X$X$X$X$X$X$X$X$X$X$X$X$X$X$X$X$X$X$X$X$X#X#XA.$X#X#XB.%.#.#.#.#.#.#.#.#.#.#.#.#.#.#.#.#.#.#.#.#.#.#.#.#.,.} >.#.#.2.e.e.e.e.e.e.e.e.e.e.e.e.e.e.e.e.e.e.e.e.e.e.e.e.e.e.e.e.e.e.8.8.8.e.8.8.e.e.e.e.e.e.e.e.8.8.8.8.e.e.8.8.8.8.e.8.e.e.e.e.e.e.e.e.e.e.e.e.e.e.e.e.e.e.e.e.e.e.e.e.e.e.e.e.e.e.e.e.e.e.e.5.a 0 0 0 8 8 0 0 0 0 0 0 0 0 0 0 0 0 0 0 0 0 0 0 0 0 0 0 8 8 V w.e.8.r.w.8.0.8.8.8.8.e.e.e.8.8.8.e.e.e.e.8.8.8.8.8.8.8.8.e.e.e.e.e.e.e.e.e.e.e.e.e.e.e.e.e.e.e.e.e.e.e.e.e.e.0.e.e.e.w.l.f 8 0 0 0 0 0 0 0 0 0 0 0 0 0 0 0 0 0 0 0 0 0 0 0 0 = 0 0 0 & f.8.q.e.e.e.8.8.e.e.e.8.8.e.e.e.e.e.e.e.e.e.e.8.8.e.e.8.8.w.v.#X$XC.#X$X$X$X$X$X$X$X$X$X$X$X$X$X$X$X$X#X#X#X#X#X#X#X#X#X#Xm.8.8.0.0.0.8.8.8.e.8.8.e.8.8.8.8.8.e.8.8.8.8.8.0.0.8.0.0.0.e.e.e.e.e.e.e.e.e.e.e.e.e.e.e.e.e.e.e.e.e.e.e.e.e.e.e.e.r.r.e.e.a a = 9 0 t 0 & 0 0 0 0 0 0 0 0 0 0 0 0 0 0 0 0 0 9 0 7 8 8 s >.#.#.$.$.#.#.#.#.#.#.#.#.#.#.#.#.#.#.#.#.#.#.#.#.$.#.S >.#.t.5X$X#X#X#X#X#X#X#X#X$X$X$X$X$X$X$X$X$X$X$X$X$X$X$X$X#XZ.4X6X1.X 7 0 0 0 0 0 0 0 0 0 0 0 0 0 0 0 0 0 0 0 0 0 0 0 0 0 8 8 4 1.6.e.e.e.e.e.e.e.e.e.e.e.e.e.e.e.e.e.e.e.e.e.e.e.e.e.e.e.e.e.",
"$X$X$X$X$X$X$X$X$X$X$X$X$X$X$X$X$X$X$X$X$X$X$X$X#X#XA.$X#X#XB.%.#.#.#.#.#.#.#.#.#.#.#.#.#.#.#.#.#.#.#.#.#.#.#.#.,.} >.#.#.2.e.e.e.e.e.e.e.e.e.e.e.e.e.e.e.e.e.e.e.e.e.e.e.e.e.e.e.e.e.e.8.8.8.8.8.8.8.e.e.e.e.e.e.e.e.8.8.8.e.e.e.8.8.8.e.e.e.e.e.e.e.e.e.e.e.e.e.e.e.e.e.e.e.e.e.e.e.e.e.e.e.e.e.e.e.e.e.e.e.e.e.5.a 0 0 0 & 8 0 0 0 0 0 0 0 0 0 0 0 0 0 0 0 0 0 0 0 0 0 0 8 8 V w.e.w.r.w.8.0.8.8.8.8.e.e.e.e.8.8.e.e.e.e.8.8.e.e.8.8.8.8.8.8.e.e.e.e.e.e.e.e.e.e.e.e.e.e.e.e.e.e.e.e.e.e.e.e.0.0.e.e.w.l.f 8 0 0 0 0 0 0 0 0 0 0 0 0 0 0 0 0 0 0 0 0 0 0 0 0 = 0 0 0 & f.8.q.e.e.8.8.8.e.e.e.e.e.e.e.e.e.e.e.e.e.8.8.8.8.e.e.8.8.w.v.#X$XZ.#X$X$X$X$X$X$X$X$X$X$X$X$X$X$X$X$X#X#X#X#X#X#X#X#X#X#Xm.8.8.0.0.0.8.8.8.8.8.8.8.8.8.8.8.8.e.8.8.8.8.8.0.0.0.0.0.0.8.e.e.e.e.e.e.e.e.e.e.e.e.e.e.e.e.e.e.e.e.e.e.e.e.e.e.e.r.r.e.e.a a = 9 0 t 0 & 0 0 0 0 0 0 0 0 0 0 0 0 0 0 0 0 0 9 0 7 8 8 s >.#.#.$.$.#.#.#.#.#.#.#.#.#.#.#.#.#.#.#.#.#.#.#.#.$.#.S >.#.t.5X$X#X#X#X#X#X#X#X#X$X$X$X$X$X$X$X$X$X$X$X$X$X$X$X$X#XZ.4X6X1.X 7 0 0 0 0 0 0 0 0 0 0 0 0 0 0 0 0 0 0 0 0 0 0 0 0 0 & 8 o 1.6.e.e.q.e.e.e.e.e.e.e.e.e.e.e.e.e.e.e.e.e.e.e.e.e.e.e.e.e.e.",
"$X$X$X$X$X$X$X$X$X$X$X$X$X$X$X$X$X$X$X$X$X$X$X$X#X#XA.$X$X#XB.%.#.#.#.#.#.#.#.#.#.#.#.#.#.#.#.#.#.#.#.#.>.>.#.#.,.} >.#.#.2.e.e.e.e.e.e.e.e.e.e.e.e.e.e.e.e.e.e.e.e.e.e.e.e.e.e.e.e.e.e.8.8.e.e.8.8.e.e.e.e.8.8.e.e.8.8.8.8.e.e.e.e.8.8.8.8.e.e.e.e.8.e.e.e.e.e.e.e.e.e.e.e.e.e.e.e.e.e.e.e.e.e.e.e.e.e.e.e.e.e.e.2.a 0 = 0 & & 0 0 0 0 0 0 0 0 0 0 0 0 0 0 0 0 0 0 0 0 8 8 8 8 V w.e.8.r.w.8.0.e.e.e.e.8.8.8.8.8.8.8.8.e.e.e.8.8.8.8.8.8.8.8.e.e.e.e.e.e.e.e.e.e.e.e.e.e.e.e.e.e.e.e.e.e.e.e.e.0.0.e.e.w.l.f 8 0 0 0 0 0 0 0 0 0 0 0 0 0 0 0 0 0 0 0 0 0 0 0 0 = 0 0 0 & f.0.q.8.e.e.e.8.e.8.8.e.e.e.e.e.e.e.e.8.8.8.8.e.e.e.e.8.8.w.v.#X$XZ.#X$X$X$X$X$X$X$X$X$X$X$X$X$X$X$X$X#XZ.#X#X#X#X#X#X#X#Xm.8.8.0.0.0.8.8.8.8.8.8.8.8.e.8.8.8.8.8.8.8.8.8.8.0.0.0.0.0.8.8.8.8.e.e.e.e.e.e.e.e.e.e.e.e.e.e.e.e.e.e.e.e.e.e.r.r.r.r.f.f.s 8 = 9 0 t 0 & 0 0 0 0 0 0 0 0 0 0 0 0 0 0 0 0 0 * 0 7 8 8 s } #.#.#.#.#.#.#.#.#.#.#.#.#.#.#.#.#.#.#.#.#.#.#.#.$.#.S >.#.e.5X$X#X#X#X#X#X#X#X#X$X$X$X$X$X$X$X$X$X$X$X$X$X$X$X$X#XZ.4X6X1.X 7 0 0 0 0 0 0 0 0 0 0 0 0 0 0 0 0 0 0 0 0 0 0 0 0 0 & 8 o 1.6.e.8.q.e.e.e.e.e.e.e.e.e.e.e.e.e.e.e.e.e.e.e.e.e.e.e.e.e.e.",
"$X$X$X$X$X$X$X$X$X$X$X$X$X$X$X$X$X$X$X$X$X$X$X$X#X#XA.$X$X#XB.%.#.#.#.#.#.#.#.#.#.#.#.#.#.#.#.#.#.#.#.#.>.>.#.#.,.} >.#.#.2.e.e.e.e.e.e.e.e.e.e.e.e.e.e.e.e.e.e.e.e.e.e.e.e.e.e.e.e.e.e.8.e.e.e.8.8.e.e.e.e.8.8.e.e.8.8.8.8.e.e.e.e.8.e.8.8.e.e.8.8.8.8.e.e.e.e.e.e.e.e.e.e.e.e.e.e.e.e.e.e.e.e.e.e.e.e.e.e.e.e.e.2.a 8 = 0 & & 0 0 0 0 0 0 0 0 0 0 0 0 0 0 0 0 0 0 0 0 8 0 8 8 V w.e.8.r.w.8.0.e.e.e.e.8.8.8.e.8.8.e.8.e.e.e.e.8.8.8.8.8.8.e.8.e.e.e.e.e.e.e.e.e.e.e.e.e.e.e.e.e.e.e.e.e.e.e.e.0.w.e.e.w.l.f 8 0 0 0 0 0 0 0 0 0 0 0 0 0 0 0 0 0 0 0 0 0 0 0 0 = 0 0 0 & f.8.r.8.e.e.e.e.e.8.8.e.e.e.e.8.e.e.e.8.8.8.8.e.e.e.e.8.8.w.v.#X$XZ.#X$X$X$X$X$X$X$X$X$X$X$X$X$X$X$X$XZ.Z.Z.#X#X#X#X#X#X#Xm.8.8.0.0.0.8.8.8.8.8.8.e.e.e.e.8.8.8.8.8.8.8.8.0.0.0.0.0.0.e.8.8.8.e.e.e.e.e.e.e.e.e.e.e.e.e.e.e.e.e.e.e.e.e.e.r.r.r.r.f.f.s 8 = 9 0 t 0 & 0 0 0 0 0 0 0 0 0 0 0 0 0 0 0 0 0 * 0 7 8 8 s } #.#.#.#.#.#.#.#.#.#.#.#.#.#.#.#.#.#.#.#.#.#.#.#.$.#.S >.#.e.5X$X#X#X#X#X#X#X#X#X$X$X$X$X$X$X$X$X$X$X$X$X$X$X$X$X#XZ.4X6X1.X 7 0 0 0 0 0 0 0 0 0 0 0 0 0 0 0 0 0 0 0 0 0 0 0 0 0 & 8 o 1.6.e.8.e.e.e.e.e.e.e.e.e.e.e.e.e.e.e.e.e.e.e.e.e.e.e.e.e.e.e.",
"$X$X$X$X$X$X$X$X$X$X$X$X$X$X$X$X$X$X$X$X$X$X$X$X#X#XA.$X$X#XB.%.#.#.#.#.#.#.#.#.#.#.#.#.#.#.#.#.#.#.#.#.#.#.#.#.,.} >.#.#.2.e.e.e.e.e.e.e.e.e.e.e.e.e.e.e.e.e.e.e.e.e.e.e.e.e.e.e.e.e.e.8.8.e.e.8.8.e.e.8.8.8.8.e.e.e.8.8.e.e.e.e.e.e.e.8.8.8.e.8.8.8.8.e.e.e.e.e.e.e.e.e.e.e.e.e.e.e.e.e.e.e.e.e.e.e.e.e.e.e.e.e.2.a 8 = 0 & & 0 0 0 0 0 0 0 0 0 0 0 0 0 0 0 0 0 0 0 0 0 0 8 8 V w.e.8.r.w.8.0.e.e.e.8.8.8.e.e.e.e.e.e.e.e.e.e.8.8.e.e.e.e.e.e.e.e.e.e.e.e.e.e.e.e.e.e.e.e.e.e.e.e.e.e.e.e.e.e.0.0.e.e.w.l.f 8 0 0 0 0 0 0 0 0 0 0 0 0 0 0 0 0 0 0 0 0 0 0 0 0 = 0 0 0 & f.8.q.8.8.e.e.e.e.8.8.8.8.8.8.8.8.e.e.e.e.8.8.8.8.8.8.8.8.w.v.#X$XZ.#X$X$X$X$X$X$X$X$X$X$X$X$X$X$X$X$X#XZ.#X#X#X#X#X#X#X$Xm.9.8.0.0.e.8.8.e.e.e.e.e.e.e.e.e.e.8.e.8.8.0.0.0.0.0.0.8.8.e.e.8.8.e.e.e.e.e.e.e.e.e.e.e.e.e.e.e.e.e.e.e.e.e.e.e.r.r.r.f.f.a 8 = 9 0 t 0 & 0 0 0 0 0 0 0 0 0 0 0 0 0 0 0 0 0 * 0 7 7 8 s } #.#.#.#.#.#.#.#.#.#.#.#.#.#.#.#.#.#.#.#.#.#.#.#.$.#.S >.#.e.5X$X#XZ.Z.#X#X#X#X#X$X$X$X$X$X$X$X$X$X$X$X$X$X$X$X$X#XZ.4X9X1.X 7 0 0 0 0 0 0 0 0 0 0 0 0 0 0 0 0 0 0 0 0 0 0 0 0 0 & 8 o 1.6.e.8.8.e.e.e.e.e.e.e.e.e.e.e.e.e.e.e.e.e.e.e.e.e.e.e.e.e.e.",
"$X$X$X$X$X$X$X$X$X$X$X$X$X$X$X$X$X$X$X$X$X$X$X$X#X#XA.$X$X#XB.%.#.#.#.#.#.#.#.#.#.#.#.#.#.#.#.#.#.#.#.#.#.#.#.#.,.} >.#.#.2.e.e.e.e.e.e.e.e.e.e.e.e.e.e.e.e.e.e.e.e.e.e.e.e.e.e.e.e.e.e.8.8.e.e.e.8.e.e.8.8.8.8.e.e.8.8.8.e.e.e.e.e.e.e.8.8.e.e.8.8.8.8.e.e.e.e.e.e.e.e.e.e.e.e.e.e.e.e.e.e.e.e.e.e.e.e.e.e.e.e.e.2.a 8 = 0 & & 0 0 0 0 0 0 0 0 0 0 0 0 0 0 0 0 0 0 0 0 0 0 8 8 V w.e.8.r.w.8.0.e.e.e.8.8.8.e.e.e.e.e.e.e.e.e.8.8.8.e.e.e.e.e.e.e.e.e.e.e.e.e.e.e.e.e.e.e.e.e.e.e.e.e.e.e.e.e.e.0.w.e.e.w.l.f 8 0 0 0 0 0 0 0 0 0 0 0 0 0 0 0 0 0 0 0 0 0 0 0 0 = 0 0 0 & f.8.q.8.8.e.e.e.e.8.8.8.8.8.8.8.8.e.e.e.8.8.8.8.8.8.8.8.8.w.v.#X$XZ.#X$X$X$X$X$X$X$X$X$X$X$X$X$X$X$X$X#X#X#X#X#X#X#X#X#X$Xm.9.8.0.0.0.8.8.e.e.e.e.e.e.e.e.e.e.e.e.8.8.0.0.0.0.0.0.8.8.e.e.8.8.e.e.e.e.e.e.e.e.e.e.e.e.e.e.e.e.e.e.e.e.e.e.e.e.r.r.e.e.a 8 = 9 0 t 0 & 0 0 0 0 0 0 0 0 0 0 0 0 0 0 0 0 0 * 0 7 7 8 s } #.#.#.#.#.#.#.#.#.#.#.#.#.#.#.#.#.#.#.#.#.#.#.#.$.#.S >.#.e.5X$XZ.Z.#X#X#X#X#X#X$X$X$X$X$X$X$X$X$X$X$X$X$X$X$X$X#XZ.4X9X1.X 7 0 0 0 0 0 0 0 0 0 0 0 0 0 0 0 0 0 0 0 0 0 0 0 0 0 & 8 o 1.6.e.8.8.e.e.e.e.e.e.e.e.e.e.e.e.e.e.e.e.e.e.e.e.e.e.e.e.e.e.",
"$X$X$X$X$X$X$X$X$X$X$X$X$X$X$X$X$X$X$X$X$X$X$X$X#X#XA.$X#X#XB.%.#.#.#.#.#.#.#.#.#.#.#.#.#.#.#.#.#.#.#.#.#.#.#.#.,.} >.>.#.2.e.e.e.e.e.e.e.e.e.e.e.e.e.e.e.e.e.e.e.e.e.e.e.e.e.e.e.e.e.e.8.8.e.e.e.e.e.e.8.8.8.8.e.e.8.8.e.e.e.e.e.e.e.e.8.8.8.8.8.8.8.8.e.e.e.e.e.e.e.e.e.e.e.e.e.e.e.e.e.e.e.e.e.e.e.e.e.e.e.e.e.5.a 0 = 0 & & 0 0 0 0 0 0 0 0 0 0 0 0 0 0 0 0 0 0 0 0 0 0 8 8 V w.e.8.r.8.e.0.e.e.e.e.e.e.8.8.8.8.e.e.e.e.e.e.e.e.8.8.8.8.8.e.e.e.e.e.e.e.e.e.e.e.e.e.e.e.e.e.e.e.e.e.e.e.e.e.0.0.e.e.w.l.f 8 0 0 0 0 0 0 0 0 0 0 0 0 0 0 0 0 0 0 0 0 0 0 0 0 = 0 0 0 & f.8.q.8.8.8.8.8.8.8.e.e.e.e.e.e.e.e.e.e.8.e.e.e.e.e.e.8.8.8.v.#X$XZ.#X$X$X$X$X$X$X$X$X$X$X$X$X$X$X$X$X#X#X#X#XZ.Z.#X#X#X#Xm.9.8.8.0.0.8.8.8.8.8.8.8.8.8.8.e.e.e.e.e.e.0.0.0.0.0.0.8.8.8.8.8.8.e.e.e.e.e.e.e.e.e.e.e.e.e.e.e.e.e.e.e.e.e.e.e.e.r.r.e.e.s 8 = 9 0 t 0 & 0 0 0 0 0 0 0 0 0 0 0 0 0 0 0 0 0 * 0 7 8 8 s >.#.#.#.#.#.#.#.#.#.#.#.#.#.#.#.#.#.#.#.#.#.#.#.#.$.#.S >.#.t.5X$XZ.Z.#X#X#X#X#X#X$X$X$X$X$X$X$X$X$X$X$X$X$X$X$X$X#XZ.4X6X1.X 9 0 0 0 0 0 0 0 0 0 0 0 0 0 0 0 0 0 0 0 0 0 0 0 0 0 & 8 o 1.6.e.8.e.e.e.e.e.e.e.e.e.e.e.e.e.e.e.e.e.e.e.e.e.e.e.e.e.e.8.",
"$X$X$X$X$X$X$X$X$X$X$X$X$X$X$X$X$X$X$X$X$X$X$X$X#X#XA.$X#X#XB.%.#.#.#.#.#.#.#.#.#.#.#.#.#.#.#.#.#.#.#.#.#.#.#.#.,.} >.>.#.2.e.e.e.e.e.e.e.e.e.e.e.e.e.e.e.e.e.e.e.e.e.e.e.e.e.e.e.e.e.e.8.8.e.e.e.e.e.e.8.8.8.8.e.e.8.8.e.e.e.e.e.e.e.e.8.8.8.e.8.8.8.8.e.e.e.e.e.e.e.e.e.e.e.e.e.e.e.e.e.e.e.e.e.e.e.e.e.e.e.e.e.5.a 0 = 0 0 8 0 0 0 0 0 0 0 0 0 0 0 0 0 0 0 0 0 0 0 0 0 0 8 8 V w.e.8.r.8.e.0.e.8.e.e.e.e.8.8.8.8.e.e.8.8.e.e.e.e.8.8.8.8.e.e.e.e.e.e.e.e.e.e.e.e.e.e.e.e.e.e.e.e.e.e.e.e.e.e.0.0.e.e.w.l.f 8 0 0 0 0 0 0 0 0 0 0 0 0 0 0 0 0 0 0 0 0 0 0 0 0 = 0 = 0 & f.8.q.8.8.e.8.8.8.e.e.e.e.e.e.e.e.e.e.8.8.8.8.e.e.e.e.8.8.w.v.#X$XZ.#X$X$X$X$X$X$X$X$X$X$X$X$X$X$X$X$X#X#X#X#X#X#X#X#X#X#Xm.9.8.0.0.0.8.8.8.8.8.8.8.8.8.8.e.e.8.8.e.e.0.0.0.0.0.0.8.8.8.e.8.8.e.e.e.e.e.e.e.e.e.e.e.e.e.e.e.e.e.e.e.e.e.e.e.e.r.r.e.e.s 8 = 9 0 t 0 & 0 0 0 0 0 0 0 0 0 0 0 0 0 0 0 0 0 * 0 7 8 8 s >.#.#.#.#.#.#.#.#.#.#.#.#.#.#.#.#.#.#.#.#.#.#.#.#.$.#.S >.#.t.5X$XZ.Z.Z.#X#X#X#X#X$X$X$X$X$X$X$X$X$X$X$X$X$X$X$X$X#XZ.4X6X1.X 9 0 0 0 0 0 0 0 0 0 0 0 0 0 0 0 0 0 0 0 0 0 0 0 0 0 & 8 o 1.6.e.8.e.e.e.e.e.e.e.e.e.e.e.e.e.e.e.e.e.e.e.e.e.e.e.e.e.e.8.",
"$X$X$X$X$X$X$X$X$X$X$X$X$X$X$X$X$X$X$X$X$X$X$X$X#X#XZ.$X#X#XB.%.#.#.#.#.#.#.#.#.#.#.#.#.#.#.#.#.#.#.#.#.#.#.#.#.,.} >.>.#.2.e.e.e.e.e.e.e.e.e.e.e.e.e.e.e.e.e.e.e.e.e.e.e.e.e.e.e.e.e.e.8.8.8.e.8.8.e.e.8.8.8.8.e.e.8.8.8.8.e.e.e.e.e.e.8.8.e.e.e.e.8.8.e.e.e.e.e.e.e.e.e.e.e.e.e.e.e.e.e.e.e.e.e.e.e.e.e.e.e.e.e.5.a 0 = 0 0 & 0 0 0 0 0 0 0 0 0 0 0 0 0 0 0 0 0 0 0 0 0 0 8 8 j w.e.8.r.w.e.0.8.8.8.8.e.8.8.8.e.e.e.e.8.8.8.8.e.e.8.8.e.e.e.e.e.e.e.e.e.e.e.e.e.e.e.e.e.e.e.e.e.e.e.e.e.e.e.e.0.0.e.e.w.l.f 8 0 0 0 0 0 0 0 0 0 0 0 0 0 0 0 0 0 0 0 0 0 0 0 0 = 0 0 0 & f.8.q.e.e.e.e.8.8.8.8.8.8.e.e.e.e.8.8.8.8.8.8.8.8.e.e.8.8.w.v.#X$XZ.#X$X$X$X$X$X$X$X$X$X$X$X$X$X$X$X$X#X#X#X#X#X#X#X#X#X#Xm.8.8.0.0.0.e.8.8.8.e.8.e.e.e.e.e.e.8.8.8.8.0.0.0.0.0.0.8.8.e.e.e.e.e.e.e.e.e.e.e.e.e.e.e.e.e.e.e.e.e.e.e.e.e.e.e.e.r.r.e.e.s a = 9 0 t 0 & 0 0 0 0 0 0 0 0 0 0 0 0 0 0 0 0 0 * 0 7 8 8 s >.#.#.#.#.#.#.#.#.#.#.#.#.#.#.#.#.#.#.#.#.#.#.#.#.$.#.S >.#.t.5X$X#X#X#X#X#X#X#X#X$X$X$X$X$X$X$X$X$X$X$X$X$X$X$X$X#XZ.4X6X1.X 7 0 0 0 0 0 0 0 0 0 0 0 0 0 0 0 0 0 0 0 0 0 0 0 0 0 & 8 o 1.6.e.8.e.e.e.e.e.e.e.e.e.e.e.e.e.e.e.e.e.e.e.e.e.e.e.e.e.e.e.",
"$X$X$X$X$X$X$X$X$X$X$X$X$X$X$X$X$X$X$X$X$X$X$X$X#X#XZ.$X#X#XB.%.#.#.#.#.#.#.#.#.#.#.#.#.#.#.#.#.#.#.#.#.#.#.#.#.,.} >.#.#.2.e.e.e.e.e.e.e.e.e.e.e.e.e.e.e.e.e.e.e.e.e.e.e.e.e.e.e.e.e.e.8.8.8.8.8.8.e.e.e.e.8.e.e.e.8.8.8.8.e.e.e.e.8.8.8.8.e.e.e.e.8.8.e.e.e.e.e.e.e.e.e.e.e.e.e.e.e.e.e.e.e.e.e.e.e.e.e.e.e.e.e.5.a 0 = 0 = & 0 0 0 0 0 0 0 0 0 0 0 0 0 0 0 0 0 0 0 0 0 0 8 8 j w.e.8.r.w.e.0.8.8.8.8.e.e.8.8.e.e.e.e.8.8.8.8.e.e.8.8.e.e.e.e.e.e.e.e.e.e.e.e.e.e.e.e.e.e.e.e.e.e.e.e.e.e.e.e.0.0.e.e.w.l.f 8 0 0 0 0 0 0 0 0 0 0 0 0 0 0 0 0 0 0 0 0 0 0 0 0 = 0 0 0 & f.8.q.e.e.e.e.8.8.8.8.8.8.8.e.e.e.e.8.8.8.8.8.8.8.e.e.8.8.w.v.#X$XZ.#X$X$X$X$X$X$X$X$X$X$X$X$X$X$X$X$X#X#X#X#X#X#X#X#X#X#Xm.8.8.8.0.0.e.8.8.8.e.e.e.e.e.e.e.e.8.8.8.8.0.0.0.0.0.8.8.8.e.e.e.e.e.e.e.e.e.e.e.e.e.e.e.e.e.e.e.e.e.e.e.e.e.e.e.e.r.r.e.e.a 8 = 9 0 t 0 & 0 0 0 0 0 0 0 0 0 0 0 0 0 0 0 0 0 * 0 7 8 8 s } #.#.#.#.#.#.#.#.#.#.#.#.#.#.#.#.#.#.#.#.#.#.#.#.$.#.S >.#.e.5X$X#X#X#X#X#X#X#X#X$X$X$X$X$X$X$X$X$X$X$X$X$X$X$X$X#XZ.4X6X1.X 7 0 0 0 0 0 0 0 0 0 0 0 0 0 0 0 0 0 0 0 0 0 0 0 0 0 & 8 o 1.6.e.8.e.e.e.e.e.e.e.e.e.e.e.e.e.e.e.e.e.e.e.e.e.e.e.e.e.e.e.",
"$X$X$X$X$X$X$X$X$X$X$X$X$X$X$X$X$X$X$X$X$X$X$X$X#X#XA.$X#X#XB.%.#.#.#.#.#.#.#.#.#.#.#.#.#.#.#.#.#.#.#.#.#.#.#.#.,.} >.#.#.2.e.e.e.e.e.e.e.e.e.e.e.e.e.e.e.e.e.e.e.e.e.e.e.e.e.e.e.e.e.e.e.e.8.8.8.8.8.8.e.e.e.e.e.e.e.e.8.8.8.e.8.8.8.8.e.e.e.e.e.e.e.e.e.e.e.e.e.e.e.e.e.e.e.e.e.e.e.e.e.e.e.e.e.e.e.e.e.e.e.e.e.2.a 8 = 0 & & 0 0 0 0 0 0 0 0 0 0 0 0 0 0 0 0 0 0 0 0 0 0 8 8 V w.e.8.r.w.8.0.e.e.8.8.8.8.8.8.e.e.8.e.e.e.8.8.e.e.e.e.e.8.8.8.e.e.e.e.e.e.e.e.e.e.e.e.e.e.e.e.e.e.e.e.e.e.e.e.0.0.e.e.w.l.f 8 0 0 0 0 0 0 0 0 0 0 0 0 0 0 0 0 0 0 0 0 0 0 0 0 = 0 = 0 & w.0.q.e.e.8.8.8.8.e.e.8.8.e.e.e.e.8.8.8.8.e.e.8.8.8.8.8.8.w.v.#X$XZ.#X$X$X$X$X$X$X$X$X$X$X$X$X$X$X$X$X#X#X#X#X#X#XZ.Z.#X#Xm.8.8.0.0.0.e.e.8.8.8.8.e.e.e.e.8.e.e.e.8.8.0.0.0.0.0.0.0.0.8.e.e.e.e.e.e.e.e.e.e.e.e.e.e.e.e.e.e.e.e.e.e.e.e.e.e.e.r.r.e.e.a a = 0 0 t 0 & 0 0 0 0 0 0 0 0 0 0 0 0 0 0 0 0 s * 0 7 8 8 s >.#.#.#.#.#.#.#.#.#.#.#.#.#.#.#.#.#.#.#.#.#.#.#.#.$.#.S >.S e.5X$X#X#X#X#X#X#X#X#X$X$X$X$X$X$X$X$X$X$X$X$X$X$X$X$X#XZ.4X6X1.X 7 0 0 0 0 0 0 0 0 0 0 0 0 0 0 0 0 0 0 0 0 0 0 0 0 0 & 8 o 1.6.e.8.e.e.e.e.e.e.e.e.e.e.e.e.e.e.e.e.e.e.e.e.e.e.e.e.e.e.e.",
"$X$X$X$X$X$X$X$X$X$X$X$X$X$X$X$X$X$X$X$X$X$X$X$X#X#XA.$X#X#XB.%.#.#.#.#.#.#.#.#.#.#.#.#.#.#.#.#.#.#.#.#.#.#.#.#.,.} >.#.#.2.e.e.e.e.e.e.e.e.e.e.e.e.e.e.e.e.e.e.e.e.e.e.e.e.e.e.e.e.e.e.e.e.e.8.8.8.8.8.e.e.e.e.e.e.8.8.8.8.8.e.8.8.8.8.e.e.e.e.e.e.e.e.e.e.e.e.e.e.e.e.e.e.e.e.e.e.e.e.e.e.e.e.e.e.e.e.8.8.e.e.e.2.a 8 = 0 & & 0 0 0 0 0 0 0 0 0 0 0 0 0 0 0 0 0 0 0 0 0 0 8 8 V w.e.8.r.w.8.0.e.e.8.8.8.8.8.8.8.8.8.8.e.e.8.e.e.e.e.e.e.e.8.8.e.e.e.e.e.e.e.e.e.e.e.e.e.e.e.e.e.e.e.e.e.e.e.e.0.0.e.e.w.l.f 8 0 0 0 0 0 0 0 0 0 0 0 0 0 0 0 0 0 0 0 0 0 0 0 0 = 0 0 0 & w.8.q.e.e.8.8.e.e.e.e.8.8.e.e.e.e.8.8.8.8.8.e.8.8.8.8.8.8.w.v.#X$XZ.#X$X$X$X$X$X$X$X$X$X$X$X$X$X$X$X$XZ.#X#X#X#X#XZ.Z.#X#Xm.8.8.0.0.0.e.e.8.8.8.8.e.e.8.8.8.8.e.e.8.e.0.0.0.0.0.0.0.0.8.8.e.e.e.e.e.e.e.e.e.e.e.e.e.e.e.e.e.e.e.e.e.e.e.e.e.e.r.r.e.e.a 8 = 0 0 t 0 & 0 0 0 0 0 0 0 0 0 0 0 0 0 0 0 0 0 * 0 7 8 8 s >.#.#.#.#.#.#.#.#.#.#.#.#.#.#.#.#.#.#.#.#.#.#.#.#.$.#.S >.S e.5X$X#X#X#X#X#X#X#X#X$X$X$X$X$X$X$X$X$X$X$X$X$X$X$X$X#XZ.4X6X1.X 7 0 0 0 0 0 0 0 0 0 0 0 0 0 0 0 0 0 0 0 0 0 0 0 0 0 8 8 o 1.6.e.8.e.e.e.e.e.e.e.e.e.e.e.e.e.e.e.e.e.e.e.e.e.e.e.e.e.e.e.",
"$X$X$X$X$X$X$X$X$X$X$X$X$X$X$X$X$X$X$X$X$X$X$X$X#X#XA.$X#X#XB.%.#.#.#.#.#.#.#.#.#.#.#.#.#.#.#.#.#.#.#.#.#.#.#.#.,.} >.#.#.2.e.e.e.e.e.e.e.e.e.e.e.e.e.e.e.e.e.e.e.e.e.e.e.e.e.e.e.e.e.e.e.e.8.8.e.e.8.e.e.e.8.8.8.8.8.8.8.8.8.8.e.e.8.8.8.e.8.8.8.8.e.e.e.e.e.e.e.e.e.e.e.e.e.e.e.e.e.e.e.e.e.e.e.e.e.e.e.e.e.e.e.2.a 0 0 0 & 8 0 0 0 0 0 0 0 0 0 0 0 0 0 0 0 0 0 0 0 0 0 0 8 8 V w.e.8.r.w.8.0.e.e.e.e.8.8.8.8.8.8.8.8.e.e.e.e.e.e.e.e.8.8.8.8.e.e.e.e.e.e.e.e.e.e.e.e.e.e.e.e.e.e.e.e.e.e.e.e.0.0.e.e.w.l.f 8 0 0 0 0 0 0 0 0 0 0 0 0 0 0 0 0 0 0 0 0 0 0 0 0 = 0 0 0 & f.0.q.e.8.8.8.e.e.e.e.8.8.e.e.e.8.8.8.8.8.e.e.e.e.8.e.8.8.w.v.#X$XZ.#X$X$X$X$X$X$X$X$X$X$X$X$X$X$X$X$XZ.Z.#X#X#X#XZ.Z.#X#Xm.8.8.0.0.0.e.e.e.e.8.8.8.e.8.8.8.8.e.e.e.e.0.0.8.0.8.8.0.0.8.8.8.8.e.e.e.e.e.e.e.e.e.e.e.e.e.e.e.e.e.e.e.e.e.e.e.r.r.r.e.e.a 8 = 9 0 t 0 & 0 0 0 0 0 0 0 0 0 0 0 0 0 0 0 0 0 * 0 7 8 8 s >.#.#.#.#.#.#.#.#.#.#.#.#.#.#.#.#.#.#.#.#.#.#.#.#.$.#.S >.S e.5X$XZ.Z.#X#X#X#X#X#X$X$X$X$X$X$X$X$X$X$X$X$X$X$X$X$X#XZ.4X9X1.X 7 0 0 0 0 0 0 0 0 0 0 0 0 0 0 0 0 0 0 0 0 0 0 0 0 0 8 8 o 1.6.e.8.e.e.e.e.e.e.e.e.e.e.e.e.e.e.e.e.e.e.e.e.e.e.e.e.e.e.e.",
"$X$X$X$X$X$X$X$X$X$X$X$X$X$X$X$X$X$X$X$X$X$X$X$X#X#XA.$X#X#XB.%.#.#.#.#.#.#.#.#.#.#.#.#.#.#.#.#.#.#.#.#.#.#.#.#.,.} >.#.#.2.e.e.e.e.e.e.e.e.e.e.e.e.e.e.e.e.e.e.e.e.e.e.e.e.e.e.e.e.e.e.e.e.8.8.e.e.e.e.e.e.e.8.8.8.8.8.8.8.8.8.e.8.8.8.8.8.8.8.8.8.8.8.e.e.e.e.e.e.e.e.e.e.e.e.e.e.e.e.e.e.e.e.e.e.e.e.e.e.e.e.e.5.a 0 = 0 & & 0 0 0 0 0 0 0 0 0 0 0 0 0 0 0 0 0 0 0 0 0 0 8 8 V w.e.8.r.w.8.0.e.e.e.e.e.e.8.8.8.8.8.8.e.e.e.e.8.8.e.e.8.8.8.8.e.e.e.e.e.e.e.e.e.e.e.e.e.e.e.e.e.e.e.e.e.e.e.e.0.0.e.e.w.l.f 8 0 0 0 0 0 0 0 0 0 0 0 0 0 0 0 0 0 0 0 0 0 0 0 0 = 0 0 0 & f.0.q.8.8.8.8.e.e.e.e.8.8.e.e.e.8.8.8.8.8.e.e.e.e.e.e.8.8.w.v.#X$XZ.#X$X$X$X$X$X$X$X$X$X$X$X$X$X$X$X$X#X#X#X#X#X#X#XZ.#X#Xm.8.8.0.0.0.e.e.e.e.8.8.e.e.8.8.8.8.e.e.e.e.0.0.8.8.8.8.0.0.8.8.8.8.e.e.e.e.e.e.e.e.e.e.e.e.e.e.e.e.e.e.e.e.e.e.e.r.r.r.e.e.s 8 = 9 0 t 0 & 0 0 0 0 0 0 0 0 0 0 0 0 0 0 0 0 0 * 0 7 8 8 s >.#.#.#.#.#.#.#.#.#.#.#.#.#.#.#.#.#.#.#.#.#.#.#.#.$.#.S >.S e.5X$XZ.Z.#X#X#X#X#X#X$X$X$X$X$X$X$X$X$X$X$X$X$X$X$X$X#XZ.4X9X1.X 7 0 0 0 0 0 0 0 0 0 0 0 0 0 0 0 0 0 0 0 0 0 0 0 0 0 8 8 o 1.6.e.8.e.e.e.e.e.e.e.e.e.e.e.e.e.e.e.e.e.e.e.e.e.e.e.e.e.e.e.",
"#X#X#X#XZ.Z.#X#X#X#X#X#X#X#X#X#X#X#X#X#XZ.Z.#X#X#XZ.A.$X#X3XB.%.#.#.#.#.#.#.#.#.#.#.#.#.#.#.#.#.#.#.#.#.#.#.#.#.>.} } >.#.2.e.e.e.e.e.e.e.e.e.e.e.e.e.e.e.e.e.e.e.e.e.e.e.e.e.e.e.r.e.e.8.8.8.8.0.0.0.0.0.0.8.8.0.0.0.0.0.0.0.0.0.0.0.0.0.0.0.0.e.w.0.0.e.e.e.e.r.r.r.r.r.e.e.e.r.r.r.e.e.r.r.r.e.e.e.e.e.e.e.e.e.2.a 0 9 0 8 & 0 0 0 0 0 0 0 0 0 0 0 0 0 0 0 0 0 0 0 0 0 0 0 0 C w.e.3.e.0.8.0.8.8.8.8.8.0.0.0.8.8.8.8.0.0.0.0.8.8.8.8.8.8.8.8.e.e.e.e.e.e.e.e.e.e.e.e.e.e.e.e.e.e.e.e.e.e.e.e.e.w.e.8.0.l.f 8 0 0 0 0 0 0 0 0 0 0 0 0 0 0 0 0 0 0 0 0 0 0 0 0 0 0 0 0 X w.3.e.8.8.8.8.e.e.e.8.8.8.8.8.e.e.e.e.8.8.e.e.e.8.8.8.8.8.8.v.#X$XZ.#X$X$X$X$X$X$X$X$X$X$X$X$X$X$X$X$X$X$X$X$X$X$X$X$X#X3Xm.w.w.0.0.w.e.8.8.8.e.e.e.e.e.e.8.8.e.e.e.e.0.0.0.0.0.0.0.0.8.8.8.8.e.e.e.e.e.e.e.e.e.e.e.e.e.e.e.e.e.e.e.e.e.e.e.e.e.e.e.e.d a = * 9 0 0 0 8 8 8 8 8 8 8 8 8 8 8 8 8 8 8 8 0 * 0 & 8 8 s } >.>.>.>.>.>.>.>.>.>.>.>.>.>.>.>.>.>.>.>.} } >.>.#.#.>.1.#.e.3X+X$X$X$X$X$X$X$X$X#X#X#X#X#X#X#X#X#X#X#X#X#X#X#X#X+X+X6X5X$.& 8 9 = 0 0 0 0 0 0 0 0 0 0 0 0 0 0 0 0 0 0 0 0 0 0 0 & 8 & 1.6.r.e.e.e.e.e.e.e.e.e.e.e.r.e.e.r.r.e.e.e.e.e.e.e.e.e.e.e.e.",
"#X#X#X#X#X#X#X#X#X#X#X#X#X#X#X#X#X#X#X#X#X#X#X#X#XZ.A.$X#X3XB.%.#.#.#.#.#.#.#.#.#.#.#.#.#.#.#.#.#.#.#.#.#.#.#.#.>.} } >.#.2.e.e.e.r.e.e.e.e.e.e.e.e.e.e.e.e.e.e.e.e.e.e.e.e.e.e.e.r.e.e.e.e.8.8.0.0.0.0.0.0.8.8.0.0.0.0.0.0.0.0.0.0.0.0.0.0.8.0.e.e.8.8.e.e.e.e.e.e.e.e.e.e.e.e.e.e.e.e.e.e.e.e.e.e.e.e.e.e.e.e.e.3.a 0 9 0 8 & 0 0 0 0 0 0 0 0 0 0 0 0 0 0 0 0 0 0 0 0 0 0 0 0 C w.e.3.e.0.e.0.8.0.8.8.0.0.0.0.8.8.8.8.0.0.0.0.8.8.8.8.8.8.8.8.e.e.e.e.e.e.e.e.e.e.e.e.e.e.e.e.e.e.e.e.e.e.e.e.e.w.e.8.0.l.f 8 0 0 0 0 0 0 0 0 0 0 0 0 0 0 0 0 0 0 0 0 0 0 0 0 0 0 0 0 X w.3.e.8.8.8.8.e.e.e.8.8.8.8.8.e.e.e.8.8.8.e.e.e.8.8.8.8.8.w.v.#X$XZ.#X$X$X$X$X$X$X$X$X$X$X$X$X$X$X$X$X$X$X$X$X$X$X$X$X#X3Xm.w.w.0.0.w.e.8.8.8.e.e.e.e.e.e.8.8.8.e.e.e.8.8.0.0.0.0.0.0.e.e.8.8.e.e.e.e.e.e.e.e.e.e.e.e.e.e.e.e.e.e.e.e.e.e.e.e.e.e.e.e.d a = * 9 t 0 0 0 0 0 0 0 0 0 0 0 0 0 0 0 0 0 0 0 * 0 & 8 8 s } >.>.>.>.>.>.>.>.>.>.} } >.>.>.>.>.>.>.>.} } >.>.#.#.>.1.#.e.3X+X$X$X$X$X$X$X$X$X#X#X#X#X#X#X#X#X#X#X#X#X#X#X#X#X+X+X6X5X$.& 8 9 = 0 0 0 0 0 0 0 0 0 0 0 0 0 0 0 0 0 0 0 0 0 0 0 & 8 & 1.6.r.e.e.e.e.e.e.e.e.e.e.e.r.e.e.r.e.e.e.e.e.e.e.e.e.e.e.e.e.",
"#X#X#X#X#X#X#X#XZ.#X#X#X#XZ.Z.Z.#X#X#X#X#X#X#X#X#XA.A.4X#X3XB.%.#.#.#.#.#.#.#.#.#.#.#.#.#.#.#.#.#.#.#.#.#.#.#.#.>.} } >.#.2.e.e.e.r.e.e.e.e.e.r.e.e.e.e.r.r.e.e.e.e.e.e.e.e.e.r.e.e.e.e.e.e.e.e.0.0.0.0.0.0.8.8.0.0.8.8.8.8.8.8.0.0.0.0.8.8.8.8.e.e.e.e.e.e.e.e.e.e.e.e.e.e.e.e.e.e.e.e.e.e.e.e.e.e.e.e.r.r.e.e.e.3.8 8 9 0 8 & 0 0 0 0 0 0 0 0 0 0 0 0 0 0 0 0 0 0 0 0 0 0 0 0 C w.e.3.e.0.8.0.0.0.0.0.0.0.0.0.8.0.0.8.0.0.8.8.e.e.8.8.8.8.e.e.e.e.e.e.e.e.e.e.e.e.e.e.e.e.e.e.e.e.e.e.e.e.e.e.e.e.e.8.0.l.f 0 0 0 0 0 0 0 0 0 0 0 0 0 0 0 0 0 0 0 0 0 0 0 0 0 0 0 0 0 X i.2.e.e.e.e.e.e.e.8.8.8.8.e.8.e.e.8.8.e.e.e.e.8.8.8.8.8.8.w.v.#X$XZ.#X$X$X$X$X$X$X$X$X$X$X$X$X$X$X$X$X$X$X$X$X$X$X$X$X#X4Xm.9.w.0.0.w.e.e.8.8.e.8.e.e.e.e.8.8.8.8.e.e.8.8.8.0.8.8.0.8.e.e.e.e.e.e.e.e.e.e.e.e.e.e.e.e.e.e.e.e.e.e.e.e.e.e.e.e.e.e.e.e.d a & * 9 0 0 0 0 0 0 0 0 0 0 0 0 0 0 0 0 0 0 0 0 * 0 & 8 8 s } >.>.>.>.>.>.} >.>.>.} } >.>.>.} >.>.>.>.>.>.>.>.#.#.>.1.#.e.3X+X$X$X$X$X$X$X$X$X#X#X#X#X#X#X#X#X#X#X#X#X#X#X#X#X+X+X6X5X$.& 8 9 = 0 0 0 0 0 0 0 0 0 0 0 0 0 0 0 0 0 0 0 0 0 0 0 & 8 & 1.6.r.e.e.e.e.e.e.e.e.e.r.e.e.e.e.e.e.e.e.e.e.e.e.r.r.e.e.e.e.",
"#X#X#X#X#X#X#X#XZ.Z.Z.#X#X#XZ.Z.#X#X#X#X#X#X#X#X#XZ.A.4X#X3XB.%.#.#.#.#.#.#.#.#.#.#.#.#.#.#.#.#.#.#.#.#.#.#.#.#.>.} } >.#.2.e.e.e.e.e.e.e.e.r.r.r.e.e.e.e.r.e.e.e.e.e.e.e.e.e.r.e.e.e.e.e.e.e.e.0.0.0.0.0.8.8.8.0.8.8.8.8.8.8.8.0.0.0.0.8.8.8.8.e.e.e.e.e.e.r.r.e.e.e.e.e.e.e.e.0.0.e.e.e.e.e.e.e.e.e.e.e.r.e.e.e.3.8 8 9 0 8 8 0 0 0 0 0 0 0 0 0 0 0 0 0 0 0 0 0 0 0 0 0 0 0 0 C w.e.3.e.0.8.8.0.0.0.0.0.0.0.0.0.0.0.0.0.0.8.8.e.e.e.8.8.8.e.e.e.e.e.e.e.e.e.e.e.e.e.e.e.e.e.e.e.e.e.e.e.e.e.e.e.w.e.8.0.l.f 0 0 0 0 0 0 0 0 0 0 0 0 0 0 0 0 0 0 0 0 0 0 0 0 0 0 0 0 0 X w.2.e.e.e.e.8.8.8.e.e.8.8.e.e.e.e.8.8.e.e.e.e.e.8.8.8.8.8.w.v.#X$XZ.#X$X$X$X$X$X$X$X$X$X$X$X$X$X$X$X$X$X$X$X$X$X$X$X$X#X4Xm.9.w.0.0.e.e.e.8.8.8.8.e.e.e.e.8.8.8.8.e.e.8.8.8.0.8.8.8.8.e.e.e.e.e.e.e.e.e.e.e.e.e.e.e.e.e.e.e.e.e.e.e.e.e.e.e.e.e.e.e.e.d a & * 9 0 0 0 0 0 0 0 0 0 0 0 0 0 0 0 0 0 0 0 0 * 0 8 8 8 s } >.>.>.>.} } } >.>.>.>.>.>.>.>.} >.>.>.>.>.>.>.>.#.#.>.1.#.e.3X+X$X$X$X$X$X$X$X$X#X#X#X#X#X#X#X#X#X#X#X#X#X#X#X#X+X+X6X5X$.& 8 9 = 0 0 0 0 0 0 0 0 0 0 0 0 0 0 0 0 0 0 0 0 0 0 0 & 8 & 1.6.r.e.e.e.e.e.e.e.e.e.r.e.e.e.e.e.e.e.e.e.e.e.e.e.r.e.e.e.e.",
"#X#X#X#X#X#XZ.Z.#X#X#X#X#X#X#X#X#X#X#X#X#X#XZ.Z.#XZ.A.4X#X3XB.%.#.#.#.#.#.#.#.#.#.#.#.#.#.#.#.#.#.#.#.#.>.>.#.#.>.} } #.#.2.e.e.e.e.e.e.e.e.e.e.r.e.e.e.e.e.e.e.e.e.r.e.e.e.e.r.e.e.e.e.8.8.e.e.0.0.0.0.0.0.0.0.0.0.0.8.8.8.8.0.0.0.8.8.8.0.0.0.8.8.8.e.e.8.r.r.e.e.e.e.e.e.e.e.e.e.e.e.e.e.e.e.e.e.e.e.e.e.e.e.e.5.a 8 9 0 8 & 0 0 0 0 0 0 0 0 0 0 0 0 0 0 0 0 0 0 0 0 0 0 0 0 V w.e.3.e.0.8.0.0.0.0.0.0.0.0.0.0.0.0.0.0.0.0.0.e.e.8.8.8.8.e.e.e.e.e.e.e.e.e.e.e.e.e.e.e.e.e.e.e.e.e.e.e.e.e.e.e.w.e.8.0.l.f 8 0 0 0 0 0 0 0 0 0 0 0 0 0 0 0 0 0 0 0 0 0 0 0 0 0 0 0 0 X i.3.8.e.e.e.e.8.8.8.e.e.e.e.e.8.8.8.8.e.8.8.8.e.e.e.e.8.8.w.v.#X$XZ.#X$X$X$X$X$X$X$X$X$X$X$X$X$X$X$X$X$X$X$X$X$X$X$X$X#X#Xm.9.w.0.0.w.e.e.e.e.8.8.8.e.e.e.e.e.8.8.8.e.0.0.8.8.8.0.0.0.8.8.e.e.e.e.e.e.e.e.e.e.e.e.e.e.e.e.e.e.e.e.e.e.e.e.e.e.e.e.e.e.d a & * 9 0 0 0 0 0 0 0 0 0 0 0 0 0 0 0 0 0 0 0 0 * 0 & 8 8 s } >.>.} } } } >.>.>.>.>.>.>.>.} } } } >.>.>.>.} } #.#.>.1.#.e.3X+X$X$X$X$X$X$X$X$X#X#X#X#X#X#X#X#X#X#X#X#X#X#X#X#X+X+X6X5X$.& 8 9 = 0 0 0 0 0 0 0 0 0 0 0 0 0 0 0 0 0 0 0 0 0 0 0 & 8 & 1.6.r.e.e.e.e.r.e.e.e.e.r.e.e.e.e.e.e.e.e.e.e.e.e.e.e.e.e.r.e.",
"Z.#X#X#X#X#XZ.Z.#X#X#X#X#X#X#X#XZ.#X#X#X#X#XZ.Z.Z.Z.A.4X#X3XB.%.#.#.#.#.#.#.#.#.#.#.#.#.#.#.#.#.#.#.#.#.>.>.#.#.>.} } #.#.2.e.e.e.e.e.e.e.e.e.e.r.e.e.e.e.e.e.e.e.e.r.r.e.e.e.e.e.e.e.e.8.8.e.e.0.0.0.0.0.0.0.0.0.0.8.8.8.8.8.0.0.0.0.8.0.0.0.0.8.8.8.q.r.r.r.r.q.q.8.8.e.e.e.e.e.e.r.r.e.e.r.r.e.e.e.e.e.e.e.e.e.5.s 0 9 0 8 & 0 0 0 0 0 0 0 0 0 0 0 0 0 0 0 0 0 0 0 0 0 0 0 0 V w.e.3.e.0.8.0.8.8.0.0.0.0.0.0.0.0.0.0.0.0.0.0.e.e.8.8.8.8.e.e.e.e.e.e.e.e.e.e.e.e.e.e.e.e.e.e.e.e.e.e.e.e.e.e.e.w.e.8.0.l.f 8 0 0 0 0 0 0 0 0 0 0 0 0 0 0 0 0 0 0 0 0 0 0 0 0 0 0 0 0 X i.3.8.e.e.e.e.8.e.8.8.e.e.e.e.8.8.8.8.e.8.8.8.e.e.e.e.8.8.w.v.#X$XZ.#X$X$X$X$X$X$X$X$X$X$X$X$X$X$X$X$X$X$X$X$X$X$X$X$X#X#Xm.w.w.0.0.w.e.e.e.e.8.8.8.8.e.e.8.8.8.8.e.e.0.0.8.8.0.0.0.0.8.8.e.e.e.e.e.e.e.e.e.e.e.e.e.e.e.e.e.e.e.e.e.e.e.e.e.e.e.e.e.e.s a * * 9 0 0 0 0 0 0 0 0 0 0 0 0 0 0 0 0 0 0 0 0 * 0 & 8 8 s } >.>.} >.>.>.>.>.>.>.} } >.>.>.>.} >.>.>.>.>.} } #.#.>.1.#.e.3X+X$X$X$X$X$X$X$X$X#X#X#X#X#X#X#X#X#X#X#X#X#X#X#X#X+X+X6X5X$.& 8 7 = = 0 0 0 0 0 0 0 0 0 0 0 0 0 0 0 0 0 0 0 0 0 0 & 8 & 1.6.r.e.e.e.e.r.r.e.e.e.e.e.e.e.e.e.e.e.e.e.e.e.e.e.e.e.e.r.r.",
"Z.Z.#X#X#X#XZ.Z.#X#XZ.Z.#X#X#X#XZ.Z.#X#X#X#XZ.Z.Z.Z.A.4X#X3XB.%.#.#.#.#.#.#.#.#.#.#.#.#.#.#.#.#.#.#.#.#.#.#.#.#.>.} } #.#.2.e.e.r.e.e.e.e.e.r.r.e.e.e.e.e.e.e.e.e.e.e.e.e.e.e.e.e.e.e.e.8.8.8.8.0.0.8.0.8.8.0.0.0.0.0.0.8.8.0.0.0.0.8.8.0.0.0.0.8.8.8.8.r.r.r.r.q.q.r.r.r.r.r.r.r.r.r.q.r.q.r.r.e.e.e.e.e.e.e.e.e.5.a 0 9 0 8 & 0 0 0 0 0 0 0 0 0 0 0 0 0 0 0 0 0 0 0 0 0 0 0 0 V w.e.3.e.0.e.0.8.8.8.0.0.0.8.0.8.8.0.0.0.0.0.0.e.e.e.8.8.e.e.e.e.e.e.e.e.e.e.e.e.e.e.e.e.e.e.e.e.e.e.e.e.e.e.e.e.w.e.8.0.l.f 8 0 0 0 0 0 0 0 0 0 0 0 0 0 0 0 0 0 0 0 0 0 0 0 0 0 0 0 0 X i.2.8.8.8.e.e.e.e.8.8.8.e.e.e.e.e.e.e.e.e.8.8.8.8.e.e.8.8.w.v.#X$XZ.#X$X$X$X$X$X$X$X$X$X$X$X$X$X$X$X$X$X$X$X$X$X$X$X$X#X3Xm.w.w.0.0.w.8.8.8.8.8.8.8.e.8.8.8.8.8.8.8.8.0.0.8.8.0.0.0.0.8.8.8.8.e.e.e.e.e.e.e.e.e.e.e.e.e.e.e.e.e.e.e.e.e.e.e.e.e.e.e.e.d a * * 9 0 0 0 0 0 0 0 0 0 0 0 0 0 0 0 0 0 0 0 0 7 0 8 8 8 s } >.>.>.>.>.>.>.>.>.>.>.} >.>.>.>.>.>.>.>.>.>.} >.#.#.} 1.#.e.3X+X$X$X$X$X$X$X$X$X#X#X#X#X#X#X#X#X#X#X#X#X#X#X#X#X+X+X$X5X$.& 8 7 = 0 0 0 0 0 0 0 0 0 0 0 0 0 0 0 0 0 0 0 0 0 0 0 & 8 & 1.6.r.e.e.e.e.e.e.e.e.e.e.r.e.e.e.e.r.r.e.e.e.e.e.e.e.e.e.r.r.",
"#X#X#X#X#X#X#XZ.#X#X#XZ.Z.Z.#X#X#X#X#X#X#X#X#XZ.#XZ.A.4X#X3XB.%.#.#.#.#.#.#.#.#.#.#.#.#.#.#.#.#.#.#.#.#.#.#.#.#.>.} } #.#.2.e.e.r.r.e.e.e.e.e.e.e.e.e.e.e.e.e.e.e.e.e.e.e.e.e.e.e.e.e.e.8.8.8.8.0.0.8.8.8.8.0.0.0.0.0.0.0.0.0.0.0.0.8.8.0.0.0.0.q.q.q.q.r.r.r.r.t.q.t.t.t.t.t.t.t.t.t.q.q.q.t.t.e.e.r.r.r.e.e.e.e.5.a 0 9 0 8 & 0 0 0 0 0 0 0 0 0 0 0 0 0 0 0 0 0 0 0 0 0 0 0 0 V w.e.3.e.0.8.0.8.8.8.0.0.0.8.8.8.8.0.0.0.0.0.0.e.e.8.8.8.e.e.e.e.e.e.e.e.e.e.e.e.e.e.e.e.e.e.e.e.e.e.e.e.e.e.e.e.w.e.8.0.l.f 8 0 0 0 0 0 0 0 0 0 0 0 0 0 0 0 0 0 0 0 0 0 0 0 0 0 0 0 0 X i.2.8.8.8.8.8.e.e.e.8.8.e.e.e.e.e.e.e.e.e.8.8.8.e.e.e.8.8.w.v.#X$XZ.#X$X$X$X$X$X$X$X$X$X$X$X$X$X$X$X$X$X$X$X$X$X$X$X$X#X3Xm.w.w.0.0.w.8.8.8.8.8.8.8.e.8.8.8.8.8.8.8.8.0.0.8.8.0.0.0.0.8.8.8.8.e.e.e.e.e.e.e.e.e.e.e.e.e.e.e.e.e.e.e.e.e.e.e.e.e.e.e.e.d a & * 9 0 0 0 8 8 8 8 8 8 8 8 8 8 8 8 8 8 8 8 0 7 0 8 8 8 s } >.>.>.>.>.>.>.>.>.>.>.} >.>.>.>.>.>.>.>.>.>.>.>.#.#.} 1.S e.3X+X$X$X$X$X$X$X$X$X#X#X#X#X#X#X#X#X#X#X#X#X#X#X#X#X+X+X$X5X$.& 8 7 = 0 0 0 0 0 0 0 0 0 0 0 0 0 0 0 0 0 0 0 0 0 0 0 & 8 & 1.6.r.e.e.e.e.e.e.e.e.e.e.r.r.e.e.e.e.e.e.e.e.r.r.r.e.e.e.r.r.",
"3X3X3X3X3X3X3X3X3X3X3X3X3X3X3X3X3X3X3X3X3X3X3X3X#X#X#X3X3X3XB.w.#.#.#.#.#.#.#.#.#.#.#.#.#.#.#.#.#.#.#.#.#.#.#.#.5.} } #.#.2.w.e.e.e.e.e.e.e.e.e.e.e.e.e.e.e.e.e.e.e.e.e.e.e.e.e.e.e.e.e.e.e.e.e.0.0.0.0.8.8.8.8.8.8.8.8.8.8.8.8.8.8.8.8.8.8.8.8.8.2.z.6.s.7.j.x.g.g.g.g.f.f.f.g.g.g.f.f.f.g.g.g.i.i.i.i.i.i.i.i.l.#.l @ O o o & 8 8 8 8 8 8 8 8 8 8 8 8 8 8 8 8 8 8 8 8 8 8 8 8 A r.z.5.f.x.6.f.w.w.w.w.w.w.w.w.w.w.w.w.w.w.w.w.6.6.l.s.6.6.3.N.e.e.e.e.e.e.e.e.e.e.e.e.e.e.e.e.e.e.e.e.e.e.e.e.e.8.r.e.e.2.g @ & & & & & & & & & & & & & & & & & & & & & & : : o : o @ @ *.=.;.0.0.0.0.0.0.0.0.0.0.0.0.0.0.0.0.8.8.8.8.8.8.8.8.q.q.r.N.V.0X0X2X5X5X5X5X5X5X5X5X7X7X7X7X7X7X7X7X7X7X7X7X7X7X7X7X2X2X1Xr.8.e.8.e.8.8.8.8.8.8.e.e.8.8.e.e.e.8.8.8.0.8.8.8.8.8.0.0.8.8.e.e.e.e.e.e.e.e.e.e.e.e.e.e.e.e.e.e.e.e.e.e.e.e.e.e.e.e.e.e.o o o o o o o o o o o o o o o o o o o o o o o o @ @ O o o O d Z } } } } } >.>.} } } } } } >.>.} } } } } S S S } >.S S #.#.f.1X0X3X3X3X3X3X3X3X3X3X3X7X3X3X3X3X3X3X3X1X1X3X3X3X3X1X5X7X1X1.8 q q 0 0 0 0 0 0 0 0 0 0 0 0 0 0 0 0 0 0 0 0 0 0 0 0 7 s s 1.5.g.l.l.r.r.r.g.r.r.r.r.r.r.r.g.r.r.r.r.r.r.r.r.r.r.r.r.w.w.",
"p.p.p.p.p.p.p.p.p.z.p.p.p.v.n.p.p.p.p.p.p.p.p.p.p.r.p.n.n.n.8.%.#.#.#.#.#.#.#.#.#.#.#.#.#.#.#.#.#.#.#.#.#.#.#.#.5.} } #.#.2.w.e.e.e.e.e.e.e.e.e.e.e.e.e.e.e.e.e.e.e.e.e.e.e.e.e.e.e.e.e.e.e.e.e.8.8.8.8.8.8.e.e.e.e.8.8.8.8.8.8.8.8.e.e.e.e.8.8.e.3.r.A V f F N m m m m m m m m m m m m m m m m V V V V V V b V V b #.#.S >.} 4.1.1.1.1.1.1.1.1.1.1.1.1.1.1.1.1.1.1.1.1.1.1.1.1.A A b h b V d V b b b b b b b b b b b b b b b b x x Z m V g g #.e.e.e.e.e.e.e.e.e.e.e.e.e.e.e.e.e.e.e.e.e.e.e.e.e.8.8.8.r.w.A b V V V V V V V V Z Z Z Z Z Z Z Z Z Z Z Z Z Z Z Z Z A n b k e.8.e.0.0.0.0.0.0.0.0.0.0.0.0.0.0.0.0.8.8.8.8.8.8.8.8.q.q.0.w.C S D b A A A A A A C C C C C C C C C C A A A A A A A A n A w.8.8.r.8.w.8.8.8.8.8.8.e.e.e.8.e.e.8.8.8.8.0.0.8.8.0.8.0.0.8.8.8.8.e.e.e.e.e.e.e.e.e.e.e.e.e.e.e.e.e.e.e.e.e.e.e.e.e.e.e.e.z.z.z.z.r.p.r.r.g.g.g.g.g.g.g.g.g.g.g.g.g.g.g.g.r.n.g.z.z.f.f.5.A A A A A S S A D D A D D S S D D D D D A A D D S A A A C >.f.l.w.w.w.w.w.w.w.w.0.8.0.8.0.0.8.8.8.0.0.0.0.0.0.0.2.8.e.w.V X 7 7 0 0 0 0 0 0 0 0 0 0 0 0 0 0 0 0 0 0 0 0 0 0 0 0 7 0 & S #.>.#.S S S S S S S S S S S S S S S S S S #.S S S S S S S S ",
"8.8.8.8.8.8.8.8.r.8.8.8.8.8.8.8.8.8.8.8.8.r.8.8.8.8.8.r.r.r.8.k #.#.#.#.#.#.#.#.#.#.#.#.#.#.#.#.#.#.#.#.#.#.#.#.5.} } #.#.2.w.e.e.e.e.e.e.e.e.e.e.e.e.e.e.e.e.e.e.e.e.e.e.e.e.e.e.e.e.e.e.e.e.e.8.8.8.8.8.8.8.8.e.e.e.e.e.e.8.e.8.8.8.8.e.e.e.e.e.0.w.h & X 8 8 7 7 7 7 7 7 7 7 7 7 7 7 7 7 7 7 & & & & & & & & & g 5.r.e.w.6.l.3.3.3.3.3.3.3.3.3.3.3.3.3.3.3.3.3.3.3.3.3.3.3.3.1.a O X o & X & & & & & & 8 8 8 8 8 & & & & & & & 8 8 8 8 o o V e.e.e.e.e.e.e.e.e.e.e.e.e.e.e.e.e.e.e.e.e.e.e.e.r.8.8.0.r.r.5.2.>.>.>.>.>.>.>.>.>.>.>.>.>.>.>.>.>.>.>.>.>.>.>.>.>.,.>.#.#.z.8.8.8.8.8.8.8.8.8.8.8.8.8.8.0.0.8.8.8.8.8.8.8.8.8.8.0.e.0.1.o o X O 8 8 8 8 8 8 8 8 8 8 8 8 8 8 8 8 8 8 8 8 8 8 8 8 - : %.w.r.r.8.0.e.8.e.e.e.e.e.e.e.e.e.e.e.8.8.8.0.0.0.0.0.0.0.0.8.8.8.8.e.e.e.e.e.e.e.e.e.e.e.e.e.e.e.e.e.e.e.e.e.e.e.e.e.e.e.e.3X3X4X4X$X$X$X$X4X4X4X4X4X4X4X4X4X4X4X4X4X4X4X4X#X9X5X5X5X8XB.A Z Z V V V V V V V V V V V V V V V V V V V V V V V b C A b V >.>.#.#.#.#.%.%.%.%.#.#.#.#.%.%.%.%.%.%.#.#.%.%.%.%.C %.#.1.b & 0 7 0 0 0 0 0 0 0 0 0 0 0 0 0 0 0 0 0 0 0 0 0 0 0 0 7 0 o V b V b b b C C C C C C C b C C C C C C C C C C C C C C C b b ",
"r.r.r.r.e.e.r.r.r.r.r.r.r.r.r.r.r.r.r.e.r.r.r.r.q.8.8.r.r.r.8.%.#.#.#.#.#.#.#.#.#.#.#.#.#.#.#.#.#.#.#.#.#.#.#.#.5.} } #.#.2.w.e.e.e.e.e.e.e.e.e.e.e.e.e.e.e.e.e.e.e.e.e.e.e.e.e.e.e.e.e.e.e.e.e.8.8.8.8.8.8.8.8.e.e.e.e.e.e.e.e.8.8.8.8.e.e.e.e.e.w.w.a o & 0 0 7 7 7 7 7 7 7 7 7 7 7 7 7 7 7 7 & & & & & & & & & g 6.r.2.3.5.6.8.8.8.8.8.8.8.8.8.8.8.8.8.8.8.8.8.8.8.8.8.8.8.8...o O 8 8 0 8 7 0 0 0 0 0 0 0 0 0 0 0 0 0 0 0 0 0 8 0 8 8 8 8 Z i.i.e.e.e.e.e.r.e.e.e.e.e.e.e.e.e.e.e.e.e.e.e.e.z.e.r.8.e.r.2.2.S S S S S S S S S S S S S S S S S S S S S S S S S S #.$.$.p.8.0.8.8.8.8.8.8.8.8.8.8.8.8.0.0.8.8.8.8.8.8.8.8.8.8.0.e.e.1.8 8 8 7 0 0 0 0 0 0 0 0 8 8 8 8 8 8 8 8 0 0 0 0 0 0 0 0 s : #.r.r.8.2.0.e.e.e.e.e.e.e.e.e.e.e.e.e.8.8.8.0.0.0.0.0.0.0.0.8.8.8.8.e.e.e.e.e.e.e.e.e.e.e.e.e.e.e.e.e.e.e.e.e.e.e.e.e.e.e.e.#X#X#XZ.A.A.S.S.A.A.A.A.A.A.A.A.A.A.A.A.A.A.A.A.#X4X$X#X3X6XB.k b b b b b b b b V b V V V V V V V V V V V V V V b b Z A V A >.>.>.>.>.>.>.>.>.>.#.#.#.#.#.#.#.#.#.#.#.#.#.#.#.#.%.#.#.>.V 0 q 7 0 0 0 0 0 0 0 0 0 0 0 0 0 0 0 0 0 0 0 0 0 0 0 0 7 8 & V b V C V V V V V V V V V V V V V V V V V V V V V V V V V V V ",
"r.r.r.r.r.r.r.r.e.e.r.r.r.r.r.r.r.r.e.e.r.r.r.r.q.8.8.e.e.r.w.%.#.#.#.#.#.#.#.#.#.#.#.#.#.#.#.#.#.#.#.#.#.#.#.#.1.} } #.#.2.w.e.e.e.e.e.e.e.e.e.e.e.e.e.e.e.e.e.e.e.e.e.e.e.e.e.e.e.e.e.e.e.e.e.e.e.e.e.e.e.e.e.e.e.e.e.e.e.e.e.e.e.e.e.e.e.e.e.8.w.w.a o & 0 * & & & & & & & & 8 & & & & & & & 0 0 0 0 0 0 0 0 s g 5.0.-.8.3.w.8.8.8.8.8.8.8.8.8.8.8.8.8.8.8.8.8.8.8.8.8.8.8.8.D X 8 0 7 0 q 7 0 0 0 0 0 0 0 0 0 0 0 0 0 0 0 0 9 7 0 7 8 8 8 D i.i.e.e.e.e.e.r.e.e.e.e.e.e.e.e.e.e.e.e.e.e.e.e.p.8.r.e.e.w.$.#.} } } } } } } } S S } } } } } } } } } } } } } } A A #.1.$.z.8.8.8.8.8.8.8.8.8.8.8.8.8.8.8.8.8.8.8.8.8.8.e.e.e.e.0.e.6.1.8 8 8 % = = = = = = = = 9 9 9 9 7 7 7 7 9 9 9 9 9 9 9 9 0 o A r.e.8.8.e.e.e.e.e.e.e.e.e.e.e.8.8.e.e.e.e.8.8.0.0.0.0.0.0.8.8.8.8.e.e.e.e.e.e.e.e.e.e.e.e.e.e.e.e.e.e.e.e.e.e.e.e.e.e.e.e.%X#X+X+X#X#X#X+X#X#X#X#X#X#X#X#X#X#X#X#X#X#X#X#X#X#X#X$X#X3XB.%.Z V V V V V V V V V V V V V V V V V V V V V V V V b V Z b Z >.1.>.>.>.>.>.>.>.>.#.#.#.#.#.#.$.$.#.#.#.#.#.#.#.#.*.$.#.,.V 8 0 % 0 0 0 0 0 0 0 0 0 0 0 0 0 0 0 0 0 0 0 0 0 0 0 0 7 0 - V V Z Z Z V V V V V V V V V V V V V V V V V V V V V V b V V V ",
"e.e.e.e.e.e.e.e.e.e.e.e.e.e.e.e.e.e.e.e.e.e.e.e.q.8.e.8.e.p.e.#.#.#.#.#.#.#.#.#.#.#.#.#.#.#.#.#.#.#.#.#.#.#.#.#.1.} } #.#.2.0.e.e.e.e.e.e.e.e.e.e.e.e.e.e.e.e.e.e.e.e.e.e.e.e.e.e.e.e.e.e.e.e.e.e.e.e.e.e.e.e.e.e.e.e.e.e.e.e.e.e.e.e.e.e.e.e.e.w.w.g.d & & 0 * & & & & & & & & & & & & & & & & 0 9 0 0 0 0 0 0 0 g 1.8.8.8.8.0.8.8.8.8.8.8.8.8.8.8.8.8.8.8.8.8.8.8.8.0.8.8.0.8.D 8 8 8   0 0 % 9 9 9 9 9 9 9 9 9 9 9 9 9 9 9 9 9 * 0 % % 8 8 D i.i.e.e.e.e.e.e.e.e.e.e.e.e.e.e.e.e.e.e.e.e.e.e.8.8.r.e.w.w.$.#.>.>.>.>.>.>.>.>.>.>.>.>.>.>.>.>.>.1.1.1.>.>.>.>.#.#.#.2.>.g.2.w.e.e.8.8.8.8.8.8.8.8.8.e.8.8.e.8.8.8.8.8.e.e.e.e.e.e.6.1.a 0 9 $ > > > > > > > > 9 9 9 0 0 0 0 0 0 9 0 0 0 0 0 0 * O A p.r.r.e.e.e.8.e.e.e.e.e.e.e.8.8.8.e.e.e.e.8.8.0.0.0.0.0.8.e.8.8.8.e.e.e.e.e.e.e.e.e.e.e.e.e.e.e.e.e.e.e.e.e.e.e.e.e.e.e.e.3X%X%X%X#X#X#X#X#X#X#X#X#X#X#X#X#X#X#X#X#X#X#X#X#XC.C.4X#XZ.m.k Z Z Z Z Z Z Z Z Z A A A Z Z Z Z Z A Z V A V Z A V V V V g V S >.} } } } } } } } #.#.#.#.#.#.#.#.#.#.#.#.#.#.#.#.#.#.#.,.Z s 0 % 0 0 0 0 0 0 0 0 0 0 0 0 0 0 0 0 0 0 0 0 0 0 0 0 9 0 - x b V V V V V V V V V V V V V V V V V V V V V V V V V V V V Z ",
"r.r.r.r.r.r.r.r.e.r.r.r.r.r.r.r.r.r.r.r.r.r.r.r.q.e.e.8.e.p.r.$.#.#.#.#.#.#.#.#.#.#.#.#.#.#.#.#.#.#.#.#.#.#.#.#.1.} } #.#.2.0.e.e.e.e.e.e.e.e.e.e.e.e.e.e.e.e.e.e.e.e.e.e.e.e.e.e.e.e.e.e.e.e.e.e.e.e.e.e.e.e.e.e.e.e.e.e.e.e.e.e.e.e.e.e.e.e.e.e.w.g.g 8 0 0 0 0 0 0 0 0 0 0 0 0 0 0 0 0 0 0 0 0 0 0 0 0 0 0 0 & s 5.e.8.8.;.8.e.e.e.e.e.e.e.e.e.e.e.e.e.e.e.e.e.e.e.e.e.e.e.e...8 8 8 % 0 0 9 0 0 0 0 0 0 0 0 0 0 0 0 0 0 0 0 0 0 0 % & 8 s } e.e.e.e.e.e.e.e.e.e.e.e.e.e.e.e.e.e.e.e.e.e.e.e.8.8.r.e.w.w.>.>.>.>.>.>.>.>.>.>.#.#.#.#.#.#.#.#.#.#.#.#.#.#.#.#.*.S #.$.$.e.2.w.e.e.e.e.e.e.e.e.e.e.e.e.e.e.e.e.e.e.e.e.e.e.r.r.t.r.w.5.s s 0 9 0 0 0 0 0 0 = 0 9 9 0 0 0 0 0 0 0 9 9 9 0 0 0 0 0 X S z.8.r.r.8.8.8.8.8.8.8.e.e.e.e.8.8.8.8.e.e.8.8.0.0.0.0.8.8.e.e.8.8.e.e.e.e.e.e.e.e.e.e.e.e.e.e.e.e.e.e.e.e.e.e.e.e.e.e.e.e.3X3X3X3X4X$X$X$X$X$X$X$X$X$X$X$X$X$X$X$X$X$X$X$X$XC.#X6X#X3XB.k V V V V V V V V V V V V V V V V V V V V V V V V Z V Z V x V S } >.>.>.>.>.>.>.>.#.#.#.#.>.>.>.#.#.#.>.>.>.>.>.>.S #.>.2.Z s 0 = 0 0 0 0 0 0 0 0 0 0 0 0 0 0 0 0 0 0 0 0 0 0 0 0 q t * x x V m V Z Z Z Z Z Z Z Z Z Z Z Z Z Z Z Z Z Z Z Z Z Z Z Z Z Z ",
"0.0.0.0.0.0.0.0.0.0.0.0.0.0.0.0.0.0.0.0.0.0.0.0.e.3.3.3.0.e.e.#.#.#.#.#.#.#.#.#.#.#.#.#.#.#.#.#.#.#.#.#.#.#.#.#.5.} } #.#.2.0.e.e.e.e.e.e.e.e.e.e.e.e.e.e.e.e.e.e.e.e.e.e.e.e.e.e.e.e.e.e.e.e.e.e.e.e.e.e.e.e.e.e.e.e.e.e.e.e.e.e.e.e.e.e.e.e.e.g.g.f.d & - 0 0 9 0 0 0 0 0 0 0 0 0 0 0 0 0 0 0 0 0 0 0 0 0 0 0 & g 6.p.q.9.8.q.w.w.w.w.w.w.w.w.w.w.w.w.w.w.w.w.w.w.w.w.w.w.w.w.} & % 0 0 0 0 0 8 8 8 8 8 8 8 8 8 8 8 8 8 8 8 8 = & 0 - & & s } e.i.e.e.e.e.e.e.e.e.e.e.e.e.e.e.e.e.e.e.e.e.e.e.r.e.p.e.w.8.>.1.#.#.#.#.#.#.#.#.#.#.#.#.#.#.#.#.A A A S S S A A *.#.#.2.,.g.w.g.e.e.e.e.e.e.e.e.e.e.e.e.e.e.e.e.e.e.e.e.e.e.r.r.t.r.e.5.a s 0 9 0 0 0 0 0 0 0 0 8 8 8 8 8 8 8 8 0 0 0 0 0 0 0 0 0 X A e.*.8.r.8.8.8.8.8.8.8.e.e.e.e.8.8.8.8.e.e.8.8.0.0.0.0.8.8.e.e.8.8.e.e.e.e.e.e.e.e.e.e.e.e.e.e.e.e.e.e.e.e.e.e.e.e.e.e.e.e.Z.A.Z.Z.Z.A.S.S.A.A.A.A.A.A.A.A.A.A.A.A.A.A.A.A.4XC.M.#XB.9X5Xk V V V V V V V V V V V V V V V V V V V V V V V V Z V D D V Z } ..#.#.#.#.#.#.#.#.#.#.#.#.>.>.>.#.#.#.>.>.>.>.>.>.A S S >.b & = * 0 0 0 0 0 0 0 0 0 0 0 0 0 0 0 0 0 0 0 0 0 0 0 0 t t = m V Z Z D V V V V V V V V V V V V V V V V V V V V V V V V V V ",
"e.e.e.e.e.e.e.e.e.e.e.e.e.e.e.e.e.e.e.e.e.e.e.e.e.8.e.8.0.e.8.$.#.#.#.#.#.#.#.#.#.#.#.#.#.#.#.#.#.#.#.#.#.#.#.#.>.} >.>.$.2.w.0.8.8.8.e.e.e.8.8.e.e.e.e.8.8.8.8.8.8.e.e.e.e.e.e.8.8.8.8.e.e.e.e.e.e.e.e.e.e.e.e.e.e.e.e.e.e.e.e.e.e.e.e.e.e.e.e.e.0.6.g 8 & 0 9 0 0 0 0 0 0 0 0 0 0 0 0 0 0 0 0 0 0 0 0 0 0 0 0 s d 6.8.r.8.e.0.8.8.e.e.e.e.e.e.8.8.8.8.8.8.e.e.e.e.e.e.8.8.8.e.1.& 8 % 0 8 0 9 0 0 0 0 0 0 0 0 0 0 0 0 0 0 0 0 8 * 0 9 0 & 8 A i.i.e.e.e.e.e.e.e.e.e.e.e.e.e.e.e.e.e.e.e.e.e.e.r.8.r.e.e.e.,.>.#.#.#.#.#.#.#.#.#.#.#.#.#.#.#.#.#.#.#.#.#.#.#.#.#.#.#.#.$.w.e.0.e.e.e.e.e.e.e.e.e.e.e.e.e.e.e.e.8.8.8.8.8.8.8.8.8.r.w.1.: a 0 0 0 0 0 0 0 0 0 0 0 0 0 0 0 0 0 0 0 0 0 0 0 0 0 0 0 & S e.8.e.8.8.e.8.8.8.8.8.8.e.e.e.e.e.e.e.e.8.0.0.0.0.0.0.0.8.e.e.e.e.e.e.e.e.e.e.e.e.e.e.e.e.e.e.e.e.e.e.e.e.e.e.e.e.e.e.e.e.3X#X$X$X$X$X#X#X$X$X$X$X$X$X$X$X$X$X$X$X$X$X$X$X$XZ.A.#XC.%XB.C V V V V V V V V V V V V V V V V V V V V V V V V V V V V V A S >.>.>.>.>.>.>.>.>.#.#.#.#.#.#.#.#.#.#.#.#.#.#.#.#.A #.S } m & 0 0 0 0 0 0 0 0 0 0 0 0 0 0 0 0 0 0 0 0 0 0 0 0 0 0 8 8 8 x Z Z V V V V V V V V V V V V V V V V V V V V V V V V V V V V ",
"e.e.e.e.e.e.e.e.e.e.e.e.e.e.e.e.e.e.e.e.e.e.e.e.e.8.e.8.0.e.8.$.#.#.#.#.#.#.#.#.#.#.#.#.#.#.#.#.#.#.#.#.#.#.#.#.>.} >.>.$.2.0.0.8.8.8.8.e.e.8.e.e.e.e.e.8.8.8.8.8.8.e.8.e.e.e.e.e.e.8.8.e.e.e.e.e.e.e.e.e.e.e.e.e.e.e.e.e.e.e.e.e.e.e.e.e.e.e.e.e.0.6.g 8 & 9 9 0 0 0 0 0 0 0 0 0 0 0 0 0 0 0 0 0 0 0 0 0 0 0 0 s d 6.8.r.8.e.0.8.8.e.8.e.e.e.e.8.8.8.8.8.8.e.e.e.e.e.e.8.8.8.e.1.& 8 % 0 8 0 9 0 0 0 0 0 0 0 0 0 0 0 0 0 0 0 0 8 * 0 9 0 & 8 A i.i.e.e.e.e.e.e.e.e.e.e.e.e.e.e.e.e.e.e.e.e.e.e.r.8.r.e.e.e.,.>.#.#.#.#.#.#.#.#.#.#.#.#.#.#.#.#.#.#.#.#.#.#.#.#.#.#.#.#.$.w.e.0.e.e.e.e.e.e.e.e.e.e.e.e.e.e.e.e.8.8.8.8.8.8.8.8.8.r.w.1.: a 0 0 0 0 0 0 0 0 0 0 0 0 0 0 0 0 0 0 0 0 0 0 0 0 0 0 0 & S e.8.e.8.8.e.e.8.8.8.8.8.e.e.e.8.e.e.e.8.8.0.0.0.0.0.0.8.8.e.e.e.e.e.e.e.e.e.e.e.e.e.e.e.e.e.e.e.e.e.e.e.e.e.e.e.e.e.e.e.e.3X#X$X$X$X$X#X#X$X$X$X$X$X$X$X$X$X$X$X$X$X$X$X$X$XZ.A.#XC.%XB.C V V V V V V V V V V V V V V V V V V V V V V V V V V V V V A S >.>.} >.>.>.>.>.>.#.#.#.#.#.#.#.#.#.#.#.#.#.#.#.#.A #.S } m & 0 0 0 0 0 0 0 0 0 0 0 0 0 0 0 0 0 0 0 0 0 0 0 0 0 0 8 8 8 x Z Z V V V V V V V V V V V V V V V V V V V V V V V V V V V V ",
"e.e.e.e.e.e.e.e.e.e.e.e.e.e.e.e.e.e.e.e.e.e.e.e.e.8.e.8.0.e.8.$.#.#.#.#.#.#.#.#.#.#.#.#.#.#.#.#.#.#.#.#.#.#.#.#.>.} >.>.#.2.0.0.8.8.8.e.e.e.e.e.8.8.e.e.8.8.8.8.8.8.8.8.8.8.e.e.e.e.e.e.e.e.e.e.e.e.e.e.e.e.e.e.e.e.e.e.e.e.e.e.e.e.e.e.e.e.e.e.e.0.6.g 8 & 9 9 0 0 0 0 0 0 0 0 0 0 0 0 0 0 0 0 0 0 0 0 0 0 0 0 s d 6.8.r.8.e.0.8.8.8.8.8.8.e.e.e.8.e.e.e.e.e.e.e.e.8.e.8.8.e.e.1.8 8 % 0 8 0 9 0 0 0 0 0 0 0 0 0 0 0 0 0 0 0 0 8 * 0 9 0 8 8 A i.i.e.e.e.e.e.e.e.e.e.e.e.e.e.e.e.e.e.e.e.e.e.e.r.8.r.e.e.e.,.>.#.#.#.#.#.#.#.#.#.#.#.#.#.#.#.#.#.#.#.#.#.#.#.#.#.#.#.#.$.w.e.0.e.e.e.e.e.e.e.e.8.8.e.e.e.e.e.8.e.e.8.8.8.8.e.e.q.r.w.1.: a 0 0 0 0 0 0 0 0 0 0 0 0 0 0 0 0 0 0 0 0 0 0 0 0 0 0 0 & S e.8.q.8.8.e.e.8.e.8.8.8.8.8.8.8.8.e.e.e.e.0.0.0.0.0.0.0.0.8.8.e.8.e.e.e.e.e.e.e.e.e.e.e.e.e.e.e.e.e.e.e.e.e.e.e.e.e.e.e.e.3X3X$X$X$X$X#X#X$X$X$X$X$X$X$X$X$X$X$X$X$X$X$X$X$XZ.S.#XC.%XB.C V V V V V V V V V V V V V V V V V V V V V V V V V V V V V A S >.} } >.>.>.>.>.} #.#.#.#.#.#.#.#.#.#.#.#.#.#.#.#.S *.S } x & 0 0 0 0 0 0 0 0 0 0 0 0 0 0 0 0 0 0 0 0 0 0 0 0 0 0 8 8 8 x Z Z V V V V V V V V V V V V V V V V V V V V V V V V V V V V ",
"e.e.e.e.e.e.e.e.e.e.e.e.e.e.e.e.e.e.e.e.e.e.e.e.e.e.e.8.0.e.8.$.#.#.#.#.#.#.#.#.#.#.#.#.#.#.#.#.#.#.#.#.#.#.#.#.>.} >.>.#.2.0.0.8.8.8.e.e.e.e.e.8.8.e.e.e.e.8.e.8.8.8.8.8.8.8.e.e.e.e.e.e.e.e.e.e.e.e.e.e.e.e.e.e.e.e.e.e.e.e.e.e.e.e.e.e.e.e.e.e.0.6.g 8 & 0 9 0 0 0 0 0 0 0 0 0 0 0 0 0 0 0 0 0 0 0 0 0 0 0 0 s d 6.8.r.8.e.0.8.8.8.8.8.8.8.e.e.e.e.e.e.e.e.e.e.e.8.8.8.8.e.e.1.8 8 % 0 8 0 9 0 0 0 0 0 0 0 0 0 0 0 0 0 0 0 0 8 * 0 9 0 & 8 A i.i.e.e.e.e.e.e.e.e.e.e.e.e.e.e.e.e.e.e.e.e.e.e.r.8.r.e.e.e.,.>.#.#.#.#.#.#.#.#.#.#.#.#.#.#.#.#.#.#.#.#.#.#.#.#.#.#.#.#.$.w.e.0.e.e.e.e.e.e.e.e.8.8.8.8.e.e.e.8.e.8.8.8.e.e.e.e.e.r.w.1.: a 0 0 0 0 0 0 0 0 0 0 0 0 0 0 0 0 0 0 0 0 0 0 0 0 0 0 0 & S e.8.q.8.8.e.e.e.e.8.8.8.e.8.8.8.8.e.e.e.e.0.0.0.0.0.0.0.0.8.8.8.8.e.e.e.e.e.e.e.e.e.e.e.e.e.e.e.e.e.e.e.e.e.e.e.e.e.e.e.e.3X3X$X$X$X$X#X#X$X$X$X$X$X$X$X$X$X$X$X$X$X$X$X$X$XA.A.#XC.#XB.C V V V V V V V V V V V V V V V V V V V V V V V V V V V V V A S >.} } >.>.>.>.} } #.#.#.#.#.#.#.#.#.#.#.#.#.#.#.#.#.*.S } m & 0 0 0 0 0 0 0 0 0 0 0 0 0 0 0 0 0 0 0 0 0 0 0 0 0 0 8 8 8 x Z Z V V V V V V V V V V V V V V V V V V V V V V V V V V V V ",
"e.e.e.e.e.e.e.e.e.e.e.e.e.e.e.e.e.e.e.e.e.e.e.e.e.e.e.8.0.e.8.$.#.#.#.#.#.#.#.#.#.#.#.#.#.#.#.#.#.#.#.#.>.>.#.#.>.} } >.#.2.0.0.e.e.e.e.8.8.e.e.8.8.8.8.e.e.e.e.8.8.8.e.8.8.8.8.8.8.e.e.e.e.e.e.e.e.e.e.e.e.e.e.e.e.e.e.e.e.e.e.e.e.e.e.e.e.e.8.e.0.6.g 8 & 0 9 0 0 0 0 0 0 0 0 0 0 0 0 0 0 0 0 0 0 0 0 0 0 0 0 s d 6.e.r.8.e.0.8.8.8.e.8.8.8.8.e.e.e.e.e.e.e.e.e.8.8.8.e.e.e.e.1.& 8 % 0 8 0 0 0 0 0 0 0 0 0 0 0 0 0 0 0 0 0 0 8 7 0 9 0 8 8 A e.e.e.e.e.e.e.e.e.e.e.e.e.e.e.e.e.e.e.e.e.e.e.e.r.8.r.e.e.e.,.>.#.#.#.#.#.#.#.#.#.#.#.#.#.#.#.#.#.#.#.#.#.#.#.#.#.#.#.#.$.w.e.0.e.e.e.e.e.e.e.e.8.8.e.e.e.e.8.8.e.e.8.8.8.8.e.e.q.r.w.1.: 8 0 0 0 0 0 0 0 0 0 0 0 0 0 0 0 0 0 0 0 0 0 0 0 0 0 0 0 & S e.8.8.8.8.8.e.8.8.8.8.e.e.8.8.e.e.e.e.8.e.8.8.0.0.0.0.0.0.8.8.e.e.e.e.e.e.e.e.e.e.e.e.e.e.e.e.e.e.e.e.e.e.e.e.e.e.e.e.e.e.3X3X$X$X$X$X#X#X$X$X$X$X$X$X$X$X$X$X$X$X$X$X$X$X$XA.S.#XC.%XB.C V V V V V V V V V V V V V V V V V V V V V V V V V V V V V A S >.>.>.>.>.>.>.>.>.#.#.#.#.#.#.#.#.#.#.#.#.#.#.#.#.S *.S } x & 0 0 0 0 0 0 0 0 0 0 0 0 0 0 0 0 0 0 0 0 0 0 0 0 0 0 8 8 8 x Z Z V V V V V V V V V V V V V V V V V V V V V V V V V V V V ",
"e.e.e.e.e.e.e.e.e.e.e.e.e.e.e.e.e.e.e.e.e.e.e.e.e.e.e.8.0.e.8.$.#.#.#.#.#.#.#.#.#.#.#.#.#.#.#.#.#.#.#.#.#.#.#.#.>.} } >.#.2.0.0.e.e.e.e.8.8.8.e.8.8.8.8.e.e.e.e.8.8.8.e.8.8.8.8.8.8.e.e.e.e.e.e.e.e.e.e.e.e.e.e.e.e.e.e.e.e.e.e.e.e.e.e.e.e.e.8.e.0.6.g 8 & 0 9 0 0 0 0 0 0 0 0 0 0 0 0 0 0 0 0 0 0 0 0 0 0 0 0 s d 6.8.r.8.e.0.8.8.8.e.8.8.8.8.e.8.e.e.e.e.e.e.8.8.8.8.e.e.e.e.1.& 8 % 0 8 0 0 0 0 0 0 0 0 0 0 0 0 0 0 0 0 0 0 8 7 0 0 0 8 8 A e.e.e.e.e.e.e.e.e.e.e.e.e.e.e.e.e.e.e.e.e.e.e.e.r.8.r.e.e.e.,.>.#.#.#.#.#.#.#.#.#.#.#.#.#.#.#.#.#.#.#.#.#.#.#.#.#.#.#.#.$.w.e.0.e.e.e.e.e.e.e.e.8.8.e.e.e.e.8.8.e.e.8.8.8.8.e.e.e.r.w.1.: 8 0 0 0 0 0 0 0 0 0 0 0 0 0 0 0 0 0 0 0 0 0 0 0 0 0 0 0 & S e.8.8.8.8.e.e.8.8.e.8.e.e.8.8.e.e.8.8.8.8.8.8.0.0.0.0.8.8.8.8.e.e.e.e.e.e.e.e.e.e.e.e.e.e.e.e.e.e.e.e.e.e.e.e.e.e.e.e.e.e.3X3X$X$X$X$X#X#X$X$X$X$X$X$X$X$X$X$X$X$X$X$X$X$X$XA.A.#XC.%XB.C V V V V V V V V V V V V V V V V V V V V V V V V V V V V V A S >.>.>.>.>.>.>.>.>.#.#.#.#.#.#.#.#.#.#.#.#.#.#.#.#.S #.S } x & 0 0 0 0 0 0 0 0 0 0 0 0 0 0 0 0 0 0 0 0 0 0 0 0 0 0 8 8 8 x Z Z V V V V V V V V V V V V V V V V V V V V V V V V V V Z V ",
"e.e.e.e.e.e.e.e.e.e.e.e.e.e.e.e.e.e.e.e.8.8.e.e.e.e.e.8.0.e.8.$.#.#.#.#.#.#.#.#.#.#.#.#.#.#.#.#.#.#.#.#.#.#.#.#.>.} } >.$.2.0.0.e.e.8.8.8.8.e.e.e.e.8.e.e.e.8.8.8.8.e.e.e.e.e.e.8.8.8.8.e.e.e.e.e.e.e.e.e.e.e.e.e.e.e.e.e.e.e.e.e.e.e.e.e.e.e.e.e.0.6.g 8 & 0 9 0 0 0 0 0 0 0 0 0 0 0 0 0 0 0 0 0 0 0 0 0 0 0 0 s d 6.8.r.8.e.0.8.8.e.e.e.e.e.e.8.8.8.8.8.8.e.e.e.8.8.8.8.8.8.8.1.& 8 % 0 8 0 9 0 0 0 0 0 0 0 0 0 0 0 0 0 0 0 0 8 * 0 9 0 & 8 A e.e.e.e.e.e.e.e.e.e.e.e.e.e.e.e.e.e.e.e.e.e.e.e.r.8.r.e.e.e.,.>.#.#.#.#.#.#.#.#.#.#.#.#.#.#.#.#.#.#.#.#.#.#.#.#.#.#.#.#.$.w.e.8.e.e.e.e.e.e.e.e.8.e.e.e.e.8.8.8.e.e.e.8.8.8.e.e.e.r.e.1.: 8 0 0 0 0 0 0 0 0 0 0 0 0 0 0 0 0 0 0 0 0 0 0 0 0 0 0 0 & S e.8.8.8.8.e.8.8.8.e.e.e.e.e.e.e.e.8.8.8.8.8.0.0.0.0.8.8.8.8.e.e.e.e.e.e.e.e.e.e.e.e.e.e.e.e.e.e.e.e.e.e.e.e.e.e.e.e.e.e.e.3X#X$X$X$X$X#X#X$X$X$X$X$X$X$X$X$X$X$X$X$X$X$X$X$XZ.A.#XC.%XB.C V V V V V V V V V V V V V V V V V V V V V V V V V V V V V A S >.>.>.} } >.>.>.>.#.#.#.#.#.#.#.#.#.#.#.#.#.#.#.#.A #.S } x & 0 0 0 0 0 0 0 0 0 0 0 0 0 0 0 0 0 0 0 0 0 0 0 0 0 0 q 8 8 x Z Z V V V V V V V V V V V V V V V V V V V V V V V V V V Z Z ",
"e.e.e.e.e.e.e.e.e.e.e.e.e.e.e.e.e.e.e.e.e.e.e.e.e.e.e.8.0.e.8.$.#.#.#.#.#.#.#.#.#.#.#.#.#.#.#.#.#.#.#.#.#.#.#.#.>.} } >.$.2.0.0.e.e.8.8.8.8.e.e.e.e.e.e.e.e.e.8.8.8.e.e.e.e.e.e.8.8.8.8.e.e.e.e.e.e.e.e.e.e.e.e.e.e.e.e.e.e.e.e.e.e.e.e.e.e.e.e.e.0.6.g 8 & 0 9 0 0 0 0 0 0 0 0 0 0 0 0 0 0 0 0 0 0 0 0 0 0 0 0 s d 6.0.r.8.e.0.8.8.e.e.e.e.e.e.8.8.8.8.8.8.e.e.e.8.8.8.8.8.8.8.1.& 8 % 0 8 0 9 0 0 0 0 0 0 0 0 0 0 0 0 0 0 0 0 8 * 0 9 0 & 8 A e.e.e.e.e.e.e.e.e.e.e.e.e.e.e.e.e.e.e.e.e.e.e.e.r.8.r.8.e.e.,.>.#.#.#.#.#.#.#.#.#.#.#.#.#.#.#.#.#.#.#.#.#.#.#.#.#.#.#.#.$.w.e.8.e.e.e.e.e.e.e.e.8.8.e.e.8.8.8.8.e.e.e.e.8.8.e.e.e.r.e.1.: 8 0 0 0 0 0 0 0 0 0 0 0 0 0 0 0 0 0 0 0 0 0 0 0 0 0 0 0 & S e.8.8.8.8.e.e.8.8.e.e.e.e.e.e.e.e.8.8.8.8.8.8.0.0.0.8.8.8.8.e.e.e.e.e.e.e.e.e.e.e.e.e.e.e.e.e.e.e.e.e.e.e.e.e.e.e.e.e.e.e.3X#X$X$X$X$X#X#X$X$X$X$X$X$X$X$X$X$X$X$X$X$X$X$X$XZ.A.#XC.%XB.C V V V V V V V V V V V V V V V V V V V V V V V V V V V V V A S >.>.>.} } >.>.>.>.#.#.#.#.#.#.#.#.#.#.#.#.#.#.#.#.A >.S } x & 0 0 0 0 0 0 0 0 0 0 0 0 0 0 0 0 0 0 0 0 0 0 0 0 0 0 q 8 8 x Z Z V V V V V V V V V V V V V V V V V V V V V V V V V V V Z ",
"e.e.e.e.e.e.e.e.e.e.e.e.e.e.e.e.e.e.e.e.e.e.e.e.e.8.e.8.0.e.8.$.#.#.#.#.#.#.#.#.#.#.#.#.#.#.#.#.#.#.#.#.#.#.#.#.>.} >.>.$.2.0.0.8.8.8.8.8.8.8.8.8.8.e.e.e.8.8.8.8.8.8.8.8.8.e.e.e.8.8.8.e.e.e.e.e.e.e.e.e.e.e.e.e.e.e.e.e.e.e.e.e.e.e.e.e.e.e.e.e.0.6.g 8 * 9 9 0 0 0 0 0 0 0 0 0 0 0 0 0 0 0 0 0 0 0 0 0 0 0 0 s d 6.8.r.8.e.0.8.8.8.8.8.8.8.8.8.e.e.8.8.8.8.8.e.8.8.8.8.8.e.e...8 0 & 0 7 0 0 0 0 0 0 0 0 0 0 0 0 0 0 0 0 0 0 8 * 0 9 0 8 8 A i.e.e.e.e.e.e.e.e.e.e.e.e.e.e.e.e.e.e.e.e.e.e.e.r.8.r.e.e.e.,.>.#.#.#.#.#.#.#.#.#.#.#.#.#.#.#.#.#.#.#.#.#.#.#.#.#.#.#.#.$.w.e.0.e.e.e.e.e.e.e.e.8.8.8.8.e.e.e.e.e.e.e.e.8.8.8.8.8.r.w.1.: a 0 0 0 0 0 0 0 0 0 0 0 0 0 0 0 0 0 0 0 0 0 0 0 0 0 0 0 & S e.8.q.8.8.e.e.8.8.8.e.e.e.e.e.8.8.e.e.e.e.8.8.0.0.0.0.8.8.8.8.8.8.e.e.e.e.e.e.e.e.e.e.e.e.e.e.e.e.e.e.e.e.e.e.e.e.e.e.e.e.3X3X$X$X$X$X#X#X$X$X$X$X$X$X$X$X$X$X$X$X$X$X$X$X$XZ.A.#XC.%XB.k V V V V V V V V V V V V V V V V V V V V V V V V V V V V V A S >.>.>.>.>.>.>.>.>.#.#.#.#.#.#.#.#.#.#.#.#.#.#.#.#.S *.S } m & 0 0 0 0 0 0 0 0 0 0 0 0 0 0 0 0 0 0 0 0 0 0 0 0 0 0 8 8 8 x Z Z V V V V V V V V V V V V V V V V V V V V V V V V V V V V ",
"e.e.e.e.e.e.e.e.e.e.e.e.e.e.e.e.e.e.e.e.e.e.e.e.e.8.e.8.0.e.8.$.#.#.#.#.#.#.#.#.#.#.#.#.#.#.#.#.#.#.#.#.#.#.#.#.>.} >.>.$.2.0.0.8.8.8.8.8.8.8.8.e.8.e.e.8.8.8.8.8.8.8.8.e.8.e.e.8.8.8.8.e.e.e.e.e.e.e.e.e.e.e.e.e.e.e.e.e.e.e.e.e.e.e.e.e.e.e.e.e.0.6.g 8 * 0 9 0 0 0 0 0 0 0 0 0 0 0 0 0 0 0 0 0 0 0 0 0 0 0 0 s d 6.e.r.w.e.0.8.8.8.8.8.8.8.8.e.e.e.e.8.8.8.8.e.e.8.8.8.8.e.e...8 0 & 0 7 0 0 0 0 0 0 0 0 0 0 0 0 0 0 0 0 0 0 8 * 0 9 0 8 8 A e.e.e.e.e.e.e.e.e.e.e.e.e.e.e.e.e.e.e.e.e.e.e.e.r.8.r.e.e.e.,.>.#.#.#.#.#.#.#.#.#.#.#.#.#.#.#.#.#.#.#.#.#.#.#.#.#.#.#.#.$.w.e.0.e.e.e.e.e.e.e.e.8.8.8.8.e.e.e.e.e.e.e.e.8.8.8.8.8.e.w.1.: a 0 0 0 0 0 0 0 0 0 0 0 0 0 0 0 0 0 0 0 0 0 0 0 0 0 0 0 & S e.8.q.8.8.e.e.e.8.8.e.e.e.e.e.8.8.8.e.e.e.8.8.8.0.0.0.8.8.8.8.8.8.e.e.e.e.e.e.e.e.e.e.e.e.e.e.e.e.e.e.e.e.e.e.e.e.e.e.e.e.3X3X$X$X$X$X#X#X$X$X$X$X$X$X$X$X$X$X$X$X$X$X$X$X$XZ.A.#XC.%XB.k V V V V V V V V V V V V V V V V V V V V V V V V V V V V V A S >.>.>.>.>.>.>.>.>.#.#.#.#.#.#.#.#.#.#.#.#.#.#.#.#.A *.S } m & 0 0 0 0 0 0 0 0 0 0 0 0 0 0 0 0 0 0 0 0 0 0 0 0 0 0 8 8 8 x Z Z V V V V V V V V V V V V V V V V V V V V V V V V V V V V ",
"e.e.e.e.e.e.e.e.e.e.e.e.e.e.e.e.e.e.e.e.e.e.e.e.e.8.e.8.0.e.8.$.#.#.#.#.#.#.#.#.#.#.#.#.#.#.#.#.#.#.#.#.#.#.#.#.>.} >.>.$.2.0.0.e.e.8.8.8.8.e.e.e.e.e.e.e.8.8.8.8.8.e.e.e.e.e.e.e.8.8.8.e.e.e.e.e.e.e.e.e.e.e.e.e.e.e.e.e.e.e.e.e.e.e.e.e.e.e.e.e.0.6.g 8 & 0 9 0 0 0 0 0 0 0 0 0 0 0 0 0 0 0 0 0 0 0 0 0 0 0 0 s d 6.8.r.8.e.0.e.e.8.8.8.8.e.e.e.e.e.e.e.e.8.8.e.e.e.e.8.8.e.e...& 0 & 0 7 0 0 0 0 0 0 0 0 0 0 0 0 0 0 0 0 0 0 8 * 0 9 0 8 8 A e.e.e.e.e.e.e.e.e.e.e.e.e.e.e.e.e.e.e.e.e.e.e.e.r.8.r.e.e.e.,.>.#.#.#.#.#.#.#.#.#.#.#.#.#.#.#.#.#.#.#.#.#.#.#.#.#.#.#.#.$.w.e.0.e.e.e.e.e.e.e.e.8.8.8.8.e.e.8.8.8.8.e.e.8.8.8.8.8.r.w.1.: a 0 0 0 0 0 0 0 0 0 0 0 0 0 0 0 0 0 0 0 0 0 0 0 0 0 0 0 & S e.8.q.8.8.e.e.8.8.8.8.e.e.e.e.8.8.8.8.e.e.8.8.0.0.0.0.8.8.e.e.8.8.e.e.e.e.e.e.e.e.e.e.e.e.e.e.e.e.e.e.e.e.e.e.e.e.e.e.e.e.3X3X$X$X$X$X#X#X$X$X$X$X$X$X$X$X$X$X$X$X$X$X$X$X$XZ.A.#XC.%XB.C V V V V V V V V V V V V V V V V V V V V V V V V V V V V V A S >.>.>.} } >.} } >.#.#.#.#.#.#.#.#.#.#.#.#.#.#.#.#.S *.S } m & 0 0 0 0 0 0 0 0 0 0 0 0 0 0 0 0 0 0 0 0 0 0 0 0 0 0 q 8 8 x Z Z V V V V V V V V V V V V V V V V V V V V V V V V V V V V ",
"e.e.e.e.e.e.e.e.e.e.e.e.e.e.e.e.e.e.e.e.e.e.e.e.e.8.e.8.0.e.8.$.#.#.#.#.#.#.#.#.#.#.#.#.#.#.#.#.#.#.#.#.#.#.#.#.>.} >.>.$.2.0.0.e.8.8.8.e.e.e.e.e.e.e.e.e.8.8.8.e.e.e.e.e.e.e.e.e.8.8.8.e.e.e.e.e.e.e.e.e.e.e.e.e.e.e.e.e.e.e.e.e.e.e.e.e.e.e.e.e.0.6.g 8 & 0 9 0 0 0 0 0 0 0 0 0 0 0 0 0 0 0 0 0 0 0 0 0 0 0 0 s d 6.e.r.8.e.0.e.e.8.8.8.8.e.e.e.e.e.e.e.e.8.8.e.e.e.e.8.8.e.e...& 0 & 0 8 0 0 0 0 0 0 0 0 0 0 0 0 0 0 0 0 0 0 8 * 0 9 0 8 8 A e.e.e.e.e.e.e.e.e.e.e.e.e.e.e.e.e.e.e.e.e.e.e.e.r.8.r.e.e.e.,.>.#.#.#.#.#.#.#.#.#.#.#.#.#.#.#.#.#.#.#.#.#.#.#.#.#.#.#.#.$.w.e.0.e.e.e.e.e.e.e.e.e.8.e.e.e.e.8.8.8.8.e.e.e.e.8.e.8.r.e.2.: a 0 0 0 0 0 0 0 0 0 0 0 0 0 0 0 0 0 0 0 0 0 0 0 0 0 0 0 & S e.8.q.8.8.e.e.8.8.8.8.e.e.e.e.8.8.8.8.e.e.0.8.0.0.0.0.8.8.e.e.8.8.e.e.e.e.e.e.e.e.e.e.e.e.e.e.e.e.e.e.e.e.e.e.e.e.e.e.e.e.3X3X$X$X$X$X#X#X$X$X$X$X$X$X$X$X$X$X$X$X$X$X$X$X$XZ.A.#XC.%XB.C V V V V V V V V V V V V V V V V V V V V V V V V V V V V V A S >.>.} } >.} } >.>.#.#.#.#.#.#.#.#.#.#.#.#.#.#.#.#.A #.S } m & 0 0 0 0 0 0 0 0 0 0 0 0 0 0 0 0 0 0 0 0 0 0 0 0 0 0 q 8 8 x Z Z V V V V V V V V V V V V V V V V V V V V V V V V V V V V ",
"e.e.e.e.e.e.e.e.e.e.e.e.e.e.e.e.e.e.e.e.e.e.e.e.e.8.e.8.0.e.8.$.#.#.#.#.#.#.#.#.#.#.#.#.#.#.#.#.#.#.#.#.#.#.#.#.>.} >.>.#.2.0.0.e.e.8.8.8.8.e.e.e.e.8.8.e.e.e.e.e.e.e.e.e.e.e.e.e.e.8.8.e.e.e.e.e.e.e.e.e.e.e.e.e.e.e.e.e.e.e.e.e.e.e.e.e.e.e.e.e.0.6.g 8 & 0 9 0 0 0 0 0 0 0 0 0 0 0 0 0 0 0 0 0 0 0 0 0 0 0 0 s d 6.8.r.8.e.0.e.e.8.8.8.8.e.e.e.e.8.8.e.e.e.e.8.8.8.e.e.e.e.e...& 0 & 0 * 0 0 0 0 0 0 0 0 0 0 0 0 0 0 0 0 0 0 8 * 0 0 0 & 8 A e.e.e.e.e.e.e.e.e.e.e.e.e.e.e.e.e.e.e.e.e.e.e.e.r.8.r.8.e.e.,.>.#.#.#.#.#.#.#.#.#.#.#.#.#.#.#.#.#.#.#.#.#.#.#.#.#.#.#.#.$.w.e.0.e.e.e.e.e.e.e.e.e.e.e.e.8.8.8.8.8.8.8.8.e.e.e.e.e.r.e.1.: 8 0 0 0 0 0 0 0 0 0 0 0 0 0 0 0 0 0 0 0 0 0 0 0 0 0 0 0 & S e.8.q.8.8.e.e.e.8.8.8.e.e.e.e.e.e.8.8.8.e.0.0.0.0.0.0.0.0.e.e.e.e.e.e.e.e.e.e.e.e.e.e.e.e.e.e.e.e.e.e.e.e.e.e.e.e.e.e.e.e.3X3X$X$X$X#X#X#X$X$X$X$X$X$X$X$X$X$X$X$X$X$X$X$X$XA.A.#XC.%XB.C V V V V V V V V V V V V V V V V V V V V V V V V V V V V V A S >.>.>.>.>.>.>.>.>.#.#.#.#.#.#.#.#.#.#.#.#.#.#.#.#.S >.S } x & 0 0 0 0 0 0 0 0 0 0 0 0 0 0 0 0 0 0 0 0 0 0 0 0 0 0 q 8 8 x Z Z V V V V V V V V V V V V V V V V V V V V V V V V V V V V ",
"e.e.e.e.e.e.e.e.e.e.e.e.e.e.e.e.e.e.e.e.e.e.e.e.e.8.e.8.0.e.8.$.#.#.#.#.#.#.#.#.#.#.#.#.#.#.#.#.#.#.#.#.#.#.#.#.>.} >.>.#.2.0.0.e.e.8.8.8.8.e.e.e.8.8.8.e.e.e.e.e.e.e.e.8.e.e.e.e.e.8.8.e.e.e.e.e.e.e.e.e.e.e.e.e.e.e.e.e.e.e.e.e.e.e.e.e.e.e.e.e.0.6.g 8 & 0 9 0 0 0 0 0 0 0 0 0 0 0 0 0 0 0 0 0 0 0 0 0 0 0 0 s g 6.8.r.8.e.0.e.e.8.8.8.8.e.e.e.e.e.8.e.e.e.e.8.8.e.e.e.e.e.e...& 0 & 0 * 0 0 0 0 0 0 0 0 0 0 0 0 0 0 0 0 0 0 8 * 0 0 0 & 8 A e.e.e.e.e.e.e.e.e.e.e.e.e.e.e.e.e.e.e.e.e.e.e.e.r.8.r.8.e.e.,.>.#.#.#.#.#.#.#.#.#.#.#.#.#.#.#.#.#.#.#.#.#.#.#.#.#.#.#.#.$.w.e.0.e.e.e.e.e.e.e.e.e.e.e.e.8.8.8.8.8.8.8.8.e.e.e.e.e.r.e.1.: 8 0 0 0 0 0 0 0 0 0 0 0 0 0 0 0 0 0 0 0 0 0 0 0 0 0 0 0 & S e.8.e.8.8.e.e.8.8.8.8.e.e.e.e.8.8.8.8.e.e.0.0.0.0.0.0.0.0.e.e.e.e.e.e.e.e.e.e.e.e.e.e.e.e.e.e.e.e.e.e.e.e.e.e.e.e.e.e.e.e.3X3X$X$X$X#X#X#X$X$X$X$X$X$X$X$X$X$X$X$X$X$X$X$X$XA.A.#XC.%XB.C V V V V V V V V V V V V V V V V V V V V V V V V V V V V V A S >.>.>.>.>.>.>.>.>.#.#.#.#.#.#.#.#.#.#.#.#.#.#.#.#.S >.S } x & 0 0 0 0 0 0 0 0 0 0 0 0 0 0 0 0 0 0 0 0 0 0 0 0 0 0 8 8 8 x Z Z V V V V V V V V V V V V V V V V V V V V V V V V V V V V ",
"e.e.e.e.e.e.e.e.e.e.e.e.e.e.e.e.e.e.e.e.e.e.e.e.e.8.e.8.0.e.8.$.#.#.#.#.#.#.#.#.#.#.#.#.#.#.#.#.#.#.#.#.#.#.#.#.>.} } >.#.2.0.0.e.e.e.8.8.8.e.e.e.e.8.8.8.8.e.e.8.8.8.8.8.8.e.e.e.e.e.e.e.e.e.e.e.e.e.e.e.e.e.e.e.e.e.e.e.e.e.e.e.e.e.e.e.e.e.e.e.0.6.g 8 & 0 9 0 0 0 0 0 0 0 0 0 0 0 0 0 0 0 0 0 0 0 0 0 0 0 0 s d 6.8.r.8.e.0.e.e.e.8.8.e.e.e.e.e.8.8.8.8.e.e.8.8.8.8.e.e.e.e...& 0 & 0 * 0 0 0 0 0 0 0 0 0 0 0 0 0 0 0 0 0 0 8 * 0 9 0 & 8 A e.i.e.e.e.e.e.e.e.e.e.e.e.e.e.e.e.e.e.e.e.e.e.e.r.8.r.e.e.e.,.>.#.#.#.#.#.#.#.#.#.#.#.#.#.#.#.#.#.#.#.#.#.#.#.#.#.#.#.#.$.w.e.0.e.e.e.e.e.e.e.e.8.8.e.e.e.8.e.e.e.e.8.e.e.e.8.8.e.r.e.1.: 8 0 0 0 0 0 0 0 0 0 0 0 0 0 0 0 0 0 0 0 0 0 0 0 0 0 0 0 & S e.8.e.8.8.8.8.8.8.8.8.8.8.8.8.8.8.8.8.8.8.8.0.0.0.0.0.0.0.8.8.e.e.e.e.e.e.e.e.e.e.e.e.e.e.e.e.e.e.e.e.e.e.e.e.e.e.e.e.e.e.3X3X$X$X$X$X#X#X$X$X$X$X$X$X$X$X$X$X$X$X$X$X$X$X$XZ.A.#XC.%XB.k V V V V V V V V V V V V V V V V V V V V V V V V V V V V V A S >.>.>.>.>.} } >.>.#.#.#.#.#.#.#.#.#.#.#.#.#.#.#.#.S >.S } x & 0 0 0 0 0 0 0 0 0 0 0 0 0 0 0 0 0 0 0 0 0 0 0 0 0 0 8 8 8 x Z Z V V V V V V V V V V V V V V V V V V V V V V V V V V V V ",
"e.e.e.e.e.e.e.e.e.e.e.e.e.e.e.e.e.e.e.e.e.e.e.e.e.8.e.8.0.e.8.$.#.#.#.#.#.#.#.#.#.#.#.#.#.#.#.#.#.#.#.#.#.#.#.#.>.} } >.#.2.0.0.e.e.e.e.8.8.e.e.e.e.8.8.8.8.e.e.8.8.8.8.8.8.e.e.e.e.e.e.e.e.e.e.e.e.e.e.e.e.e.e.e.e.e.e.e.e.e.e.e.e.e.e.e.e.e.e.e.0.6.g 8 & 0 9 0 0 0 0 0 0 0 0 0 0 0 0 0 0 0 0 0 0 0 0 0 0 0 0 s d 6.8.r.8.e.0.e.e.e.8.8.e.e.e.e.e.8.8.8.8.8.8.8.8.8.8.e.e.8.8...& 0 & 0 * 0 0 0 0 0 0 0 0 0 0 0 0 0 0 0 0 0 0 8 * 0 9 0 & 8 A i.i.e.e.e.e.e.e.e.e.e.e.e.e.e.e.e.e.e.e.e.e.e.e.r.0.r.e.q.e.,.>.#.#.#.#.#.#.#.#.#.#.#.#.#.#.#.#.#.#.#.#.#.#.#.#.#.#.#.#.$.w.e.0.e.e.e.e.e.e.e.e.8.e.e.e.e.e.e.e.e.e.e.e.e.e.e.8.e.r.e.2.: 8 0 0 0 0 0 0 0 0 0 0 0 0 0 0 0 0 0 0 0 0 0 0 0 0 0 0 0 & S e.8.e.8.8.8.8.8.8.8.8.8.8.8.8.8.8.8.8.8.8.8.0.0.0.0.0.0.0.8.8.8.8.e.e.e.e.e.e.e.e.e.e.e.e.e.e.e.e.e.e.e.e.e.e.e.e.e.e.e.e.3X3X$X$X$X$X#X#X$X$X$X$X$X$X$X$X$X$X$X$X$X$X$X$X$XA.A.$XC.%XB.k V V V V V V V V V V V V V V V V V V V V V V V V V V V V V A S >.>.>.>.} } } >.>.#.#.#.#.#.#.#.#.#.#.#.#.#.#.#.#.S >.S } x & 0 0 0 0 0 0 0 0 0 0 0 0 0 0 0 0 0 0 0 0 0 0 0 0 0 0 8 8 8 x Z V V V V V V V V V V V V V V V V V V V V V V V V V V V V V ",
"e.e.e.e.e.e.e.e.e.e.e.e.e.e.e.e.e.e.e.e.e.e.e.e.e.8.r.e.w.e.e.$.S #.#.S #.S S S >.>.>.>.>.>.>.>.#.#.#.#.#.#.#.#.1.} } >.#.2.0.0.e.e.e.e.8.8.e.e.e.e.8.8.8.8.e.e.e.e.e.e.8.8.e.e.8.8.8.8.e.e.e.e.e.e.e.e.e.e.e.e.0.0.0.0.0.0.0.0.e.e.e.e.e.e.e.e.e.w.6.g 8 & 0 7 0 0 0 0 0 0 0 0 0 0 0 0 0 0 0 0 0 0 0 0 0 0 0 0 a d 3.8.q.8.8.0.e.e.e.e.8.8.8.e.e.e.8.8.8.e.e.e.e.e.e.e.e.e.8.8.X.& 0 & 0 7 0 0 0 0 0 0 0 0 0 0 0 0 0 0 0 0 0 0 0 9 9 9 t 9 & S r.r.e.e.e.e.e.e.e.e.e.e.e.e.e.e.0.0.0.0.0.0.0.0.e.8.8.e.r.e.,.#.#.#.#.#.#.#.#.#.>.>.>.>.>.>.>.>.#.#.#.#.#.#.#.#.#.#.#.#.$.w.e.8.e.e.e.e.e.e.e.e.8.8.e.e.e.e.e.e.e.e.e.e.e.e.8.8.8.e.0.1.& 8 0 0 0 0 0 0 0 0 0 0 0 0 0 0 0 0 0 0 0 0 0 0 0 0 0 0 * & S w.0.8.0.3.0.0.0.0.0.0.8.8.0.0.0.0.0.0.0.0.0.0.0.8.8.8.8.8.8.8.e.e.e.e.e.e.e.e.e.e.e.e.e.e.e.e.e.e.e.e.e.e.e.e.e.e.e.e.e.e.%X#X$X$X$X$X#X%X$X$X$X$X$X$X$X$X$X$X$X$X$X$X$X$X4X4X#X#X#X3XB.C V V V V V V V V V V V V V V V V V V V V V V V V V V V V Z A S >.>.>.>.>.>.>.>.>.#.#.#.#.#.#.#.#.#.#.#.#.#.#.#.#.A #.S } x & 0 0 0 0 0 0 0 0 0 0 0 0 0 0 0 0 0 0 0 0 0 0 0 0 0 0 0 9 0 x V Z V C V V V V V V V V V V V V V V V V V V V V V V V V V V ",
"e.e.e.e.e.e.e.e.e.e.e.e.e.e.e.e.e.e.e.e.e.e.e.e.e.8.r.e.w.r.e.$.#.#.#.#.#.#.#.#.#.#.#.#.#.#.#.#.#.#.#.#.#.#.#.#.1.} } >.#.2.0.0.e.e.e.8.8.8.e.e.e.e.8.8.8.8.e.e.e.e.e.e.8.8.e.8.8.8.8.8.e.e.e.e.e.e.e.e.e.e.e.e.e.e.e.e.e.e.e.e.e.e.e.e.e.e.e.e.w.w.6.g 8 & 0 7 0 0 0 0 0 0 0 0 0 0 0 0 0 0 0 0 0 0 0 0 0 0 0 0 a d 3.8.q.8.8.0.e.e.e.e.8.8.8.e.e.e.8.8.8.e.e.e.e.e.e.e.e.e.8.8.X.& 0 & 0 * 0 0 0 0 0 0 0 0 0 0 0 0 0 0 0 0 0 0 0 0 0 9 t 0 & D r.r.e.e.e.e.e.e.e.e.e.e.e.e.e.e.e.e.e.0.e.e.0.0.e.8.8.e.r.e.,.#.#.S #.#.#.#.#.#.>.>.>.>.>.>.>.>.#.#.#.#.#.#.#.#.#.#.#.#.$.w.e.8.e.e.e.e.e.e.e.e.8.8.e.e.e.e.e.e.e.e.e.e.e.e.8.8.8.e.0.1.& 8 0 0 0 0 0 0 0 0 0 0 0 0 0 0 0 0 0 0 0 0 0 0 0 0 0 0 * & S w.0.8.0.3.0.0.0.0.0.0.8.8.0.0.0.0.0.0.0.0.0.0.0.0.w.8.8.8.8.8.e.e.e.e.e.e.e.e.e.e.e.e.e.e.e.e.e.e.e.e.e.e.e.e.e.e.e.e.e.e.%X#X$X$X$X$X#X%X$X$X$X$X$X$X$X$X$X$X$X$X$X$X$X$X4X4X#X#X#X3XB.C V V V V V V V V V V V V V V V V V V V V V V V V V V V V Z A S >.>.} >.>.>.>.>.>.#.#.#.#.#.#.#.#.#.#.#.#.#.#.#.#.A #.S } x & 0 0 0 0 0 0 0 0 0 0 0 0 0 0 0 0 0 0 0 0 0 0 0 0 0 0 0 0 0 x V Z V C V V V V V V V V V V V V V V V V V V V V V V V V V V ",
"e.e.e.e.e.e.e.e.e.e.e.e.e.e.e.e.e.e.e.e.e.e.e.e.e.8.e.e.w.e.e.#.#.#.>.>.#.#.#.#.#.#.#.#.#.#.#.#.#.#.#.#.>.#.>.#.1.} } >.#.2.0.e.e.e.8.8.8.8.e.e.e.8.8.8.e.e.e.e.e.e.e.8.8.8.8.8.e.e.8.8.e.e.e.e.e.e.e.e.e.e.e.e.e.e.e.e.e.e.e.e.r.r.r.r.r.r.e.e.w.w.6.g 8 & 0 7 0 0 0 0 0 0 0 0 8 8 0 0 0 0 0 0 0 0 0 0 0 0 0 0 s d 3.8.q.8.e.0.e.e.8.e.8.8.e.e.e.8.8.8.e.e.e.e.8.e.8.8.e.8.8.8.X.& 0 & 0 7 0 0 0 0 0 0 0 0 0 0 0 0 0 0 0 0 0 0 0 0 0 9 t = & S e.e.e.e.e.e.e.e.e.e.e.e.e.e.e.e.e.e.e.e.e.e.e.e.e.0.w.e.r.w.2.#.#.#.#.#.#.#.#.#.>.>.>.>.#.#.>.>.#.#.#.#.#.#.#.#.#.#.#.#.$.w.e.8.e.e.e.e.e.e.e.e.8.8.8.e.8.8.8.8.8.8.8.8.e.8.8.8.8.e.0.1.& 8 0 0 0 0 0 0 0 0 0 0 0 0 0 0 0 0 0 0 0 0 0 0 0 0 0 0 * & S w.0.8.0.3.0.0.0.0.0.0.0.0.0.0.0.0.0.0.0.0.8.0.8.8.8.w.w.8.8.e.e.e.e.e.e.e.e.e.e.e.e.e.e.e.e.e.e.e.e.e.e.e.e.e.e.e.e.e.e.e.%X#X$X$X$X#X#X%X$X$X$X$X$X$X$X$X$X$X$X$X$X$X$X$X4X4X#X#X#X3XB.C V V V V V V V V V V V V V V V V V V V V V V V V V V V V Z A S >.} } >.>.>.>.>.} #.#.#.#.#.#.#.#.#.#.#.#.#.#.#.#.S *.S } x & 0 0 0 0 0 0 0 0 0 0 0 0 0 0 0 0 0 0 0 0 0 0 0 0 0 0 0 0 0 x V Z V Z V V V V V V V V V V V V V V V V V V V V V V V V V V ",
"e.e.e.e.e.e.e.e.e.e.e.e.e.e.e.e.e.e.e.e.e.e.e.e.e.8.e.e.w.e.e.#.>.>.>.>.>.>.>.>.#.#.#.#.#.#.#.#.>.>.>.>.>.>.>.>.1.} } >.#.2.0.e.e.e.8.8.8.8.e.e.e.e.8.8.e.e.e.e.e.e.e.8.8.8.8.8.e.e.8.8.e.e.e.e.e.e.e.e.e.e.e.e.e.e.e.e.e.e.e.e.r.r.r.r.r.r.e.e.w.w.6.g 8 & 0 7 0 0 0 0 0 0 0 0 8 8 0 0 0 0 0 0 0 0 0 0 0 8 0 0 s d 3.8.q.8.e.0.e.e.8.8.8.8.e.e.8.8.8.8.e.e.e.e.8.8.8.8.8.8.8.8.X.& 0 7 0 7 0 0 0 0 0 0 0 0 0 0 0 0 0 0 0 0 0 0 0 = 0 = t = & S e.e.e.e.e.e.e.e.e.e.e.e.e.e.e.e.e.e.e.e.e.e.e.e.e.0.w.e.r.w.2.#.#.#.#.#.#.#.#.#.#.#.#.#.#.#.#.#.#.#.#.#.#.#.#.#.#.#.#.#.$.w.e.8.e.e.e.e.e.e.e.e.8.8.8.e.8.8.8.8.8.8.8.8.e.8.8.8.8.e.0.1.& 8 0 0 0 0 0 0 0 0 0 0 0 0 0 0 0 0 0 0 0 0 0 0 0 0 0 0 * & S w.0.8.0.3.0.0.0.0.0.0.0.0.0.0.0.0.0.0.0.0.0.0.0.0.0.0.0.0.8.8.e.e.e.e.e.e.e.e.e.e.e.e.e.e.e.e.e.e.e.e.e.e.e.e.e.e.e.e.e.e.%X#X$X$X$X#X#X%X$X$X$X$X$X$X$X$X$X$X$X$X$X$X$X$X4X$X#X#X#X3XB.C V V V V V V V V V V V V V V V V V V V V V V V V V V V V Z A S >.} } >.>.>.>.} } #.#.#.#.#.#.#.#.#.#.#.#.#.#.#.#.S #.S } x & 0 0 0 0 0 0 0 0 0 0 0 0 0 0 0 0 0 0 0 0 0 0 0 0 0 0 0 = 0 x V Z V Z V V V V V V V V V V V V V V V V V V V V V V V V V V ",
"e.e.e.e.e.e.e.e.e.e.e.e.e.e.e.e.e.e.e.e.e.e.e.e.e.8.e.e.w.e.w.#.>.>.>.>.>.>.>.>.#.#.#.#.#.#.#.#.>.>.>.>.>.>.>.>.1.} } >.>.2.0.e.e.8.8.8.e.e.e.e.e.e.e.e.e.8.8.8.8.8.8.8.e.e.8.8.e.e.e.e.e.e.e.e.e.e.e.e.e.e.e.e.e.e.e.e.e.e.e.e.r.r.r.e.e.e.e.e.e.w.6.g 8 & 0 7 8 8 8 8 8 8 8 8 8 8 8 8 8 8 8 8 8 8 8 8 8 8 8 8 s d 3.8.q.8.e.0.e.8.8.8.e.e.e.e.e.e.e.e.8.8.8.8.8.8.8.8.8.8.8.8.X.& 0 & 0 7 0 0 0 0 0 0 0 0 0 0 0 0 0 0 0 0 0 0 0 0 0 9 t = & S i.i.w.w.r.e.e.e.r.r.r.r.e.e.e.e.e.e.e.e.e.e.e.e.e.e.0.e.r.w.1.#.#.#.#.$.$.$.#.#.#.#.#.#.#.#.#.#.#.#.#.#.#.#.#.#.#.#.#.#.$.w.e.0.e.e.e.e.e.e.e.e.8.8.8.8.8.8.8.e.e.8.8.8.8.8.8.8.8.e.0.1.& 8 0 8 0 0 0 0 0 0 0 0 0 0 0 0 0 0 0 0 0 0 0 0 0 0 0 0 & & A 0.0.8.0.3.w.w.w.w.w.w.w.w.0.0.w.0.6.6.3.6.0.0.0.0.0.0.0.0.8.8.8.8.e.e.e.e.e.e.e.e.e.e.e.e.e.e.e.e.e.e.e.e.e.e.e.e.e.e.e.e.%X#X$X$X$X$X#X%X$X$X$X$X$X$X$X$X$X$X$X$X$X$X$X$X4X$X#X#X#X3XB.C V V V V V V V V V V V V V V V V V V V V V V V V V V b b Z A S >.>.>.>.>.>.>.>.>.#.#.#.#.#.#.#.#.#.#.#.#.#.#.#.#.S *.S } m & 0 0 0 0 0 0 0 0 0 0 0 0 0 0 0 0 0 0 0 0 0 0 0 0 0 0 0 = s x V V V Z V V V V V V V V V V V V V V V V V V V V V V V V V V ",
"e.e.e.e.e.e.e.e.e.e.e.e.e.e.e.e.e.e.e.e.e.e.e.e.e.8.e.e.w.e.e.#.>.>.} } >.>.>.>.} } } } } } } >.} } } } } } } } 1.} } >.>.2.0.e.e.e.8.8.8.8.e.e.e.e.e.e.e.8.8.8.8.8.8.8.e.e.e.8.e.e.e.e.e.e.e.r.e.e.e.e.e.e.e.e.e.e.e.e.e.e.e.e.e.e.e.e.r.e.r.r.e.w.6.g 8 % 0 7 8 8 8 8 8 8 8 8 8 8 8 8 8 8 8 8 8 8 8 8 8 8 8 8 s d 3.8.q.8.8.0.8.8.8.8.e.e.e.e.8.e.e.e.8.8.8.8.e.e.8.8.8.8.8.8.X.8 0 7 0 7 q 9 0 0 0 0 0 0 9 9 0 0 0 0 0 0 9 9 0 9 0 9 t 0 & D i.i.w.w.r.e.e.e.w.w.w.w.w.e.e.e.e.e.e.e.e.e.e.e.e.e.0.e.r.w.1.#.#.#.#.#.$.$.#.#.#.#.#.#.#.#.#.#.#.#.#.#.#.#.#.#.#.#.#.#.$.w.e.0.e.e.e.e.e.e.e.e.8.8.8.8.8.8.e.e.e.e.8.8.8.8.8.8.8.e.0.1.& 8 0 8 0 0 0 0 0 0 0 0 0 0 0 0 0 0 0 0 0 0 0 0 0 0 0 0 & & A 0.0.e.0.3.w.w.w.w.w.w.w.w.w.0.0.w.6.6.6.3.0.0.0.0.0.0.0.0.e.8.8.8.e.e.e.e.e.e.e.e.e.e.e.e.e.e.e.e.e.e.e.e.e.e.e.e.e.e.e.e.%X#X$X$X$X$X#X%X$X$X$X$X$X$X$X$X$X$X$X$X$X$X$X$X4X$X#X#X#X5XB.C V V V V V V V V V V V V V V V V V V V V V V V V V Z b b Z A S >.>.>.>.>.>.>.>.>.#.#.#.#.#.#.#.#.#.#.#.#.#.#.#.#.S *.S } m & 0 0 0 0 0 0 0 0 0 0 0 0 0 0 0 0 0 0 0 0 0 0 0 0 0 0 s = s x Z Z V Z V V V V V V V V V V V V V V V V V V V V V V V V V V ",
"e.e.e.e.e.e.e.e.e.e.e.e.e.e.e.e.e.e.e.e.e.e.e.e.e.8.e.e.w.e.e.$.} } } } } } } } } } } } } } } } } } } } } } } } 1.} } >.>.2.w.e.8.8.8.8.8.8.8.8.e.8.e.e.8.8.8.8.8.8.e.e.e.e.8.8.8.8.e.e.e.e.e.e.e.e.e.e.e.e.e.e.e.e.e.e.6.6.6.6.w.w.w.w.w.w.w.w.e.w.6.g 8 & 0 7 8 8 8 8 8 8 8 8 8 8 8 8 8 8 8 8 8 8 8 8 8 8 8 8 s d 3.8.q.8.8.0.e.8.8.8.8.8.8.8.8.8.e.e.e.e.8.8.e.e.e.e.e.e.8.8.X.8 0 7 9 7 9 9 9 9 9 9 9 9 9 9 9 9 9 9 9 9 9 9 9 9 9 9 q 9 8 D l.l.w.w.w.w.w.w.6.6.w.w.6.6.6.6.e.e.e.e.e.e.e.e.e.0.3.e.i.6.1.S #.#.#.#.#.#.#.#.#.#.#.#.#.#.#.#.#.#.#.#.#.#.#.#.#.#.#.#.$.w.e.0.e.e.e.e.e.e.e.e.8.8.e.8.e.e.e.e.e.e.e.e.8.e.8.8.8.e.0.1.& 8 0 8 0 0 0 0 0 0 0 0 0 0 0 0 0 0 0 0 0 0 0 0 0 0 0 0 = & A 0.0.8.0.3.6.6.6.6.6.6.6.6.6.6.6.6.6.6.6.6.3.3.3.3.3.3.0.0.e.e.8.8.e.e.e.e.e.e.e.e.e.e.e.e.e.e.e.e.e.e.e.e.e.e.e.e.e.e.e.e.%X#X#X$X$X$X#X%X$X$X$X$X$X$X$X$X$X$X$X$X$X$X$X$X4X4X#X#X#X5XB.A V V V V V V V V V V V V V V V V V V V V V V Z Z V V V b Z A S >.>.>.} } >.>.>.>.#.#.#.#.#.#.#.#.#.#.#.#.#.#.#.#.A #.S } m & 0 0 0 0 0 0 0 0 0 0 0 0 0 0 0 0 0 0 0 0 0 0 0 0 0 0 s = s x Z Z V Z V V V V V V V V V V V V V V V V V V V V V V V V V V ",
"e.e.e.e.e.e.e.e.e.e.e.e.e.e.e.e.e.e.e.e.e.e.e.e.e.8.e.e.w.e.e.#.} } } } } } } } | } } } | | | | } } } } } } } } 1.} } >.>.2.w.e.8.8.8.8.8.8.8.8.8.8.e.e.e.8.8.8.8.e.e.e.e.e.8.8.8.8.8.8.e.e.e.e.e.e.e.e.e.e.e.e.y.6.6.6.y.y.y.y.w.w.w.w.w.w.w.w.e.w.6.g 8 & 0 7 8 8 a a a a 8 8 8 8 8 8 8 8 8 8 8 8 8 8 8 8 8 8 s d 3.8.q.8.8.0.e.8.8.8.8.8.8.8.8.8.e.e.e.8.8.8.e.e.e.e.e.e.8.8.X.8 0 7 0 7 9 9 9 9 9 9 9 9 9 9 9 9 9 9 9 9 9 9 9 9 9 6 q 9 7 o.l.l.w.w.w.w.w.w.y.y.y.6.6.6.y.y.y.y.y.y.y.y.y.y.e.0.3.e.i.6.1.S #.#.#.#.#.#.#.#.S #.#.#.#.#.#.#.#.#.#.#.#.#.#.#.#.#.#.#.$.w.e.0.e.e.e.e.e.e.e.e.8.8.e.e.e.e.e.e.e.e.e.e.e.e.8.8.8.e.0.1.& 8 0 8 0 0 0 0 0 0 0 0 0 0 0 0 0 0 0 0 0 0 0 0 0 0 0 0 = & A 0.0.e.0.3.6.6.6.6.6.6.6.6.6.6.6.6.6.6.6.6.3.3.3.3.3.3.0.0.e.e.8.8.e.e.e.e.e.e.e.e.e.e.e.e.e.e.e.e.e.e.e.e.e.e.e.e.e.e.e.e.%X#X#X$X$X$X#X%X$X$X$X$X$X$X$X$X$X$X$X$X$X$X$X$X4X4X#X#X#X5XB.A V V V V V V V V V V V V V V V V V V V V Z Z Z V V V V V Z A S >.>.>.} } >.>.>.>.#.#.#.#.#.#.#.#.#.#.#.#.#.#.#.#.A #.S } m & 0 0 0 0 0 0 0 0 0 0 0 0 0 0 0 0 0 0 0 0 0 0 0 0 0 0 d > s x Z Z m Z V V V V V V V V V V V V V V V V V V V V V V V V V V ",
"e.e.e.e.e.e.e.e.e.e.e.e.e.e.e.e.e.e.e.e.e.e.e.e.t.r.0.e.8.f.7.' T T T T T T T T T T T T T T T T Y Y ! ! Y Y Y Y M i ! Y T 7.3X#X#X#X#XoXoX#X#X#X#X#X#X#X#X#XoXoXoXoX#X#X#X#X#X#XoX%XJ.3XA & & s a a a a a a a a 8 8 8 8 8 8 8 8 a a a a a a a a : a h 5.3.e.e.a.3.3.3.3.3.3.3.3.3.3.3.3.3.3.3.3.3.3.3.3.3.3.3.3.0.e.B.3X#X$X+X+XoXoXoXoXoXoXoXoX#X#X#XoXoXoXoXoXoXoXoXoXoXoXoXoXl.u R R E Y Y Y Y Y Y Y Y Y Y Y Y Y Y Y Y Y Y Y T T E E E Y T c 0 0 8 s a a s s 8 8 8 8 8 8 8 8 8 8 8 8 8 8 8 8 8 8 0 0 0 8 1.i.8.8.8.8.8.8.8.8.8.8.8.8.8.8.8.8.8.8.8.8.8.8.8.8.e.e.e.e.e.e.q.q.8.e.e.e.e.e.e.e.e.e.e.e.e.e.e.e.e.e.e.e.e.e.e.e.r.8.w.3.b Z x Z Z Z Z Z Z Z Z Z Z Z Z Z Z Z Z Z Z Z Z Z Z Z Z Z Z m z 8 & 0 0 9 8 8 8 8 8 8 8 8 8 8 8 8 8 8 8 8 s s h s s s s s o p.#X#X#X#X%XZ.oXoX#X#X#X#X#X#XoXoXoXoX#X#X#X#XoXoXoXoXoXoXoXoXq.q.q.q.q.q.e.q.q.q.q.c.c.q.q.q.q.q.q.q.q.q.c.c.e.r.r.r.8.i.5.8 0 8 8 8 0 0 0 0 8 a a 8 8 8 8 s 8 8 8 8 a 8 8 8 0 0 9 0 8 x >.>.>.>.>.>.} >.>.>.#.#.#.#.#.#.#.#.#.#.#.#.#.#.#.#.>.>.>.} A V V V Z Z Z Z Z Z Z Z Z Z Z Z Z Z Z Z Z Z Z Z V V Z Z m N B M T T E E E E E E E E E E E E E E E E E E E E E E E E E E T T ",
"e.e.e.e.e.e.e.e.e.e.e.e.e.e.e.e.e.e.e.e.e.e.e.e.t.r.0.e.8.f.7.' T T T T T T T T T T T T T T T T E E E W E E E E i T Q Y T d.3X#X#X#X#X#X#X#X#X#X#X#X#X#X#X#X#X#X#X#X#X#X#X#X#X#XoX%XJ.3XA & & s 8 8 8 8 8 8 8 8 8 8 8 8 8 8 8 8 8 8 8 8 8 8 8 8 a a h 5.3.e.e.0.0.0.0.e.e.e.3.0.0.0.e.e.0.0.0.0.e.0.3.0.0.0.0.0.w.e.B.3X#X$X+X+X#X#X#X#X#X#X#X#X#X#X#X#X#X#X#X#X#X#X#X#XoXoXoXoXx.u R ^ E T Y E E E E E E E E E E E E E E E E E Y E E R W Y T c 0 0 0 0 0 0 0 0 8 8 8 8 8 8 8 8 8 8 8 8 8 8 8 8 8 8 0 0 0 8 1.g.8.e.e.e.8.8.8.8.8.8.8.8.8.8.e.e.e.e.8.8.8.8.8.8.e.e.e.e.e.e.e.q.8.e.8.8.e.e.e.e.e.e.e.e.e.e.e.e.e.e.e.e.e.e.e.e.r.8.w.3.b Z x Z Z Z Z Z Z Z Z Z Z Z Z Z Z Z Z Z Z Z Z Z Z Z Z Z Z m x 8 * 0 0 9 8 8 8 8 8 8 8 8 8 8 8 8 8 8 8 8 0 0 s s 8 8 8 8 o p.3X#X#X#X%XZ.#X#X#X#X#X#X#X#X#X#X#X#X#X#X#X#XoXoXoXoXoXoXoXoXq.q.q.q.q.e.q.q.r.r.r.r.r.r.r.r.r.r.r.r.r.r.r.r.e.r.r.r.8.i.5.8 0 8 8 8 0 0 0 0 8 8 8 8 8 8 8 0 8 8 8 8 8 8 8 8 0 0 0 0 8 x >.>.>.>.>.>.>.>.>.>.#.#.#.#.#.#.#.#.#.#.#.#.#.#.#.#.>.>.>.} A V Z V Z Z Z Z Z Z Z Z Z Z Z Z Z Z Z Z Z Z Z Z V V Z Z m m B ' T T E E E E E E E E E E E E E E E E E E E E E E E E E E E E ",
"e.e.e.e.e.e.e.e.e.e.e.e.e.e.e.e.e.e.e.e.e.e.e.e.t.r.0.e.8.f.7.' E E E E E E E E E E E E E E E E E E R R R R R R T T Q E T d.7X$X#X#X#X#X#X#X#X#X#X#X#X#X#X#X#X#X#X#X#X#X#X#X#X#X+X$XJ.6XA 8 7 0 0 0 0 0 0 0 0 0 0 0 0 0 0 0 0 0 0 0 0 0 0 0 0 0 a a h 5.5.e.e.0.8.8.8.8.e.8.8.8.8.8.e.e.8.8.8.8.e.e.e.8.8.8.8.8.0.r.B.3X#X%X+X+X#X#X#X#X#X#X#X#X#X#X#X#X#X#X#X#X#X#X#X#X#X#X#X#Xx.u ^ ( ^ E E R R R R R R R R R R R R R R R R R W R / R R W Y T 0 0 0 0 0 0 0 0 0 0 0 0 0 0 0 0 0 0 0 0 0 0 0 0 0 0 0 0 0 0 5.g.8.8.e.e.8.e.8.8.e.e.8.8.8.8.8.8.e.e.e.e.e.e.8.e.e.e.e.8.e.e.e.e.e.e.8.e.e.e.e.e.e.e.e.e.e.e.e.e.e.e.e.e.e.e.e.e.r.e.w.5.b Z x Z Z Z Z Z Z Z Z Z Z Z Z Z Z Z Z Z Z Z Z Z Z Z Z Z Z m z 8 & 0 0 9 0 0 0 0 0 0 0 0 0 0 0 0 0 0 0 0 0 0 0 0 0 0 0 0 o p.4X#X#XoX%XZ.#X#XZ.Z.#X#X#X#X#X#X#X#X#X#X#X#X#X#X#X#X#X#X#X#Xq.q.q.q.q.q.e.e.q.q.q.q.q.q.q.q.e.e.r.r.q.q.q.q.e.r.r.r.8.i.5.8 0 0 0 0 0 0 0 0 0 0 0 0 0 0 0 0 0 0 0 0 0 0 0 0 0 0 0 0 8 x >.>.>.>.>.>.>.>.>.>.#.#.#.#.#.#.#.#.#.#.#.#.#.#.#.#.#.>.>.} A V Z V Z Z Z Z Z Z Z Z Z Z Z Z Z Z Z Z Z Z Z Z V V V V V m B ' T E R E E E E E E E E E E E E E E E E E E E E E E E E E E E ",
"e.e.e.e.e.e.e.e.e.e.e.e.e.e.e.e.e.e.e.e.e.e.e.e.t.r.0.e.8.f.7.' ^ ^ ^ ^ ( ( ( ( ^ / ^ ^ / / / / R R ^ ^ ^ ^ ^ ^ T E ( R E d.7X$XA.A.A.A.A.A.A.A.A.A.A.A.A.A.A.A.A.A.A.A.A.A.A.A.#XpXJ.4XA 7 7 q 0 0 0 0 0 0 0 0 9 9 9 9 9 9 9 9 0 0 9 9 9 0 0 0 8 a h 5.3.e.e.e.8.8.8.8.e.e.8.8.8.8.e.e.8.8.8.8.8.8.e.e.e.8.8.8.8.q.B.%X#X$X+X#X#X#X#X#XZ.Z.Z.Z.A.A.A.A.A.A.A.A.A.A.A.Z.#X#X#X#XF.y ( ~ ^ E R ^ ^ ^ ^ ^ ^ ^ ^ ^ ^ ^ ^ ^ ^ ^ ^ ^ W ^ / ^ ~ ~ E T t t 0 0 0 0 0 0 9 9 9 9 9 9 9 9 9 9 9 9 9 9 9 9 0 = t 0 t = 5.f.8.8.e.e.e.e.8.8.e.8.8.8.8.8.8.8.e.e.e.e.e.e.e.e.e.e.8.8.e.e.e.e.e.e.e.e.e.e.e.e.e.e.e.e.e.e.e.e.e.e.e.e.e.e.e.e.r.8.w.5.b Z x Z Z Z Z Z Z Z Z Z Z Z Z Z Z Z Z Z Z Z Z Z Z Z Z Z Z m x 8 & 0 0 9 9 9 9 9 9 9 9 9 9 9 9 9 9 9 9 9 9 9 9 9 9 9 9 9 o p.4XA.#X#X%XZ.A.A.A.A.A.A.A.A.A.A.A.A.A.A.A.A.Z.Z.Z.Z.Z.Z.Z.Z.q.q.q.q.q.e.e.e.e.e.e.e.e.e.e.e.e.e.e.e.e.e.e.e.e.r.r.r.0.e.5.8 9 9 9 9 9 9 9 9 0 0 0 0 0 0 0 0 0 0 0 0 0 0 0 0 0 0 0 0 8 x >.>.>.>.>.>.>.>.>.>.#.#.#.#.#.#.#.#.#.#.#.#.#.#.#.#.#.>.>.} A V Z V Z Z Z Z Z Z Z Z Z Z Z Z Z Z Z Z Z Z Z Z V V V V V m B ' T E E E R R E E E E R R R R E E E R R R R R R R E E E E R R ",
"e.e.e.e.e.e.e.e.e.e.e.e.e.e.e.e.e.e.e.e.e.e.e.e.t.r.0.e.8.f.7.` ^ ^ ^ ^ ^ ^ ^ ^ ^ ^ ^ ^ ^ ^ ^ ^ ^ ^ ^ ^ ^ ^ ^ ^ E R ) R E d.7X$XA.A.A.A.A.A.A.A.A.A.A.A.A.A.A.A.A.A.A.A.A.A.A.A.Z.K.J.4XA 7 6 q 0 0 0 0 0 0 0 0 9 9 9 9 9 9 9 9 9 9 9 9 9 9 9 9 8 a h 5.3.e.e.e.r.r.r.r.r.r.r.r.r.e.r.r.r.r.r.r.r.r.r.r.r.r.r.r.e.q.+X$X#X$X#X#X#X#X#X#X#X#X#X#XA.A.A.A.A.A.A.A.#X#X#X#X#X#X#X#XF.y ( ~ ^ R R ^ ^ ^ ^ ^ ^ ^ ^ ^ ^ ^ ^ ^ ^ ^ ^ ^ W ^ / ^ ~ ~ E T t t 0 0 0 0 0 0 9 9 9 9 9 9 9 9 9 9 9 9 9 9 9 9 0 0 t 0 t = 5.f.e.r.r.r.e.e.e.e.e.e.e.e.e.e.e.e.e.e.e.e.e.e.e.e.e.e.e.8.e.e.e.e.e.e.e.e.e.e.e.e.e.e.e.e.e.e.e.e.e.e.e.e.e.e.e.e.r.8.w.3.b Z x Z V V V V V V V V V V V V V V V V V V V V Z V V V Z m x 8 & 0 0 9 9 9 9 9 9 9 9 9 9 9 9 9 9 9 9 9 9 9 9 9 9 9 9 9 o r.4XA.#X+X$XZ.A.A.A.A.A.A.A.A.A.A.A.A.A.A.A.A.$X$X$X$X$X$X$X$Xq.q.q.q.e.e.e.e.e.e.e.e.e.e.e.e.e.e.e.e.e.e.e.e.e.r.q.q.0.e.5.8 9 9 9 9 9 9 9 9 0 0 0 0 0 0 0 0 0 0 0 0 0 0 0 0 = 0 0 0 8 x >.>.>.} >.>.>.} } } #.#.#.#.#.#.#.#.#.#.#.#.#.#.#.#.#.#.>.S A V V Z V V V V V V V V V V V V Z V V V V V V V V V V V V V B ' T E E E R E E E R R R R R E E E R R R R R R R R E E E R R R ",
"e.e.e.e.e.e.e.e.e.e.e.e.e.e.e.e.e.e.e.e.e.e.e.e.t.r.0.e.8.f.d.` ^ ^ ^ ^ ^ ^ ^ ^ ^ ^ ^ ^ ^ ^ ^ ^ R R ^ ^ R ^ R ^ R R ( R E d.3X$XA.A.A.A.A.A.A.A.A.A.A.A.A.A.A.A.A.A.A.A.A.A.A.A.#X$XJ.4XA 7 7 q 0 0 0 0 0 0 0 0 0 0 0 0 0 0 0 0 9 9 9 9 9 9 9 9 8 8 s 5.3.e.e.e.r.r.r.r.r.r.r.r.r.r.r.r.r.r.r.r.r.r.r.r.r.r.r.r.e.q.+X$X#X$X#X#X#X#X#X#X#X#X#X#X#X#X#X#X#X#X#X#X#X#X#X#X#X#X#X#XF.y ( ~ ^ R R ^ ^ ^ ^ ^ ^ ^ ^ ^ ^ ^ ^ ^ ^ ^ ^ ^ W R / R R W Y ' 0 0 0 0 0 0 0 0 0 0 0 0 0 0 0 0 0 0 0 0 0 0 0 0 0 7 0 9 0 & 1.g.e.r.r.r.e.e.e.e.e.e.e.e.e.e.e.e.e.e.e.e.e.e.e.e.e.e.e.e.e.e.e.e.e.e.e.e.e.e.e.e.e.e.e.e.e.e.e.e.e.e.e.e.e.e.e.e.r.8.w.3.b Z x Z V V V V V V V V V V V V V V V V V V V V V V V V Z m x 8 & 0 0 9 0 0 0 0 0 0 0 0 0 0 0 0 0 0 0 0 9 9 9 9 9 9 9 9 o r.4XA.#X+X$XA.A.A.A.A.A.A.A.A.A.A.A.A.A.A.A.A.$X$X$X$X$X$X$X$Xq.q.q.e.e.w.e.e.e.e.e.e.e.e.e.e.e.e.e.e.e.e.e.e.e.r.q.q.0.e.5.8 0 0 0 0 0 0 0 0 0 0 0 0 0 0 0 0 0 0 0 0 0 0 0 0 = 0 0 0 8 x >.>.>.} } >.} } >.} #.#.#.#.#.#.#.#.#.#.#.#.#.#.#.#.#.#.#.S A V V Z V V V V V V V V V V V V V V V V V V V V V V V V l V ] { T E E Y R R R R R R R R R R R R R R R R R R R R R R R R R R ",
"e.e.e.e.e.e.e.e.e.e.e.e.e.e.e.e.e.e.e.e.e.e.e.e.t.r.0.e.e.f.7.` ^ ^ ^ ^ ^ ^ ^ ^ ^ ^ R ^ ^ ^ ^ ^ R R R R R R R R W ~ ( U T 7.3X@X#X#X#X#X#X#X#X#X#X#X#X#X#X#X#X#X#X#X#X#X#X#X#X#X+X$XJ.6XA 7 7 0 0 0 0 0 0 0 0 0 0 0 0 0 0 0 0 0 0 0 0 0 9 0 0 0 8 8 s 5.3.e.e.q.e.e.e.e.e.e.e.e.e.e.e.e.e.e.e.e.e.e.e.e.e.e.e.e.e.q.+X$X#X$X#X+X#X#X#X#X#X#X#X#X#X#X#X#X#X#X#X#X#X#X#X#X#X#X+X#Xx.y ^ ( ^ E E R ^ ^ ^ ^ ^ ^ ^ ^ ^ ^ ^ ^ ^ ^ ^ ^ Y E E E W W T ` = = = & 8 8 8 8 0 0 0 0 0 0 0 0 0 0 0 0 0 0 0 0 8 % 0 9 0 & 1.r.r.r.r.r.r.r.r.r.e.e.e.e.e.e.e.e.e.e.e.e.e.e.e.e.q.e.e.e.e.e.e.e.e.e.e.e.e.e.e.e.e.e.e.e.e.e.e.e.e.e.e.e.e.e.e.e.r.8.w.3.b Z x Z V V V V V V V V V V V V V V V V V V V V V V V V Z m x 8 & 0 0 9 0 0 0 0 0 0 0 0 0 0 0 0 0 0 0 0 0 0 0 0 0 0 0 0 o r.4XA.#X#X$XA.#X#X#X#X#X#X#X#X#X#X#X#X#X#X#X#X#X#X#X#X#X#X#X#Xq.q.q.e.e.w.w.e.e.e.e.e.e.e.e.e.e.e.e.e.e.e.e.e.e.e.8.8.0.e.5.8 0 0 0 0 0 0 0 0 0 0 0 0 0 0 0 0 0 0 0 0 0 0 0 0 = 0 0 0 8 x >.>.>.>.>.>.>.>.>.>.#.#.#.#.#.#.#.#.#.#.#.#.#.#.#.#.#.$.#.A A V V V V V V V V V V V V V V V V V V V V V V V V V V V l V ] { Q R Y Y R R R R R R R R R R R R R R R R R R R R R R R R R R ",
"e.e.e.e.e.e.e.e.e.e.e.e.e.e.e.e.e.e.e.e.e.e.e.e.t.r.0.e.e.f.d.' R R R R R R R R R R R R R R R R E E E E E E E E W ~ ( U T 7.%X@X#X#X#X#X#X#X#X#X#X#X#X#X#X#X#X#X#X#X#X#X#X#X#X#X+X$XJ.6XA 8 7 0 = = = = & = = = = 0 0 0 & & & & 0 0 0 0 8 8 8 0 8 8 s 5.3.e.r.q.e.e.e.e.e.e.e.e.e.e.e.e.e.e.e.e.e.e.e.e.e.e.e.e.e.q.+X$X#X$X+X+X#X#X#X#X#X#X#X#X#X#X#X#X#X#X#X#X#X#X#X#X#X#X#X#Xx.y ^ ^ R E Y W R R R R R R R R R R R R R R R R T T E E E Y T c & & & & 8 8 8 8 = = = = = & & & 0 0 0 0 & & & = 8 7 8 7 8 & 1.e.r.r.r.r.r.r.r.r.e.e.e.e.e.e.e.e.e.e.e.e.e.e.e.e.q.q.e.e.e.e.e.e.e.e.e.e.e.e.e.e.e.e.e.e.e.e.e.e.e.e.e.e.e.e.e.e.r.8.w.3.b Z x Z V V V V V V V V V V V V V V V V V V V V V V V V Z m x 8 & 0 0 9 8 0 0 0 & & & = 8 0 = = & & & = 0 0 0 0 0 0 0 0 o r.4XA.#X#X$XS.#X#X#X#X#X#X#X#X#X#X#X#X#X#X#X#X#X#X#X#X#X#X#X#Xq.q.e.e.w.e.w.w.r.r.r.r.r.r.r.r.e.e.r.r.r.r.r.r.w.e.8.8.0.e.5.8 0 0 0 0 = = = = 0 0 0 0 0 0 0 0 s s 0 0 0 0 0 0 = 0 0 0 8 x >.>.>.>.>.>.>.>.>.>.#.#.#.#.#.#.#.#.#.#.#.#.#.#.#.#.#.$.$.A A V V V V V V V V V V V V V V V V V V V V V V V V V V V l V ] { Q R E Y ^ ^ ^ R ^ ^ ^ ^ ^ ^ ^ R ^ ^ ^ ^ ^ ^ ^ ^ ^ ^ ^ ^ ^ ^ ",
"e.e.e.e.e.e.e.e.e.e.e.e.e.e.e.e.e.e.e.e.e.e.e.e.8.i.0.q.r.f.d.T W R R R R R R R R R R R R R R R R R R R R R R R R R ( Y T 7.3X$X$X$X$X$X$X$X$X$X$X$X$X$X$X$X$X$X$X$X$X$X$X$X$X$X$X$XZ.3XA 8 7 0 0 0 0 0 0 0 0 0 0 0 0 0 0 0 0 0 0 0 0 0 0 0 0 0 0 8 a 5.0.r.e.q.e.e.e.e.e.e.e.e.e.e.e.e.e.e.e.e.e.e.e.e.e.e.e.e.e.r.oX$X#X%X+X+X$X$X$X$X$X$X$X$X$X$X$X$X$X$X$X$X$X$X$X$X#X#X#X#Xx.y ^ ( ^ E E R R R R R R R R R R R R R R R R R W R R R W U Y i 0 0 0 0 0 0 0 0 0 0 0 0 0 0 0 0 0 0 0 0 0 0 0 0 0 0 0 9 0 8 5.e.e.e.e.e.e.e.e.e.e.e.e.e.e.e.e.e.e.e.e.e.e.e.e.e.e.e.e.e.e.e.e.e.e.e.e.e.e.e.e.e.e.e.e.e.e.e.e.e.e.e.e.e.e.e.e.e.r.e.w.3.b Z x Z V V V V V V V V V V V V V V V V V V V V V V V V V Z x & 0 0 9 9 0 0 0 0 0 0 0 0 0 0 0 0 0 0 0 0 0 0 0 0 0 0 0 0 o g.J.A.#X#X$XA.$X$X$X$X$X$X$X$X$X$X$X$X$X$X$X$X$X$X$X$X$X$X$X$Xq.r.e.e.e.e.e.e.e.e.e.e.e.e.e.e.e.e.e.e.e.e.e.e.e.e.8.q.8.i.5.o 0 0 0 0 0 0 0 0 0 0 0 0 0 0 0 0 0 0 0 0 0 0 0 0 & 0 8 0 8 z >.>.>.>.>.>.>.>.>.>.#.#.#.#.#.#.#.#.#.#.#.#.#.#.#.#.S S 1.>.D Z V Z V V V V V V V V V V V V V V V V V V V V V V Z Z l V N { T R ^ ^ R R R R R R R R R R R R R R R R R R R R R R R R R R ",
"e.e.e.e.e.e.e.e.e.e.e.e.e.e.e.e.e.e.e.e.e.e.e.e.8.i.0.q.r.f.d.T W R R R R R R R R R R R R R R R R R R R R R R R R R ( Y T 7.3X$X$X$X$X$X$X$X$X$X$X$X$X$X$X$X$X$X$X$X$X$X$X$X$X$X$X$XZ.3XA 8 7 0 0 0 0 0 0 0 0 0 0 0 0 0 0 0 0 0 0 0 0 0 0 0 0 0 0 8 a 5.0.r.e.q.e.e.e.e.e.e.e.e.e.e.e.e.e.e.e.e.e.e.e.e.e.e.e.e.e.r.oX$X#X%X+X+X$X$X$X$X$X$X$X$X$X$X$X$X$X$X$X$X$X$X$X$X#X#X#X#Xx.y ^ ( ^ E E R R R R R R R R R R R R R R R R R W R R R W U Y i 0 0 0 0 0 0 0 0 0 0 0 0 0 0 0 0 0 0 0 0 0 0 0 0 0 0 0 9 0 8 5.e.e.e.e.e.e.e.e.e.e.e.e.e.e.e.e.e.e.e.e.e.e.e.e.e.e.e.e.e.e.e.e.e.e.e.e.e.e.e.e.e.e.e.e.e.e.e.e.e.e.e.e.e.e.e.e.e.r.8.w.3.b Z x Z V V V V V V V V V V V V V V V V V V V V V V V V V Z x & 0 0 9 9 0 0 0 0 0 0 0 0 0 0 0 0 0 0 0 0 0 0 0 0 0 0 0 0 o g.4XA.#X#X$XA.$X$X$X$X$X$X$X$X$X$X$X$X$X$X$X$X$X$X$X$X$X$X$X$Xq.r.e.e.e.e.e.e.e.e.e.e.e.e.e.e.e.e.e.e.e.e.e.e.e.e.8.q.8.i.5.o 0 0 0 0 0 0 0 0 0 0 0 0 0 0 0 0 0 0 0 0 0 0 0 0 & 0 8 0 8 z >.>.>.>.>.>.>.>.>.>.#.#.#.#.#.#.#.#.#.#.#.#.#.#.#.#.S S 1.>.D Z V Z V V V V V V V V V V V V V V V V V V V V V V Z V l V N { T R ^ ^ R R R R R R R R R R R R R R R R R R R R R R R R R R ",
"e.e.e.e.e.e.e.e.e.e.e.e.e.e.e.e.e.e.e.e.e.e.e.e.8.e.0.q.r.f.d.T W R R R R R R R R R R R R R R R R R R R R R R R R R R Y T 7.3X$X$X$X$X$X$X$X$X$X$X$X$X$X$X$X$X$X$X$X$X$X$X$X$X$X$X$XZ.3XA 8 7 0 0 0 0 0 0 0 0 0 0 0 0 0 0 0 0 0 0 0 0 0 0 0 0 0 0 8 a 5.0.r.e.0.e.e.e.e.e.e.e.e.e.e.e.e.e.e.e.e.e.e.e.e.e.e.e.e.e.r.+X$X#X$X+X+X$X$X$X$X$X$X$X$X$X$X$X$X$X$X$X$X$X$X$X$X#X#X%X%Xx.y ^ ( R E E R R R R R R R R R R R R R R R R R W R R R W U Y M 0 0 0 0 0 0 0 0 0 0 0 0 0 0 0 0 0 0 0 0 0 0 0 0 0 0 0 9 0 8 5.e.e.e.e.e.e.e.e.e.e.e.e.e.e.e.e.e.e.e.e.e.e.e.e.e.e.e.e.e.e.e.e.e.e.e.e.e.e.e.e.e.e.e.e.e.e.e.e.e.e.e.e.e.e.e.e.e.r.e.w.5.b Z x Z V V V V V V V V V V V V V V V V V V V V V V V V V Z x = 0 0 9 9 0 0 0 0 0 0 0 0 0 0 0 0 0 0 0 0 0 0 0 0 0 0 0 0 o g.4XA.#X#X$XA.$X$X$X$X$X$X$X$X$X$X$X$X$X$X$X$X$X$X$X$X$X$X$X$Xq.r.r.e.e.e.e.r.e.e.e.e.e.e.e.e.e.e.e.e.e.e.e.e.e.e.8.q.8.i.5.o 0 0 0 0 0 0 0 0 0 0 0 0 0 0 0 0 0 0 0 0 0 0 0 0 & 0 8 0 8 z >.>.>.>.>.>.>.>.>.>.#.#.#.#.#.#.#.#.#.#.#.#.#.#.#.#.S S 1.>.D Z V Z V V V V V V V V V V V V V V V V V V V V V V V V l V N { T R ^ ^ R R R R R R R R R R R R R R R R R R R R R R R R R R ",
"e.e.e.e.e.e.e.e.e.e.e.e.e.e.e.e.e.e.e.e.e.e.e.e.8.i.0.q.t.f.d.T W R R R R R R R R R R R R R R R R R R R R R R R R R ( Y T 7.3X$X$X$X$X$X$X$X$X$X$X$X$X$X$X$X$X$X$X$X$X$X$X$X$X$X$X$XZ.3XA 8 7 0 0 0 0 0 0 0 0 0 0 0 0 0 0 0 0 0 0 0 0 0 0 0 0 0 0 8 a 5.0.r.e.q.e.e.e.e.e.e.e.e.e.e.e.e.e.e.e.e.e.e.e.e.e.e.e.e.e.r.+X$X#X$X+X+X$X#X$X$X$X$X$X$X$X$X$X$X$X$X$X$X$X$X$X$X#X#X%X%Xx.y ^ ( R E E R R R R R R R R R R R R R R R R R R R R R W U Y M 0 0 0 0 0 0 0 0 0 0 0 0 0 0 0 0 0 0 0 0 0 0 0 0 0 0 0 9 0 8 5.e.e.e.e.e.e.e.e.e.e.e.e.e.e.e.e.e.e.e.e.e.e.e.e.e.e.e.e.e.e.e.e.e.e.e.e.e.e.e.e.e.e.e.e.e.e.e.e.e.e.e.e.e.e.e.e.e.r.8.w.3.b Z x Z V V V V V V V V V V V V V V V V V V V V V V V V V Z x = 0 0 9 9 0 0 0 0 0 0 0 0 0 0 0 0 0 0 0 0 0 0 0 0 0 0 0 0 o g.4XA.#X#X$XA.$X$X$X$X$X$X$X$X$X$X$X$X$X$X$X$X$X$X$X$X$X$X$X$Xq.r.r.e.e.e.e.r.e.e.e.e.e.e.e.e.e.e.e.e.e.e.e.e.e.e.8.q.8.i.5.o 0 0 0 0 0 0 0 0 0 0 0 0 0 0 0 0 0 0 0 0 0 0 0 0 & 0 8 0 8 z >.>.>.>.>.>.>.>.>.>.#.#.#.#.#.#.#.#.#.#.#.#.#.#.#.#.S S 1.>.D Z V Z V V V V V V V V V V V V V V V V V V V V V V V V l V N { T R ^ ^ R R R R R R R R R R R R R R R R R R R R R R R R R R ",
"e.e.e.e.e.e.e.e.e.e.e.e.e.e.e.e.e.e.e.e.e.e.e.e.8.e.0.q.t.t.d.T W R R R R R R R R R R R R R R R R R R R R R R R R R ( Y T 7.3X$X$X$X$X$X$X$X$X$X$X$X$X$X$X$X$X$X$X$X$X$X$X$X$X$X$X$XA.3XA 8 7 0 0 0 0 0 0 0 0 0 0 0 0 0 0 0 0 0 0 0 0 0 0 0 0 0 0 8 a 5.0.r.a.0.e.e.e.e.e.e.e.e.e.e.e.e.e.e.e.e.e.e.e.e.e.e.e.e.e.r.Z.$X#X%X+X+X$X$X$X$X$X$X$X$X$X$X$X$X$X$X$X$X$X$X$X#X#X#X%X%Xx.y ^ ( ^ E E R R R R R R R R R R R R R R R R R R R / R W U Y M 0 0 0 0 0 0 0 0 0 0 0 0 0 0 0 0 0 0 0 0 0 0 0 0 0 0 0 9 0 8 1.e.e.e.e.e.e.e.e.e.e.e.e.e.e.e.e.e.e.e.e.e.e.e.e.e.e.e.e.e.e.e.e.e.e.e.e.e.e.e.e.e.e.e.e.e.e.e.e.e.e.e.e.e.e.e.e.e.r.8.w.3.b Z x Z V V V V V V V V V V V V V V V V V V V V V V V V V Z x = 0 0 9 9 0 0 0 0 0 0 0 0 0 0 0 0 0 0 0 0 0 0 0 0 0 0 0 0 o g.4XA.#X#X$XA.$X$X$X$X$X$X$X$X$X$X$X$X$X$X$X$X$X$X$X$X$X$X$X$Xq.r.q.e.e.e.e.r.e.e.e.e.e.e.e.e.e.e.e.e.e.e.e.e.e.e.8.q.8.i.5.o 0 0 0 0 0 0 0 0 0 0 0 0 0 0 0 0 0 0 0 0 0 0 0 0 & 0 0 0 8 z >.>.>.>.>.>.>.>.>.>.#.#.#.#.#.#.#.#.#.#.#.#.#.#.#.#.A S 1.>.D Z V Z V V V V V V V V V V V V V V V V V V V V V V V V l V N { T R ^ ^ R R R R R R R R R R R R R R R R R R R R R R R R R R ",
"e.e.e.e.e.e.e.e.e.e.e.e.e.e.e.e.e.e.e.e.e.e.e.e.8.e.0.q.t.t.d.T W R R R R R R R R R R R R R R R R R R R R R R R R R ( Y T 7.3X$X$X$X$X$X$X$X$X$X$X$X$X$X$X$X$X$X$X$X$X$X$X$X$X$X$X$XA.3XA 8 7 0 0 0 0 0 0 0 0 0 0 0 0 0 0 0 0 0 0 0 0 0 0 0 0 0 0 8 a 5.0.r.a.0.e.e.e.e.e.e.e.e.e.e.e.e.e.e.e.e.e.e.e.e.e.e.e.e.e.r.Z.$X#X%X+X+X$X$X$X$X$X$X$X$X$X$X$X$X$X$X$X$X$X$X$X#X#X#X%X%Xx.y ^ ( ^ E E R R R R R R R R R R R R R R R R R R R / R W U Y M 0 0 0 0 0 0 0 0 0 0 0 0 0 0 0 0 0 0 0 0 0 0 0 0 0 0 0 9 0 8 5.e.e.e.e.e.e.e.e.e.e.e.e.e.e.e.e.e.e.e.e.e.e.e.e.e.e.e.e.e.e.e.e.e.e.e.e.e.e.e.e.e.e.e.e.e.e.e.e.e.e.e.e.e.e.e.e.e.r.8.w.3.b Z x Z V V V V V V V V V V V V V V V V V V V V V V V V V Z x = 0 0 9 9 0 0 0 0 0 0 0 0 0 0 0 0 0 0 0 0 0 0 0 0 0 0 0 0 o g.4XA.#X#X$XA.$X$X$X$X$X$X$X$X$X$X$X$X$X$X$X$X$X$X$X$X$X$X$X$Xq.r.q.e.e.e.e.r.e.e.e.e.e.e.e.e.e.e.e.e.8.e.e.e.e.e.8.q.8.i.5.o 0 0 0 0 0 0 0 0 0 0 0 0 0 0 0 0 0 0 0 0 0 0 0 0 & 0 0 0 8 z >.>.>.>.>.>.>.>.>.>.#.#.#.#.#.#.#.#.#.#.#.#.#.#.#.#.A S 1.>.D Z V Z V V V V V V V V V V V V V V V V V V V Z V V V V l V N { T R ^ R R R R R R R R R R R R R R R R R R R R R R R R R R R ",
"e.e.e.e.e.e.e.e.e.e.e.e.e.e.e.e.e.e.e.e.e.e.e.e.8.e.0.q.r.t.d.T W R R R R R R R R R R R R R R R R R R R R R R R R R ( Y T 7.3X$X$X$X$X$X$X$X$X$X$X$X$X$X$X$X$X$X$X$X$X$X$X$X$X$X$X$XA.3XA 8 7 0 0 0 0 0 0 0 0 0 0 0 0 0 0 0 0 0 0 0 0 0 0 0 0 0 0 8 a 5.0.r.a.0.e.e.e.e.e.e.e.e.e.e.e.e.e.e.e.e.e.e.e.e.e.e.e.e.e.r.oX%X#X%X+X+X$X$X$X$X$X$X$X$X$X$X$X$X$X$X$X$X$X$X$X#X#X#X%X%Xx.y ^ ( ^ E E R R R R R R R R R R R R R R R R R W R / R W U Y i 0 0 0 0 0 0 0 0 0 0 0 0 0 0 0 0 0 0 0 0 0 0 0 0 0 0 0 9 0 8 5.e.e.e.e.e.e.e.e.e.e.e.e.e.e.e.e.e.e.e.e.e.e.e.e.e.e.e.e.e.e.e.e.e.e.e.e.e.e.e.e.e.e.e.e.e.e.e.e.e.e.e.e.e.e.e.e.e.r.8.w.3.b Z x Z V V V V V V V V V V V V V V V V V V V V V V V V V Z x & 0 0 9 9 0 0 0 0 0 0 0 0 0 0 0 0 0 0 0 0 0 0 0 0 0 0 0 0 o g.4XA.#X#X$XA.$X$X$X$X$X$X$X$X$X$X$X$X$X$X$X$X$X$X$X$X$X$X$X$Xc.r.q.e.e.e.e.r.e.e.e.e.e.e.e.e.e.e.e.e.e.e.e.e.e.e.8.q.8.i.5.o 0 0 0 0 0 0 0 0 0 0 0 0 0 0 0 0 0 0 0 0 0 0 0 0 & 0 8 0 8 z >.>.>.>.>.>.>.>.>.>.#.#.#.#.#.#.#.#.#.#.#.#.#.#.#.#.A S 1.>.D Z V Z V V V V V V V V V V V V V V V V V V V V V V V V l V N { T R ^ R R R R R R R R R R R R R R R R R R R R R R R R R R R ",
"e.e.e.e.e.e.e.e.e.e.e.e.e.e.e.e.e.e.e.e.e.e.e.e.8.e.0.q.r.t.d.T W R R R R R R R R R R R R R R R R R R R R R R R R R ( Y T 7.3X$X$X$X$X$X$X$X$X$X$X$X$X$X$X$X$X$X$X$X$X$X$X$X$X$X$X$XZ.3XA 8 7 0 0 0 0 0 0 0 0 0 0 0 0 0 0 0 0 0 0 0 0 0 0 0 0 0 0 8 8 5.0.r.a.0.e.e.e.e.e.e.e.e.e.e.e.e.e.e.e.e.e.e.e.e.e.e.e.e.e.r.oX%X#X%X+X+X$X$X$X$X$X$X$X$X$X$X$X$X$X$X$X$X$X$X$X#X#X#X%X%Xx.y ^ ( ^ E E R R R R R R R R R R R R R R R R R W R / R W W Y i 0 0 0 0 0 0 0 0 0 0 0 0 0 0 0 0 0 0 0 0 0 0 0 0 0 0 0 9 0 a 5.e.e.e.e.e.e.e.e.e.e.e.e.e.e.e.e.e.e.e.e.e.e.e.e.e.e.e.e.e.e.e.e.e.e.e.e.e.e.e.e.e.e.e.e.e.e.e.e.e.e.e.e.e.e.e.e.e.r.8.w.5.b Z x Z V V V V V V V V V V V V V V V V V V V V V V V V V Z x & 0 0 9 9 0 0 0 0 0 0 0 0 0 0 0 0 0 0 0 0 0 0 0 0 0 0 0 0 o g.4XA.#X#X$XA.$X$X$X$X$X$X$X$X$X$X$X$X$X$X$X$X$X$X$X$X$X$X$X$Xc.r.q.e.e.e.e.r.e.e.e.e.e.e.e.e.e.e.e.e.e.e.e.e.e.e.8.8.8.i.5.o 0 0 0 0 0 0 0 0 0 0 0 0 0 0 0 0 0 0 0 0 0 0 0 0 & 0 8 0 8 z >.>.>.>.>.>.>.>.>.>.#.#.#.#.#.#.#.#.#.#.#.#.#.#.#.#.A S 1.>.D Z V Z V V V V V V V V V V V V V V V V V V V V V V V V l V N { T R ^ R R R R R R R R R R R R R R R R R R R R R R R R R R R ",
"e.e.e.e.e.e.e.e.e.e.e.e.e.e.e.e.e.e.e.e.e.e.e.e.8.e.0.q.t.t.d.T R R R R R R R R R R R R R R R R R R R R R R R R R R ( Y T 7.3X$X$X$X$X$X$X$X$X$X$X$X$X$X$X$X$X$X$X$X$X$X$X$X$X$X$X$XZ.3XD 0 9 0 0 0 0 0 0 0 0 0 0 0 0 0 0 0 0 0 0 0 0 0 0 0 0 0 0 8 a 5.0.r.e.q.e.e.e.e.e.e.e.e.e.e.e.e.e.e.e.e.e.e.e.e.e.e.e.e.e.r.oX$X#X%X+X+X$X$X$X$X$X$X$X$X$X$X$X$X$X$X$X$X$X$X$X#X#X#X%X%Xx.y ^ ( R E E R R R R R R R R R R R R R R R R R W R / R W W Y i 7 0 0 0 0 0 0 0 0 0 0 0 0 0 0 0 0 0 0 0 0 0 0 0 0 0 0 9 0 8 5.e.e.e.e.e.e.e.e.e.e.e.e.e.e.e.e.e.e.e.e.e.e.e.e.e.e.e.e.e.e.e.e.e.e.e.e.e.e.e.e.e.e.e.e.e.e.e.e.e.e.e.e.e.e.e.e.e.r.8.w.3.b Z x Z V V V V V V V V V V V V V V V V V V V V V V V V V Z x & 0 0 9 9 0 0 0 0 0 0 0 0 0 0 0 0 0 0 0 0 0 0 0 0 0 0 0 0 o g.4XA.#X#X$XA.$X$X$X$X$X$X$X$X$X$X$X$X$X$X$X$X$X$X$X$X$X$X$X$Xq.r.q.e.e.e.e.r.e.e.e.e.e.e.e.e.e.e.e.e.e.e.e.e.8.e.e.q.0.i.5.8 0 0 0 0 0 0 0 0 0 0 0 0 0 0 0 0 0 0 0 0 0 0 0 0 & 0 8 0 8 z >.>.>.>.>.>.>.>.>.>.#.#.#.#.#.#.#.#.#.#.#.#.#.#.#.#.S S 1.>.D Z V Z V V V V V V V V V V V V V V V V V V V V V V Z Z l V B ' T R ^ R R R R R R R R R R R R R R R R R R R R R R R R R R R ",
"e.e.e.e.e.e.e.e.e.e.e.e.e.e.e.e.e.e.e.e.e.e.e.e.8.e.0.q.t.t.d.T R R R R R R R R R R R R R R R R R R R R R R R R R R ( Y T 7.3X$X$X$X$X$X$X$X$X$X$X$X$X$X$X$X$X$X$X$X$X$X$X$X$X$X$X$XZ.3XD 0 9 0 0 0 0 0 0 0 0 0 0 0 0 0 0 0 0 0 0 0 0 0 0 0 0 0 0 8 a 5.0.r.e.q.e.e.e.e.e.e.e.e.e.e.e.e.e.e.e.e.e.e.e.e.e.e.e.e.e.r.+X$X#X%X+X+X$X$X$X$X$X$X$X$X$X$X$X$X$X$X$X$X$X$X$X#X#X#X%X%Xx.y ^ ( R E E R R R R R R R R R R R R R R R R R W R / R W W Y i 7 0 0 0 0 0 0 0 0 0 0 0 0 0 0 0 0 0 0 0 0 0 0 0 0 0 0 9 0 8 5.e.e.e.e.e.e.e.e.e.e.e.e.e.e.e.e.e.e.e.e.e.e.e.e.e.e.e.e.e.e.e.e.e.e.e.e.e.e.e.e.e.e.e.e.e.e.e.e.e.e.e.e.e.e.e.e.e.r.8.w.3.b Z x Z V V V V V V V V V V V V V V V V V V V V V V V V V Z x & 0 0 9 9 0 0 0 0 0 0 0 0 0 0 0 0 0 0 0 0 0 0 0 0 0 0 0 0 o g.4XA.#X#X$XA.$X$X$X$X$X$X$X$X$X$X$X$X$X$X$X$X$X$X$X$X$X$X$X$Xc.r.q.e.e.e.e.r.e.e.e.e.e.e.e.e.e.e.e.e.e.e.e.e.8.e.8.q.0.i.3.4 0 0 0 0 0 0 0 0 0 0 0 0 0 0 0 0 0 0 0 0 0 0 0 0 & 0 8 0 8 z >.>.>.>.>.>.>.>.>.>.#.#.#.#.#.#.#.#.#.#.#.#.#.#.#.#.S S 1.>.D Z V Z V V V V V V V V V V V V V V V V V V V V V V Z V l V B ' T R ^ R R R R R R R R R R R R R R R R R R R R R R R R R R R ",
"e.e.e.e.e.e.e.e.e.e.e.e.e.e.e.e.e.e.e.e.e.e.e.e.8.e.0.q.t.t.d.T W R R R R R R R R R R R R R R R R R R R R R R R R R ( Y T 7.3X$X$X$X$X$X$X$X$X$X$X$X$X$X$X$X$X$X$X$X$X$X$X$X$X$X$X$XZ.3XD 0 9 0 0 0 0 0 0 0 0 0 0 0 0 0 0 0 0 0 0 0 0 0 0 0 0 0 0 8 a 5.0.r.e.0.e.e.e.e.e.e.e.e.e.e.e.e.e.e.e.e.e.e.e.e.e.e.e.e.e.r.+X$X#X$X+X+X$X$X$X$X$X$X$X$X$X$X$X$X$X$X$X$X$X$X$X#X#X#X%X%Xx.y ^ ( R E E R R R R R R R R R R R R R R R R R W R / R W W Y M = 0 0 0 0 0 0 0 0 0 0 0 0 0 0 0 0 0 0 0 0 0 0 0 0 0 t 9 0 8 5.e.e.e.e.e.e.e.e.e.e.e.e.e.e.e.e.e.e.e.e.e.e.e.e.e.e.e.e.e.e.e.e.e.e.e.e.e.e.e.e.e.e.e.e.e.e.e.e.e.e.e.e.e.e.e.e.e.r.8.w.3.b Z x Z V V V V V V V V V V V V V V V V V V V V V V V V V Z x & 0 0 9 9 0 0 0 0 0 0 0 0 0 0 0 0 0 0 0 0 0 0 0 0 0 0 0 0 o g.4XA.#X#X$XA.$X$X$X$X$X$X$X$X$X$X$X$X$X$X$X$X$X$X$X$X$X$X$X$Xc.r.q.e.e.e.e.r.e.e.e.e.e.e.e.e.e.e.e.e.e.e.e.e.8.e.8.q.0.e.3.4 0 0 0 0 0 0 0 0 0 0 0 0 0 0 0 0 0 0 0 0 0 0 0 0 & 0 8 0 8 z >.>.>.>.>.>.>.>.>.>.#.#.#.#.#.#.#.#.#.#.#.#.#.#.#.#.S S 1.>.D Z V Z V V V V V V V V V V V V V V V V V V V V V V V V l V B ' T R ^ ^ R R R R R R R R R R R R R R R R R R R R R R R R R R ",
"e.e.e.e.e.e.e.e.e.e.e.e.e.e.e.e.e.e.e.e.e.e.e.e.8.e.0.q.t.t.d.T W R R R R R R R R R R R R R R R R R R R R R R R R R ( Y T 7.3X$X$X$X$X$X$X$X$X$X$X$X$X$X$X$X$X$X$X$X$X$X$X$X$X$X$X$XZ.3XD 0 9 0 0 0 0 0 0 0 0 0 0 0 0 0 0 0 0 0 0 0 0 0 0 0 0 0 0 8 a 5.0.r.e.q.e.e.e.e.e.e.e.e.e.e.e.e.e.e.e.e.e.e.e.e.e.e.e.e.e.r.+X$X#X$X+X+X$X$X$X$X$X$X$X$X$X$X$X$X$X$X$X$X$X$X$X#X#X#X%X%Xx.y ^ ^ R E E R R R R R R R R R R R R R R R R R W R / R W W Y M = 0 0 0 0 0 0 0 0 0 0 0 0 0 0 0 0 0 0 0 0 0 0 0 0 0 0 9 0 8 5.e.e.e.e.e.e.e.e.e.e.e.e.e.e.e.e.e.e.e.e.e.e.e.e.e.e.e.e.e.e.e.e.e.e.e.e.e.e.e.e.e.e.e.e.e.e.e.e.e.e.e.e.e.e.e.e.e.r.8.w.3.b Z x Z V V V V V V V V V V V V V V V V V V V V V V V V V Z x & 0 0 9 9 0 0 0 0 0 0 0 0 0 0 0 0 0 0 0 0 0 0 0 0 0 0 0 0 o g.4XA.#X#X$XA.$X$X$X$X$X$X$X$X$X$X$X$X$X$X$X$X$X$X$X$X$X$X$X$Xc.r.q.e.e.e.e.r.e.e.e.e.e.e.e.e.e.e.e.e.e.e.e.e.8.e.8.q.0.e.2.4 0 0 0 0 0 0 0 0 0 0 0 0 0 0 0 0 0 0 0 0 0 0 0 0 & 0 8 0 8 z >.>.>.>.>.>.>.>.>.>.#.#.#.#.#.#.#.#.#.#.#.#.#.#.#.#.S S 1.>.D Z V Z V V V V V V V V V V V V V V V V V V V V V V V V l V B ' T R ^ ^ R R R R R R R R R R R R R R R R R R R R R R R R R R ",
"e.e.e.e.e.e.e.e.e.e.e.e.e.e.e.e.e.e.e.e.e.e.e.e.8.i.0.q.r.f.d.T W R R R R R R R R R R R R R R R R R R R R R R R R R R Y T 7.3X$X$X$X$X$X$X$X$X$X$X$X$X$X$X$X$X$X$X$X$X$X$X$X$X$X$X$XZ.3XD 0 9 0 0 0 0 0 0 0 0 0 0 0 0 0 0 0 0 0 0 0 0 0 0 0 0 0 0 8 a 5.0.r.a.0.e.e.e.e.e.e.e.e.e.e.e.e.e.e.e.e.e.e.e.e.e.e.e.e.e.r.+X$X#X$X+X+X$X$X$X$X$X$X$X$X$X$X$X$X$X$X$X$X$X$X$X#X#X#X%X%Xx.y ^ ( ^ E E R R R R R R R R R R R R R R R R R W R / R W W Y i = 0 0 0 0 0 0 0 0 0 0 0 0 0 0 0 0 0 0 0 0 0 0 0 0 0 0 9 0 8 5.w.e.e.e.e.e.e.e.e.e.e.e.e.e.e.e.e.e.e.e.e.e.e.e.e.e.e.e.e.e.e.e.e.e.e.e.e.e.e.e.e.e.e.e.e.e.e.e.e.e.e.e.e.e.e.e.e.r.8.w.5.b Z x Z V V V V V V V V V V V V V V V V V V V V V V V V V Z x = 0 0 9 9 0 0 0 0 0 0 0 0 0 0 0 0 0 0 0 0 0 0 0 0 0 0 0 0 o g.4XA.#X#X$XA.$X$X$X$X$X$X$X$X$X$X$X$X$X$X$X$X$X$X$X$X$X$X$X$Xq.r.q.e.e.e.e.r.e.e.e.e.e.e.e.e.e.e.e.e.e.e.e.e.0.e.8.q.0.e.2.4 0 0 0 0 0 0 0 0 0 0 0 0 0 0 0 0 0 0 0 0 0 0 0 0 & 0 8 0 8 z >.>.>.>.>.>.>.>.>.>.#.#.#.#.#.#.#.#.#.#.#.#.#.#.#.#.A S 1.>.D Z V Z V V V V V V V V V V V V V V V V V V V Z V V V V l V N { T R ^ ^ R R R R R R R R R R R R R R R R R R R R R R R R R R ",
"e.e.e.e.e.e.e.e.e.e.e.e.e.e.e.e.e.e.e.e.e.e.e.e.8.i.0.q.r.f.d.T W R R R R R R R R R R R R R R R R R R R R R R R R R ( Y T 7.3X$X$X$X$X$X$X$X$X$X$X$X$X$X$X$X$X$X$X$X$X$X$X$X$X$X$X$XA.3XD 0 9 0 0 0 0 0 0 0 0 0 0 0 0 0 0 0 0 0 0 0 0 0 0 0 0 0 0 8 a 5.0.r.a.0.e.e.e.e.e.e.e.e.e.e.e.e.e.e.e.e.e.e.e.e.e.e.e.e.e.r.+X$X#X$X+X+X$X$X$X$X$X$X$X$X$X$X$X$X$X$X$X$X$X$X$X#X#X#X%X%Xx.y ^ ( ^ E E R R R R R R R R R R R R R R R R R W R / R W U Y i 7 0 0 0 0 0 0 0 0 0 0 0 0 0 0 0 0 0 0 0 0 0 0 0 0 0 0 9 0 8 5.e.e.e.e.e.e.e.e.e.e.e.e.e.e.e.e.e.e.e.e.e.e.e.e.e.e.e.e.e.e.e.e.e.e.e.e.e.e.e.e.e.e.e.e.e.e.e.e.e.e.e.e.e.e.e.e.e.r.8.w.5.b Z x Z V V V V V V V V V V V V V V V V V V V V V V V V V Z x = 0 0 9 9 0 0 0 0 0 0 0 0 0 0 0 0 0 0 0 0 0 0 0 0 0 0 0 0 o g.4XA.#X#X$XA.$X$X$X$X$X$X$X$X$X$X$X$X$X$X$X$X$X$X$X$X$X$X$X$Xq.r.q.e.e.e.e.r.e.e.e.e.e.e.e.e.e.e.e.e.e.e.e.e.0.e.q.q.0.e.1.8 0 0 0 0 0 0 0 0 0 0 0 0 0 0 0 0 0 0 0 0 0 0 0 0 & 0 0 0 8 z >.>.>.>.>.>.>.>.>.>.#.#.#.#.#.#.#.#.#.#.#.#.#.#.#.#.A S 1.>.D Z V Z V V V V V V V V V V V V V V V V V V V Z V V V V l V N ' T R ^ R R R R R R R R R R R R R R R R R R R R R R R R R R R ",
"e.e.e.e.e.e.e.e.e.e.e.e.e.e.e.e.e.e.e.e.e.e.e.e.8.i.0.q.r.f.d.T W R R R R R R R R R R R R R R R R R R R R R R R R R ( Y T 7.3X$X$X$X$X$X$X$X$X$X$X$X$X$X$X$X$X$X$X$X$X$X$X$X$X$X$X$XA.3XD 0 9 = 0 0 0 0 0 0 0 0 0 0 0 0 0 0 0 0 0 0 0 0 0 0 0 0 0 8 a 5.0.r.a.0.e.e.e.e.e.e.e.e.e.e.e.e.e.e.e.e.e.e.e.e.e.e.e.e.e.r.oX%X#X$X+X+X$X$X$X$X$X$X$X$X$X$X$X$X$X$X$X$X$X$X$X#X#X#X#X#Xx.y ^ ( ^ E E R R R R R R R R R R R R R R R R R W R R R W W Y i 7 0 0 0 0 0 0 0 0 0 0 0 0 0 0 0 0 0 0 0 0 0 0 0 0 0 0 9 0 8 5.e.e.e.e.e.e.e.e.e.e.e.e.e.e.e.e.e.e.e.e.e.e.e.e.e.e.e.e.e.e.e.e.e.e.e.e.e.e.e.e.e.e.e.e.e.e.e.e.e.e.e.e.e.e.e.e.e.r.8.e.5.b Z x Z V V V V V V V V V V V V V V V V V V V V V V V V V Z x = 0 0 9 9 0 0 0 0 0 0 0 0 0 0 0 0 0 0 0 0 0 0 0 0 0 0 0 0 o g.4XA.#X#X$XA.$X$X$X$X$X$X$X$X$X$X$X$X$X$X$X$X$X$X$X$X$X$X$X$Xq.r.q.e.e.e.e.r.e.e.e.e.e.e.e.e.e.e.e.e.e.e.e.e.0.e.e.q.0.e.5.8 0 0 0 0 0 0 0 0 0 0 0 0 0 0 0 0 0 0 0 0 0 0 0 0 & 0 0 0 8 z >.>.>.>.>.>.>.>.>.>.#.#.#.#.#.#.#.#.#.#.#.#.#.#.#.#.A S 1.>.D Z V Z V V V V V V V V V V V V V V V V V V V V V V V V l V N ' T R ^ R R R R R R R R R R R R R R R R R R R R R R R R R R R ",
"e.e.e.e.e.e.e.e.e.e.e.e.e.e.e.e.e.e.e.e.e.e.e.e.8.i.0.q.r.f.d.T W R R R R R R R R R R R R R R R R R R R R R R R R R ( Y T 7.3X$X$X$X$X$X$X$X$X$X$X$X$X$X$X$X$X$X$X$X$X$X$X$X$X$X$X$XA.3XD 0 9 = 0 0 0 0 0 0 0 0 0 0 0 0 0 0 0 0 0 0 0 0 0 0 0 0 0 8 8 5.0.r.a.0.e.e.e.e.e.e.e.e.e.e.e.e.e.e.e.e.e.e.e.e.e.e.e.e.e.r.oX%X#X$X+X+X$X$X$X$X$X$X$X$X$X$X$X$X$X$X$X$X$X$X$X#X#X#X#X#Xx.y ^ ( ^ E E R R R R R R R R R R R R R R R R R W R / R W U Y i 7 0 0 0 0 0 0 0 0 0 0 0 0 0 0 0 0 0 0 0 0 0 0 0 0 0 0 9 0 8 5.e.e.e.e.e.e.e.e.e.e.e.e.e.e.e.e.e.e.e.e.e.e.e.e.e.e.e.e.e.e.e.e.e.e.e.e.e.e.e.e.e.e.e.e.e.e.e.e.e.e.e.e.e.e.e.e.e.r.8.w.3.b Z x Z V V V V V V V V V V V V V V V V V V V V V V V V V Z x = 0 0 9 9 0 0 0 0 0 0 0 0 0 0 0 0 0 0 0 0 0 0 0 0 0 0 0 0 o g.4XA.#X#X$XA.$X$X$X$X$X$X$X$X$X$X$X$X$X$X$X$X$X$X$X$X$X$X$X$Xq.r.q.e.e.e.e.r.e.e.e.e.e.e.e.e.e.e.e.e.e.e.e.e.0.e.q.q.0.i.2.4 0 0 0 0 0 0 0 0 0 0 0 0 0 0 0 0 0 0 0 0 0 0 0 0 & 0 0 0 8 z >.>.>.>.>.>.>.>.>.>.#.#.#.#.#.#.#.#.#.#.#.#.#.#.#.#.A S 1.>.D Z V Z V V V V V V V V V V V V V V V V V V V V V V V V l V N { T R ^ R R R R R R R R R R R R R R R R R R R R R R R R R R R ",
"e.e.e.e.e.e.e.e.e.e.e.e.e.e.e.e.e.e.e.e.e.e.e.e.e.8.q.q.e.s.O.T Q Q Q Q Q Q Q Q Q Q Q Q Q Q Q Q Q Q Q R Q R W Q Y E ) W T k.7X#X#X#X#X#X#X#X#X#X#X#X#X#X#X#X#X#X#X#X#X#X#X#X#X#X@XpX4X9X>.= * t 8 8 8 8 8 8 8 8 8 8 8 8 8 8 8 8 8 8 8 8 8 8 8 8 s & & 5.6.3.0.r.8.8.8.8.8.8.8.8.8.8.8.e.8.8.8.8.8.8.8.8.8.8.8.8.0.r.%X6XZ.#XM.M.$X$X$X$X$X$X$X$X$X$X$X$X$X$X$X$X$X$X#X#X#X$X4X4XG.' ! Y ) R Q W Q Q Q Q Q Q Q Q Q Q Q Q Q Q Q Q ) ) ) ( R ! T i 9 0 0 0 8 & & & = = = = 0 0 0 0 0 0 0 = = = 0 0 7 8 0 o : d 5.5.e.e.e.e.e.e.e.e.8.8.8.8.8.8.8.8.8.8.8.8.8.8.8.8.r.r.r.r.e.3.3.3.e.e.e.e.e.e.e.e.e.e.e.e.e.e.e.e.e.e.e.e.e.e.r.e.e.0.6.5.b Z b A V V V V V V V V V V V V V V V V V V V V V V V V m N x * % 0 0 * 8 8 8 8 8 8 8 8 8 8 8 8 8 8 8 8 8 8 8 8 8 8 8 8 @ z.4X$X#XC.$X4X$X$X$X$X$X$X$X$X$X$X$X$X$X$X$X$X$X$X$X$X$X$X$X$Xq.r.q.e.e.e.e.r.e.e.e.e.e.e.e.e.e.e.e.e.e.e.e.e.0.0.8.r.r.i.1.o 0 0 0 0 0 0 0 0 0 0 0 0 0 0 0 0 0 0 0 0 0 0 0 0 0 s 0 0 0 x 2.$.#.#.#.#.#.#.#.#.#.#.#.#.#.#.#.#.#.#.#.#.#.#.#.#.*.S D S A b V V V V V V V V V V V V V V V V V V V V V V V V V V A Z ] ' T E Q Q Q Q Q Q Q Q Q Q Q Q Q Q Q Q Q Q Q Q Q Q Q Q Q Q Q Q ",
"e.e.e.e.e.e.e.e.e.e.e.e.e.e.e.e.e.e.e.e.e.e.e.e.e.8.8.q.e.s.O.{ R R R R R R R R R R R R R R R R E E E E E E E E R ( ) U y 7.1XC.#X#X#X#X#X#X#X#X#X#X#X#X#X#X#X#X#X#X#X#X#X#X#X#X@X$XA.9X#.s 9 9 0 0 0 0 0 0 0 0 0 0 0 0 0 0 0 0 9 9 9 9 0 0 0 0 * % 8 5.w.p.p.p.q.q.q.q.r.r.r.r.r.r.r.r.q.q.q.q.r.r.r.r.q.q.q.q.e.r.#X4X#X$X#X%X$X$X$X$X$X$X$X$X$X$X$X$X$X$X$X$X$X$X#X#X#X$X4X4XG.y Y U R R R U R R R R R R R R R R R R R R R R / ^ ^ R R Y i i 9 9 9 0 0 0 & & 0 = = = 0 0 0 0 0 0 0 0 = = 0 0 % 0 z 8 8 : 1.6.r.r.r.r.r.r.r.r.r.r.r.r.q.q.q.q.r.r.r.r.q.q.q.q.8.8.e.e.e.e.0.3.e.e.e.e.e.e.e.e.e.e.e.e.e.e.e.e.e.e.e.e.e.e.e.e.p.e.e.5.b Z x Z V V V V V V V V V V V V V V V V V V V V V V V V } | m 0 * 0 t 0 0 0 0 0 9 9 9 9 0 0 0 0 0 0 0 0 9 9 9 9 0 0 0 0 o r.A.$X$X+X$XJ.$X$X$X$X$X$X$X$X$X$X$X$X$X$X$X$X$X$X$X$X$X$X$X$Xc.r.q.e.e.e.e.r.e.e.e.e.e.e.e.e.e.e.e.e.e.e.e.e.0.0.0.r.r.r.1.o * * * * * * & & * * * & * * * * * * * * * * * * - 0 * 0 & g #.%.#.#.#.#.#.#.#.#.#.#.#.#.#.#.#.#.#.#.#.#.#.#.S S S *.S ..S V Z V V V V V V V V V V V V V V V V V V V V V V V V V b m N T E Q ) Q E E E E E E W W W W W W E E W W E E E E W W W W E E ",
"e.e.e.e.e.e.e.e.e.e.e.e.e.e.e.e.e.e.e.e.e.e.e.e.e.8.q.8.0.s.O.] ^ ^ ^ ^ ^ ^ ^ ^ ^ ^ ^ ^ ^ ^ ^ ^ / / / / / / / / ^ ( ) U T j.1XZ.Z.Z.Z.Z.Z.Z.Z.Z.Z.Z.Z.Z.Z.Z.Z.Z.Z.Z.Z.Z.Z.Z.Z.Z.@X#XZ.3X%.a & 9 0 0 0 0 0 0 0 0 0 0 0 0 0 0 0 0 9 0 9 9 0 0 0 0 0 0 0 5.3.r.q.8.q.q.q.q.q.q.q.q.q.q.q.q.q.q.q.q.q.q.q.q.q.q.q.q.i.r.#X4X#X$X+X+X$X$X$X$X$X$X$X$X$X$X$X$X$X$X$X$X$X$X#X#X#X$X4X4XG.T W U ) ^ ) R ^ ^ ^ ^ ^ ^ ^ ^ ^ ^ ^ ^ ^ ^ ^ ^ / ^ ^ ^ R E T i 9 9 9 9 0 0 0 0 9 9 9 9 9 9 9 9 9 9 9 9 9 9 9 9 9 0 0 = & & 5.x.q.q.q.q.q.q.q.q.q.q.q.q.q.q.q.q.q.q.q.q.q.q.q.q.8.p.p.e.e.i.i.0.r.r.r.r.r.r.r.r.p.i.r.r.r.r.r.r.r.r.r.r.i.i.r.r.p.e.w.3.b A b Z Z Z Z Z Z Z Z Z Z Z Z Z Z Z Z Z V V V V Z Z Z Z | | m 0 % 8 0 % 0 0 0 0 0 0 9 9 0 0 0 0 0 0 0 0 9 0 9 9 0 0 0 0 @ r.A.A.#X+X#XA.$X$X$X$X$X$X$X$X$X$X$X$X$X$X$X$X$X$X$X$X$X$X$X$Xq.q.q.e.e.e.e.e.e.e.e.e.e.e.e.e.e.e.e.e.e.e.e.e.i.e.8.r.r.r.1.o 0 9 0 0 0 0 0 0 0 0 0 0 0 0 0 0 0 0 0 0 0 0 0 0 0 0 0 0 0 x 1.#.>.>.>.>.>.>.>.>.*.*.*.*.*.*.*.*.*.*.*.*.*.*.*.*.C S S #.A V A V Z Z Z Z Z Z Z Z Z Z Z Z V V V V C C C C Z Z Z Z j m ' T R ) ) R ^ ^ ^ ^ ^ ^ ^ ^ R R ^ ^ ^ ^ ^ ^ ^ ^ ^ ^ R R ^ ^ ^ ^ ",
"e.e.e.e.e.e.e.e.e.e.e.e.e.e.e.e.e.e.e.e.e.e.e.e.r.8.q.q.e.f.O.' ^ ^ ^ ^ ^ ^ ^ ^ ^ ^ ^ ^ ^ ^ ^ ^ ^ ^ ^ ^ ^ ^ ^ ^ ^ ( ) ( Q d.3X#X$X$X$X$X$X$X$X$X$X$X$X$X$X$X$X$X$X$X$X$X$X$X$X$XC.Z.Z.3X%.: = 0 9 9 9 9 9 9 9 9 9 9 9 9 9 9 9 9 9 7 9 9 9 9 9 9 0 % - 1.3.e.q.q.q.q.q.q.q.q.q.q.q.q.q.q.q.q.q.q.q.q.q.q.q.q.q.q.0.8.oX4X#X$XC.M.$X$X$X$X$X$X$X$X$X$X$X$X$X$X$X$X$X$X#X#X#X$X4X4XG._ R U ( / ) R ^ ^ ^ ^ ^ ^ ^ ^ ^ ^ ^ ^ ^ ^ ^ ^ R R ^ R R Y T i 9 9 9 9 0 0 0 0 9 9 9 9 9 9 0 9 9 9 9 9 9 9 9 9 9 % * % & & ..s.q.q.q.q.q.q.q.q.q.q.q.q.q.q.q.q.q.q.q.q.q.q.q.q.e.e.e.0.0.i.p.p.0.0.0.0.0.0.0.0.0.0.0.0.0.0.0.e.0.0.0.0.0.0.0.0.p.e.8.3.C A b V Z Z Z Z Z Z Z Z Z Z Z Z Z Z Z Z Z Z Z Z Z Z Z Z V Z x 0 & 0 8 % 9 9 9 9 9 9 9 9 * * 9 9 * * * * 9 7 9 9 9 9 9 9 @ r.A.A.C.M.Z.A.$X$X$X$X$X$X$X$X$X$X$X$X$X$X$X$X$X$X$X$X$X$X$X$Xq.q.8.e.e.e.e.e.e.e.e.e.e.e.e.e.e.e.e.e.e.e.e.e.i.e.e.r.r.w.1.4 7 7 7 7 7 7 7 7 7 7 7 7 7 7 7 7 9 9 9 9 9 9 9 9 * 0 9 9 9 z >.#.} } } } } } } } S S S S S S S S S S S S S S S S S *.A S A V A V Z Z Z Z Z Z Z Z Z Z Z Z Z Z Z Z C C C C Z Z Z Z V D ] T E ) ) ( ^ ^ ^ ^ ^ ^ ^ ^ ^ R R ^ ^ ^ ^ ^ ^ ^ ^ ^ R R ^ ^ ^ ^ ",
"e.e.e.e.e.e.e.e.e.e.e.e.e.e.e.e.e.e.e.e.8.e.e.e.i.e.p.a.q.w.X.M R R R R R R R R R R R R R R R R W W W W W W W W ^ R ( E T j.3X#X$X$X$X$X$X$X$X$X$X$X$X$X$X$X$X$X$X$X$X$X$X$X$X$XC.Z.Z.3XA & & 0 0 0 0 0 0 0 9 0 0 9 0 0 0 0 0 0 0 0 0 0 0 0 0 0 z 0 8 6.e.0.8.q.8.8.8.8.8.8.8.8.8.8.8.8.8.8.8.8.8.8.8.8.8.8.8.8.3.8.B.$X#X$X%X%X$X$X$X$X$X$X$X$X$X$X$X$X$X$X$X$X$X$X#X#X#X$X4XJ.G.` E W / / Q R R R R R R R R R R R R R R R R R E E R R E T i i t t 0 0 0 0 0 0 0 0 0 0 0 0 0 0 0 0 0 0 0 0 0 0 * - 0 0 s 8 4.s.8.8.8.0.8.8.8.8.8.8.8.8.8.8.8.8.8.8.8.8.8.8.8.8.e.0.3.0.0.0.e.p.0.0.0.0.0.w.w.0.0.8.0.0.0.0.e.0.w.w.0.0.0.0.0.0.p.e.e.3.V A x Z m m V V V V m m V V V V V V V V V V V V V V V V V V x s 8 8 0 8 0 0 0 0 0 0 0 0 0 0 0 0 0 0 0 0 0 0 0 0 0 0 0 0 o r.4X$X#XM.#X4X$X$X$X$X$X$X$X$X$X$X$X$X$X$X$X$X$X$X$X$X$X$X$X$Xq.q.8.e.e.e.e.e.8.8.8.8.8.8.8.8.8.8.8.8.8.8.8.e.i.e.e.r.e.e.5.a 7 8 8 8 8 8 8 8 8 8 8 8 8 8 8 8 0 0 0 0 0 0 0 0 0 0 0 0 0 x 1.#.>.>.>.>.>.>.>.>.*.*.*.*.*.*.*.*.*.*.*.*.*.*.*.*.2.2.#.#.S V D V V m m m V V V V V V V V V V V V V V V V V V V V m N B i Y R Q Q R R R R R R R R R R R R R R R R R R R R R R R R R R ",
"e.e.e.e.e.e.e.e.e.e.e.e.e.e.e.e.e.e.e.e.e.8.e.e.l.e.q.q.q.r.4.N T T T T T T T T T T T T T T T T Y Y Y Y Y Y Y Y T _ Y Y y 7.3X4X$X$X$X$X$X$X$X$X$X$X$X$X$X$X$X$X$X$X$X$X$X$X$X$X6X4X3X5X%.: & 0 8 8 8 8 8 8 8 8 8 8 8 8 8 8 8 8 8 8 8 8 8 8 8 8 s 8 s l.l.w.w.r.i.i.i.i.i.i.i.i.i.i.i.i.i.i.i.i.i.i.i.i.i.i.i.i.e.p.%X6X#X$X%X6X$X$X$X$X$X$X$X$X$X$X$X$X$X$X$X$X$X$X#X#X#X$X4XJ.h.c T Y T E { T T T T T T T T T T T T T T T T T T T T T T i M M & & & & & o o o & & & & & & & & & & & & & & & & & & a & & 8 7.x.i.i.i.i.i.i.a.a.i.i.i.i.i.i.i.i.i.i.i.i.i.i.i.i.i.i.i.i.e.0.0.0.8.8.8.e.8.8.e.8.8.e.8.8.8.8.8.8.8.8.8.8.8.8.8.8.r.8.e.5.V Z V } Z Z Z Z Z Z Z Z V V V V V V V V V V V V V V V V A Z x & & - - - 8 8 8 8 8 8 8 8 8 8 8 8 8 8 8 8 8 8 8 8 8 8 8 8 O r.4XaX$X#X4X4X$X$X$X$X$X$X$X$X$X$X$X$X$X$X$X$X$X$X$X$X$X$X$X$Xq.q.8.0.0.w.e.e.8.8.8.8.8.8.8.8.8.8.8.8.8.8.8.8.e.e.e.r.e.e.5.h 8 8 8 8 8 8 8 8 8 8 8 8 8 8 8 8 0 0 0 8 8 8 8 8 & 0 0 0 0 g #.#.>.#.#.>.#.#.#.#.#.#.#.#.#.#.#.#.#.#.#.#.#.#.#.#.#.#.C #.S b Z D Z Z Z Z Z Z V Z Z Z Z V V V Z V Z Z Z Z V V V V Z m M i i Y T T T T T T T T T T T T T T T T T T T T T T T T T T T T ",
"e.e.e.e.e.e.e.e.e.e.e.e.e.e.e.e.e.e.e.e.e.e.e.e.l.0.8.:.9.r.6.} B B B B B B B B B B B B B B B B ] ] ] ] ] ] ] ] ] ' ] [ ] 6.oXZ.#X#XZ.Z.Z.Z.Z.Z.Z.Z.Z.Z.Z.Z.Z.Z.#X#XZ.Z.Z.Z.Z.Z.#XB.m.3X$.b x x d s s s d d d d s s s d d d d d d d d d d d d d @ h g 1.>.1.6.6.5.5.5.5.5.5.5.5.5.5.5.5.5.5.5.5.5.5.5.5.5.5.5.5.#.8.%X6XZ.#X+X%X$X$X$X$X$X$X$X$X$X$X$X$X$X$X$X$X$X$X#X#X#X$X4X4Xz.m B i { { ] ] B B B B B B B B B B B B B B B B B ] ] { ' B B N g x x g g g j j g g g g g g g g g g g g g g g g b b b g g g *.S 3.5.5.5.5.5.5.5.5.5.5.5.5.5.5.5.5.5.5.5.5.5.5.5.*.3.2.#.*.p.V.z.r.r.r.r.r.r.r.r.r.r.r.r.r.r.r.r.r.r.r.r.r.r.r.r.r.p.z.w.j m z Z x x x x x N x N x x x x m m m m x x x x m m m m x x x x g g f f d d d d d d d d d d d d d d d d d d d d d d d d g n.4XA.$X%X4XA.$X$X$X$X$X$X$X$X$X$X$X$X$X$X$X$X$X$X$X$X$X$X$X$Xq.q.8.0.0.0.e.e.e.e.8.8.8.8.8.8.e.e.8.8.8.8.e.e.0.0.8.r.w.e.6.g s s s s s s s s s s s s s s s s s s s s s s s s a s s s s j 2.=.=.=.*.*.*.*.*.*.*.*.*.*.*.*.*.*.*.*.*.*.=.=.*.*.$.2.2.w.>.d g m x m x x x x N N m m m m x x x x m m m m m m m m m g N ] [ ] M B ] ] ] ] ] ] ] ] ] ] ] ] ] ] ] ] ] ] ] ] ] ] ] ] ] ] ",
"e.e.e.e.e.e.e.e.e.e.e.e.e.e.e.e.e.e.e.e.e.e.e.e.l.0.;.;.:.r.l.7.j.j.j.j.j.j.j.j.j.j.j.j.j.j.j.j.s.s.s.s.s.s.s.s.6.7.k.k.X.6.z.c.r.r.t.t.t.t.t.t.t.t.t.t.t.t.t.t.r.r.t.t.t.t.t.t.q.8.8.B.w.5.6.7.6.6.6.6.6.6.6.6.6.6.6.6.6.6.6.6.6.6.6.6.6.6.6.6.0.r.$.A o & 8 X 8 8 8 8 a 8 8 8 8 8 8 8 8 8 8 8 8 8 8 8 8 8 8 8 @ k M.6X#X#X+X#X$X$X$X$X$X$X$X$X$X$X$X$X$X$X$X$X$X$X#X#X#X$X4X4X9X6.j.O.k.k.k.j.j.j.j.j.j.j.j.j.j.j.j.j.j.j.j.j.j.j.k.k.k.k.d.s.2X2X2X1X1X1X1X1X1X1X1X1X1X1X1X1X1X1X1X1X1X1X1X1X1XH.1X2X8Xz.*.O 4 4 4 4 4 4 4 4 8 8 8 8 8 8 8 8 8 8 8 8 8 8 8 8 O h h o h z.8X5X#X#X#X#X#X#X#X+X#X#X#X#X#X#X#X#X#X#X#X#X#X#X#X#X3X3X1Xz.d a - 0 0 0 0 0 0 0 0 0 0 0 s 0 s 0 0 0 0 0 s 0 s 0 0 0 o s Z 1.s.s.s.7.6.6.6.6.6.6.6.6.w.w.w.w.w.w.w.w.6.6.6.6.6.6.6.6.5.3XA.C.Z.#X$XA.$X$X$X$X$X$X$X$X$X$X$X$X$X$X$X$X$X$X$X$X$X$X$X$X9.q.8.0.0.0.e.t.8.8.8.8.0.0.0.0.8.8.8.8.8.8.8.8.3.0.0.r.w.w.6.j >.>.>.>.>.>.>.>.>.>.>.>.>.>.>.>.>.>.>.>.>.>.>.>.#.1.>.1.>.0.B.M.1XoXoXoXoXoXoXoX1XoXoXoX1X1X1X1X1X1X1X1XoXoXoXoXB.1X1X2X6.: o s 0 0 0 0 0 0 0 0 0 0 0 0 0 0 0 0 8 8 8 8 8 8 8 8 a 8 c O.d.O.O.j.j.j.j.j.j.j.j.j.j.j.j.j.j.j.j.j.j.j.j.j.j.j.j.j.j.j.",
"e.e.e.e.e.e.e.e.e.e.e.e.e.e.e.e.e.e.e.e.e.e.e.e.e.e.e.e.e.e.e.e.e.e.e.e.e.e.e.e.e.e.e.e.e.e.e.e.e.e.q.q.q.q.q.q.e.e.e.e.e.e.e.e.e.e.e.e.e.e.e.e.e.e.e.e.e.e.e.e.e.e.e.e.e.e.e.e.r.r.r.r.q.q.q.q.e.e.e.e.8.8.e.e.8.8.8.8.e.e.e.e.8.8.8.8.8.8.8.8.8.0.e.g 8 * 9 9 0 0 0 0 0 0 0 0 0 0 0 0 0 0 0 0 0 8 8 8 0 0 0 0 8 g 3X#X+X#X#XS.$X$X$X$X$X$X$X$X$X$X$X$X$X$X$X$X$X$X$X$X$X$X$X$XM.8.r.q.8.r.8.e.e.e.q.q.q.q.q.e.e.e.e.e.e.e.e.e.e.e.0.0.a.8.q.m.$X$X$X$X#X#X#X#X#X#X#X#X#X#X#X#XZ.#X#X#X#X#X#X#X$XZ.A.$X$X5XC & 0 0 0 0 0 0 0 0 0 0 0 0 0 0 0 0 0 0 0 0 0 0 0 0 0 7 0 & o 7X3XJ.$X$X$X$X$X$X$X$X$X$X$X$X$X$X$X$X$X$X$X$X$X$X$X$X$X#X3XN.X q 8 = 0 0 0 0 0 0 0 0 0 0 0 0 0 0 0 0 0 0 0 0 0 0 0 0 8 X A e.q.e.8.r.e.e.e.e.e.e.e.e.e.e.e.e.e.e.e.e.e.e.e.e.e.e.e.e.8.M.%X#X$X$XZ.$X$X$X$X$X$X$X$X$X$X$X$X$X$X$X$X$X#X#X#X#X#X#X#X#Xq.q.8.8.0.e.e.e.0.0.0.0.0.0.0.0.8.8.0.0.0.0.0.0.0.e.0.e.0.0.e.#.#.#.#.#.#.#.#.#.#.#.#.#.#.#.#.#.#.#.#.#.#.#.#.#.#.#.#.>.#.8.%X+X#X#X#X#X#X#X#X#X$X$X$X$X$X$X$X$X$X$X$X$X$X$X$X$X$X$XZ.3X5.o 8 9 0 0 0 0 0 0 0 0 0 0 0 0 0 0 0 0 0 0 0 0 0 0 0 0 8 8 8 1.3.e.0.:.0.0.8.8.0.0.0.0.0.0.0.0.8.0.0.0.0.0.0.0.0.0.8.8.8.8.",
"e.e.e.e.e.e.e.e.e.e.e.e.e.e.e.e.e.e.e.e.e.e.e.e.e.e.e.e.e.e.e.e.e.e.e.e.e.e.e.e.e.e.e.e.e.e.e.e.e.e.e.e.e.e.e.e.e.e.e.e.e.e.e.e.e.e.e.e.e.e.e.e.e.e.e.e.e.e.e.e.e.e.e.e.e.e.e.e.r.r.r.r.8.8.8.8.e.e.e.8.8.8.e.e.8.8.8.8.e.e.e.e.8.8.8.8.8.8.8.8.e.0.e.g 8 * 9 9 0 0 0 0 0 0 0 0 0 0 0 0 0 0 0 0 0 8 8 8 0 0 0 0 8 g 3X#X+X#X#XS.$X$X$X$X$X$X$X$X$X$X$X$X$X$X$X$X$X$X$X$X$X$X$X$XM.8.r.q.8.r.8.e.e.e.e.e.e.e.e.e.e.e.e.e.e.e.e.e.e.e.0.0.a.8.q.m.$X$X$X$X#X#X#X#X#X#X#X#X#X#X#X#XZ.Z.#X#X#X#XZ.Z.$XZ.A.$X$X5XC o 0 0 0 0 0 0 0 0 0 0 0 0 0 0 0 0 0 0 0 0 0 0 0 0 0 7 0 & o 7X3XJ.$X$X$X$X$X$X$X$X$X$X$X$X$X$X$X$X$X$X$X$X$X$X$X$X$X#X3XN.X q 8 = 0 0 0 0 0 0 0 0 0 0 0 0 0 0 0 0 0 0 0 0 0 0 0 0 8 X A e.q.e.8.r.e.e.e.e.e.e.e.e.e.e.e.e.e.e.e.e.e.e.e.e.e.e.e.e.8.M.%X#X$X$XZ.$X$X$X$X$X$X$X$X$X$X$X$X$X$X$X$X$X#X#X#X#X#X#X#X#Xq.q.8.0.0.e.e.e.0.0.0.0.8.0.0.0.8.8.0.0.0.0.0.0.0.e.0.e.0.0.e.%.#.#.#.#.#.#.#.#.#.#.#.#.#.#.#.#.#.#.#.#.#.#.#.#.#.#.#.>.#.8.%X+X#X#X#X#X#X#X#X#X$X$X$X$X$X$X$X$X$X$X$X$X$X$X$X$X$X$XA.3X5.o 8 9 0 0 0 0 0 0 0 0 0 0 0 0 0 0 0 0 0 0 0 0 0 0 0 0 8 8 8 1.3.e.0.:.0.8.8.8.0.0.0.0.0.0.0.0.8.0.0.0.0.0.0.0.0.0.8.8.8.8.",
"e.e.e.e.e.e.e.e.e.e.e.e.e.e.e.e.e.e.e.e.e.e.e.e.e.e.e.e.e.e.e.e.e.e.e.e.r.e.e.e.e.e.e.e.e.e.e.e.e.e.e.e.e.e.e.e.e.e.e.e.e.e.e.e.e.e.e.e.e.e.e.e.e.e.e.e.e.e.e.e.e.e.e.e.e.e.e.e.r.r.r.r.e.e.e.e.e.e.8.8.8.8.e.e.8.8.8.8.e.e.8.8.e.e.8.8.8.8.e.e.e.0.e.g 8 * 9 9 0 0 0 0 0 0 0 0 0 0 0 0 0 0 0 0 0 0 8 8 0 0 8 0 8 g 3X$X#X#X#XS.$X$X$X$X$X$X$X$X$X$X$X$X$X$X$X$X$X$X$X$X$X$X$X$XM.8.r.q.8.r.8.e.e.e.e.e.e.e.e.e.e.e.e.e.e.e.e.e.e.e.0.0.i.0.q.m.$X$X$X$X#X#X#X#X#X#X#X#XZ.Z.#XZ.Z.Z.#X#X#X#X#XZ.$XZ.A.$X$X3XC o 0 0 0 0 0 0 0 0 0 0 0 0 0 0 0 0 0 0 0 0 0 0 0 0 0 8 0 & o 7X3XJ.$X$X$X$X$X$X$X$X$X$X$X$X$X$X$X$X$X$X$X$X$X$X$X$X#X#X4XN.X q 8 = 0 0 0 0 0 0 0 0 0 0 0 0 0 0 0 0 0 0 0 0 0 0 0 0 8 X A e.q.e.8.r.8.e.e.e.e.e.e.e.e.e.e.e.e.e.e.e.e.e.e.e.e.e.e.e.8.M.%X#X$X$XZ.$X$X$X$X$X$X$X$X$X$X$X$X$X$X$X$X$XZ.#X#X#X#XZ.Z.Z.q.q.8.0.0.w.e.e.0.0.8.8.8.8.8.0.8.0.0.0.8.8.0.0.0.e.8.8.0.0.e.#.#.#.#.#.#.#.#.#.#.#.#.#.#.#.#.#.>.>.#.#.#.#.#.#.#.#.#.>.#.8.%X+X#X#X#X#X#X#X#X#X$X$X$X$X$X$X$X$X$X$X$X$X$X$X$X$X$X4XZ.3X2.o 8 9 0 0 0 0 0 0 0 0 0 0 0 0 0 0 0 0 0 0 0 0 0 0 0 0 8 8 8 1.3.e.0.8.0.0.8.8.0.0.0.0.0.0.8.8.8.8.0.0.0.0.0.0.0.0.0.0.0.0.",
"e.e.e.e.e.e.e.e.e.e.e.e.e.e.e.e.e.e.e.e.e.e.e.e.e.e.e.e.e.e.e.e.e.e.e.e.r.e.e.e.e.e.e.e.e.e.e.e.e.e.e.e.8.8.8.8.e.e.e.e.e.e.e.e.e.e.e.e.e.e.e.e.e.e.e.e.e.e.e.e.e.e.e.e.e.e.e.e.r.r.e.e.e.e.e.e.e.e.8.8.8.8.e.e.e.8.e.e.e.e.8.8.e.e.e.8.8.8.e.e.e.0.e.g 8 * 9 9 0 0 0 0 0 0 0 0 0 0 0 0 0 0 0 0 0 0 0 0 0 0 8 8 8 g 3X#X#X#X#XS.$X$X$X$X$X$X$X$X$X$X$X$X$X$X$X$X$X$X$X$X$X$X$X$XM.8.r.q.8.r.8.e.e.e.e.e.8.8.8.8.e.e.e.e.e.e.e.e.e.e.0.0.i.0.q.m.$X$X$X$X#X#X#X#X#X#X#X#X#XZ.Z.Z.Z.Z.#X#X#X#X#X#X$XZ.A.$X$X3XC o 0 0 0 0 0 0 0 0 0 0 0 0 0 0 0 0 0 0 0 0 0 0 0 0 0 7 0 & o 7X3XJ.$X$X$X$X$X$X$X$X$X$X$X$X$X$X$X$X$X$X$X$X$X$X$X$X#X#X3XN.o q 8 = 0 0 0 0 0 0 0 0 0 0 0 0 0 0 0 0 0 0 0 0 0 0 0 0 8 o A e.q.e.8.r.e.e.e.e.e.e.e.e.e.e.e.e.e.e.e.e.e.e.e.e.e.e.e.e.8.M.%X#X$X$XZ.$X$X$X$X$X$X$X$X$X$X$X$X$X$X$X$X$XZ.Z.Z.#X#X#XZ.Z.q.q.8.0.0.w.e.e.0.0.8.8.8.8.8.0.0.0.0.0.8.8.8.0.0.e.8.8.0.0.e.#.#.#.#.#.#.#.#.#.#.#.#.#.#.#.#.#.#.#.#.#.#.#.#.#.#.#.#.>.#.8.%X+X#X#X#X#X#X#X#X#X$X$X$X$X$X$X$X$X$X$X$X$X$X$X$X$X$X4XZ.3X2.o 8 9 0 0 0 0 0 0 0 0 0 0 0 0 0 0 0 0 0 0 0 0 0 0 0 0 8 8 8 1.3.e.0.8.0.0.8.0.0.0.8.8.0.0.8.0.8.8.0.8.8.8.0.0.0.0.0.0.0.0.",
"e.e.e.e.e.e.e.e.e.e.e.e.e.e.e.e.e.e.e.e.e.e.e.e.e.e.e.e.e.e.e.e.e.e.e.e.e.e.e.e.e.e.e.e.e.e.e.e.e.e.e.e.8.e.e.e.e.e.e.e.e.e.e.e.e.e.e.e.e.e.e.e.e.e.e.e.e.e.e.e.e.e.e.e.e.e.e.e.r.r.e.e.8.8.e.e.e.8.8.8.e.e.e.e.e.e.e.e.8.8.8.8.e.e.8.8.8.8.e.e.8.0.e.g 8 * 0 9 0 0 0 0 0 0 0 0 0 0 0 0 0 0 0 0 0 0 0 0 0 0 0 8 8 g 3X#X#X#X#XS.$X$X$X$X$X$X$X$X$X$X$X$X$X$X$X$X$X$X$X$X$X$X$X$XM.8.r.r.8.r.8.e.e.e.e.e.e.e.e.e.e.e.e.e.e.e.e.e.e.e.0.0.e.8.q.m.$X$X$X$X$X$X$X#X#X#X#X#X#X#X#X#X#X#X#X#X#X#X#X#X$XZ.S.$X$X3XV o 0 0 0 0 0 0 0 0 0 0 0 0 0 0 0 0 0 0 0 0 0 0 0 0 0 0 0 & o 7X3XJ.$X$X$X$X$X$X$X$X$X$X$X$X$X$X$X$X$X$X$X$X$X$X$X$X#X#X#XN.X q 8 = 0 0 0 0 0 0 0 0 0 0 0 0 0 0 0 0 0 0 0 0 0 0 0 0 8 X A i.q.e.8.r.e.e.e.e.e.e.e.e.e.e.e.e.e.e.e.e.e.e.e.e.e.e.e.e.8.M.%X#X$X$XZ.$X$X$X$X$X$X$X$X$X$X$X$X$X$X$X$X$X#X#X#X#X#X#X#X#Xq.q.8.0.0.w.e.e.8.8.8.8.0.0.0.0.0.8.8.8.8.8.0.0.0.e.8.8.0.0.e.#.#.#.#.#.#.#.#.#.#.#.#.#.#.#.#.#.#.#.#.#.#.#.#.#.#.#.#.>.#.8.%X+X#X#X#X#X#X#X#X#X$X$X$X$X$X$X$X$X$X$X$X$X$X$X$X$X$X$XA.3X5.o 8 9 0 0 0 0 0 0 0 0 0 0 0 0 0 0 0 0 0 0 0 0 0 0 0 0 8 8 8 1.3.e.0.8.0.0.0.0.8.8.8.8.0.8.8.8.0.0.0.0.8.8.0.0.0.0.0.0.0.0.",
"e.e.e.e.e.e.e.e.e.e.e.e.e.e.e.e.e.e.e.e.e.e.e.e.e.e.e.e.e.e.e.e.e.e.e.e.e.e.e.e.e.e.e.e.e.e.e.e.e.e.e.e.e.e.e.e.e.e.e.e.e.e.e.e.e.e.e.e.e.e.e.e.e.e.e.e.e.e.e.e.e.e.e.e.e.e.e.e.e.e.e.e.8.8.e.8.e.e.8.8.8.8.e.e.e.e.e.e.8.8.8.8.e.e.8.8.8.8.e.e.8.0.e.g 8 * 0 9 0 0 0 0 0 0 0 0 0 0 0 0 0 0 0 0 0 0 0 0 8 0 8 8 8 g 3X#X#X#X#XS.$X$X$X$X$X$X$X$X$X$X$X$X$X$X$X$X$X$X$X$X$X$X$X$XM.8.r.r.8.r.8.e.e.e.e.e.e.e.e.e.e.e.e.e.e.e.e.e.e.e.0.0.i.8.q.m.$X$X$X$X$X$X$X#X#X#X#X#X#X#X#X#X#X#X#X#X#X#X#X#X$XZ.S.$X$X3XV & 0 0 0 0 0 0 0 0 0 0 0 0 0 0 0 0 0 0 0 0 0 0 0 0 0 0 0 & o 7X3X4X$X$X$X$X$X$X$X$X$X$X$X$X$X$X$X$X$X$X$X$X$X$X$X$X#X#X$XN.X q 8 = 0 0 0 0 0 0 0 0 0 0 0 0 0 0 0 0 0 0 0 0 0 0 0 0 8 X A i.q.e.8.r.e.e.e.e.e.e.e.e.e.e.e.e.e.e.e.e.e.e.e.e.e.e.e.e.8.M.%X#X$X$XZ.$X$X$X$X$X$X$X$X$X$X$X$X$X$X$X$X$X#X#X#X#X#X#X#X#X9.q.8.0.0.w.e.e.0.0.8.8.0.0.0.0.0.8.8.8.8.8.0.0.0.e.8.8.0.0.e.#.#.#.#.#.#.#.#.#.#.#.#.#.#.#.#.#.#.#.#.#.#.#.#.#.#.#.#.>.#.8.%X+X#X#X#X#X#X#X#X#X$X$X$X$X$X$X$X$X$X$X$X$X$X$X$X$X$X4XA.3X5.o 8 9 0 0 0 0 0 0 0 0 0 0 0 0 0 0 0 0 0 0 0 0 0 0 0 0 8 8 8 1.3.e.0.8.0.0.0.0.0.0.8.8.0.0.8.8.0.0.0.0.8.8.0.0.0.0.0.8.0.0.",
"e.e.e.e.e.e.e.e.e.e.e.e.e.e.e.e.e.e.e.e.e.e.e.e.e.e.e.e.e.e.e.e.e.e.r.e.e.e.e.e.e.e.e.e.e.e.e.e.e.e.e.e.e.e.e.e.e.e.e.e.e.e.e.e.e.e.e.e.e.e.e.e.e.e.e.e.e.e.e.e.e.e.e.e.e.e.e.e.e.e.e.e.8.8.8.8.8.8.8.8.8.8.8.8.8.8.e.e.e.8.e.e.e.e.e.8.8.e.e.e.8.0.e.g 8 * 0 9 0 0 0 0 0 0 0 0 0 0 0 0 0 0 0 0 8 8 0 8 0 8 0 0 8 g 3X%X#X#X#XA.$X$X$X$X$X$X$X$X$X$X$X$X$X$X$X$X$X$X$X$X$X$X$X$XM.8.r.r.8.r.8.e.e.e.e.e.e.e.e.e.e.e.e.e.e.e.e.e.e.e.0.0.e.8.q.m.$X$X$X$X#X#X#X#X#X#XZ.#X#X#X#X#X#X#X#X#X#X#X#X#X$XZ.A.#X$X7XV & 0 0 0 0 0 0 0 0 0 0 0 0 0 0 0 0 0 0 0 0 0 0 0 0 0 0 0 & o 7X3XJ.$X$X$X$X$X$X$X$X$X$X$X$X$X$X$X$X$X$X$X$X$X$X$X$X$X#X#XN.X q 8 = 0 0 0 0 0 0 0 0 0 0 0 0 0 0 0 0 0 0 0 0 0 0 0 0 8 X A i.q.q.8.r.e.e.e.e.e.e.e.e.e.e.e.e.e.e.e.e.e.e.e.e.e.e.e.e.8.M.%X#X$X$XZ.$X$X$X$X$X$X$X$X$X$X$X$X$X$X$X$X$X#X#XZ.Z.#X#X#X#X9.q.8.0.0.e.e.e.0.0.0.0.0.0.0.0.0.0.0.8.0.0.0.0.0.e.8.8.0.8.e.#.#.#.#.#.#.#.#.#.#.#.#.#.#.#.#.#.#.#.#.#.#.#.#.#.#.#.#.>.#.8.%X+X#X#X#X#X#X#X#X#X$X$X$X$X$X$X$X$X$X$X$X$X$X$X$X$X$X$XA.3X5.o 8 9 0 0 0 0 0 0 0 0 0 0 0 0 0 0 0 0 0 0 0 0 0 0 0 0 8 8 8 1.3.e.0.8.8.8.8.8.0.0.0.0.0.0.8.8.0.0.0.0.8.0.0.0.0.8.8.8.0.0.",
"e.e.e.e.e.e.e.e.e.e.e.e.e.e.e.e.e.e.e.e.e.e.e.e.e.e.e.e.e.e.e.e.e.e.r.r.e.e.e.e.e.e.e.e.e.e.e.e.e.e.e.e.e.e.e.r.e.e.e.e.e.e.e.e.e.e.e.e.e.e.e.e.e.e.e.e.e.e.e.e.e.e.e.e.e.e.e.e.e.e.e.e.0.0.0.0.8.8.8.8.8.8.8.8.8.e.e.e.e.e.e.e.e.e.8.8.8.e.e.e.8.0.e.g 8 * 0 9 0 0 0 0 0 0 0 0 0 0 0 0 0 0 0 0 8 8 8 8 0 0 0 0 8 g 3X#X#X#X#XS.$X$X$X$X$X$X$X$X$X$X$X$X$X$X$X$X$X$X$X$X$X$X$X$XM.8.r.r.8.r.8.e.e.e.e.e.e.e.e.e.e.e.e.e.e.e.e.e.e.e.0.0.i.8.q.m.$X$X$X$X#X#X#X#X#X#XZ.Z.Z.#X#X#X#X#XZ.Z.#X#X#X#X$XZ.A.$X$X7XC & 0 0 0 0 0 0 0 0 0 0 0 0 0 0 0 0 0 0 0 0 0 0 0 0 0 0 0 & o 7X3X4X$X$X$X$X$X$X$X$X$X$X$X$X$X$X$X$X$X$X$X$X$X$X$X$X$X#X3XN.X q 8 = 0 0 0 0 0 0 0 0 0 0 0 0 0 0 0 0 0 0 0 0 0 0 0 0 8 X A i.q.q.8.r.e.e.e.e.e.e.e.e.e.e.e.e.e.e.e.e.e.e.e.e.e.e.e.e.9.M.%X#X$X$XZ.$X$X$X$X$X$X$X$X$X$X$X$X$X$X$X$X$X#X#X#XZ.Z.Z.#X#Xq.q.8.0.0.e.e.e.0.0.0.0.0.0.0.0.0.0.0.0.0.0.0.0.0.8.8.8.w.8.e.#.#.#.#.#.#.#.#.#.#.#.#.#.#.#.#.#.#.#.#.#.#.#.#.#.#.#.#.>.#.8.%X+X#X#X#X#X#X#X#X#X$X$X$X$X$X$X$X$X$X$X$X$X$X$X$X$X$X$XA.3X5.o 8 9 0 0 0 0 0 0 0 0 0 0 0 0 0 0 0 0 0 0 0 0 0 0 0 0 8 8 8 1.3.e.0.8.8.8.8.8.0.0.0.0.0.0.0.8.0.0.0.0.8.0.0.0.8.8.8.8.0.0.",
"e.e.e.e.e.e.e.e.e.e.e.e.e.e.e.e.e.e.e.e.e.e.e.e.e.e.e.e.e.e.e.e.e.e.e.e.e.e.e.e.e.e.e.e.e.e.e.e.e.e.e.e.e.e.e.e.e.e.e.e.e.e.e.e.e.e.e.e.e.e.e.e.e.e.e.e.e.e.e.e.e.e.e.e.e.e.e.e.e.e.e.e.e.e.e.e.e.e.8.8.8.8.8.8.e.e.8.8.8.8.e.e.e.e.8.8.e.e.e.e.e.0.6.g 8 * 9 9 0 0 0 0 0 0 0 0 0 0 0 0 0 0 0 0 0 0 0 8 8 8 8 8 8 g 1X%X#X#X#XZ.$X$X$X$X$X$X$X$X$X$X$X$X$X$X$X$X#X#X#XZ.Z.#X#X#XB.e.8.8.8.r.e.e.e.e.e.e.e.e.e.e.e.e.e.e.e.e.e.e.e.e.0.0.a.8.q.b.$X$X$X$X#X#X#X#X$X$X$X$X$X$X$X$X$X$X$X$X$X$X$X$X$X#X#X#X$X6XV 7 0 0 0 0 0 0 0 0 0 0 0 0 0 0 0 0 0 0 0 0 0 0 0 0 0 0 0 8 X 8XJ.4X$X$X$X$X$X$X$X$X$X$X$X$X$X$X$X$X$X$X$X$X$X$X$X$X$XA.$XN.o q 8 > 0 0 0 0 0 0 0 0 0 0 0 0 0 0 0 0 0 0 0 0 0 0 0 0 0 % A i.r.e.8.r.e.e.e.e.e.e.e.e.e.e.e.e.e.e.e.e.e.e.e.e.e.e.e.e.8.M.%X#X$X$XZ.$X$X$X$X$X$X$X$X$X$X$X$X$X$X$X$X$X#X#X#X#X#XZ.Z.#Xq.q.8.0.0.w.e.e.8.8.8.8.8.8.8.8.8.8.8.8.8.8.8.8.8.0.e.e.8.e.t.$.#.#.#.#.#.#.#.#.#.#.#.#.#.#.#.#.#.#.#.#.#.#.#.#.#.#.#.>.#.8.#X+XZ.#X#X#X#X#X#X#X$X$X$X$X$X$X$X$X$X$X$X$X$X$X$X$X#X$XZ.3X5.& 0 9 0 0 0 0 0 0 0 0 0 0 0 0 0 0 0 0 0 0 0 0 0 0 0 0 8 8 8 1.6.e.0.8.8.8.e.e.e.e.e.8.e.e.e.e.e.e.8.8.8.8.e.e.e.e.8.8.8.8.",
"e.e.e.e.e.e.e.e.e.e.e.e.e.e.e.e.e.e.e.e.e.e.e.e.e.e.e.e.e.e.e.e.e.e.e.e.e.e.e.e.e.e.e.e.e.e.e.e.e.e.e.e.e.e.e.e.e.e.e.e.e.e.e.e.e.e.e.e.e.e.e.e.e.e.e.e.e.e.e.e.e.e.e.e.e.e.e.e.e.e.e.e.e.e.e.e.e.e.e.e.8.8.8.8.e.e.8.8.8.8.e.e.e.e.8.8.8.e.e.e.e.0.6.g 8 * 0 9 0 0 0 0 0 0 0 0 0 0 0 0 0 0 0 0 0 0 0 0 8 8 0 8 8 g 1X%X#X#X#XZ.$X$X$X$X$X$X$X$X$X$X$X$X$X$X$X$X#X#XZ.Z.#X#X#X#XB.e.8.8.8.r.8.e.e.e.e.e.e.e.e.e.e.e.e.e.e.e.e.e.e.e.0.0.a.8.q.b.$X$X$X$X#X#X#X#X$X$X$X$X$X$X$X$X$X$X$X$X$X$X$X$X$X#X+X#X$X4XV 2 0 0 0 0 0 0 0 0 0 0 0 0 0 0 0 0 0 0 0 0 0 0 0 0 0 0 0 8 X 8XJ.4X$X$X$X$X$X$X$X$X$X$X$X$X$X$X$X$X$X$X$X$X$X$X$X$X$XA.$XN.o 0 8 > 0 0 0 0 0 0 0 0 0 0 0 0 0 0 0 0 0 0 0 0 0 0 0 0 0 - A i.q.e.8.r.e.e.e.e.e.e.e.e.e.e.e.e.e.e.e.e.e.e.e.e.8.e.e.e.8.M.%X#X$X$XZ.$X$X$X$X$X$X$X$X$X$X$X$X$X$X$X$X$X#X#X#X#X#X#XZ.#Xq.q.8.8.0.w.e.e.8.8.8.8.8.8.8.8.8.8.8.8.8.8.8.8.8.0.e.e.w.e.w.$.#.#.#.#.#.#.#.#.#.#.#.#.#.#.#.#.#.#.#.#.#.#.#.#.#.#.#.>.#.8.%X+XZ.Z.#X#X#X#XZ.Z.$X$X$X$X$X$X$X$X$X$X$X$X$X$X$X$X#X$XZ.3X3.& 0 9 0 0 0 0 0 0 0 0 0 0 0 0 0 0 0 0 0 0 0 0 0 0 0 0 8 8 8 1.6.e.0.8.8.8.e.e.e.e.8.8.8.8.e.e.e.e.8.8.8.8.8.e.e.8.8.8.8.8.",
"e.e.e.e.e.e.e.e.e.e.e.e.e.e.e.e.e.e.e.e.e.e.e.e.e.e.e.e.e.e.e.e.e.e.e.e.e.e.e.e.e.e.e.e.e.e.e.e.e.e.e.e.e.e.e.e.e.e.e.e.e.e.e.e.e.e.e.e.e.e.e.e.e.e.e.e.e.e.e.e.e.e.e.e.e.e.e.e.e.e.e.e.e.e.e.e.e.e.e.e.e.e.8.8.e.e.e.e.8.8.8.e.e.e.8.8.8.8.e.e.e.0.6.g 8 & 0 9 0 0 0 0 0 0 0 0 0 0 0 0 0 0 0 0 0 0 0 0 0 0 0 0 8 g oX#X#X#X#XZ.$X$X$X$X$X$X$X$X$X$X$X$X$X$X$X$X#X#X#X#X#X#X#X#XB.e.8.8.8.r.e.e.e.e.e.e.e.e.e.e.e.e.e.e.e.e.e.e.e.e.0.0.a.8.q.b.$X$X$X$X#X#X$X#X$X$X$X$X$X$X$X$X$X$X$X$X$X$X$X$X$X#X+X#X$X4XC 2 0 0 0 0 0 0 0 0 0 0 0 0 0 0 0 0 0 0 0 0 0 0 0 0 0 0 0 8 X 8XJ.4X$X$X$X$X$X$X$X$X$X$X$X$X$X$X$X$X$X$X$X$X$X$X$X$X$XA.4XN.o 0 8 > 0 0 0 0 0 0 0 0 0 0 0 0 0 0 0 0 0 0 0 0 0 0 0 0 0 % A i.q.e.8.r.e.e.e.e.e.e.e.e.e.e.e.e.e.e.e.e.e.e.e.e.8.e.e.e.8.M.%X#X$X$XZ.$X$X$X$X$X$X$X$X$X$X$X$X$X$X$X$X$X#X#X#X#X#X#X#X#Xq.q.8.0.0.w.e.e.e.e.8.8.8.8.e.e.e.8.8.8.e.8.e.e.8.0.e.e.w.e.e.#.#.#.#.#.#.#.#.#.#.#.#.#.#.#.#.#.#.#.#.#.#.#.#.#.#.$.#.>.#.8.%X+XZ.Z.#X#X#X#X#XZ.$X$X$X$X$X$X$X$X$X$X$X$X$X$X$X$X#X$XZ.5X3.o 0 9 0 0 0 0 0 0 0 0 0 0 0 0 0 0 0 0 0 0 0 0 0 0 0 0 8 8 8 1.6.e.0.8.8.8.e.e.8.8.8.8.8.8.8.8.e.e.8.8.8.8.e.e.e.e.8.8.8.8.",
"e.e.e.e.e.e.e.e.e.e.e.e.e.e.e.e.e.e.e.e.e.e.e.e.e.e.e.e.e.e.e.e.e.e.e.e.e.e.e.e.e.e.e.e.e.e.e.e.e.e.e.e.e.e.e.e.e.e.e.e.e.e.e.e.e.e.e.e.e.e.e.e.e.e.e.e.e.e.e.e.e.e.e.e.e.e.e.e.e.e.e.e.8.e.e.8.e.e.e.e.e.e.e.8.e.e.e.e.8.8.e.e.e.e.8.8.8.8.e.e.e.0.6.g 8 & 0 9 0 0 0 0 0 0 0 0 0 0 0 0 0 0 0 0 0 0 0 0 0 0 0 0 8 g oX#X#X#X#XZ.$X$X$X$X$X$X$X$X$X$X$X$X$X$X$X$X#X#X#X#X#X#X#X#XB.e.8.8.8.r.e.e.e.e.e.e.e.e.e.e.e.e.e.e.e.e.e.e.e.e.0.0.a.8.q.b.$X$X$X$X#X#X$X#X$X$X$X$X$X$X$X$X$X$X$X$X$X$X$X$X$X#X#X#X$X6XC 2 0 0 0 0 0 0 0 0 0 0 0 0 0 0 0 0 0 0 0 0 0 0 0 0 0 0 0 8 X 8XJ.4X$X$X$X$X$X$X$X$X$X$X$X$X$X$X$X$X$X$X$X$X$X$X$X$X#XA.$XN.o 0 8 > 0 0 0 0 0 0 0 0 0 0 0 0 0 0 0 0 0 0 0 0 0 0 0 0 0 % A i.q.e.8.r.e.e.e.e.e.e.e.e.e.e.e.e.e.e.e.e.e.e.e.8.8.e.e.q.8.M.%X#X$X$XZ.$X$X$X$X$X$X$X$X$X$X$X$X$X$X$X$X$X#X#X#X#X#X#X#X#Xq.q.8.8.0.w.e.e.e.e.e.e.8.8.8.e.e.8.8.8.e.e.e.e.8.0.e.e.w.e.e.#.#.#.#.#.#.#.#.#.#.#.#.#.#.#.#.#.#.#.#.#.#.#.#.#.#.#.#.>.#.8.%X+XZ.Z.#X#X#X#X#X#X$X$X$X$X$X$X$X$X$X$X$X$X$X$X$X$X#X#XZ.5X3.o 0 9 0 0 0 0 0 0 0 0 0 0 0 0 0 0 0 0 0 0 0 0 0 0 0 0 8 8 8 1.6.e.0.8.8.8.e.e.8.8.8.8.8.8.8.8.e.e.8.8.8.8.e.e.e.e.8.8.8.8.",
"e.e.e.e.e.e.e.e.e.e.e.e.e.e.e.e.e.e.e.e.e.e.e.e.e.e.e.e.e.e.e.e.e.e.e.e.e.e.e.e.e.e.e.e.e.e.e.e.e.e.e.e.e.e.e.e.e.e.e.e.e.e.e.e.e.e.e.e.e.e.e.e.e.e.e.e.e.e.e.e.e.e.e.e.e.e.e.e.e.e.e.e.8.8.8.8.e.e.e.8.e.e.e.e.8.8.8.e.e.e.e.e.e.e.e.e.8.8.8.e.e.0.6.g 8 & 0 9 0 0 0 0 0 0 0 0 0 0 0 0 0 0 0 0 0 0 0 0 0 0 0 0 8 g oX#X#X#X$XZ.$X$X$X$X$X$X$X$X$X$X$X$X$X$X$X$XZ.Z.Z.#X#X#X#X#XB.e.8.8.8.r.e.e.e.e.e.e.e.e.e.e.e.e.e.e.e.e.e.e.e.e.0.0.a.0.q.v.$X$X$X$X#X#X#X#X$X$X$X$X$X$X$X$X$X$X$X$X$X$X$X$X$X#X#X#X$X5XC 7 0 0 0 0 0 0 0 0 0 0 0 0 0 0 0 0 0 0 0 0 0 0 0 0 0 0 0 8 X 8XJ.4X$X$X$X$X$X$X$X$X$X$X$X$X$X$X$X$X$X$X$X$X$X$X$X$X#XA.4XN.o 0 8 > 0 0 0 0 0 0 0 0 0 0 0 0 0 0 0 0 0 0 0 0 0 0 0 0 0 & A i.q.8.8.r.e.e.e.e.e.e.e.e.e.e.e.e.e.e.e.e.e.e.e.e.8.e.e.q.8.M.%X#X$X$XZ.$X$X$X$X$X$X$X$X$X$X$X$X$X$X$X$X$XZ.#X#X#X#X#X#X#Xq.q.8.8.0.e.e.e.e.e.8.8.8.8.e.e.e.e.8.8.8.8.e.e.8.0.e.e.8.e.e.#.#.#.#.#.#.#.#.#.#.#.#.#.#.#.#.#.#.#.#.#.#.#.#.#.#.$.#.>.#.8.%XC.#X#X#X#X#X#X#X#X$X$X$X$X$X$X$X$X$X$X$X$X$X$X$X$XA.#XZ.5X5.& 0 9 0 0 0 0 0 0 0 0 0 0 0 0 0 0 0 0 0 0 0 0 0 0 0 0 8 8 4 1.6.e.0.8.8.8.8.8.8.e.e.e.e.e.e.8.8.8.8.8.8.8.e.e.e.e.8.8.8.8.",
"e.e.e.e.e.e.e.e.e.e.e.e.e.e.e.e.e.e.e.e.e.e.e.e.e.e.e.e.e.e.e.e.e.e.e.e.e.e.e.e.e.e.e.e.e.e.e.e.e.e.e.e.e.e.e.e.e.e.e.e.e.e.e.e.e.e.e.e.e.e.e.e.e.e.e.e.e.e.e.e.e.e.e.e.e.e.e.e.e.e.e.e.8.8.8.8.e.e.e.8.e.e.e.e.8.8.8.e.e.e.e.e.e.e.8.8.8.8.e.e.e.0.6.g 8 & 9 9 0 0 0 0 0 0 0 0 0 0 0 0 0 0 0 0 0 0 0 0 0 0 8 8 8 g oX#X#X#X$XZ.$X$X$X$X$X$X$X$X$X$X$X$X$X$X$X$XZ.Z.#X#X#X#X#X#XB.r.8.8.8.r.e.e.e.e.e.e.e.e.e.e.e.e.e.e.e.e.e.e.e.e.0.0.a.0.q.v.$X$X$X$X#X#X#X#X$X$X$X$X$X$X$X$X$X$X$X$X$X$X$X$X$X#X#X#X$X5XC 2 0 0 0 0 0 0 0 0 0 0 0 0 0 0 0 0 0 0 0 0 0 0 0 0 0 0 0 8 X 8XJ.4X$X$X$X$X$X$X$X$X$X$X$X$X$X$X$X$X$X$X$X$X$X$X$X$X$XA.4XN.o 0 8 > 0 0 0 0 0 0 0 0 0 0 0 0 0 0 0 0 0 0 0 0 0 0 0 0 0 & A i.q.8.8.r.e.e.e.e.e.e.e.e.e.e.e.e.e.e.e.e.e.e.e.e.e.e.e.q.8.M.%X#X$X$XZ.$X$X$X$X$X$X$X$X$X$X$X$X$X$X$X$X$XZ.#X#X#X#X#X#X#Xq.q.8.8.0.e.e.e.e.e.8.8.8.8.e.e.e.e.8.8.8.8.e.e.8.0.e.8.w.e.e.#.#.#.#.#.#.#.#.#.#.#.#.#.#.#.#.#.#.#.#.#.#.#.#.#.#.$.#.>.#.8.#XC.#X#X#X#X#X#X#X#X$X$X$X$X$X$X$X$X$X$X$X$X$X$X$X$XZ.#XZ.3X5.& 0 9 0 0 0 0 0 0 0 0 0 0 0 0 0 0 0 0 0 0 0 0 0 0 0 0 8 8 4 1.6.e.0.8.8.8.8.8.e.e.e.e.e.e.8.8.8.8.8.8.8.8.e.e.e.e.8.8.8.8.",
"e.e.e.e.e.e.e.e.e.e.e.e.e.e.e.e.e.e.e.e.e.e.e.e.e.e.e.e.e.e.e.e.e.e.e.e.e.e.e.e.e.e.e.e.e.e.e.e.e.e.e.e.e.e.e.e.e.e.e.e.e.e.e.e.e.e.e.e.e.e.e.e.e.e.e.e.e.e.e.e.e.e.e.e.e.e.e.e.e.e.e.e.8.8.e.e.e.e.8.8.8.8.e.8.8.8.8.8.e.e.8.e.8.8.8.8.8.8.8.8.e.0.6.g 8 & 0 9 0 0 0 0 0 0 0 0 0 0 0 0 0 0 0 0 8 8 0 0 0 0 8 8 8 g 1X%X#X#X$XZ.$X$X$X$X$X$X$X$X$X$X$X$X$X$X$X$X#XZ.#X#X#X#X#X#XB.q.8.8.8.r.8.e.e.e.e.e.e.e.e.e.e.e.e.e.e.e.e.e.e.e.0.0.a.0.q.v.$X$X$X$X#X#X#X#X$X$X$X$X$X$X$X$X$X$X$X$X$X$X$X$X$X#X+X#X$X5XV 2 0 0 0 0 0 0 0 0 0 0 0 0 0 0 0 0 0 0 0 0 0 0 0 0 0 0 0 8 X 8XJ.4X$X$X$X$X$X$X$X$X$X$X$X$X$X$X$X$X$X$X$X$X$X$X$X$X#XA.$XN.X q 8 > 0 0 0 0 0 0 0 0 0 0 0 0 0 0 0 0 0 0 0 0 0 0 0 0 0 - A r.q.8.8.r.e.e.e.e.e.e.e.e.e.e.e.e.e.e.e.e.e.e.e.e.e.e.e.e.8.M.%X#X$X$XZ.$X$X$X$X$X$X$X$X$X$X$X$X$X$X$X$X$X#X#X#X#XZ.Z.Z.#Xq.q.8.8.0.e.e.e.e.e.8.8.8.e.e.e.e.e.e.e.8.8.8.e.8.0.8.8.w.e.e.#.#.#.#.#.#.#.#.#.#.#.#.#.#.#.#.#.#.#.#.#.#.#.#.#.#.$.#.>.#.8.%X+X#X#X#X#X#X#X#X#X$X$X$X$X$X$X$X$X$X$X$X$X$X$X$X$X#X#XZ.3X5.& 0 9 0 0 0 0 0 0 0 0 0 0 0 0 0 0 0 0 0 0 0 0 0 0 0 0 8 8 4 1.6.e.0.8.e.e.8.8.e.e.e.e.e.e.e.e.8.8.8.8.e.e.e.e.e.e.e.e.8.8.",
"e.e.e.e.e.e.e.e.e.e.e.e.e.e.e.e.e.e.e.e.e.e.e.e.e.e.e.e.e.e.e.e.e.e.e.e.e.e.e.e.e.e.e.e.e.e.e.e.e.e.e.e.e.e.e.e.e.e.e.e.e.e.e.e.e.e.e.e.e.e.e.e.e.e.e.e.e.e.e.e.e.e.e.e.e.e.e.e.e.e.e.e.8.8.e.e.e.e.8.8.8.8.8.8.8.8.8.e.e.e.8.8.8.8.8.8.8.8.8.8.e.0.6.g 8 & 0 9 0 0 0 0 0 0 0 0 0 0 0 0 0 0 0 0 8 8 0 0 0 8 8 8 8 g 1X%X#X#X$XZ.$X$X$X$X$X$X$X$X$X$X$X$X$X$X$X$X#X#X#X#X#X#X#X#XB.q.8.8.8.r.e.e.e.e.e.e.e.e.e.e.e.e.e.e.e.e.e.e.e.e.0.0.a.0.q.v.$X$X$X$X#X#X#X#X$X$X$X$X$X$X$X$X$X$X$X$X$X$X$X$X$X#X#X#X$X3XV 2 0 0 0 0 0 0 0 0 0 0 0 0 0 0 0 0 0 0 0 0 0 0 0 0 0 0 0 8 X 8XJ.4X$X$X$X$X$X$X$X$X$X$X$X$X$X$X$X$X$X$X$X$X$X$X$X$X#XA.4XN.o q 8 > 0 0 0 0 0 0 0 0 0 0 0 0 0 0 0 0 0 0 0 0 0 0 0 0 0 - A r.q.8.8.r.e.e.e.e.e.e.e.e.e.e.e.e.e.e.e.e.e.e.e.e.e.e.e.e.8.M.%X#X$X$XZ.$X$X$X$X$X$X$X$X$X$X$X$X$X$X$X$X$X#X#X#X#XZ.Z.Z.Z.q.q.8.8.0.e.e.e.e.e.8.8.e.e.e.e.e.e.e.e.8.8.e.e.8.0.8.8.w.e.e.#.#.#.#.#.#.#.#.#.#.#.#.#.#.#.#.#.#.#.#.#.#.#.#.#.#.#.#.>.#.8.%X+X#X#XZ.Z.#X#X#X#X$X$X$X$X$X$X$X$X$X$X$X$X$X$X$X$X#X#XZ.5X5.& 0 9 0 0 0 0 0 0 0 0 0 0 0 0 0 0 0 0 0 0 0 0 0 0 0 0 8 8 4 1.6.e.0.8.e.e.8.8.8.e.e.e.e.e.e.e.e.8.e.e.e.e.e.e.e.e.e.e.e.e.",
"e.e.e.e.e.e.e.e.e.e.e.e.e.e.e.e.e.e.e.e.e.e.e.e.e.e.e.e.e.e.e.e.e.e.e.e.e.e.e.e.e.e.e.e.e.e.e.e.e.e.e.e.e.e.e.e.e.e.e.e.e.e.e.e.e.e.e.e.e.e.e.e.e.e.e.e.e.e.e.e.e.e.e.e.e.e.e.e.e.e.e.e.8.8.8.8.8.8.e.e.e.e.e.8.8.8.8.8.8.8.e.e.8.8.8.8.8.8.8.8.e.0.6.g 8 * 9 9 0 0 0 0 0 0 0 0 0 0 0 0 0 0 0 0 0 0 8 8 8 8 8 8 8 g 1X%X#X#X#XZ.$X$X$X$X$X$X$X$X$X$X$X$X$X$X$X$X#X#X#X#X#XZ.#X#XB.8.8.w.8.r.8.e.e.e.e.e.e.e.e.e.e.e.e.e.e.e.e.e.e.e.0.0.a.8.q.b.$X$X$X$X$X$X#X#X$X$X$X$X$X$X$X$X$X$X$X$X$X$X$X$X$X#X+X#X$X4XC 7 0 0 0 0 0 0 0 0 0 0 0 0 0 0 0 0 0 0 0 0 0 0 0 0 0 0 0 8 X 8XJ.4X$X$X$X$X$X$X$X$X$X$X$X$X$X$X$X$X$X$X$X$X$X$X$X$X$XA.4XN.o 8 8 > 0 0 0 0 0 0 0 0 0 0 0 0 0 0 0 0 0 0 0 0 0 0 0 0 0 - A i.q.e.8.r.e.e.e.e.e.e.e.e.e.e.e.e.e.e.e.e.e.e.e.e.e.e.e.e.8.M.%X#X$X$XZ.$X$X$X$X$X$X$X$X$X$X$X$X$X$X$X$X$X#XZ.Z.Z.#X#X#X#X9.q.8.0.0.w.e.e.e.e.8.8.e.e.e.e.8.8.8.8.e.e.e.e.8.0.e.e.w.e.e.#.#.#.#.#.#.#.#.#.#.#.#.#.#.#.#.#.#.#.#.#.#.#.#.#.#.#.#.>.#.8.%X+XZ.Z.Z.Z.#X#X#X#X$X$X$X$X$X$X$X$X$X$X$X$X$X$X$X$X#X$XZ.3X2.& 0 9 0 0 0 0 0 0 0 0 0 0 0 0 0 0 0 0 0 0 0 0 0 0 0 0 8 8 8 1.6.e.0.8.8.8.e.e.e.e.e.e.e.e.e.e.e.e.8.8.8.8.e.e.e.e.e.e.e.e.",
"e.e.e.e.e.e.e.e.e.e.e.e.e.e.e.e.e.e.e.e.e.e.e.e.e.e.e.e.e.e.e.e.e.e.e.e.e.e.e.e.e.e.e.e.e.e.e.e.e.e.e.e.e.e.e.e.e.e.e.e.e.e.e.e.e.e.e.e.e.e.e.e.e.e.e.e.e.e.e.e.e.e.e.e.e.e.e.e.e.e.e.e.e.e.8.8.8.8.e.e.e.e.8.8.8.8.8.8.e.e.e.e.8.8.8.8.8.8.8.8.e.0.6.g 8 * 0 9 0 0 0 0 0 0 0 0 0 0 0 0 0 0 0 0 0 0 0 0 8 8 0 8 8 g 1X%X#X#X#XZ.$X$X$X$X$X$X$X$X$X$X$X$X$X$X$X$X#X#X#X#XZ.Z.#X#XB.8.8.w.8.r.8.e.e.e.e.e.e.e.e.e.e.e.e.e.e.e.e.e.e.e.0.0.a.8.q.b.$X$X$X$X#X$X$X#X$X$X$X$X$X$X$X$X$X$X$X$X$X$X$X$X$X#X+X#X$X4XC 7 0 0 0 0 0 0 0 0 0 0 0 0 0 0 0 0 0 0 0 0 0 0 0 0 0 0 0 8 X 8XJ.4X$X$X#X#X$X$X$X$X$X$X$X$X$X$X$X$X$X$X$X$X$X$X$X$X$XA.4XN.o 0 8 > 0 0 0 0 0 0 0 0 0 0 0 0 0 0 0 0 0 0 0 0 0 0 0 0 0 - A r.q.e.8.r.e.e.e.e.e.e.e.e.e.e.e.e.e.e.e.e.e.e.e.e.e.e.e.e.8.M.%X#X$X$XZ.$X$X$X$X$X$X$X$X$X$X$X$X$X$X$X$X$X#XZ.Z.#X#X#X#XZ.q.q.8.0.0.w.e.e.e.8.8.8.e.e.e.e.8.8.8.8.e.e.e.e.8.0.e.e.w.e.e.#.#.#.#.#.#.#.#.#.#.#.#.#.#.#.#.#.#.#.#.#.#.#.#.#.#.#.#.>.#.8.%X+X#X#XZ.Z.#X#X#X#X$X$X$X$X$X$X$X$X$X$X$X$X$X$X$X$X#X$XZ.3X3.& 0 9 0 0 0 0 0 0 0 0 0 0 0 0 0 0 0 0 0 0 0 0 0 0 0 0 8 8 8 1.6.e.0.8.8.8.e.8.e.e.e.e.e.8.e.e.e.e.8.8.8.8.e.e.8.8.e.e.e.e.",
"e.e.e.e.e.e.e.e.e.e.e.e.e.e.e.e.e.e.e.e.e.e.e.e.e.e.e.e.e.e.e.e.e.e.e.e.e.e.e.e.e.e.e.e.e.e.e.e.e.e.e.e.e.e.e.e.e.e.e.e.e.e.e.e.e.e.e.e.e.e.e.e.e.e.e.e.e.e.e.e.e.e.e.e.e.e.e.e.e.e.e.e.e.e.e.e.8.e.e.e.8.8.8.8.8.8.e.e.e.e.e.e.e.e.8.8.8.8.e.e.e.e.6.g 8 & 0 9 0 0 0 0 0 0 0 0 0 0 0 0 0 0 0 0 0 0 0 0 0 0 0 0 8 g oX#X#X#X#XZ.$X$X$X$X$X$X$X$X$X$X$X$X$X$X$X$X#X#X#X#XZ.#X#X#XB.q.8.8.8.r.e.e.e.e.e.e.e.e.e.e.e.e.e.e.e.e.e.e.e.e.0.0.a.8.q.b.$X$X$X$X#X#X#X#X$X$X$X$X$X$X$X$X$X$X$X$X$X$X$X$X$X#X+X#X$X4XC 2 0 0 0 0 0 0 0 0 0 0 0 0 0 0 0 0 0 0 0 0 0 0 0 0 0 0 0 8 X 8XJ.4X$X$X#X#X$X$X$X$X$X$X$X$X$X$X$X$X$X$X$X$X$X$X$X$X$XA.4XN.o 0 8 > 0 0 0 0 0 0 0 0 0 0 0 0 0 0 0 0 0 0 0 0 0 0 0 0 0 - A r.q.e.8.r.e.e.e.e.e.e.e.e.e.e.e.e.e.e.e.e.e.e.e.e.e.e.e.e.8.M.%X#X$X$XZ.$X$X$X$X$X$X$X$X$X$X$X$X$X$X$X$X$X#X#X#X#X#X#XZ.Z.q.q.8.0.0.w.e.e.e.e.8.8.8.8.e.e.8.8.8.8.e.e.8.8.8.0.e.8.w.e.w.#.#.#.#.#.#.#.#.#.#.#.#.#.#.#.#.#.#.#.#.#.#.#.#.#.#.#.#.>.#.8.%X+X#X#X#X#X#X#X#X#X$X$X$X$X$X$X$X$X$X$X$X$X$X$X$X$X#X$XZ.5X3.& 0 9 0 0 0 0 0 0 0 0 0 0 0 0 0 0 0 0 0 0 0 0 0 0 0 0 8 8 8 1.6.e.0.8.8.8.8.8.8.8.e.e.8.8.8.8.e.8.8.8.e.e.e.e.8.8.8.8.e.e.",
"e.e.e.e.e.e.e.e.e.e.e.e.e.e.e.e.e.e.e.e.e.e.e.e.e.e.e.e.e.e.e.e.e.e.e.e.e.e.e.e.e.e.e.e.e.e.e.e.e.e.e.e.e.e.e.e.e.e.e.e.e.e.e.e.e.e.e.e.e.e.e.e.e.e.e.e.e.e.e.e.e.e.e.e.e.e.e.e.e.e.e.e.e.e.e.e.8.8.e.e.8.8.8.8.8.e.e.e.e.e.e.e.e.8.8.8.e.e.e.e.e.e.6.g 8 & 0 9 0 0 0 0 0 0 0 0 0 0 0 0 0 0 0 0 0 0 0 0 0 0 0 0 8 g oX#X#X#X#XZ.$X$X$X$X$X$X$X$X$X$X$X$X$X$X$X$X#X#X#XZ.#X#X#X#XB.q.8.8.8.r.e.e.e.e.e.e.e.e.e.e.e.e.e.e.e.e.e.e.e.e.0.0.a.8.q.b.$X$X$X$X#X#X#X#X$X$X$X$X$X$X$X$X$X$X$X$X$X$X$X$X$X#X+X#X$X6XV 2 0 0 0 0 0 0 0 0 0 0 0 0 0 0 0 0 0 0 0 0 0 0 0 0 0 0 0 8 X 8XJ.4X$X$X$X$X$X$X$X$X$X$X$X$X$X$X$X$X$X$X$X$X$X$X$X$X$XA.4XN.o q 8 > 0 0 0 0 0 0 0 0 0 0 0 0 0 0 0 0 0 0 0 0 0 0 0 0 0 - A r.q.e.8.r.e.e.e.e.e.e.e.e.e.e.e.e.e.e.e.e.e.e.e.e.e.e.e.e.9.M.%X#X$X$XZ.$X$X$X$X$X$X$X$X$X$X$X$X$X$X$X$X$X#X#X#X#X#X#X#X#Xq.q.8.0.0.w.e.e.e.e.8.8.8.8.e.e.e.8.e.e.e.e.8.8.8.0.e.e.8.e.e.#.#.#.#.#.#.#.#.#.#.#.#.#.#.#.#.#.#.#.#.#.#.#.#.#.#.#.#.>.#.8.%X+X#X#X#X#X#X#X#X#X$X$X$X$X$X$X$X$X$X$X$X$X$X$X$X$X#X$XZ.5X3.o 0 9 0 0 0 0 0 0 0 0 0 0 0 0 0 0 0 0 0 0 0 0 0 0 0 0 8 8 8 1.6.e.0.8.8.8.8.8.8.8.8.e.8.8.8.8.e.e.8.8.e.e.e.e.8.8.8.8.e.e.",
"e.e.e.e.e.e.e.e.e.e.e.e.e.e.e.e.e.e.e.e.e.e.e.e.e.e.e.e.e.e.e.e.e.e.e.e.e.e.e.e.e.e.e.e.e.e.e.e.e.e.e.e.e.e.e.e.e.e.e.e.e.e.e.e.e.e.e.e.e.e.e.e.e.e.e.e.e.e.e.e.e.e.e.e.e.e.e.e.e.e.e.e.8.8.e.e.8.8.8.8.8.e.e.e.e.e.e.e.e.e.e.e.e.e.8.8.8.8.e.e.e.0.6.g 8 & 0 9 0 0 0 0 0 0 0 0 0 0 0 0 0 0 0 0 0 0 0 0 0 0 0 0 8 g oX#X#X#X$XZ.$X$X$X$X$X$X$X$X$X$X$X$X$X$X$X$X#XZ.Z.Z.#X#X#X#XB.r.8.8.8.r.e.e.e.e.e.e.e.e.e.e.e.e.e.e.e.e.e.e.e.e.0.0.a.8.q.b.$X$X$X$X#X#X#X#X$X$X$X$X$X$X$X$X$X$X$X$X$X$X$X$X$X#X+X#X$X5XV 2 0 0 0 0 0 0 0 0 0 0 0 0 0 0 0 0 0 0 0 0 0 0 0 0 = 0 0 8 X 8XJ.4X$X$X$X$X$X$X$X$X$X$X$X$X$X$X$X$X$X$X$X$X$X$X$X$X#XA.4XN.o q 8 > 0 0 0 0 0 0 0 0 0 0 0 0 0 0 0 0 0 0 0 0 0 0 0 0 0 % A i.q.e.8.r.e.e.e.e.e.e.e.e.e.e.e.e.e.e.e.e.e.e.e.8.8.e.e.q.8.M.%X#X$X$XZ.$X$X$X$X$X$X$X$X$X$X$X$X$X$X$X$X$X#X#X#X#X#X#X#X#Xq.q.8.0.e.e.e.e.e.e.e.e.8.8.8.e.e.e.e.e.8.8.8.8.8.0.8.8.8.e.e.#.#.#.#.#.#.#.#.#.#.#.#.#.#.#.#.#.#.#.#.#.#.#.#.#.#.$.#.>.#.8.#X+X#X#X#X#X#X#X#X#X$X$X$X$X$X$X$X$X$X$X$X$X$X$X$X$XZ.#XZ.3X5.& 0 9 0 0 0 0 0 0 0 0 0 0 0 0 0 0 0 0 0 0 0 0 0 0 0 0 8 8 4 1.6.e.0.8.8.8.8.8.8.8.8.8.e.e.8.8.8.8.8.8.e.e.8.e.e.e.8.8.8.8.",
"e.e.e.e.e.e.e.e.e.e.e.e.e.e.e.e.e.e.e.e.e.e.e.e.e.e.e.e.e.e.e.e.e.e.e.e.e.e.e.e.e.e.e.e.e.e.e.e.e.e.e.e.e.e.e.e.e.e.e.e.e.e.e.e.e.e.e.e.e.e.e.e.e.e.e.e.e.e.e.e.e.e.e.e.e.e.e.e.e.e.e.e.8.8.e.e.8.8.8.8.8.e.e.e.e.e.e.e.8.e.e.e.e.e.8.8.8.8.e.e.e.0.6.g 8 & 0 9 0 0 0 0 0 0 0 0 0 0 0 0 0 0 0 0 0 0 0 0 0 0 8 8 8 g oX#X#X#X$XZ.$X$X$X$X$X$X$X$X$X$X$X$X$X$X$X$X#X#XZ.Z.#X#X#X#XB.r.8.8.8.r.e.e.e.e.e.e.e.e.e.e.e.e.e.e.e.e.e.e.e.e.0.0.a.8.q.b.$X$X$X$X#X#X#X#X$X$X$X$X$X$X$X$X$X$X$X$X$X$X$X$X$X#X+X#X$X5XV 2 0 0 0 0 0 0 0 0 0 0 0 0 0 0 0 0 0 0 0 0 0 0 0 0 0 0 0 8 X 8XJ.4X$X$X$X$X$X$X$X$X$X$X$X$X$X$X$X$X$X$X$X$X$X$X$X$X#XA.4XN.o q 8 > 0 0 0 0 0 0 0 0 0 0 0 0 0 0 0 0 0 0 0 0 0 0 0 0 0 % A i.q.e.8.r.e.e.e.e.e.e.e.e.e.e.e.e.e.e.e.e.e.e.e.8.8.e.e.q.8.M.%X#X$X$X#X$X$X$X$X$X$X$X$X$X$X$X$X$X$X$X$X$X#X#X#X#X#X#X#X#Xq.q.8.0.e.e.e.e.e.e.8.e.8.8.8.e.e.e.e.e.8.8.8.8.8.0.8.8.8.e.e.#.#.#.#.#.#.#.#.#.#.#.#.#.#.#.#.#.#.#.#.#.#.#.#.#.#.$.#.>.#.8.%X+XZ.#X#X#X#X#X#X#X$X$X$X$X$X$X$X$X$X$X$X$X$X$X$X$XZ.#XZ.3X5.& 0 9 0 0 0 0 0 0 0 0 0 0 0 0 0 0 0 0 0 0 0 0 0 0 0 0 8 8 4 1.6.e.8.8.8.8.8.e.8.8.e.8.e.e.8.8.8.8.8.8.8.8.8.8.e.e.8.e.8.8.",
"e.e.e.e.e.e.e.e.e.e.e.e.e.e.e.e.e.e.e.e.e.e.e.e.e.e.e.e.e.e.e.e.e.e.e.e.e.e.e.e.e.e.e.e.e.e.e.e.e.e.e.e.e.e.e.e.e.e.e.e.e.e.e.e.e.e.e.e.e.e.e.e.e.e.e.e.e.e.e.e.e.e.e.e.e.e.e.e.e.e.e.e.8.8.8.8.8.e.8.8.e.e.e.e.8.e.8.8.8.8.e.e.e.e.e.8.8.8.e.e.e.0.6.g 8 & 0 9 0 0 0 0 0 0 0 0 0 0 0 0 0 0 0 0 8 8 0 0 0 0 8 8 8 g 1X%X#X#X$XZ.$X$X$X$X$X$X$X$X$X$X$X$X$X$X$X$X#X#X#X#X#X#X#X#XB.r.8.8.8.r.e.e.e.e.e.e.e.e.e.e.e.e.e.e.e.e.e.e.e.e.0.0.a.8.q.b.$X$X$X$X$X#X$X#X$X$X$X$X$X$X$X$X$X$X$X$X$X$X$X$X$X#X+X#X$X5XV 7 0 0 0 0 0 0 0 0 0 0 0 0 0 0 0 0 0 0 0 0 0 0 0 0 0 0 0 8 X 8XJ.4X$X$X$X$X$X$X$X$X$X$X$X$X$X$X$X$X$X$X$X$X$X$X$X$X#XA.$XN.o 0 8 > 0 0 0 0 0 0 0 0 0 0 0 0 0 0 0 0 0 0 0 0 0 0 0 0 0 % A i.q.e.8.r.e.e.e.e.e.e.e.e.e.e.e.e.e.e.e.e.e.e.e.8.e.e.e.q.8.M.%X#X$X$XZ.$X$X$X$X$X$X$X$X$X$X$X$X$X$X$X$X$X#XZ.#X#X#X#X#X#Xq.q.8.0.e.e.e.e.8.8.8.8.8.8.8.8.8.8.e.e.e.e.e.e.8.0.8.8.8.e.t.#.#.#.#.#.#.#.#.#.#.#.#.#.#.#.#.#.#.#.#.#.#.#.#.#.#.$.#.>.#.8.%X+X#XZ.#X#X#X#X#X#X$X$X$X$X$X$X$X$X$X$X$X$X$X$X$X$X#X#XZ.3X5.& 0 9 0 0 0 0 0 0 0 0 0 0 0 0 0 0 0 0 0 0 0 0 0 0 0 0 8 8 4 1.6.e.8.8.8.8.e.e.e.e.e.e.e.e.e.e.8.8.8.8.8.8.8.8.e.e.e.e.8.8.",
"e.e.e.e.e.e.e.e.e.e.e.e.e.e.e.e.e.e.e.e.e.e.e.e.e.e.e.e.e.e.e.e.e.e.e.e.e.e.e.e.e.e.e.e.e.e.e.e.e.e.e.e.e.e.e.e.e.e.e.e.e.e.e.e.e.e.e.e.e.e.e.e.e.e.e.e.e.e.e.e.e.e.e.e.e.e.e.e.e.e.e.e.8.8.8.8.e.e.8.8.e.e.e.e.8.8.8.8.8.8.e.e.e.e.e.e.8.8.e.e.e.0.6.g 8 & 0 9 0 0 0 0 0 0 0 0 0 0 0 0 0 0 0 0 8 8 0 0 0 8 8 8 8 g 1X%X#X#X$XZ.$X$X$X$X$X$X$X$X$X$X$X$X$X$X$X$X#X#X#X#X#X#X#X#XB.q.8.8.8.r.e.e.e.e.e.e.e.e.e.e.e.e.e.e.e.e.e.e.e.e.0.0.a.8.q.b.$X$X$X$X$X$X$X#X$X$X$X$X$X$X$X$X$X$X$X$X$X$X$X$X$X#X#X#X$X5XV 7 0 0 0 0 0 0 0 0 0 0 0 0 0 0 0 0 0 0 0 0 0 0 0 0 0 0 0 8 X 8XZ.J.$X$X$X$X$X$X$X$X$X$X$X$X$X$X$X$X$X$X$X$X$X$X$X$X#XA.$XN.o 0 8 > 0 0 0 0 0 0 0 0 0 0 0 0 0 0 0 0 0 0 0 0 0 0 0 0 0 % A i.q.e.8.r.e.e.e.e.e.e.e.e.e.e.e.e.e.e.e.e.e.e.e.e.e.e.e.q.8.M.%X#X$X$XZ.$X$X$X$X$X$X$X$X$X$X$X$X$X$X$X$X$X#XZ.Z.Z.$X#X#X#Xq.q.8.8.e.e.e.e.8.8.8.8.8.8.8.8.8.e.e.e.e.e.e.e.8.0.e.e.8.e.t.#.#.#.#.#.#.#.#.#.#.#.#.#.#.#.#.#.#.#.#.#.#.#.#.#.#.#.#.>.#.8.%X+XZ.#X#X#X#X#X#X#X$X$X$X$X$X$X$X$X$X$X$X$X$X$X$X$X#X#XZ.5X3.& 0 9 0 0 0 0 0 0 0 0 0 0 0 0 0 0 0 0 0 0 0 0 0 0 0 0 8 8 4 1.w.e.8.8.8.8.e.e.e.e.e.e.e.e.e.e.e.e.8.8.8.8.8.8.e.e.e.e.8.8.",
"e.e.e.e.e.e.e.e.0.0.0.e.e.e.e.e.e.e.e.e.e.e.e.e.p.p.z.p.0.p.p.0.e.e.e.e.e.e.e.e.e.e.e.e.e.e.e.e.e.e.e.e.e.e.e.e.8.0.0.0.0.e.e.r.e.e.e.e.e.e.e.e.e.e.e.e.e.e.e.e.e.e.e.e.e.e.e.e.e.e.e.e.e.e.e.e.8.8.8.8.8.8.8.8.8.8.8.8.8.8.8.8.8.8.8.8.8.8.8.8.a.0.3.h s 0 s 0 0 0 0 0 0 0 0 0 0 0 0 0 0 0 0 0 8 8 0 0 8 8 8 8 z d 7XB.#X@X@X+X#X#X#X#X#X#X#X#X#X#X#X#X#X#X#X#X#X#X#X#X#X#X#X#X3Xr.8.r.r.8.8.e.e.e.e.e.e.e.e.e.e.e.e.e.e.e.e.e.r.r.e.e.i.0.e.V.#X#X#X#X#X#X#X#X#X#X#X#X#X#X#X#X#X#X#X#X#X#X#X#XA.B.M.C.Z.#Xj 7 0 0 0 0 0 0 v v 0 0 0 v 0 t 0 0 0 0 0 0 s 0 0 0 7 8 0 & O 0XA.aX$X$X$X$X$X$X$X$X#X#X#X#X#X#X#X#X#X#X#X#X#X#X#X#X$X6XB.z.@ a & 0 8 8 8 8 8 8 7 7 0 0 0 0 0 0 0 0 0 9 0 9 0 0 0 0 = & #.e.8.8.;.-.e.e.e.e.e.e.e.e.e.e.e.e.e.e.e.e.e.e.e.e.e.e.e.e.q.b.Z.#XC.M.C.#X#X#X#X#X#X#X#X#X#X#X#X#X#X#X#X#X$X$X$X$X$X$X#X#Xq.q.e.e.e.e.w.e.e.e.e.e.e.e.e.e.e.e.e.e.e.e.e.e.q.8.r.c.9.e.w.1.>.>.>.>.>.>.>.>.#.>.>.>.>.>.>.>.>.>.>.>.#.>.>.>.S 1.A S #.q.6XC.#X#X#X#X#X#X#X#X+X+X#X#X+X+X+X+X+X+X+X+X+X+X+X+X$X$XC.6X3.X 8 7 0 0 0 0 0 0 0 0 0 0 0 0 0 0 0 0 0 0 0 0 0 0 0 0 * z o 2.8.8.r.w.e.e.e.e.e.e.e.e.e.e.e.e.e.e.e.e.e.e.e.e.e.e.e.e.e.e.",
"e.e.e.e.e.e.e.e.e.e.e.e.e.e.e.e.e.e.e.e.e.e.e.e.8.0.e.8.2.0.e.8.0.0.0.0.0.0.0.0.0.0.0.0.0.0.0.0.0.0.0.0.0.0.0.0.p.r.r.e.8.0.0.8.e.e.e.e.e.e.e.e.e.e.e.e.e.e.e.e.e.e.e.e.e.e.e.e.e.e.e.e.e.e.e.e.e.e.e.e.8.8.e.e.e.e.e.e.8.8.e.e.8.e.e.e.8.8.8.8.p.i.i.h & & 0 * 0 0 0 0 0 0 0 0 0 0 0 0 0 0 0 0 0 0 0 0 0 0 0 0 & d 8X3X$X@X#XC.#X#X#X#X#X#X#X#X#X#X#X#X#X#X#X#X$X$X$X$X$X$X$X$X3Xr.8.r.r.8.e.e.e.e.e.e.e.e.e.e.e.e.e.e.e.e.e.e.r.r.e.e.i.0.e.n.#X#X#X#X#X#X#X#X#X#X#X#X#X#X#X#X#X#X#X#X#X#X#X#X9X4X$X$X$X3XV 7 0 0 0 0 0 0 0 0 0 0 0 0 0 0 0 0 0 0 0 0 0 0 0 0 q q 0 & o 0XC.S.C.C.C.C.C.C.C.C.C.C.C.C.C.C.C.C.#X#X#X#XZ.Z.Z.#XS.$XZ.n.@ s 0 t 7 7 7 7 7 7 7 7 0 0 0 0 0 0 = = 9 9 9 9 9 9 9 9 0 s >.e.8.q.q.q.e.e.e.e.e.e.e.e.e.e.e.e.e.e.e.e.e.e.e.e.e.e.e.e.q.M.$X4X#X#X$X6X#X#X#X#X#X#X#X#X#X#X#X#X#X#X#X#XZ.Z.Z.Z.Z.Z.C.C.9.8.0.0.3.2.8.8.0.0.0.0.0.0.0.0.0.0.0.0.0.0.0.0.:.;.9.t.8.8.3.A >.>.>.>.>.>.>.>.#.#.#.#.#.#.#.#.#.#.#.#.#.#.#.#.1.1.S S S 8.6XZ.$X#X$X$X$X$X#X$X#X#X#X%X#X#X#X#X#X#X#X#X#X#X#X#X@XS.C.6X3.O 7 7 0 0 0 0 0 0 0 0 0 0 0 0 0 0 0 0 0 0 0 0 0 0 0 0 9 f o 2.q.8.8.8.0.0.0.0.0.0.0.0.0.0.0.0.0.0.0.0.0.0.0.0.0.0.0.0.0.0.",
"r.r.r.r.r.r.r.r.r.r.r.r.r.r.r.r.r.r.r.r.r.r.r.r.8.0.e.e.8.8.e.e.e.e.e.e.e.q.q.q.e.e.e.e.e.e.e.e.e.e.e.e.e.e.e.e.0.0.0.0.0.0.0.0.e.e.e.e.e.e.e.e.e.e.e.e.e.e.e.e.e.e.e.e.e.e.e.e.e.e.e.e.e.e.e.e.8.8.e.e.8.8.8.8.e.8.e.e.8.8.8.8.8.8.e.e.8.e.8.8.0.0.6.h X 8 0 9 = = = = = = = = = = = = = = = = 0 0 0 0 0 0 8 0 : j 5X%X#XC.#XC.A.A.A.A.A.A.A.A.A.A.A.A.A.A.A.A.#X#XZ.Z.Z.Z.Z.Z.B.r.w.r.r.8.e.e.e.e.e.e.e.e.e.e.e.e.e.e.e.e.e.e.e.r.0.e.i.0.8.n.Z.Z.Z.Z.Z.Z.Z.Z.A.A.A.A.A.A.A.A.A.A.A.A.A.A.A.A.aX$X%X$X4X4XV 7 0 0 0 0 0 0 0 0 0 0 0 0 0 0 0 0 0 0 0 0 0 0 0 0 7 0 7 & : 0X4XpX$X$X$X$X$X$X$X$X$X$X$X$X$X$X$X$X$X$X$X$X$X$X$X$XpX$X3XN.o & 0 9 9 9 9 9 9 9 9 9 9 9 9 9 9 * * * 9 9 9 9 9 9 9 9 0 & A e.8.q.q.0.r.r.r.r.r.r.r.r.r.r.r.r.r.r.r.r.i.e.e.r.e.e.i.i.:.m.3X4X#X#X4X4XA.A.A.A.A.A.A.A.A.A.A.A.A.A.A.A.$X$X$X$X$X$X$X$Xq.9.8.q.0.0.8.w.8.8.8.8.8.8.8.8.8.8.8.8.8.8.8.8.8.8.q.q.w.e.8.%.A A A A #.#.A A A A A A A A A A A A A A A A A A S S #.1.%.p.6X#X$X$X$X$X$X$X$X$X$X$X$X$X$X$X$X$X$X$X$X$X$X$X$X$X@X#X$X9X6.X 9 q 0 0 0 0 0 0 0 0 0 0 0 0 0 0 0 0 0 0 0 0 0 0 0 0 * 8 o 2.p.8.q.8.8.8.8.8.8.8.8.8.8.8.8.8.8.8.8.8.8.8.8.8.8.8.8.8.8.8.",
"8.8.8.8.8.8.8.8.8.8.8.8.8.8.8.8.8.8.8.8.8.8.8.8.r.8.q.r.8.w.r.r.8.8.8.8.q.q.q.q.e.e.e.e.e.e.e.e.e.e.e.e.e.e.e.e.0.0.e.e.e.r.r.r.e.e.e.e.e.e.e.e.e.e.e.e.e.e.e.e.e.e.e.e.e.e.e.e.e.e.e.e.e.e.e.e.8.8.e.e.8.8.8.8.e.e.e.e.8.8.8.8.8.8.e.e.e.e.8.8.8.r.w.g X 0 9 9 0 0 0 0 0 0 0 0 0 0 0 0 0 0 0 0 0 0 0 0 0 0 0 0 O j 1X%X#XC.#X#X$X$X$X$X$X$X$X$X$X$X$X$X$X$X$X$X4X$X$X$X$X$X$X$XB.r.8.r.e.8.e.e.e.e.e.e.e.e.e.e.e.e.e.e.e.e.e.e.e.e.0.3.e.0.8.n.$X$X$X$X$X$X$X$X$X$X$X$X$X$X$X$X$X$X$X$X$X#X$X$X4XZ.Z.#XJ.9XV 7 0 0 0 0 0 0 0 0 0 0 0 0 0 0 0 0 0 0 0 0 0 0 0 0 9 0 9 & a 0X$XS.Z.Z.Z.Z.Z.Z.Z.Z.Z.Z.Z.Z.Z.Z.Z.Z.C.C.C.C.C.C.C.C.@X#X3XB.: X 0 9 0 0 0 0 0 0 0 0 9 9 9 9 0 0 0 0 0 9 0 0 0 0 9 0 8 8 S 0.8.q.e.i.8.8.8.8.8.8.8.8.8.8.8.8.8.8.8.8.0.0.0.0.0.0.0.0.;.m.#X#XZ.#X4X3X$X$X#X$X$X#X$X$X$X$X$X$X$X$X$X$X#X#X#X#X#X#X#X#X9.9.8.0.0.3.0.8.8.8.8.8.8.8.0.0.8.8.8.8.0.0.0.8.8.8.8.8.w.e.w.%.$.$.$.$.$.$.$.$.$.$.$.$.$.$.$.$.$.#.$.$.$.$.$.$.5.#.1.*.C 8.3XoXZ.Z.Z.Z.Z.Z.Z.Z.Z.Z.Z.Z.Z.Z.Z.Z.Z.Z.Z.Z.Z.Z.Z.Z.C.+X#X5X6.& 7 u 0 0 0 0 0 0 0 0 0 0 0 0 0 0 0 0 0 0 0 0 0 0 0 0 0 8 a 1.r.8.8.=.8.8.8.8.8.8.8.8.0.0.0.0.8.8.8.8.8.8.8.8.8.8.8.8.8.8.",
";.;.8.;.0.0.0.0.0.0.0.0.8.8.8.8.;.;.8.;.0.0.0.0.q.8.q.r.8.r.r.8.e.e.e.e.e.e.e.e.e.e.e.e.e.e.e.e.e.e.e.e.e.e.e.e.r.r.e.e.r.r.r.r.e.e.e.e.e.e.e.e.e.e.e.e.e.e.e.e.e.e.e.e.e.e.e.e.e.e.e.e.e.e.e.e.e.e.e.e.e.e.e.e.e.e.e.e.e.e.e.e.e.e.e.e.e.e.e.e.r.r.8.b o & X % & & & & & & & & & & & & & & & & & & o o o o & & O j V.#X6X#X%XM.4X4X4X4X4X4X4X$X$X$X4X$X4X4X4X4X4X4X4X4X4X4X4X4Xm.r.8.r.e.8.r.e.e.e.e.e.e.e.e.e.e.e.e.e.e.e.e.e.8.e.0.0.e.0.8.n.4X4X4X4X4X4X4X4X4X4X4X4X4X4X4X4X4X4X4X4X4X4X4X4XaX$X+X#XZ.7XV 9 9 9 9 9 9 9 9 9 9 9 9 9 9 9 9 9 9 9 9 9 9 9 9 9 $ 9 9 9 s 2X#XC.4X4X4X4X4X4X4X4X4X4X4X4X4X4X4X4X4X4X6X6X6X6X6X6X6X#X3XV.h o 8 % & & & & & & & & & 8 8 8 8 8 & & & & & & & & & & 8 4 S 8.;.q.e.e.0.0.;.;.;.;.8.8.0.0.0.0.;.8.8.0.8.8.8.8.8.8.8.8.r.M.#X#X#X#X3X3X4X4X4X4X4X4X4X4X4X4X4X4X4X4X4X4X$X$X$X$X4X$X$X$X8.e.6.6.6.6.6.6.w.w.w.w.6.6.6.6.w.w.w.w.6.6.6.6.6.f.6.5.w.f.6.2.#.#.#.#.#.#.#.#.#.#.#.#.#.#.$.$.#.#.#.#.#.#.#.#.5.S #.C k w.8X8X6X6X6X6X6X6X6X6X6X6X6X6X6X6X6X6X6X6X6X6X6X6X6X6X6X6X3X1X5.8 X 9 & & & & & & 0 0 = = & & & & & & 8 8 0 8 & & & & 4 o s S 6.6.w.w.6.6.6.6.6.w.w.w.6.6.6.6.6.6.w.w.6.6.6.6.w.w.w.w.6.6.",
"v.v.v.v.v.v.v.v.v.v.v.v.v.v.v.v.v.v.v.v.v.v.v.v.v.v.v.n.n.V.g.,.2.2.2.2.2.2.2.2.2.2.2.2.2.2.2.2.2.2.2.2.2.2.2.2.$.#.#.#.$.2.3.w.e.e.e.e.e.e.e.e.e.e.e.e.e.e.e.e.e.e.e.e.e.e.e.e.e.e.e.e.e.e.e.e.e.e.e.e.e.e.e.e.e.e.e.e.e.e.e.e.e.e.e.e.e.e.e.e.8.w.8.*.A #.A #.A A A A A A A A A A A A A A A A A A A A A A A A #.8.p.v.b.M.M.m.M.M.M.M.M.M.M.M.M.M.M.M.M.M.M.M.V.V.V.V.V.V.V.V.c.8.r.r.8.e.r.0.e.e.e.e.e.e.e.e.e.e.e.e.e.e.e.e.8.e.0.0.e.3.8.n.M.M.M.M.M.M.M.M.M.M.M.M.M.M.M.M.M.M.M.M.M.M.M.M.M.v.v.n.n.H.N u u y u y u u u u u u u y u y u y u u u u y y u u u u u y z x.z.r.V.V.V.V.V.V.V.V.V.V.V.V.V.V.V.V.V.V.V.V.V.V.V.V.n.r.p.r.A j V V m m m m m m m m m m m m m m m m m m m m m m m m V j ;.v.c.v.v.n.v.v.v.v.v.v.v.v.v.v.v.v.v.v.v.v.v.v.v.v.v.v.v.v.V.V.V.m.m.V.V.m.M.M.M.M.M.M.M.M.M.M.M.M.M.M.M.M.M.M.M.M.M.M.M.M.1.X.X.X.o.X.X.X.X.X.X.X.X.X.X.X.X.X.X.X.X.X.X.X.X.X.X.o.X.X.1.6.$.$.$.$.$.$.$.$.$.$.$.$.$.$.$.2.$.$.$.$.$.$.*.$.2.#.*.$.$.e.e.i.r.r.e.e.r.r.r.r.r.r.r.r.r.r.r.r.r.r.r.r.r.r.r.r.6.w.w.3.2.V g m V V V V V V V V V V V V V V V V V V V V V V V V j h V D X.X.O.X.X.X.X.X.X.X.X.X.X.X.X.X.X.X.X.X.X.X.X.X.X.X.X.X.X.X.",
"#X#X#X#X#X#X#X#X#X#X#X#X#X#X#X#X#X#X#X#X#X#X#X#XoXoXoXB.B.5XN.$.V V V V V V V V b b b b b b b b b b b b b b b b C j j j A #.5.w.e.e.e.e.e.e.e.e.e.e.e.e.e.e.e.e.e.e.e.e.e.e.e.e.e.e.e.e.e.e.e.e.e.e.e.e.e.e.e.e.e.e.e.e.e.e.e.e.e.e.e.e.e.e.e.e.r.q.q.B.B.6X#X9X5X5X5X5X5X5X5X5X5X5X5X5X5X5X5X5X5X5X5X5X5X5X5X5X1XB.q.;.:.q.r.r.8.8.8.8.8.8.8.8.8.8.8.8.8.8.8.8.8.8.e.e.e.e.8.8.r.8.r.r.8.e.r.0.e.e.e.e.e.e.e.e.e.e.e.e.e.e.e.e.8.e.0.3.e.3.8.n.8.8.q.q.8.8.8.8.e.e.8.8.8.8.8.q.8.8.e.e.e.e.8.8.:.;.0.0.e.x.N T E E E E E E E E E E E E E E E E E E E E E E E E Q Q Q { y } V j b b b b b b b b n n n n n n n n b b b b b b b b b b C #.w.e.r.n.w.w.r.r.r.r.w.w.e.e.i.i.i.i.e.e.e.e.e.e.e.e.e.e.w.2.M.$X#X$X4X6X#X#X#X#X#X#X#X#X#X#X#X#X#X#X#X#X#X#X#X#X#X#X#X#XB.n.r.r.r.8.w.8.q.8.q.q.8.8.8.8.e.e.8.8.8.8.8.q.8.8.8.8.8.8.8.8.M M i T T T T T T T T T T T T T T T T T T T T T T ' i i i i B 7.r.r.r.r.r.r.r.r.r.r.r.r.r.r.r.r.r.r.r.r.r.r.r.r.i.p.n.r.r.$.o O X X X X X X X X X X X X O X X X X X X X X X X X . O X , #.w.0.z.e.e.e.e.e.e.e.e.r.r.e.r.e.e.e.e.e.e.e.e.e.e.e.e.a.a.j.] { T _ u T T T T T T T T T T T T T T T T T T T T T T T T T T ",
"%X%X#X#X#X%X%X%X#X#X#X#X#X#X%X%X%X%X#X#X#X%X%X%X+X%X#XB.3X9XN.%.V V V V V V V V Z Z Z Z Z Z Z Z Z Z Z Z Z Z Z Z A A C C A #.6.i.e.e.e.e.e.e.e.e.e.e.e.e.e.e.e.e.e.e.e.e.e.e.e.e.e.e.e.e.e.e.e.e.e.e.e.e.e.e.e.e.e.e.e.e.e.e.e.e.e.e.e.e.e.e.e.e.a.:.9.+X#X4XC.aX#X#X#X#X3X#X#X#X#X#X#X#X#X#X#X#X#X#X#X#X#X#X#X#X1XoX9.:.c.v.q.$.0.0.0.0.0.0.0.0.0.0.0.0.0.0.0.0.0.0.0.0.0.0.0.0.r.8.r.r.8.e.r.0.e.e.e.e.e.e.e.e.e.e.e.e.e.e.e.e.8.e.0.3.e.2.0.n.8.8.8.8.8.8.8.8.0.0.0.0.0.0.e.e.0.0.0.0.0.0.0.0.;.-.3.3.3.x.' ! R R R R R R R R R R R R R R R R R R R R R R R R R ^ ^ Q i ] V b n n n n n n n n n n n n n n n n n n n n n n n n } A b A e.r.;.q.e.e.e.e.e.e.e.e.0.0.0.0.0.0.0.0.e.e.e.e.e.e.e.e.8.8.M.$XC.#X$X4X%X%X%X%X%X%X%X%X#X%X%X%X#X#X#X#X$X$X$X#X#X$X$X$X5Xn.w.r.r.w.;.8.0.0.0.e.0.0.0.0.0.0.0.0.0.0.e.e.0.0.0.0.0.0.0.0.{ T Q W W E E E R R R R R R R R R R R R R R R R T Q Y Y ! i { G.8.8.8.8.8.8.0.0.e.e.e.e.e.e.e.e.e.e.e.e.e.e.e.e.3.e.r.8.r.2.@ 4 9 9 9 9 9 9 9 9 0 0 0 0 8 8 8 0 0 0 0 0 0 0 0 0 9 0 0 a >.n.r.r.q.q.q.q.q.q.q.q.q.q.q.q.q.q.q.q.q.q.q.q.q.q.q.q.:.;.j.B T R ) R R R R R R R R R R R R R R R R R R R R R R R R R R R ",
"#X#X#X#X#X#X#X#X#X#X#X#X#X#X#X#XZ.#X#X#X#X#X#X#XZ.#XA.#XZ.3XN.b V V V V V V V V V V V V V V V V V V V V V V V V C V Z V V 1.r.q.e.e.e.e.e.e.e.e.e.e.e.e.e.e.e.e.e.e.e.e.e.e.e.e.e.e.e.e.e.e.e.e.e.e.e.e.e.e.e.e.e.e.e.e.e.e.e.e.e.e.e.e.e.e.e.e.8.r.r.B.3X#X$XZ.Z.Z.#X#X#X#XZ.Z.#X#X#X#X#XZ.Z.Z.#X#X#X#XZ.Z.#X#X4XZ.8.8.r.8.q.q.8.8.r.r.r.r.e.e.e.e.e.e.r.r.e.e.e.e.e.e.e.e.r.r.e.e.e.e.e.e.e.e.e.e.e.e.e.e.e.e.e.e.e.e.e.e.e.e.e.e.e.e.e.e.e.e.r.r.r.r.r.r.r.r.r.r.r.r.r.r.r.r.r.r.r.r.r.r.r.r.9.r.w.e.0.l.] / R R R R R R R R R R R R R R R R R R R R R R R R R R R E ' B V V V V V V V V V V V V V V V V V V V V V V V V V V V V b #.w.e.8.8.0.0.0.0.8.0.0.8.0.0.0.8.8.8.0.0.0.8.8.8.0.0.0.0.8.8.v.%X%X#X#XZ.Z.Z.Z.Z.#X#X#X#X#X#X#X#X#X#X#X#X#X#X#X#X#X#X#X#X3Xp.8.r.r.e.r.0.r.r.r.r.r.r.r.r.r.r.r.r.r.r.r.r.e.e.r.r.r.e.e.e.E E E R R R R R R R R R R R R R R R R R R R R R Q R R U W T ' k.e.e.e.e.e.e.8.8.8.e.e.e.e.e.e.e.8.8.e.e.e.e.e.e.8.e.r.e.e.S 8 0 0 0 0 0 0 0 0 0 8 8 8 8 8 8 8 8 8 8 8 8 8 8 8 8 9 0 & & S l.w.r.e.e.e.e.e.e.e.e.e.e.e.e.e.e.e.e.e.e.e.e.e.e.e.e.9.r.j.] Y W R R R R R R R R R R R R R R R R R R R R R R R R R R R R ",
"#X#X#X#X#XZ.#X#X#X#XZ.Z.#X#X#X#XZ.Z.#X#X#X#XZ.Z.Z.#XA.#XZ.3XN.b V V V V V V V V V V V V V V V V V V V V V V V V C V Z V V 1.r.q.e.e.e.e.e.e.e.e.e.e.e.e.e.e.e.e.e.e.e.e.e.e.e.e.e.e.e.e.e.e.e.e.e.e.e.e.e.e.e.e.e.e.e.e.e.e.e.e.e.e.e.e.e.e.e.e.8.r.r.B.3X#X$XZ.Z.Z.#X#X#X#XZ.Z.#X#X#X#X#X#XZ.Z.#X#X#X#XZ.Z.#X#X4XZ.8.8.r.e.q.q.8.8.r.e.r.r.e.e.e.e.e.e.e.e.e.e.r.r.e.e.e.e.e.r.e.e.e.e.e.e.e.e.e.e.e.e.e.e.e.e.e.e.e.e.e.e.e.e.e.e.e.e.e.e.e.e.r.r.r.r.r.e.r.r.r.r.r.r.r.e.r.r.r.r.r.r.r.r.r.r.9.r.w.e.0.l.] / R R R R R R R R R R R R R R R R R R R R R R R R R R R E ' B V V V V V V V V V V V V V V V V V V V V V V V V V V V V b #.w.e.8.8.0.0.0.0.8.0.8.8.0.0.8.8.8.8.0.0.0.0.8.8.0.8.0.0.8.8.v.%X%X#X#XZ.#XZ.Z.Z.#X#X#X#X#X#X#X#X#X#X#X#X#X#X#X#X#X#X#X#X3Xp.8.r.r.e.r.0.r.r.r.r.r.r.r.r.r.r.r.r.r.e.r.r.e.e.r.r.r.e.0.e.E E E R R R R R R R R R R R R R R R R R R R R R Q R R U W T ' k.e.e.e.e.e.e.8.8.8.8.e.e.e.8.e.e.8.8.e.e.e.e.8.e.8.e.r.e.e.S 8 0 0 0 0 0 0 0 0 0 8 8 8 8 8 8 8 8 8 8 8 8 8 8 8 8 9 0 & & S l.w.r.e.e.e.e.e.e.e.e.e.e.e.e.e.e.e.e.e.e.e.e.e.e.e.e.9.r.j.] Y W R R R R R R R R R R R R R R R R R R R R R R R R R R R R ",
"Z.#X#X#XZ.Z.#X#X#X#X#XZ.Z.#X#X#XZ.Z.#X#X#X#X#XZ.Z.#XA.#XZ.3XN.b V V V V V V V V V V V V V V V V V V V V V V V V C V Z V V 1.e.8.e.e.e.e.e.e.e.e.e.e.e.e.e.e.e.e.e.e.e.e.e.e.e.e.e.e.e.e.e.e.e.e.e.e.e.e.e.e.e.e.e.e.e.e.e.e.e.e.e.e.e.e.e.e.e.e.8.r.r.B.3X#X$XZ.#XZ.#X#X#X#X#X#X#X#X#X#X#X#X#X#XZ.Z.#X#X#X#X#X#X4XZ.8.8.r.8.q.q.e.e.e.e.e.e.e.e.e.e.e.e.e.e.e.e.e.e.e.e.e.e.e.e.e.e.e.e.e.e.e.e.e.e.e.e.e.e.e.e.e.e.e.e.e.e.e.e.e.e.e.e.e.e.e.e.r.r.r.r.r.e.r.r.r.r.r.r.r.e.r.r.r.r.r.r.r.r.r.r.9.r.w.e.0.l.] / R R R R R R R R R R R R R R R R R R R R R R R R R R R E ' B V V V V V V V V V V V V V V V V V V V V V V V V V V V V b #.w.e.8.8.0.0.0.0.0.0.0.0.0.0.0.0.0.0.0.0.0.0.8.8.8.8.8.8.8.8.v.%X%X#X#XZ.#X#X#X#X#X#X#XZ.#X#X#X#XZ.#XZ.Z.Z.#X#X#X#XZ.Z.Z.3Xp.8.r.r.e.r.0.e.r.r.r.r.e.e.r.r.r.r.r.r.e.r.r.e.e.r.r.e.e.0.0.E E E R R R R R R R R R R R R R R R R R R R R R Q R R U W Y ' k.8.8.8.8.e.8.8.8.e.e.e.e.8.8.8.8.8.8.e.e.8.8.8.8.8.e.r.8.e.S 8 0 0 0 0 0 0 0 0 0 0 0 0 0 0 0 0 0 8 8 0 0 0 0 0 0 9 0 8 & S l.w.r.e.e.e.e.e.e.e.e.e.e.e.e.e.e.e.e.e.e.e.e.e.e.e.e.9.r.j.] Y W R R R R R R R R R R R R R R R R R R R R R R R R R R R R ",
"#X#X#X#XZ.#X#X#X#X#XZ.Z.Z.#X#X#XZ.Z.#X#X#X#X#X#XZ.#XA.#XZ.3XN.b V V V V V V V V V V V V V V V V V V V V V V V V C V Z V V 1.e.8.e.e.e.e.e.e.e.e.e.e.e.e.e.e.e.e.e.e.e.e.e.e.e.e.e.e.e.e.e.e.e.e.e.e.e.e.e.e.e.e.e.e.e.e.e.e.e.e.e.e.e.e.e.e.e.e.8.r.r.B.3X#X$XZ.#X#X#X#X#X#X#X#X#X#X#X#X#X#X#X#XZ.Z.#X#X#X#X#X#X4XZ.8.8.r.8.q.q.e.e.e.e.e.e.e.e.e.e.e.e.e.e.e.e.e.e.e.e.e.e.e.e.e.e.e.e.e.e.e.e.e.e.e.e.e.e.e.e.e.e.e.e.e.e.e.e.e.e.e.e.e.e.e.e.r.r.r.r.r.r.r.r.r.r.r.r.r.r.r.r.r.r.e.r.r.r.r.e.9.r.w.e.0.l.] / R R R R R R R R R R R R R R R R R R R R R R R R R R R E ' B V V V V V V V V V V V V V V V V V V V V V V V V V V V V b #.w.e.8.8.0.0.0.0.0.0.0.8.0.0.0.0.0.0.0.0.0.0.0.8.8.8.8.0.8.8.v.%X%X#X#XC.#X#X#X#X#X#X#XZ.#X#X#X#XZ.#X#XZ.Z.Z.Z.#X#X#XZ.Z.3Xp.8.r.r.e.r.0.r.r.r.r.r.r.r.r.r.r.r.r.r.r.r.r.e.e.e.r.e.8.0.3.E E E R R R R R R R R R R R R R R R R R R R R R Q R R U W T ' k.8.8.8.8.e.8.8.8.e.e.e.e.8.8.8.8.8.8.8.8.8.8.8.8.e.e.r.8.e.} 8 0 0 0 0 0 0 0 0 0 0 0 0 0 0 0 0 0 0 8 0 0 0 0 0 0 9 0 8 8 S l.w.r.e.e.e.e.e.e.e.e.e.e.e.e.e.e.e.e.e.e.e.e.e.e.e.e.:.r.j.] Y W R R R R R R R R R R R R R R R R R R R R R R R R R R R R ",
"#X#X#XZ.Z.Z.#X#X#X#XZ.Z.Z.#X#X#X#X#X#X#X#X#X#X#XZ.#XA.#X#X3XN.b V V V V V V V V V V V V V V V V V V V V V V V V C V Z V V 1.e.8.e.e.e.e.e.e.e.e.e.e.e.e.e.e.e.e.e.e.e.e.e.e.e.e.e.e.e.e.e.e.e.e.e.e.e.e.e.e.e.e.e.e.e.e.e.e.e.e.e.e.e.e.e.e.e.e.8.r.r.B.3X#X$XZ.#X#X#X#X#X#X#X#XZ.Z.#X#X#X#X#X#XZ.#X#X#X#X#X#X#X4XZ.8.8.r.8.q.q.e.e.e.e.e.e.e.e.e.e.r.r.e.e.e.e.r.r.e.e.e.e.e.e.e.e.e.e.e.e.e.e.e.e.e.e.e.e.e.e.e.e.e.e.e.e.e.e.e.e.e.e.e.e.e.e.r.r.r.r.r.r.r.r.r.r.r.r.r.r.r.r.r.r.r.r.r.r.r.r.9.r.w.e.8.g.] / R R R R R R R R R R R R R R R R R R R R R R R R R R R E { B V V V V V V V V V V V V V V V V V V V V V V V V V V V V b #.w.e.8.8.0.0.0.0.0.0.0.0.8.8.8.0.0.0.0.0.0.0.8.8.8.8.0.0.8.8.v.%X%X#X#XZ.#X#X#X#X#X#X#X#X#X#X#X#X#X#X#X#X#X#X#X#X#X#X#X#X3Xp.8.e.r.e.r.0.r.r.r.r.r.r.r.r.r.r.r.r.r.r.r.r.e.e.e.e.e.e.e.6.E E E R R R R R R R R R R R R R R R R R R R R R Q R W U W Y ' k.e.8.8.8.8.8.8.8.e.8.e.e.e.e.8.8.8.8.8.8.8.e.e.e.e.e.r.8.e.S 8 0 0 0 0 0 0 0 0 0 0 0 0 0 0 0 0 0 0 0 0 0 0 0 0 0 9 0 8 8 D l.6.r.e.e.e.e.e.e.e.e.e.e.e.e.e.e.e.e.e.e.e.e.e.e.e.e.:.r.j.] Y W R R R R R R R R R R R R R R R R R R R R R R R R R R R R ",
"#X#X#X#XZ.Z.#X#X#X#X#XZ.Z.#X#X#X#X#X#X#X#X#X#X#XZ.#XA.#X#X3XN.b V V V V V V V V V V V V V V V V V V V V V V V V C V Z V V 1.e.8.e.e.e.e.e.e.e.e.e.e.e.e.e.e.e.e.e.e.e.e.e.e.e.e.e.e.e.e.e.e.e.e.e.e.e.e.e.e.e.e.e.e.e.e.e.e.e.e.e.e.e.e.e.e.e.e.8.r.r.B.3X#X$XZ.#X#X#X#X#X#X#X#XZ.Z.#X#X#X#X#X#X#X#X#X#X#X#X#X#X4XZ.8.8.r.8.q.q.e.e.e.r.e.e.e.e.e.e.r.r.e.e.e.e.r.e.e.e.e.e.r.e.e.e.e.e.e.e.e.e.e.e.e.e.e.e.e.e.e.e.e.e.e.e.e.e.e.e.e.e.e.e.e.e.r.r.r.r.r.r.r.r.r.r.r.r.r.r.r.r.r.r.r.r.r.r.r.r.9.r.w.e.8.g.] / R R R R R R R R R R R R R R R R R R R R R R R R R R R E ' B V V V V V V V V V V V V V V V V V V V V V V V V V V V V b #.w.e.8.8.0.0.0.0.0.0.0.0.8.8.8.0.0.0.0.0.0.0.8.8.0.0.0.0.8.8.v.%X%X#X#XZ.#X#X#X#X#X#X#X#X#X#X#X#X#X#X#X#X#X#X#X#X#X#X#X#X3Xp.8.e.r.e.r.0.r.r.r.r.r.r.r.r.r.r.r.r.r.r.r.r.e.e.e.e.e.e.e.6.E E E R R R R R R R R R R R R R R R R R R R R R Q R W U W Y ' k.e.e.8.8.8.8.8.8.8.8.8.8.e.e.8.8.8.8.8.8.8.8.e.e.e.e.r.e.e.S 8 0 0 0 0 0 0 0 0 0 0 0 0 0 0 0 0 0 0 0 0 0 0 0 0 0 9 0 8 8 D l.6.r.e.e.e.e.e.e.e.e.e.e.e.e.e.e.e.e.e.e.e.e.e.e.e.e.9.r.j.] i W R R R R R R R R R R R R R R R R R R R R R R R R R R R R ",
"#X#X#X#XZ.#X#X#X#X#XZ.Z.#X#X#X#X#X#X#X#X#X#X#X#XZ.#XA.#X#X3XN.b V V V V V V V V V V V V V V V V V V V V V V V V C V Z V V 1.e.8.e.e.e.e.e.e.e.e.e.e.e.e.e.e.e.e.e.e.e.e.e.e.e.e.e.e.e.e.e.e.e.e.e.e.e.e.e.e.e.e.e.e.e.e.e.e.e.e.e.e.e.e.e.e.e.e.8.r.r.B.$X#X$XZ.#X#X#X#X#X#X#X#X#X#X#X#X#X#X#X#X#X#X#X#X#X#X#X#X3XZ.8.8.r.e.q.q.e.e.r.r.e.e.e.e.e.e.e.e.e.e.e.e.e.e.e.e.e.e.r.e.e.e.e.e.e.e.e.e.e.e.e.e.e.e.e.e.e.e.e.e.e.e.e.e.e.e.e.e.e.e.e.e.r.r.r.r.r.r.r.r.r.r.r.r.r.r.r.r.r.e.r.r.r.r.r.r.9.r.w.e.8.g.] / R R R R R R R R R R R R R R R R R R R R R R R R R R R E { ' V V V V V V V V V V V V V V V V V V V V V V V V V V V V b #.w.e.8.8.0.0.0.0.8.8.8.8.8.8.0.0.0.0.0.0.0.0.0.8.0.0.0.0.e.8.v.%X%X#X#XZ.#XZ.#X#X#X#X#X#X#X#XZ.Z.#X#X#X#X#X#XZ.Z.#X#X#X#X3Xp.8.r.r.e.r.0.r.r.r.r.r.r.r.r.r.r.r.r.r.r.r.r.e.e.e.e.r.e.e.e.E E E R R R R R R R R R R R R R R R R R R R R R Q R W U W T ' k.e.e.e.e.8.e.8.8.8.8.8.8.e.e.e.e.8.8.8.8.e.e.e.e.8.e.r.8.e.S 8 0 0 0 0 0 0 0 0 0 0 0 0 0 0 0 0 0 0 0 0 0 0 0 0 0 0 0 8 8 S l.6.r.e.e.e.e.e.e.e.e.e.e.e.e.e.e.e.e.e.e.e.e.e.e.e.e.9.r.j.] i W R R R R R R R R R R R R R R R R R R R R R R R R R R R R ",
"#X#X#X#X#X#X#X#X#X#X#X#X#X#X#X#X#X#XZ.Z.#X#X#X#XZ.#XA.#X#X3XN.b V V V V V V V V V V V V V V V V V V V V V V V V C V Z V V 1.e.8.e.e.e.e.e.e.e.e.e.e.e.e.e.e.e.e.e.e.e.e.e.e.e.e.e.e.e.e.e.e.e.e.e.e.e.e.e.e.e.e.e.e.e.e.e.e.e.e.e.e.e.e.e.e.e.e.8.r.r.B.$X#X$XZ.#X#X#X#X#X#X#X#X#X#X#X#X#X#X#X#X#X#X#X#X#X#X#X#X3XZ.8.8.r.8.q.q.e.e.e.e.e.e.e.e.e.e.e.e.e.e.e.e.e.e.e.e.e.e.e.e.e.e.e.e.e.e.e.e.e.e.e.e.e.e.e.e.e.e.e.e.e.e.e.e.e.e.e.e.e.e.e.e.r.r.r.r.r.e.r.r.r.r.r.r.r.e.r.r.r.r.r.r.r.e.e.r.9.r.w.e.8.g.] / R R R R R R R R R R R R R R R R R R R R R R R R R R R E { ' V V V V V V V V V V V V V V V V V V V V V V V V V V V V b #.w.e.8.8.0.0.8.8.8.8.8.8.8.0.0.0.0.0.0.0.0.0.0.8.0.0.0.0.e.8.v.%X%X#X#XZ.#XZ.Z.#X#X#X#X#X#X#XZ.Z.#X#X#X#X#X#X#XZ.Z.Z.#X#X3Xp.8.r.r.e.r.0.r.r.r.r.r.r.r.r.r.r.r.r.r.e.r.r.e.e.e.r.r.e.e.e.E E E R R R R R R R R R R R R R R R R R R R R R Q R R U W Y ' k.e.e.e.e.e.e.8.8.8.8.8.8.e.e.e.e.e.e.8.e.e.e.e.e.8.e.r.8.e.S 8 0 0 0 0 0 0 0 0 0 0 0 0 0 0 0 0 0 0 0 0 0 0 0 0 0 0 0 8 8 S l.6.r.e.e.e.e.e.e.e.e.e.e.e.e.e.e.e.e.e.e.e.e.e.e.e.e.9.r.j.] Y W R R R R R R R R R R R R R R R R R R R R R R R R R R R R ",
"$X$X$X$X$X$X$X$X$X$X$X$X$X$X$X$X$X$X$X$X$X$X$X$X#X$XA.$X#X6XN.n V V V V V V V V V V V V V V V V V V V V V V V V C C Z b C 1.r.e.e.e.e.e.e.e.e.e.e.e.e.e.e.e.e.e.e.e.e.e.e.e.e.e.e.e.e.e.e.e.e.e.e.e.e.e.e.e.e.e.e.e.e.e.e.e.e.e.e.e.e.e.e.e.e.e.q.r.9.+X#X$X#X#X$X$X$X$X$X$X$X$X$X$X$X$X$X$X$X$X$X$X$X$X$X$X$X$X3XZ.q.8.q.8.q.8.8.8.8.8.8.8.8.8.8.e.e.e.e.e.e.e.8.8.8.8.8.8.8.8.e.e.e.e.e.e.e.e.e.e.e.e.e.e.e.e.e.e.e.e.e.e.e.e.e.e.e.e.e.e.e.e.e.e.e.e.e.e.e.e.e.e.e.e.e.e.e.e.e.e.e.e.e.e.e.e.8.e.w.e.0.l.] ^ R R R R R R R R R R R R R R R R R R R R R R R R R R R E ' B m C V Z Z V V V V V V V V V V V V V V V V V V V V V V V C A w.r.8.8.8.8.e.e.e.e.e.e.e.e.e.8.8.8.e.e.e.8.8.8.e.e.e.e.0.8.v.%X%X#X#X#X$X$X$X$X$X$X$X$X$X$X$X$X$X$X$X$X#X#X#X#X#XZ.Z.#X3Xp.r.r.e.e.e.0.e.e.e.e.e.e.e.e.e.e.e.e.e.e.e.e.e.e.e.e.e.e.6.y.Q Q Q R R R R R R R R R R R R R R R R R R R R R R R ^ R R T B j.q.q.q.q.e.8.e.e.e.e.e.e.8.8.8.8.e.e.e.e.e.e.e.e.e.e.r.8.e.S 8 0 8 8 0 0 0 0 0 0 0 0 0 0 0 0 0 0 0 0 0 0 0 0 0 0 9 0 % 8 S w.e.r.e.e.e.e.e.e.e.e.e.e.e.e.e.e.e.e.e.e.e.e.e.e.e.e.9.e.s.[ Y R R ) R R R R R R R R R R R R R R R R R R R R R R R R R R ",
"$X$X$X$X$X$X$X$X$X$X$X$X$X$X$X$X$X$X$X$X$X$X$X$X#X$XA.$X#X6XN.n V V V V V V V V V V V V V V V V V V V V V V V V C C V b C 1.e.e.e.e.e.e.e.e.e.e.e.e.e.e.e.e.e.e.e.e.e.e.e.e.e.e.e.e.e.e.e.e.e.e.e.e.e.e.e.e.e.e.e.e.e.e.e.e.e.e.e.e.e.e.e.e.e.e.q.r.9.+X#X$X#X#X$X$X$X$X$X$X$X$X$X$X$X$X$X$X$X$X$X$X$X$X$X$X$X$X3XZ.q.8.r.8.q.8.8.8.8.8.8.8.8.8.8.8.e.e.e.8.e.e.8.8.8.8.8.8.8.8.e.e.e.e.e.e.e.e.e.e.e.e.e.e.e.e.e.e.e.e.e.e.e.e.e.e.e.e.e.e.e.e.e.e.e.e.e.e.e.e.e.e.e.e.e.e.e.e.e.e.e.e.e.e.e.e.8.i.w.e.0.l.] ^ R R R R R R R R R R R R R R R R R R R R R R R R R R R E ' B m C Z Z Z Z V V V V V V V V V V V V V V V V V V V V V V C A w.r.8.8.8.8.8.8.e.e.e.e.e.e.e.8.8.8.e.e.e.8.8.8.e.e.e.e.0.8.v.%X%X#X#X#X$X$X$X$X$X$X$X$X$X$X$X$X$X$X$X$X#X#X#X#X#X#XZ.#X3Xz.8.r.e.e.r.0.e.e.e.e.e.e.e.e.e.e.e.e.e.e.e.e.e.e.e.e.e.e.e.y.Q Q Q R R R R R R R R R R R R R R R R R R R R R R R ^ R R T B j.q.q.q.q.e.8.e.e.e.e.e.e.8.8.8.8.e.e.e.e.e.e.e.e.e.e.r.8.e.S 8 0 8 8 0 0 0 0 0 0 0 0 0 0 0 0 0 0 0 0 0 0 0 0 0 0 9 0 % 8 S w.e.r.e.e.e.e.e.e.e.e.e.e.e.e.e.e.e.e.e.e.e.e.e.e.e.e.9.e.s.[ Y R R ) R R R R R R R R R R R R R R R R R R R R R R R R R R ",
"$X$X$X$X$X$X$X$X$X$X$X$X$X$X$X$X$X$X$X$X$X$X$X$X#X$XA.$X#X4XN.n V V V V V V V V V V V V V V V V V V V V V V V V C C Z b Z 1.r.e.e.e.e.e.e.e.e.e.e.e.e.e.e.e.e.e.e.e.e.e.e.e.e.e.e.e.e.e.e.e.e.e.e.e.e.e.e.e.e.e.e.e.e.e.e.e.e.e.e.e.e.e.e.e.e.e.q.r.9.+X#X$X#X#X$X$X$X$X$X$X$X$X$X$X$X$X$X$X$X$X$X$X$X$X$X$X$X$X3XZ.q.8.r.8.q.8.e.e.8.8.8.8.e.e.e.e.e.e.8.8.8.8.e.e.8.8.8.8.e.e.e.e.e.e.e.e.e.e.e.e.e.e.e.e.e.e.e.e.e.e.e.e.e.e.e.e.e.e.e.e.e.e.e.e.e.e.e.e.e.e.e.e.e.e.e.e.e.e.e.e.e.e.e.e.e.e.8.i.e.e.0.l.] / R R R R R R R R R R R R R R R R R R R R R R R R R R R E ' B m V V V Z V V V V V V V V V V V V V V V V V V V V V V V C A w.r.8.8.8.8.8.8.8.8.e.e.e.e.e.e.8.8.8.e.e.e.8.8.e.8.e.e.0.8.v.%X%X#X#X#X$X$X$X$X$X$X$X$X$X$X$X$X$X$X$X$X#X#X#X#X#X#X#X#X3Xp.8.r.r.e.r.0.e.e.e.e.e.e.e.e.e.e.e.e.e.e.e.e.e.e.e.e.e.e.e.y.Q Q Q R R R R R R R R R R R R R R R R R R R R R R R ^ R R T B j.q.q.q.q.e.e.e.e.8.8.e.e.8.8.8.8.8.8.e.e.e.e.8.8.8.e.r.8.e.S 8 0 8 8 0 0 0 0 0 0 0 0 0 0 0 0 0 0 0 0 0 0 0 0 0 0 0 0 & 8 S w.e.r.e.e.e.e.e.e.e.e.e.e.e.e.e.e.e.e.e.e.e.e.e.e.e.e.9.e.s.[ Y R R ) R R R R R R R R R R R R R R R R R R R R R R R R R R ",
"$X$X$X$X$X$X$X$X$X$X$X$X$X$X$X$X$X$X$X$X$X$X$X$X#X$XA.$X#X4XN.n V V V V V V V V V V V V V V V V V V V V V V V V C C Z b C 1.r.e.e.e.e.e.e.e.e.e.e.e.e.e.e.e.e.e.e.e.e.e.e.e.e.e.e.e.e.e.e.e.e.e.e.e.e.e.e.e.e.e.e.e.e.e.e.e.e.e.e.e.e.e.e.e.e.e.q.r.9.+X#X$X#X#X$X$X$X$X$X$X$X$X$X$X$X$X$X$X$X$X$X$X$X$X$X$X$X$X3XZ.q.8.r.8.q.8.e.8.8.8.e.e.e.e.e.e.e.e.8.8.8.8.e.8.8.8.e.e.e.e.e.e.e.e.e.e.e.e.e.e.e.e.e.e.e.e.e.e.e.e.e.e.e.e.e.e.e.e.e.e.e.e.e.e.e.e.e.e.e.e.e.e.e.e.e.e.e.e.e.e.e.e.e.e.e.e.8.i.e.e.0.l.] / R R R R R R R R R R R R R R R R R R R R R R R R R R R E ' ' m V V V V V V V V V V V V V V V V V V V V V V V V V V V C A w.r.8.8.8.8.8.8.8.8.e.e.e.e.e.e.8.8.8.8.e.e.8.8.8.8.e.e.0.8.v.%X%X#X#XZ.$X$X$X$X$X$X$X$X$X$X$X$X$X$X$X$X#X#X#X#X#X#X#X#X3Xp.8.r.r.e.r.0.e.e.e.e.e.e.e.e.e.e.e.e.e.e.e.e.e.e.e.e.e.e.e.y.Q Q Q R R R R R R R R R R R R R R R R R R R R R R R ^ R R T B j.q.q.q.q.e.e.e.e.8.8.e.e.e.e.8.e.8.8.e.e.e.e.8.8.8.e.r.8.e.S 8 0 8 8 0 0 0 0 0 0 0 0 0 0 0 0 0 0 0 0 0 0 0 0 0 0 0 0 & 8 S w.e.r.e.e.e.e.e.e.e.e.e.e.e.e.e.e.e.e.e.e.e.e.e.e.e.e.9.e.s.[ Y R R ) R R R R R R R R R R R R R R R R R R R R R R R R R R ",
"$X$X$X$X$X$X$X$X$X$X$X$X$X$X$X$X$X$X$X$X$X$X$X$X#X#XA.$X#X5XN.n V V V V V V V V V V V V V V V V V V V V V V V V C C V b C 1.r.e.e.e.e.e.e.e.e.e.e.e.e.e.e.e.e.e.e.e.e.e.e.e.e.e.e.e.e.e.e.e.e.e.e.e.e.e.e.e.e.e.e.e.e.e.e.e.e.e.e.e.e.e.e.e.e.e.9.r.9.+X#X$X#X#X$X$X$X$X$X$X$X$X$X$X$X$X$X$X$X$X$X$X$X$X$X$X$X$X3XZ.q.8.r.8.q.8.e.e.8.8.8.8.e.e.e.8.e.e.e.e.8.8.e.e.8.8.8.8.e.e.e.e.e.e.e.e.e.e.e.e.e.e.e.e.e.e.e.e.e.e.e.e.e.e.e.e.e.e.e.e.e.e.e.e.e.e.e.e.e.e.e.e.e.e.e.e.e.e.e.e.e.e.e.e.e.e.8.i.e.e.8.l.] / R R R R R R R R R R R R R R R R R R R R R R R R R R R E ' B V V V V V V V V V V V V V V V V V V V V V V V V V V V V C A w.r.8.8.8.8.e.e.8.8.8.8.8.8.8.8.e.e.e.e.e.e.e.e.8.8.8.e.0.8.v.%X%X#X#X#X$X$X$X$X$X$X$X$X$X$X$X$X$X$X$X$XZ.#X#X#X#X#X#X#X3Xp.8.r.r.e.r.0.e.e.e.e.e.e.e.e.e.e.e.e.e.e.e.e.e.e.e.8.e.e.6.y.Q Q Q R R R R R R R R R R R R R R R R R R R R R R R ^ U R T B j.q.q.q.q.e.e.e.e.8.8.8.8.e.e.e.e.8.8.e.e.e.e.8.8.8.e.r.e.e.S 8 0 8 8 0 0 0 0 0 0 0 0 0 0 0 0 0 0 0 0 0 0 0 0 0 0 9 0 % 8 S w.e.r.e.e.e.e.e.e.e.e.e.e.e.e.e.e.e.e.e.e.e.e.8.e.e.e.9.8.s.[ Y R R ) R R R R R R R R R R R R R R R R R R R R R R R R R R ",
"$X$X$X$X$X$X$X$X$X$X$X$X$X$X$X$X$X$X$X$X$X$X$X$X#X#XA.$X#X5XN.n V V V V V V V V V V V V V V V V V V V V V V V V C C V b C 1.r.e.e.e.e.e.e.e.e.e.e.e.e.e.e.e.e.e.e.e.e.e.e.e.e.e.e.e.e.e.e.e.e.e.e.e.e.e.e.e.e.e.e.e.e.e.e.e.e.e.e.e.e.e.e.e.e.e.q.r.9.+X#X$X#X#X$X$X$X$X$X$X$X$X$X$X$X$X$X$X$X$X$X$X$X$X$X$X$X$X3XZ.q.8.r.8.q.8.e.e.8.8.8.8.e.e.8.8.8.8.e.e.8.8.e.e.8.8.8.8.e.e.e.e.e.e.e.e.e.e.e.e.e.e.e.e.e.e.e.e.e.e.e.e.e.e.e.e.e.e.e.e.e.e.e.e.e.e.e.e.e.e.e.e.e.e.e.e.e.e.e.e.e.e.e.e.e.e.8.e.e.e.8.l.] / R R R R R R R R R R R R R R R R R R R R R R R R R R R E ' B V C V V V V V V V V V V V V V V V V V V V V V V V V V V C A w.r.8.8.8.8.8.e.8.8.8.8.8.8.8.8.e.e.e.8.e.e.e.e.8.8.8.8.0.8.v.%X%X$X#X#X$X$X$X$X$X$X$X$X$X$X$X$X$X$X$X$XZ.#X#X#X#X#X#X#X3Xv.8.r.r.e.r.0.e.e.e.e.e.e.e.e.e.e.e.e.e.e.e.e.e.e.e.e.e.e.6.y.Q Q Q R R R R R R R R R R R R R R R R R R R R R R R ^ U R T B j.q.q.q.q.e.e.e.e.8.8.8.8.e.e.e.e.8.8.e.e.e.e.8.8.8.e.r.e.e.S 8 0 8 8 0 0 0 0 0 0 0 0 0 0 0 0 0 0 0 0 0 0 0 0 0 0 9 q % 8 S w.e.r.e.e.e.e.e.e.e.e.e.e.e.e.e.e.e.e.e.e.e.e.8.e.e.e.9.8.s.[ Y R R ) R R R R R R R R R R R R R R R R R R R R R R R R R R ",
"$X$X$X$X$X$X$X$X$X$X$X$X$X$X$X$X$X$X$X$X$X$X$X$X#X$XA.$X#X5XN.b V V V V V V V V V V V V V V V V V V V V V V V V C V V b C 1.e.e.e.e.e.e.e.e.e.e.e.e.e.e.e.e.e.e.e.e.e.e.e.e.e.e.e.e.e.e.e.e.e.e.e.e.e.e.e.e.e.e.e.e.e.e.e.e.e.e.e.e.e.e.8.8.e.e.q.r.9.+X#X$X#X#X$X$X$X$X$X$X$X$X$X$X$X$X$X$X$X$X$X$X$X$X$X$X$X$X3XZ.q.8.r.8.q.8.e.e.e.8.8.8.e.e.8.8.8.8.e.e.e.e.e.e.e.8.8.8.e.e.e.e.e.e.e.e.e.e.e.e.e.e.e.e.e.e.e.e.e.e.e.e.e.e.e.e.e.e.e.e.e.e.e.e.e.e.e.e.e.e.e.e.e.e.e.e.e.e.e.e.e.e.e.e.e.e.8.e.w.w.8.l.] / R R R R R R R R R R R R R R R R R R R R R R R R R R R E ' B V C V V V V V V V V V V V V V V V V V V V V V V V V V V C A w.r.8.8.8.8.e.e.e.e.8.e.8.8.e.e.e.e.8.8.8.8.8.8.8.8.8.8.0.8.v.%X%X#X#X#X$X$X$X$X$X$X$X$X$X$X$X$X$X$X$X$X#X#X#X#XZ.Z.Z.#X3Xn.8.r.r.e.r.0.e.e.e.e.e.e.e.e.e.e.e.e.e.e.e.e.e.e.e.e.e.e.6.y.Q Q Q R R R R R R R R R R R R R R R R R R R R R R R ^ R R T B j.q.q.e.e.e.e.e.e.e.e.8.e.e.e.8.8.8.8.8.e.e.8.8.8.8.e.r.8.e.S 8 0 8 8 0 0 0 0 0 0 0 0 0 0 0 0 0 0 0 0 0 0 0 0 0 0 9 q % 8 S 6.e.r.e.e.e.e.e.e.e.e.e.e.e.e.e.e.e.e.e.e.e.e.e.e.e.e.9.e.s.[ Y R R ) R R R R R R R R R R R R R R R R R R R R R R R R R R ",
"$X$X$X$X$X$X$X$X$X$X$X$X$X$X$X$X$X$X$X$X$X$X$X$X#X$XA.$X#X5XN.b V V V V V V V V V V V V V V V V V V V V V V V V C V V b C 2.e.e.e.e.e.e.e.e.e.e.e.e.e.e.e.e.e.e.e.e.e.e.e.e.e.e.e.e.e.e.e.e.e.e.e.e.e.e.e.e.e.e.e.e.e.e.e.e.e.e.e.e.e.e.e.e.e.e.q.r.9.+X#X$X#X#X$X$X$X$X$X$X$X$X$X$X$X$X$X$X$X$X$X$X$X$X$X$X$X$X3XZ.q.8.r.8.q.8.e.e.e.e.8.8.e.e.8.8.8.8.e.e.e.e.e.e.e.e.8.8.e.e.e.e.e.e.e.e.e.e.e.e.e.e.e.e.e.e.e.e.e.e.e.e.e.e.e.e.e.e.e.e.e.e.e.e.e.e.e.e.e.e.e.e.e.e.e.e.e.e.e.e.e.e.e.e.e.e.8.e.w.w.8.l.] / R R R R R R R R R R R R R R R R R R R R R R R R R R R E ' B V C V V V V V V V V V V V V V V V V V V V V V V V V V V C A w.r.8.8.8.8.e.e.e.e.e.e.8.8.8.e.e.e.8.8.8.8.8.8.8.8.8.8.0.8.v.%X%X$X#X#X$X$X$X$X$X$X$X$X$X$X$X$X$X$X$X$X#X#X#X#XZ.Z.Z.Z.3Xp.8.r.r.e.r.0.e.e.e.e.e.e.e.e.e.e.e.e.e.e.e.e.e.e.e.e.e.e.6.y.Q Q Q R R R R R R R R R R R R R R R R R R R R R R R ^ U R T B j.q.q.e.e.e.e.e.e.e.e.e.e.e.e.e.8.8.8.e.e.e.e.8.8.e.e.r.e.e.S 8 0 8 8 0 0 0 0 0 0 0 0 0 0 0 0 0 0 0 0 0 0 0 0 0 0 9 q % 8 S 6.e.r.e.e.e.e.e.e.e.e.e.e.e.e.e.e.e.e.e.e.e.e.e.e.e.e.9.e.j.[ Y R R ) R R R R R R R R R R R R R R R R R R R R R R R R R R ",
"$X$X$X$X$X$X$X$X$X$X$X$X$X$X$X$X$X$X$X$X$X$X$X$X#X$XA.$X#X5XN.b V V V V V V V V V V V V V V V V V V V V V V V V C C V b C 1.e.e.e.e.e.e.e.e.e.e.e.e.e.e.e.e.e.e.e.e.e.e.e.e.e.e.e.e.e.e.e.e.e.e.e.e.e.e.e.e.e.e.e.e.e.e.e.e.e.e.e.e.e.e.e.e.e.e.q.r.9.+X#X$X#X#X$X$X$X$X$X$X$X$X$X$X$X$X$X$X$X$X$X$X$X$X$X$X$X$X3XZ.q.8.r.8.q.8.e.e.e.e.8.8.8.8.e.e.8.8.e.e.e.e.e.e.8.8.e.e.e.e.e.e.e.e.e.e.e.e.e.e.e.e.e.e.e.e.e.e.e.e.e.e.e.e.e.e.e.e.e.e.e.e.e.e.e.e.e.e.e.e.e.e.e.e.e.e.e.e.e.e.e.e.e.e.e.e.8.e.e.e.0.l.] / R R R R R R R R R R R R R R R R R R R R R R R R R R R E ' ' V V V V V V V V V V V V V V V V V V V V V V V V V V V V C A w.r.8.8.8.8.e.e.e.e.e.e.e.e.e.e.e.e.8.8.8.8.e.e.e.e.e.e.0.0.v.%X%X#X#X#X$X$X$X$X$X$X$X$X$X$X$X$X$X$X$X$X#X#X#X#XZ.Z.#X#X3Xp.8.r.r.e.r.0.e.e.e.e.e.e.e.e.e.e.e.e.e.e.e.e.e.e.e.e.e.e.e.y.Q Q Q Q R R R R R R R R R R R R R R R R R R R R R R ^ R R T B j.q.q.q.q.e.8.8.8.e.e.e.e.e.e.8.8.e.8.8.8.e.e.e.e.e.e.r.8.e.S 8 0 8 0 0 0 0 0 0 0 0 0 0 0 0 0 0 0 0 0 0 0 0 0 0 0 9 0 % 8 S w.e.r.e.e.e.e.e.e.e.e.e.e.e.e.e.e.e.e.e.e.e.e.e.e.e.e.9.e.s.[ Y R R ) R R R R R R R R R R R R R R R R R R R R R R R R R R ",
"$X$X$X$X$X$X$X$X$X$X$X$X$X$X$X$X$X$X$X$X$X$X$X$X#X$XA.$X#X5XN.b V V V V V V V V V V V V V V V V V V V V V V V V C V V b V 1.e.e.e.e.e.e.e.e.e.e.e.e.e.e.e.e.e.e.e.e.e.e.e.e.e.e.e.e.e.e.e.e.e.e.e.e.e.e.e.e.e.e.e.e.e.e.e.e.e.e.e.e.e.e.e.e.e.e.q.r.9.+X#X$X#X#X$X$X$X$X$X$X$X$X$X$X$X$X$X$X$X$X$X$X$X$X$X$X$X$X#XZ.q.8.r.8.q.8.e.e.e.e.8.8.8.8.e.e.8.8.8.e.e.e.e.e.8.8.8.e.e.e.e.e.e.e.e.e.e.e.e.e.e.e.e.e.e.e.e.e.e.e.e.e.e.e.e.e.e.e.e.e.e.e.e.e.e.e.e.e.e.e.e.e.e.e.e.e.e.e.e.e.e.e.e.e.e.e.8.e.e.e.0.l.] / R R R R R R R R R R R R R R R R R R R R R R R R R R R E ' ' V V V V V V V V V V V V V V V V V V V V V V V V V V V V C A w.r.8.8.8.8.e.e.e.e.e.e.e.8.e.e.e.e.8.8.8.8.e.e.8.8.e.e.0.0.v.%X%X#X#XZ.$X$X$X$X$X$X$X$X$X$X$X$X$X$X$X$X#X#X#X#XZ.Z.#X#X3Xp.8.r.r.e.r.0.e.e.e.e.e.e.e.e.e.e.e.e.e.e.e.e.e.e.e.e.e.e.e.y.Q Q Q Q R R R R R R R R R R R R R R R R R R R R R R ^ R R T B j.q.q.q.q.e.8.8.8.e.e.e.e.e.e.8.8.e.8.8.8.e.e.e.e.e.e.r.8.e.S 8 0 8 0 0 0 0 0 0 0 0 0 0 0 0 0 0 0 0 0 0 0 0 0 0 0 9 0 % 8 S w.e.r.e.e.e.e.e.e.e.e.e.e.e.e.e.e.e.e.e.e.e.e.e.e.e.e.9.e.s.[ Y R R ) R R R R R R R R R R R R R R R R R R R R R R R R R R ",
"$X$X$X$X$X$X$X$X$X$X$X$X$X$X$X$X$X$X$X$X$X$X$X$X#X$XA.$X#X6XN.n V V V V V V V V V V V V V V V V V V V V V V V V C V V b V 1.e.e.e.e.e.e.e.e.e.e.e.e.e.e.e.e.e.e.e.e.e.e.e.e.e.e.e.e.e.e.e.e.e.e.e.e.e.e.e.e.e.e.e.e.e.e.e.e.e.e.e.e.e.e.e.e.e.e.q.r.9.+X#X$X#X#X$X$X$X$X$X$X$X$X$X$X$X$X$X$X$X$X$X$X$X$X$X$X$X$X3XB.q.8.r.8.q.8.8.8.e.e.8.8.8.8.e.e.8.8.8.8.e.e.e.e.8.8.8.8.e.e.e.e.e.e.e.e.e.e.e.e.e.e.e.e.e.e.e.e.e.e.e.e.e.e.e.e.e.e.e.e.e.e.e.e.e.e.e.e.e.e.e.e.e.e.e.e.e.e.e.e.e.e.e.e.e.e.8.e.w.w.8.l.] / R R R R R R R R R R R R R R R R R R R R R R R R R R R E ' B m V V V V V V V V V V V V V V V V V V V V V V V V V V V C A w.r.0.8.8.8.8.e.8.8.8.8.8.8.8.8.e.8.8.8.e.e.e.e.8.8.8.8.0.0.v.%X%X#X#XZ.$X$X$X$X$X$X$X$X$X$X$X$X$X$X$X$X#X#X#X#XZ.Z.#X#X3Xp.8.r.e.e.r.0.e.e.e.e.e.e.e.e.e.e.e.e.e.e.e.e.e.e.e.e.e.e.6.y.Q Q Q R R R R R R R R R R R R R R R R R R R R R R R ^ R R T B j.q.q.q.q.e.e.8.e.8.8.8.8.e.8.8.8.e.e.8.8.e.8.e.e.e.e.r.8.e.S 8 0 8 8 0 0 0 0 0 0 0 0 0 0 0 0 0 0 0 0 0 0 0 0 0 0 0 0 & 8 S w.e.r.e.e.e.e.e.e.e.e.e.e.e.e.e.e.e.e.e.e.e.e.e.e.e.e.9.8.s.[ Y R R ) R R R R R R R R R R R R R R R R R R R R R R R R R R ",
"$X$X$X$X$X$X$X$X$X$X$X$X$X$X$X$X$X$X$X$X$X$X$X$X#X$XA.$X#X6XN.n V V V V V V V V V V V V V V V V V V V V V V V V C V V b V 1.e.e.e.e.e.e.e.e.e.e.e.e.e.e.e.e.e.e.e.e.e.e.e.e.e.e.e.e.e.e.e.e.e.e.e.e.e.e.e.e.e.e.e.e.e.e.e.e.e.e.e.e.e.e.e.e.e.e.q.r.9.+X#X$X#X#X$X$X$X$X$X$X$X$X$X$X$X$X$X$X$X$X$X$X$X$X$X$X$X$X3XZ.q.8.r.8.q.8.8.8.e.e.e.e.8.e.e.e.8.8.8.8.e.e.e.e.8.8.8.8.e.e.e.e.e.e.e.e.e.e.e.e.e.e.e.e.e.e.e.e.e.e.e.e.e.e.e.e.e.e.e.e.e.e.e.e.e.e.e.e.e.e.e.e.e.e.e.e.e.e.e.e.e.e.e.e.e.e.8.e.w.w.8.l.] / R R R R R R R R R R R R R R R R R R R R R R R R R R R E ' B m V V V V V V V V V V V V V V V V V V V V V V V V V V V C A w.e.0.8.8.8.8.8.8.8.8.8.8.8.8.8.e.e.8.8.e.e.e.e.8.8.8.8.0.0.v.%X%X#X#XZ.$X$X$X$X$X$X$X$X$X$X$X$X$X$X$X$XZ.Z.#X#X#X#X#X#X3Xp.8.e.e.e.r.0.e.e.e.e.e.e.e.e.e.e.e.e.e.e.e.e.e.e.e.e.e.e.6.y.Q Q Q R R R R R R R R R R R R R R R R R R R R R R R ^ R R T B j.q.q.q.q.e.e.e.e.8.8.8.8.e.8.8.8.e.e.8.8.8.8.e.e.8.e.r.8.e.S 8 0 8 8 0 0 0 0 0 0 0 0 0 0 0 0 0 0 0 0 0 0 0 0 0 0 0 0 & 8 S w.e.r.e.e.e.e.e.e.e.e.e.e.e.e.e.e.e.e.e.e.e.e.e.e.e.e.9.e.s.[ Y R R ) R R R R R R R R R R R R R R R R R R R R R R R R R R ",
"$X$X$X$X$X$X$X$X$X$X$X$X$X$X$X$X$X$X$X$X$X$X$X$XZ.$XA.$X#X6XN.n V V V V V V V V V V V V V V V V V V V V V V V V C C V b C 1.e.e.e.e.e.e.e.e.e.e.e.e.e.e.e.e.e.e.e.e.e.e.e.e.e.e.e.e.e.e.e.e.e.e.e.e.e.e.e.e.e.e.e.e.e.e.e.e.e.e.e.e.e.e.e.e.e.e.9.r.9.+X#X$X#X#X$X$X$X$X$X$X$X$X$X$X$X$X$X$X$X$X$X$X$X$X$X$X$X$X3XZ.q.8.r.8.q.8.8.8.8.8.e.e.e.e.e.e.e.e.8.8.8.e.e.e.e.e.8.8.8.e.e.e.e.e.e.e.e.e.e.e.e.e.e.e.e.e.e.e.e.e.e.e.e.e.e.e.e.e.e.e.e.e.e.e.e.e.e.e.e.e.e.e.e.e.e.e.e.e.e.e.e.e.e.e.e.e.8.e.w.w.8.l.] ^ R R R R R R R R R R R R R R R R R R R R R R R R R R R E ' B V V V V V V V V V V V V V V V V V V V V V V V V V V V V C A 0.r.0.8.8.8.8.8.8.8.e.e.e.e.e.8.8.8.8.8.e.e.8.e.e.e.8.8.0.8.v.%X%X#X#X#X$X$X$X$X$X$X$X$X$X$X$X$X$X$X$X$XZ.#X#X#X#X#X#X#X3Xp.8.r.r.e.r.0.e.e.e.e.e.e.e.e.e.e.e.e.e.e.e.e.e.e.e.e.e.e.e.y.Q Q Q R R R R R R R R R R R R R R R R R R R R R R R ^ R R T B j.q.q.e.e.e.e.e.e.e.8.8.8.8.8.8.8.e.e.e.e.8.8.8.e.8.e.r.8.e.S 8 0 8 8 0 0 0 0 0 0 0 0 0 0 0 0 0 0 0 0 0 0 0 0 0 0 9 q % 8 S w.e.r.e.e.e.e.e.e.e.e.e.e.e.e.e.e.e.e.e.e.e.e.e.e.e.e.9.e.j.[ Y R R ) R R R R R R R R R R R R R R R R R R R R R R R R R R ",
"$X$X$X$X$X$X$X$X$X$X$X$X$X$X$X$X$X$X$X$X$X$X$X$XZ.$XA.$X#X6XN.n V V V V V V V V V V V V V V V V V V V V V V V V C C V b C 1.e.e.e.e.e.e.e.e.e.e.e.e.e.e.e.e.e.e.e.e.e.e.e.e.e.e.e.e.e.e.e.e.e.e.e.e.e.e.e.e.e.e.e.e.e.e.e.e.e.e.e.e.e.e.e.e.e.e.q.r.9.+X#X$X#X#X$X$X$X$X$X$X$X$X$X$X$X$X$X$X$X$X$X$X$X$X$X$X$X$X3XZ.q.8.r.8.q.8.8.8.8.8.e.e.e.e.e.e.8.8.8.8.e.e.e.e.8.8.8.8.e.e.e.e.e.e.e.e.e.e.e.e.e.e.e.e.e.e.e.e.e.e.e.e.e.e.e.e.e.e.e.e.e.e.e.e.e.e.e.e.e.e.e.e.e.e.e.e.e.e.e.e.e.e.e.e.e.e.8.e.w.w.8.l.] ^ R R R R R R R R R R R R R R R R R R R R R R R R R R R E ' B m V V V V V V V V V V V V V V V V V V V V V V V V V V V C A 0.r.0.8.8.8.8.8.8.8.e.e.e.e.8.8.8.8.8.8.8.8.8.8.e.e.8.e.0.8.v.%X%X$X#X#X$X$X$X$X$X$X$X$X$X$X$X$X$X$X$X$XZ.#X#X#X#X#X#X#X3Xp.r.r.r.e.r.0.e.e.e.e.e.e.e.e.e.e.e.e.e.e.e.e.e.e.e.e.e.e.e.y.Q Q Q R R R R R R R R R R R R R R R R R R R R R R R ^ R R T B j.q.q.e.e.e.e.e.e.e.e.8.8.8.8.8.8.e.e.e.e.e.8.8.8.8.e.r.8.e.S 8 0 8 8 0 0 0 0 0 0 0 0 0 0 0 0 0 0 0 0 0 0 0 0 0 0 9 q % 8 S w.e.r.e.e.e.e.e.e.e.e.e.e.e.e.e.e.e.e.e.e.e.e.e.e.e.e.9.8.j.[ Y R R ) R R R R R R R R R R R R R R R R R R R R R R R R R R ",
"$X$X$X$X$X$X$X$X$X$X$X$X$X$X$X$X$X$X$X$X$X$X$X$XZ.#XA.$X#X5XN.b V V V V V V V V V V V V V V V V V V V V V V V V V C Z b C 1.e.e.e.e.e.e.e.e.e.e.e.e.e.e.e.e.e.e.e.e.e.e.e.e.e.e.e.e.e.e.e.e.e.e.e.e.e.e.e.e.e.e.e.e.e.e.e.e.e.e.e.e.e.e.e.e.e.e.q.r.9.+X#X$X#X#X$X$X$X$X$X$X$X$X$X$X$X$X$X$X$X$X$X$X$X$X$X$X$X$X3XZ.q.8.r.8.r.8.e.e.8.e.e.e.8.8.8.8.8.8.8.8.8.8.8.8.8.8.8.8.8.8.e.e.e.e.e.e.e.e.e.e.e.e.e.e.e.e.e.e.e.e.e.e.e.e.e.e.e.e.e.e.e.e.e.e.e.e.e.e.e.e.e.e.e.e.e.e.e.e.e.e.e.e.e.e.e.e.8.i.w.w.8.l.] ^ R R R R R R R R R R R R R R R R R R R R R R R R R R R E ' B V C V V V V V V V V V V V V V V V V V V V V V V V V V V C A 0.r.8.8.8.8.8.8.e.e.e.e.e.e.e.e.8.8.8.8.8.8.8.8.e.e.e.e.0.8.v.%X%X#X#X#X$X$X$X$X$X$X$X$X$X$X$X$X$X$X$X$X#X#X#X#X#X#X#X#X3Xp.8.r.r.e.r.0.e.e.e.e.e.e.e.e.e.e.e.e.e.e.e.e.e.e.e.e.e.e.e.y.Q Q Q R R R R R R R R R R R R R R R R R R R R R R R ^ R R T B j.q.q.e.e.e.e.e.e.e.e.e.e.8.e.8.8.8.8.8.8.8.8.8.e.e.e.r.8.e.S 8 0 8 8 0 0 0 0 0 0 0 0 0 0 0 0 0 0 0 0 0 0 0 0 0 0 9 q % 8 S 6.e.r.e.e.e.e.e.e.e.e.e.e.e.e.e.e.e.e.e.e.e.e.e.e.e.e.9.e.j.[ Y R R ) R R R R R R R R R R R R R R R R R R R R R R R R R R ",
"$X$X$X$X$X$X$X$X$X$X$X$X$X$X$X$X$X$X$X$X$X$X$X$X#X$XA.$X#X5XN.b V V V V V V V V V V V V V V V V V V V V V V V V V C V b C 1.e.e.e.e.e.e.e.e.e.e.e.e.e.e.e.e.e.e.e.e.e.e.e.e.e.e.e.e.e.e.e.e.e.e.e.e.e.e.e.e.e.e.e.e.e.e.e.e.e.e.e.e.e.e.e.e.e.e.q.r.9.+X#X$X#X#X$X$X$X$X$X$X$X$X$X$X$X$X$X$X$X$X$X$X$X$X$X$X$X$X3XZ.q.8.r.8.r.8.e.e.e.e.e.e.e.8.8.8.8.8.8.8.8.8.8.8.8.8.8.8.8.8.e.e.e.e.e.e.e.e.e.e.e.e.e.e.e.e.e.e.e.e.e.e.e.e.e.e.e.e.e.e.e.e.e.e.e.e.e.e.e.e.e.e.e.e.e.e.e.e.e.e.e.e.e.e.e.e.8.i.w.w.8.l.] ^ R R R R R R R R R R R R R R R R R R R R R R R R R R R E ' B V C V V V V V V V V V V V V V V V V V V V V V V V V V V C A 0.r.8.8.e.8.e.e.e.e.e.e.e.e.e.e.e.8.8.8.8.8.8.8.e.e.e.e.0.8.v.%X%X$X#X#X$X$X$X$X$X$X$X$X$X$X$X$X$X$X$X$X#X#X#X#X#X#X#X#X3Xp.8.r.r.e.r.0.e.e.e.e.e.e.e.e.e.e.e.e.e.e.e.e.e.e.e.e.e.e.e.y.Q Q Q R R R R R R R R R R R R R R R R R R R R R R R ^ R R T B j.q.q.e.e.e.e.e.e.e.e.e.e.e.e.8.8.8.8.8.8.e.8.8.e.e.e.r.8.e.S 8 0 8 8 0 0 0 0 0 0 0 0 0 0 0 0 0 0 0 0 0 0 0 0 0 0 9 q % 8 S 6.e.r.e.e.e.e.e.e.e.e.e.e.e.e.e.e.e.e.e.e.e.e.e.e.e.e.9.e.j.[ Y R R ) R R R R R R R R R R R R R R R R R R R R R R R R R R ",
"$X$X$X$X$X$X$X$X$X$X$X$X$X$X$X$X$X$X$X$X$X$X$X$X6X4XC.$X$X3XH.b Z Z Z Z Z Z Z Z Z Z Z Z Z Z Z Z Z Z Z Z Z Z Z Z m m } A V 1.z.g.e.e.e.e.e.e.e.e.e.e.e.e.e.e.e.e.e.e.e.e.e.e.e.e.e.e.e.e.e.e.e.e.e.e.e.e.e.e.e.e.e.e.e.e.e.e.e.e.e.e.e.e.e.e.e.e.r.8.v.#X3XZ.Z.4X#X#X#X#X#X#X#X#X#X#X#X#X#X#X#X#X#X#X#X#X#X#X#X#X6XM.q.8.8.r.z.z.e.e.e.e.e.e.e.e.e.e.e.e.e.e.e.e.e.e.e.e.e.e.e.e.9.8.8.e.8.r.r.t.0.0.0.0.0.0.0.0.0.0.0.0.0.0.0.0.6.r.c.q.q.a.3.*.e.e.e.e.e.e.e.e.e.e.e.e.e.e.e.e.e.e.e.e.e.e.e.e.w.3.q.q.i.j.[ Y W W W W W W R R W W W W W R R Q W W R R R R W W R ( W Y i M j k V V V V V V V V V V V V V V V V V V V V V V V V A V C %.2.e.e.8.8.8.8.8.8.8.8.8.8.8.8.8.8.8.8.8.8.8.8.8.8.8.8.8.3.0.n.Z.4XZ.+X+XA.A.A.A.A.A.A.A.A.A.A.A.A.A.A.A.#X#X#X#X#X#X#X#XA.c.8.r.e.r.r.t.q.q.q.8.8.8.q.q.8.8.8.8.q.8.8.8.8.8.8.8.q.8.8.8.W W E R R R R ^ R R R R R R R R R R R R R R R R Q R ^ U R T B j.8.8.8.e.e.e.e.e.e.e.e.e.e.e.e.e.e.e.e.e.e.e.e.e.8.e.r.e.e.} 8 0 8 8 0 0 0 0 0 0 0 0 0 0 0 0 0 0 0 0 0 0 0 0 0 0 9 0 8 & V l.e.w.e.e.e.e.e.e.e.e.e.e.e.e.e.e.e.e.e.r.r.r.e.e.e.e.8.r.j.] _ R R ( W W W W W W W W E E E E E E E E E E E E E E E E E E ",
"#X#X#X#X#X#X#X#X#X#X#X#X#X#X#X#X#X#X#X#X#X#X#X#XZ.4XA.$X#X3XH.V Z Z Z Z Z Z Z Z Z Z Z Z Z Z Z Z Z Z Z Z Z Z Z Z Z Z } A V #.w.5.e.e.e.e.e.e.e.e.e.e.e.e.e.e.e.e.e.e.e.e.e.e.e.e.e.e.e.e.e.e.e.e.e.e.e.e.e.e.e.e.e.e.e.e.e.e.e.e.e.e.e.e.e.e.e.e.8.8.r.B.3XZ.Z.4X#X#X#X#X#X#X+X+X#X+X+X+X#X#X#X#X#X#X#X#X#X#X#X#X6XB.r.8.8.e.r.r.e.e.e.e.e.e.e.e.e.e.e.e.e.e.e.e.e.e.e.e.e.e.e.e.r.8.q.p.e.r.g.r.r.r.r.r.r.r.r.r.r.r.r.r.r.r.r.r.6.r.t.q.e.i.u.=.e.e.e.e.e.e.e.e.e.e.e.e.e.e.e.e.e.e.e.e.e.e.e.e.r.0.r.q.i.6.] T R R R R R R R R R R R R R R R R R R R R R R R R ^ ) ( U Y ' Z C Z Z Z Z Z Z Z Z Z Z Z Z Z Z Z Z Z Z Z Z Z Z Z Z A V C A 2.e.8.8.0.0.0.0.8.8.0.0.8.8.8.8.8.8.;.;.8.8.8.;.8.;.;.8.8.8.m.A.J.A.C.C.#X#X#X#XA.A.#X#X$X$X$X$X$X$X$X$X#X#X#X#X#X#X#X#X#Xc.8.e.e.r.r.r.e.e.e.e.e.e.e.e.e.e.e.e.e.e.e.e.e.e.e.e.e.e.e.e.W E E R R R R ^ R R R R R R R R R R R R R R R R Q R ^ U R T B j.8.8.e.e.e.e.e.e.e.e.e.e.e.e.e.e.e.e.e.e.e.e.e.e.8.e.r.e.e.S 8 0 8 8 0 0 0 0 0 0 0 0 0 0 0 0 0 0 0 0 0 0 0 0 0 0 9 0 8 & V l.e.w.e.e.e.e.e.e.e.e.e.e.e.e.e.e.e.e.e.e.r.e.e.e.e.e.e.l.k.[ Y E W R R R R R R R R R R R R R R R R R R R R R R R R R R R ",
"#X#X#X#X#X#X#X#X#X#X#X#X#X#X#X#X#X#X#X#X#X#X#X#XZ.aX4X#X#X4XV.j V V V V V V V V V V C V C C V V V V V V V V V V Z b Z Z C $.e.e.e.e.e.e.e.e.e.e.e.e.e.e.e.e.e.e.e.e.e.e.e.e.e.e.e.e.e.e.e.e.e.e.e.e.e.e.e.e.e.e.e.e.e.e.e.e.e.e.e.e.e.e.e.e.e.e.8.8.r.B.3X#X4X6X$X$X$X$X$X$X$X$X$X$X$X$X$X$X$X$X$X$X$X$X$X$X$X$X6XB.r.8.8.e.8.8.e.e.e.e.e.e.e.e.e.e.e.e.e.e.e.e.e.e.e.e.e.e.e.e.r.0.3.e.3.3.e.e.r.r.r.r.t.t.t.t.r.r.r.r.t.t.t.t.6.e.r.e.e.y.u.3.e.e.e.e.e.e.e.e.e.e.e.e.e.e.e.e.e.e.e.e.e.e.e.e.z.w.p.q.e.6.] ' / / / / / / / / / / / / / / / / / / / / / / / / / ( ( R E { ] Z V V V V V V V V V V V V V V V V V V V V V V V V V b C A 2.w.e.8.8.8.8.8.8.8.8.8.8.8.8.8.8.8.8.8.8.8.8.8.8.8.8.8.8.t.m.J.aXJ.A.+X#X#X3X3X3X3X3X3X#X#X#X#X#X#X#X#X%X%X#X#X#X#X#X#X3Xp.8.e.e.e.r.r.e.e.e.e.e.e.e.e.e.e.e.e.e.e.e.e.e.e.e.e.e.e.e.e.W W E R R R R ^ R R R R R R R R R R R R R R R R Q R ^ U R T B j.e.e.e.e.e.e.e.e.e.e.e.e.e.e.e.e.e.e.e.e.e.e.e.e.8.e.r.8.e.S 8 0 8 8 0 0 0 0 0 0 0 0 0 0 0 0 0 0 0 0 0 0 0 0 0 0 9 0 8 & V l.e.w.e.e.e.e.e.e.e.e.e.e.e.e.e.e.e.e.e.e.e.e.e.e.e.e.e.l.k.[ T E Y Y / / / / / / / / ( ( ^ ( ( ( ( ( ( ( ( ( ( ( ( ( ( ( ",
"3X3X3X3X5X5X5X3X3X3X3X3X5X5X5X3X3X4X3X3X3X3X5X5X#X4X#XZ.3X6Xm.C C C C C C C n n n n C C C C n n n C C C C C C C C b b j C #.w.r.e.e.e.e.e.e.e.e.e.e.e.e.e.e.e.e.e.e.e.e.e.e.e.e.e.e.e.e.e.e.e.e.e.e.e.e.e.e.e.e.e.e.e.e.e.e.e.e.e.e.e.e.e.e.e.e.q.q.p.B.#X#X3X6X%X%X%X%X%X%X%X%X%X%X%X%X%X%X%X%X%X%X%X%X%X%X%X%X#XM.r.8.8.8.0.3.e.e.e.e.e.e.e.e.e.e.e.e.e.e.e.e.e.e.e.e.e.e.e.e.z.3.5.y.y.6.6.6.f.f.f.f.f.f.f.f.s.f.s.s.f.f.f.f.j.f.g.f.j.j.y.e.e.e.e.e.e.e.e.e.e.e.e.e.e.e.e.e.e.e.e.e.e.e.e.e.i.0.a.q.e.6.} ] T T T T T T T T T T T T T T T T T T T T T T T T { Q Q T ' ' m V V V V V V V V V V V V V V V V V V V V V V V V V V b C S 2.w.e.e.e.e.e.e.e.e.e.e.e.e.e.e.e.e.e.e.e.e.e.e.e.e.e.e.q.r.V.H.8X5X7X8X7X7X7X1X1X1X1X1X7X7X7X7X7X7X7X7X2X2X2X1X1X1X1X1X2Xx.w.i.i.i.p.e.l.l.l.l.l.l.l.l.l.l.l.l.l.l.l.l.l.l.l.l.l.l.l.l.W W E R R R R ^ R R R R R R R R R R R R R R R R Q R ^ U R T B j.e.e.e.e.e.e.e.e.e.e.e.e.e.e.e.e.e.e.e.e.e.e.e.e.8.e.r.8.e.} 8 0 8 8 0 0 0 0 0 0 0 0 0 0 0 0 0 0 0 0 0 0 0 0 0 0 7 0 8 & V l.e.w.e.e.e.e.e.e.e.e.e.e.e.e.e.e.e.e.e.e.e.e.e.e.e.e.w.6.d.| ' { T T T T T T T T T T T T T T T T T T T T T T E E E E T T ",
"2.2.2.2.2.2.2.2.2.2.2.2.2.2.2.2.2.2.2.2.2.2.2.2.=.$.$.$.8.8.w.t.e.e.e.e.e.e.e.e.e.e.e.e.e.e.e.e.e.e.e.e.e.e.e.e.r.e.w.8.e.e.e.e.e.e.e.e.e.e.e.e.e.e.e.e.e.e.e.e.e.e.e.e.e.e.e.e.e.e.e.e.e.e.e.e.e.e.e.e.e.e.e.e.e.e.e.e.e.e.e.e.e.e.e.e.e.e.8.e.r.e.p.m.V.m.M.M.v.v.m.v.v.v.v.v.v.v.v.v.v.v.v.v.v.v.v.v.v.v.v.v.M.v.r.8.8.e.e.w.e.e.e.e.e.e.e.e.e.e.e.e.8.8.8.8.e.e.e.e.e.e.e.e.s.} | o.o.o.o.o.o.o.o.o.o.o.o.o.o.o.o.o.o.o.o.o.o.| | | o.o...1.e.e.e.8.8.e.e.q.e.e.e.e.e.e.e.e.e.e.e.e.e.e.e.e.e.0.e.q.0.e.1.1.o.o.o.o.o.o.o.o.o.o.o.o.o.o.o.o.o.o.o.o.o.o.o.o.o.o.o.o.| D V l } } } } } } } } } } } } } } } } } } } } } } } } A Z A S >.3.3.3.2.2.2.2.2.2.2.2.2.2.2.2.2.2.2.2.3.2.2.2.3.3.3.2.*.1.5.7.d.j.j.j.d.d.d.d.d.d.d.d.s.s.s.s.d.d.d.j.d.d.d.d.d.d.j.d.j.} Z D A A S A D D D D D D D D D D D D D D A D D D D D D D A D W E E R R R R ^ R R R R R R R R R R R R R R R R Q R ^ R R T B j.e.e.e.e.e.e.e.e.e.e.e.e.e.e.e.e.e.e.e.e.e.e.e.e.e.e.r.8.e.S 8 0 8 8 0 0 0 0 0 0 0 0 0 0 0 0 0 0 0 0 0 0 0 0 0 0 7 8 8 & V l.e.w.e.e.e.e.e.e.e.e.e.e.e.e.e.e.e.e.e.e.e.e.r.e.e.e.e.6.s.X.| X.| o.o.o.o.o.o.o.o.o.X.o.X.X.X.X.o.X.X.X.X.X.o.X.X.X.X.X.",
"o o o o o o o o o o o o o o o o o o o o o o o o a o a & & @ k 3X3X3X3X3X3X3X3X3X3X3X3X3X3X3X3X3X3X3X3X3X3X3X3X3XZ.3X3X3X5XN.r.e.e.e.e.e.e.e.e.e.e.e.e.e.e.e.e.e.e.e.e.e.e.e.e.e.e.e.e.e.e.e.e.e.e.e.e.e.e.e.e.e.e.e.e.e.e.e.e.e.e.e.e.e.e.8.e.e.8.0.8.q.q.8.q.q.8.8.8.8.8.8.8.8.8.8.8.8.8.8.8.8.8.8.8.8.8.8.8.8.r.r.q.8.8.r.e.r.e.e.e.e.e.e.e.e.e.e.e.e.8.8.8.8.e.e.e.e.e.e.e.e.| c y T T i T T Y Y Y Y Y Y Y Y Y Y Y Y Y Y Y Y i y ` E E T M ] e.e.e.8.8.e.e.q.e.e.e.e.e.e.e.e.e.e.e.e.e.e.e.e.0.-.e.0.0.i.2.0.y.y.y.y.y.y.y.y.y.y.y.y.y.y.y.y.y.y.y.y.y.y.y.y.y.3.6.6.5.*.D D >.>.>.>.>.>.>.>.>.>.>.>.>.>.>.>.>.>.>.>.>.>.>.>.>.>.} >.>.>.#.#.#.#.#.#.#.#.#.#.#.#.#.#.#.#.#.#.#.#.#.#.#.#.#.#.D N B i y i T i ' ' ' ' ' ' ' ' c c c ` y y i i T T T T T T T T ' 0 - & & & 8 o & & & & & & & & & & & & & & & & & & & & & & & & W E E R R R R ^ R R R R R R R R R R R R R R R R Q R ^ U R T B j.e.e.e.e.e.e.e.e.e.e.e.e.e.e.e.e.e.e.e.e.e.e.e.e.e.e.r.e.e.S 8 0 8 8 0 0 0 0 0 0 0 0 0 0 0 0 0 0 0 0 0 0 0 0 0 0 9 7 8 & V l.e.w.e.e.e.e.e.e.e.e.e.e.e.e.e.e.e.e.e.e.e.e.r.e.e.e.r.e.l.6.s.s.6.6.i.i.i.i.i.i.y.y.i.i.i.i.i.i.i.i.i.i.i.i.i.i.i.i.i.i.",
"0 0 0 0 0 0 0 0 0 0 0 0 0 0 0 0 0 0 0 0 0 0 0 0 0 * t 0 = - b 0X#X#X#X#X#X#X#X#X#X#X#X#X%X%X%X%X#X#X#X#X#X#X#X#XC.#XZ.3X9XN.8.8.e.e.e.e.e.e.e.e.e.e.e.e.e.e.e.e.e.e.e.e.e.e.e.e.e.e.e.e.e.e.e.e.e.e.e.e.e.e.e.e.e.e.e.e.e.e.e.e.e.e.e.e.8.e.e.e.0.0.8.0.8.8.8.8.8.8.8.8.8.8.8.8.8.8.8.8.8.8.8.8.8.8.8.8.8.8.8.8.9.q.8.8.e.e.e.r.e.e.e.e.e.e.e.e.e.e.e.e.e.e.e.e.e.e.e.e.e.e.e.e.O.' _ R R R ^ / R R R R R R R R R R R R R R R R Q E / ) ) R { O.e.e.e.8.e.e.e.q.e.e.e.e.e.e.e.e.e.e.e.e.e.e.e.e.e.0.a.0.8.q.8.9.e.e.e.e.e.e.e.e.e.e.e.e.e.e.e.e.e.e.e.e.e.e.e.e.a.e.e.r.e.=.#.*.} } } } } } } } } } } } } } } } } } } } } } } } 4.1.>.>.>.#.A %.#.#.#.#.#.#.#.#.#.#.#.#.#.#.#.#.#.#.#.#.#.#.#.#.} | [ T R R R R E E E E E E E E R R R R R R R R E E E E R E R R { u * = = = 0 & 0 0 = 0 0 0 0 0 0 0 0 0 0 0 0 0 0 0 0 0 0 0 0 0 Y E E E E R R R R R R R R R R R R R R R R R R R Q R ^ R R T B j.e.e.e.e.e.e.e.e.e.e.e.e.e.e.e.e.e.e.e.e.e.e.e.e.8.e.r.8.e.S 8 0 8 8 0 0 0 0 0 0 0 0 0 0 0 0 0 0 0 0 0 0 0 0 0 0 9 0 8 & V l.e.w.e.e.e.e.e.e.e.e.e.e.e.e.e.e.e.e.e.e.e.e.r.e.e.e.q.9.r.r.r.z.e.p.e.e.e.e.e.e.e.e.q.q.r.r.q.q.q.q.r.q.q.e.q.q.q.q.q.q.",
"9 9 9 9 9 9 9 9 9 9 9 9 9 9 9 9 9 9 9 9 9 9 9 9 0 % u y y s b 1X#X#X#X#X#X#X#X#X#X#X#X#X#X#X#X#X#X#X#X#X#X#X#X#X$X6X#X#X9XB.e.r.e.e.e.e.e.e.e.e.e.e.e.e.e.e.e.e.e.e.e.e.e.e.e.e.e.e.e.e.e.e.e.e.e.e.e.e.e.e.e.e.e.e.e.e.e.e.e.e.e.e.e.e.e.e.e.e.i.i.r.e.8.q.q.8.q.q.q.q.e.q.q.q.q.q.q.q.e.e.e.e.e.e.e.q.q.q.q.q.9.8.q.e.e.e.e.w.e.e.e.e.e.e.e.e.e.e.e.e.e.e.e.e.e.e.e.e.e.e.e.e.O. .R ) ) ( ) ) ( ( ( ( ( ( ( ( ( ( ( ^ ( ( ( ( W R ) ) ~ ~ Q O.e.e.e.e.e.e.e.q.e.e.e.e.e.e.e.e.e.e.e.e.e.e.e.e.a.q.p.0.0.8.:.:.9.9.9.9.9.9.9.9.9.9.9.9.9.9.9.9.9.9.9.9.9.9.9.9.8.8.w.r.t.,.#.$.>.>.>.>.>.>.>.>.>.>.>.>.>.>.>.>.>.>.>.>.>.>.>.>.} } } } >.#.#.#.>.>.>.>.>.>.>.>.>.>.>.>.>.>.>.>.>.>.>.>.>.>.>.>.} | [ / ^ ) ) / ^ ~ ~ ~ U U ~ ~ U U U ~ ~ U U U ^ ^ ^ ^ ^ ^ ^ ^  ._ ; < < 0 0 0 0 0 0 0 0 0 0 0 0 0 0 0 0 0 0 0 0 0 0 0 0 0 0 0 Y E E E E R R R R R R R R R R R R R R R R R R R Q R ^ R R T B j.e.e.e.e.e.e.e.e.e.e.e.e.e.e.e.e.e.e.e.e.e.e.e.e.8.e.r.8.e.S 8 0 8 8 0 0 0 0 0 0 0 0 0 0 0 0 0 0 0 0 0 0 0 0 0 0 7 0 8 & V i.e.w.e.e.e.e.e.e.e.e.e.e.e.e.e.e.e.e.e.e.e.e.e.r.e.e.9.;.r.w.8.r.:.q.q.q.r.r.q.q.q.q.8.8.e.e.8.8.8.8.8.8.8.8.8.8.8.8.8.8.",
"s = > > s s 0 0 s = > > s s 0 0 0 0 0 0 0 s s s s 0 9 9 0 & C 5X$X$X$X$X$X$X$X$X#X#X#X#X#X#X#X#X#X#X#X#X#X#X#X#X$X$XZ.$X3Xm.e.8.8.8.8.8.8.8.8.8.8.8.e.e.e.8.8.8.8.8.8.8.8.8.e.e.e.8.8.8.e.e.e.e.e.e.e.e.e.e.e.e.e.e.e.e.e.e.e.e.e.e.e.e.e.e.e.e.e.e.e.e.e.e.e.e.e.e.e.e.e.e.e.e.e.e.e.e.e.e.e.e.e.e.e.e.e.e.e.e.e.e.e.e.e.e.e.e.e.e.e.e.e.e.e.e.e.e.e.e.e.e.e.e.e.e.e.e.e.e.e.e.7.y R ( R E E R R R R R R R R R R R R R R R R R R T T E ) ^ ' | e.e.e.e.e.e.e.e.e.e.e.e.e.e.e.e.e.e.e.e.e.e.e.e.e.e.e.e.e.e.e.e.8.8.8.8.e.e.e.e.8.8.8.8.8.8.8.8.8.8.e.e.8.8.8.8.e.0.w.r.w.1.>.<.>.>.>.>.} } >.>.#.#.#.#.#.#.#.#.#.#.#.#.#.#.#.#.#.#.#.#.#.#.#.#.#.#.#.#.#.#.#.#.#.#.#.#.#.#.#.#.#.#.#.#.#.#.#.#.#...] T R ^ E E R R R R R R R R R R R R R R R R R R R R R R W W T y 9 9 0 0 9 0 0 0 0 0 0 0 0 0 0 0 0 0 0 0 0 0 0 0 0 0 0 0 9 9 Y Y R R ^ ^ ^ R R R R R R R R R R R R R R R R R R R R R E T ' k.e.e.e.e.e.e.e.e.e.e.e.e.e.e.e.e.e.e.e.e.e.e.e.e.e.e.r.8.e.S & 0 8 8 0 0 0 0 0 0 0 0 0 0 0 0 0 0 0 0 0 0 0 0 0 0 9 0 8 & V l.e.w.e.e.e.e.e.e.e.e.e.e.e.e.e.e.e.e.e.e.e.e.e.e.e.e.e.e.e.e.e.e.e.e.e.e.e.e.e.e.e.e.e.e.e.e.e.e.e.e.e.e.e.e.e.e.e.e.e.e.",
"0 0 0 0 0 0 0 0 0 0 0 0 0 0 0 0 0 0 0 0 0 0 0 0 s 0 9 9 0 & C 5X$X$X$X$X$X$X$X$X#X#X#X#X#X#X#X#X#X#X#X#X#X#X#X#X$X$XZ.4X3Xm.e.8.8.8.8.8.8.8.8.8.e.8.e.e.8.8.8.8.8.8.8.8.e.8.e.e.8.8.8.8.e.e.e.e.e.e.e.e.e.e.e.e.e.e.e.e.e.e.e.e.e.e.e.e.e.e.e.e.e.e.e.e.e.e.e.e.e.e.e.e.e.e.e.e.e.e.e.e.e.e.e.e.e.e.e.e.e.e.e.e.e.e.e.e.e.e.e.e.e.e.e.e.e.e.e.e.e.e.e.e.e.e.e.e.e.e.e.e.e.e.e.e.7.y R ( R E E R R R R R R R R R R R R R R R R R R T T E ) ^ ' | e.e.e.e.e.e.e.e.e.e.e.e.e.e.e.e.e.e.e.e.e.e.e.e.e.e.e.e.e.e.e.e.e.8.8.8.e.e.e.e.8.8.8.8.8.8.8.8.e.e.e.e.8.8.8.8.e.8.w.r.w.1.>.>.>.>.>.>.} } >.>.#.#.#.#.#.#.#.#.#.#.#.#.#.#.#.#.#.#.#.#.#.#.#.#.#.#.#.#.#.#.#.#.#.#.#.#.#.#.#.#.#.#.#.#.#.#.#.#.#.1.] T R ^ E E R R R R R R R R R R R R R R R R R R R R R R W W T y 9 9 0 0 9 0 0 0 0 0 0 0 0 0 0 0 0 0 0 0 0 0 0 0 0 0 0 0 9 9 Y W R ^ ^ ^ ^ R R R R R R R R R R R R R R R R R R R R R E T ' k.e.e.e.e.e.e.e.e.e.e.e.e.e.e.e.e.e.e.e.e.e.e.e.e.e.e.r.8.e.S & 0 8 8 0 0 0 0 0 0 0 0 0 0 0 0 0 0 0 0 0 0 0 0 0 0 9 0 8 & V l.e.w.e.e.e.e.e.e.e.e.e.e.e.e.e.e.e.e.e.e.e.e.e.e.e.e.e.e.e.e.e.e.e.e.e.e.e.e.e.e.e.e.e.e.e.e.e.e.e.e.e.e.e.e.e.e.e.e.e.e.",
"0 0 0 0 0 0 0 0 0 0 0 0 0 0 0 0 0 0 0 0 0 0 0 0 s = 9 9 0 & C 5X$X$X$X$X$X$X$X$X#X#X#X#X#X#X#X#X#X#X#X#X#X#X#X#X$X$XZ.4X3Xm.r.8.e.e.8.8.8.8.e.e.e.e.e.e.e.8.8.8.8.8.e.e.e.e.e.e.e.8.8.8.e.e.e.e.e.e.e.e.e.e.e.e.e.e.e.e.e.e.e.e.e.e.e.e.e.e.e.e.e.e.e.e.e.e.e.e.e.e.e.e.e.e.e.e.e.e.e.e.e.e.e.e.e.e.e.e.e.e.e.e.e.e.e.e.e.e.e.e.e.e.e.e.e.e.e.e.e.e.e.e.e.e.e.e.e.e.e.e.e.e.e.e.7.y R ( R E E R R R R R R R R R R R R R R R R R R E T E ( ^ T | e.e.e.e.e.e.e.e.e.e.e.e.e.e.e.e.e.e.e.e.e.e.e.e.e.e.e.e.e.e.e.e.e.e.8.8.e.e.e.e.e.e.8.8.8.8.e.e.e.e.e.e.e.e.8.8.r.8.w.w.w.1.>.>.>.>.>.>.>.>.>.>.#.#.#.#.#.#.#.#.#.#.#.#.#.#.#.#.#.#.#.#.#.#.#.#.#.#.#.#.#.#.#.#.#.#.#.#.#.#.#.#.#.#.#.#.#.#.#.#.#.1.] T R ^ E E R R R R R R R R R R R R R R R R R R R R R R W W Q y 9 9 0 0 9 0 0 0 0 0 0 0 0 0 0 0 0 0 0 0 0 0 0 0 0 0 0 0 9 9 Y W R ^ ^ ^ ^ R R R R R R R R R R R R R R R R R R R R R E T ' s.e.e.e.e.e.e.e.e.e.e.e.e.e.e.e.e.e.e.e.e.e.e.e.e.e.e.r.8.e.S 8 0 8 8 0 0 0 0 0 0 0 0 0 0 0 0 0 0 0 0 0 0 0 0 0 0 9 0 8 & Z l.e.w.e.e.e.e.e.e.e.e.e.e.e.e.e.e.e.e.e.e.e.e.e.e.e.e.e.e.e.e.e.e.e.e.e.e.e.e.e.e.e.e.e.e.e.e.e.e.e.e.e.e.e.e.e.e.e.e.e.e.",
"0 0 0 0 0 0 0 0 0 0 0 0 0 0 0 0 0 0 0 0 0 0 0 0 s 0 9 9 0 & C 5X$X$X$X$X$X$X$X$X#X#X#X#X#X#X#X#X#X#X#X#X#X#X#X#X$X$XZ.$X3Xm.r.8.e.8.8.8.e.e.e.e.e.e.e.e.e.8.8.8.e.e.e.e.e.e.e.e.e.8.8.8.e.e.e.e.e.e.e.e.e.e.e.e.e.e.e.e.e.e.e.e.e.e.e.e.e.e.e.e.e.e.e.e.e.e.e.e.e.e.e.e.e.e.e.e.e.e.e.e.e.e.e.e.e.e.e.e.e.e.e.e.e.e.e.e.e.e.e.e.e.e.e.e.e.e.e.e.e.e.e.e.e.e.e.e.e.e.e.e.e.e.e.e.7.y R ( R E E R R R R R R R R R R R R R R R R R ^ E Y E ( ^ T | e.e.e.e.e.e.e.e.e.e.e.e.e.e.e.e.e.e.e.e.e.e.e.e.e.e.e.e.e.e.e.e.e.e.8.8.8.8.e.e.e.8.8.8.8.e.e.e.e.e.e.e.e.8.8.8.r.8.0.e.w.1.>.>.>.>.>.>.>.>.>.>.#.#.#.#.#.#.#.#.#.#.#.#.#.#.#.#.#.#.#.#.#.#.#.#.#.#.#.#.#.#.#.#.#.#.#.#.#.#.#.#.#.#.#.#.#.#.#.#.#.1.] T R ^ E E R R R R R R R R R R R R R R R R R R R R R R W W Q y 9 9 0 8 9 0 0 0 0 0 0 0 0 0 0 0 0 0 0 0 0 0 0 0 0 0 0 0 9 9 Y W R ^ ^ ^ ^ R R R R R R R R R R R R R R R R R R R R R E T ' d.e.e.e.e.e.e.e.e.e.e.e.e.e.e.e.e.e.e.e.e.e.e.e.e.e.e.r.8.e.S 8 0 8 8 0 0 0 0 0 0 0 0 0 0 0 0 0 0 0 0 0 0 0 0 0 0 9 0 8 & V l.e.w.e.e.e.e.e.e.e.e.e.e.e.e.e.e.e.e.e.e.e.e.e.e.e.e.e.e.e.e.e.e.e.e.e.e.e.e.e.e.e.e.e.e.e.e.e.e.e.e.e.e.e.e.e.e.e.e.e.e.",
"0 0 0 0 0 0 0 0 0 0 0 0 0 0 0 0 0 0 0 0 0 0 0 0 0 0 9 9 0 & C 5X$X$X$X$X$X$X$X$X#X#X#X#X#X#X#X#X#X#X#X#X#X#X#X#X$X$XZ.$X3XM.e.8.e.e.8.8.8.8.e.e.e.e.8.8.e.e.e.e.e.e.e.e.e.e.e.e.e.e.8.8.e.e.e.e.e.e.e.e.e.e.e.e.e.e.e.e.e.e.e.e.e.e.e.e.e.e.e.e.e.e.e.e.e.e.e.e.e.e.e.e.e.e.e.e.e.e.e.e.e.e.e.e.e.e.e.e.e.e.e.e.e.e.e.e.e.e.e.e.e.e.e.e.e.e.e.e.e.e.e.e.e.e.e.e.e.e.e.e.e.e.e.e.7._ R ( R E E R R R R R R R R R R R R R R R R R ^ E Y W ( R T | r.r.e.e.e.e.e.r.e.e.e.e.e.e.e.e.e.e.e.e.e.e.e.e.e.e.e.e.e.e.e.e.e.e.e.e.8.8.8.8.e.e.8.8.8.8.e.e.e.e.8.8.e.e.e.e.r.8.0.e.w.1.>.>.} } >.>.>.>.>.>.#.#.#.#.#.#.#.#.#.#.#.#.#.#.#.#.#.#.#.#.#.#.#.#.#.#.#.#.#.#.#.#.#.#.#.#.#.#.#.#.#.#.#.#.#.#.#.#.#.1.] T R ^ E E R R R R R R R R R R R R R R R R R R R R R R W ~ T u 9 9 0 0 9 0 0 0 0 0 0 0 0 0 0 0 0 0 0 0 0 0 0 0 0 0 0 0 9 9 Y E R ^ ^ ^ ^ R R R R R R R R R R R R R R R R R R R R R E T ' d.e.e.e.e.e.e.e.e.e.e.e.e.e.e.e.e.e.e.e.e.e.e.e.e.e.e.r.8.e.S & 0 8 8 0 0 0 0 0 0 0 0 0 0 0 0 0 0 0 0 0 0 0 0 0 0 9 8 8 & V l.e.w.e.e.e.e.e.e.e.e.e.e.e.e.e.e.e.e.e.e.e.e.e.e.e.e.e.e.e.e.e.e.e.e.e.e.e.e.e.e.e.e.e.e.e.e.e.e.e.e.e.e.e.e.e.e.e.e.e.e.",
"0 0 0 0 0 0 0 0 0 0 0 0 0 0 0 0 0 0 0 0 0 0 0 0 0 0 9 9 0 & C 5X$X$X$X$X$X$X$X$X#X#X#X#X#X#X#X#X#X#X#X#X#X#X#X#X$X$XZ.$X3Xm.r.8.e.e.8.8.8.8.e.e.e.8.8.8.e.e.e.e.e.e.e.e.8.e.e.e.e.e.8.8.e.e.e.e.e.e.e.e.e.e.e.e.e.e.e.e.e.e.e.e.e.e.e.e.e.e.e.e.e.e.e.e.e.e.e.e.e.e.e.e.e.e.e.e.e.e.e.e.e.e.e.e.e.e.e.e.e.e.e.e.e.e.e.e.e.e.e.e.e.e.e.e.e.e.e.e.e.e.e.e.e.e.e.e.e.e.e.e.e.e.e.e.7._ R ( R E E R R R R R R R R R R R R R R R R R ^ W Y W ( R T | e.e.e.e.e.e.e.r.e.e.e.e.e.e.e.e.e.e.e.e.e.e.e.e.e.e.e.e.e.e.e.e.e.e.e.e.8.8.8.8.e.e.8.8.8.8.e.e.e.e.8.8.e.e.e.e.q.8.0.e.w.1.#.>.>.} >.>.} >.>.>.#.#.#.#.#.#.#.#.#.#.#.#.#.#.#.#.#.#.#.#.#.#.#.#.#.#.#.#.#.#.#.#.#.#.#.#.#.#.#.#.#.#.#.#.#.#.#.#.#.1.] T R ^ E E R R R R R R R R R R R R R R R R R R R R R R W ~ T u 9 9 0 8 9 0 0 0 0 0 0 0 0 0 0 0 0 0 0 0 0 0 0 0 0 0 0 0 9 9 Y E R R ^ ^ ^ R R R R R R R R R R R R R R R R R R R R R E T ' d.e.e.e.e.e.e.e.e.e.e.e.e.e.e.e.e.e.e.e.e.e.e.e.e.e.e.r.8.e.S & 0 8 0 0 0 0 0 0 0 0 0 0 0 0 0 0 0 0 0 0 0 0 0 0 0 9 8 8 & V l.e.w.e.e.e.e.e.e.e.e.e.e.e.e.e.e.e.e.e.e.e.e.e.e.e.e.e.e.e.e.e.e.e.e.e.e.e.e.e.e.e.e.e.e.e.e.e.e.e.e.e.e.e.e.e.e.e.e.e.e.",
"0 0 0 0 0 0 0 0 0 0 0 0 0 0 0 0 0 0 0 0 0 0 0 0 0 0 9 9 0 & C 5X$X$X$X$X$X$X$X$X#X#X#X#X#X#X#X#X#X#X#X#X#X#X#X#X$X$XZ.$X3Xm.8.8.e.e.e.8.8.8.e.e.e.e.8.8.8.8.e.e.8.8.8.8.8.8.e.e.e.e.e.e.e.e.e.e.e.e.e.e.e.e.e.e.e.e.e.e.e.e.e.e.e.e.e.e.e.e.e.e.e.e.e.e.e.e.e.e.e.e.e.e.e.e.e.e.e.e.e.e.e.e.e.e.e.e.e.e.e.e.e.e.e.e.e.e.e.e.e.e.e.e.e.e.e.e.e.e.e.e.e.e.e.e.e.e.e.e.e.e.e.e.e.e.7.y R ( R R E R R R R R R R R R R R R R R R R R R W Y W ( U T | e.e.e.e.e.e.r.e.e.e.e.e.e.e.e.e.e.e.e.e.e.e.e.e.e.e.e.e.e.e.e.e.8.8.e.8.8.8.e.e.e.e.e.8.8.e.e.e.e.e.8.8.8.8.e.e.q.8.0.e.w.1.#.>.>.>.>.>.} } >.>.#.#.#.#.#.#.#.#.#.#.#.#.#.#.#.#.#.#.#.#.#.#.#.#.#.#.#.#.#.#.#.#.#.#.#.#.#.#.#.#.#.#.#.#.#.#.#.#.#...] T R ^ E E R R R R R R R R R R R R R R R R R R R R R R W ~ T u 9 9 0 8 9 0 0 0 0 0 0 0 0 0 0 0 0 0 0 0 0 0 0 0 0 0 0 0 9 9 Y W R R ^ ^ ^ R R R R R R R R R R R R R R R R R R R R R E T ' d.e.e.e.e.e.e.e.e.e.e.e.e.e.e.e.e.e.e.e.e.e.e.e.e.e.e.r.8.e.S & 0 0 0 0 0 0 0 0 0 0 0 0 0 0 0 0 0 0 0 0 0 0 0 0 0 7 8 8 & V l.e.w.e.e.e.e.e.e.e.e.e.e.e.e.e.e.e.e.e.e.e.e.e.e.e.e.e.e.e.e.e.e.e.e.e.e.e.e.e.e.e.e.e.e.e.e.e.e.e.e.e.e.e.e.e.e.e.e.e.e.",
"0 0 0 0 0 0 0 0 0 0 0 0 0 0 0 0 0 0 0 0 0 0 0 0 0 0 9 9 0 & C 5X$X$X$X$X$X$X$X$X#X#X#X#X#X#X#X#X#X#X#X#X#X#X#X#X$X$XZ.$X3Xm.8.8.e.e.e.e.8.8.e.e.e.e.8.8.8.8.e.e.8.8.8.8.8.8.e.e.e.e.e.e.e.e.e.e.e.e.e.e.e.e.e.e.e.e.e.e.e.e.e.e.e.e.e.e.e.e.e.e.e.e.e.e.e.e.e.e.e.e.e.e.e.e.e.e.e.e.e.e.e.e.e.e.e.e.e.e.e.e.e.e.e.e.e.e.e.e.e.e.e.e.e.e.e.e.e.e.e.e.e.e.e.e.e.e.e.e.e.e.e.e.e.e.7._ R ( R E E R R R R R R R R R R R R R R R R R R W Y W ( U T | e.e.e.e.e.e.e.e.e.e.e.e.e.e.e.e.e.e.e.e.e.e.e.e.e.e.e.e.e.e.e.e.8.8.8.8.8.8.8.e.e.e.e.e.8.8.e.e.e.e.8.8.8.8.8.e.q.8.0.e.0.1.#.#.>.>.>.>.} } >.>.#.#.#.#.#.#.#.#.#.#.#.#.#.#.#.#.#.#.#.#.#.#.#.#.#.#.#.#.#.#.#.#.#.#.#.#.#.#.#.#.#.#.#.#.#.#.#.#.#.1.] T R ^ E E R R R R R R R R R R R R R R R R R R R R R R W ~ T u 9 9 0 8 9 0 0 0 0 0 0 0 0 0 0 0 0 0 0 0 0 0 0 0 0 0 0 0 9 9 Y E R R / ^ ^ R R R R R R R R R R R R R R R R R R R R R W T ' d.e.e.e.e.e.e.e.e.e.e.e.e.e.e.e.e.e.e.e.e.e.e.e.e.e.e.r.8.e.S 8 0 0 0 0 0 0 0 0 0 0 0 0 0 0 0 0 0 0 0 0 0 0 0 0 0 9 8 8 & V l.e.w.e.e.e.e.e.e.e.e.e.e.e.e.e.e.e.e.e.e.e.e.e.e.e.e.e.e.e.e.e.e.e.e.e.e.e.e.e.e.e.e.e.e.e.e.e.e.e.e.e.e.e.e.e.e.e.e.e.e.",
"0 0 0 0 0 0 0 0 0 0 0 0 0 0 0 0 0 0 0 0 0 0 0 0 0 8 9 9 0 8 C 5X$X$X$X$X$X$X$X$X$X$X$X$X$X$X$X$X#X#X#X#X#X#X#X#X$X$XZ.$X4Xm.e.8.e.e.e.e.8.8.e.e.e.e.8.8.8.8.e.e.e.e.e.e.8.8.e.e.8.8.8.8.e.e.e.e.e.e.e.e.e.e.e.e.e.e.e.e.e.e.e.e.e.e.e.e.e.e.e.e.e.e.e.e.e.e.e.e.e.e.e.e.e.e.e.e.e.e.e.e.e.e.e.e.e.e.e.e.e.e.e.e.e.e.e.e.e.e.e.e.e.e.e.e.e.e.e.e.e.e.e.e.e.e.e.e.e.e.e.e.e.e.e.e.7.y R ( R E E W R R R R R R R R R R R R R R R R R E T W ( R T | e.e.e.e.e.e.e.e.e.e.e.e.e.e.e.e.e.e.e.e.e.e.e.e.e.e.e.e.e.e.e.e.8.8.8.8.8.8.e.e.e.e.e.e.8.8.e.e.e.e.8.8.8.e.e.e.e.0.0.e.6.1.#.>.#.#.#.#.#.#.#.#.#.#.#.#.#.#.#.#.#.#.#.#.#.#.#.#.#.#.#.#.#.#.#.#.#.#.#.#.#.#.#.#.#.#.#.#.#.#.#.#.#.#.#.#.#.#.#.#.#...] T R ^ W W R R R R R R R R R R R R R R R R ^ ^ R E E R ^ ~ T y 9 9 0 0 9 0 0 0 0 0 0 0 0 0 0 0 0 0 0 0 0 0 0 0 0 0 0 0 9 9 Y E R ^ ^ ^ ^ R R R R R R R R R R R R R R R R R / R ^ U E T { d.e.e.e.e.e.e.e.e.e.e.e.e.e.e.e.e.e.e.e.e.e.e.e.e.e.e.r.8.e.S & 0 8 8 0 0 0 0 0 0 0 0 0 0 0 0 0 0 0 0 0 0 0 0 0 0 9 0 8 & V l.e.w.e.e.e.e.e.e.e.e.e.e.e.e.e.e.e.e.e.e.e.e.e.e.e.e.e.e.e.e.e.e.e.e.e.e.e.e.e.e.e.e.e.e.e.e.e.e.e.e.e.e.e.e.e.e.e.e.e.e.",
"0 0 0 0 0 0 0 0 0 0 0 0 0 0 0 0 0 0 0 0 0 0 0 0 0 8 9 9 0 8 C 5X$X$X$X$X$X$X$X$X$X$X$X$X$X$X$X$X#X#X#X#X#X#X#X#X$X$XZ.$X4Xm.8.8.e.e.e.8.8.8.e.e.e.e.8.8.8.8.e.e.e.e.e.e.8.8.e.8.8.8.8.8.e.e.e.e.e.e.e.e.e.e.e.e.e.e.e.e.e.e.e.e.e.e.e.e.e.e.e.e.e.e.e.e.e.e.e.e.e.e.e.e.e.e.e.e.e.e.e.e.e.e.e.e.e.e.e.e.e.e.e.e.e.e.e.e.e.e.e.e.e.e.e.e.e.e.e.e.e.e.e.e.e.e.e.e.e.e.e.e.e.e.e.e.7.y R ( R E E W R R R R R R R R R R R R R R R R R E Y W ( R E | e.e.r.r.e.e.e.e.e.e.e.e.e.e.e.e.e.e.e.e.e.e.e.e.e.e.e.e.e.e.e.e.8.8.8.8.8.8.e.e.e.e.e.e.8.8.8.e.e.e.8.8.8.8.e.e.e.8.0.e.0.1.#.>.#.#.#.#.#.#.#.#.#.#.#.#.#.#.#.#.#.#.#.#.#.#.#.#.#.#.#.#.#.#.#.#.#.#.#.#.#.#.#.#.#.#.#.#.#.#.#.#.#.#.#.#.#.#.#.#.#...] T R ^ R R R R R R R R R R R R R R R R R R ^ ^ R E E R ^ ~ T y 9 9 0 0 9 0 0 0 0 0 0 0 0 0 0 0 0 0 0 0 0 0 0 0 0 0 0 0 9 9 Y E R ^ ^ ^ ^ R R R R R R R R R R R R R R R R R / R ^ R E T { d.e.e.e.e.e.e.e.e.e.e.e.e.e.e.e.e.e.e.e.e.e.e.e.e.e.e.r.8.e.S & 0 8 8 0 0 0 0 0 0 0 0 0 0 0 0 0 0 0 0 0 0 0 0 0 0 7 8 8 & V l.e.w.e.e.e.e.e.e.e.e.e.e.e.e.e.e.e.e.e.e.e.e.e.e.e.e.e.e.e.e.e.e.e.e.e.e.e.e.e.e.e.e.e.e.e.e.e.e.e.e.e.e.e.e.e.e.e.e.e.e.",
"0 0 0 0 0 0 0 0 0 0 0 0 0 0 0 0 0 0 0 0 0 0 0 0 0 8 9 9 0 8 C 5X$X$X$X$X$X$X$X$X$X$X$X$X$X$X$X$X#X#X#X#X#X#X#X#X$X$XZ.$X4Xm.q.8.e.e.8.8.8.8.e.e.e.8.8.8.e.e.e.e.e.e.e.8.8.8.8.8.e.e.8.8.e.e.e.e.e.e.e.e.e.e.e.e.e.e.e.e.e.e.e.e.e.e.e.e.e.e.e.e.e.e.e.e.e.e.e.e.e.e.e.e.e.e.e.e.e.e.e.e.e.e.e.e.e.e.e.e.e.e.e.e.e.e.e.e.e.e.e.e.e.e.e.e.e.e.e.e.e.e.e.e.e.e.e.e.e.e.e.e.e.e.e.e.7.y R ( R E E W R R R R R R R R R R R R R R R R R E T W ( R E | e.e.e.r.r.e.e.e.e.e.e.e.e.e.e.e.e.e.e.e.e.e.e.e.e.e.e.e.e.e.e.e.e.e.e.e.8.e.e.e.e.e.8.8.8.8.e.e.e.8.8.8.e.e.e.e.q.8.0.e.w.1.#.>.#.#.#.#.#.#.#.#.#.#.#.#.#.#.#.#.#.#.#.#.#.#.#.#.#.#.#.#.#.#.#.#.#.#.#.#.#.#.#.#.#.#.#.#.#.#.#.#.#.#.#.#.#.#.#.#.#...] T R ^ R W R R R R R R R R R R R R R R R R ^ ^ R E E R ^ ~ Q y 9 9 0 0 9 0 0 0 0 0 0 0 0 0 0 0 0 0 0 0 0 0 0 0 0 0 0 0 9 9 Y E R ^ ^ ^ ^ R R R R R R R R R R R R R R R R R / R ^ R E T { d.e.e.e.e.e.e.e.e.e.e.e.e.e.e.e.e.e.e.e.e.e.e.e.e.e.e.r.8.e.S 8 0 8 8 0 0 0 0 0 0 0 0 0 0 0 0 0 0 0 0 0 0 0 0 0 0 7 8 8 & V l.e.w.e.e.e.e.e.e.e.e.e.e.e.e.e.e.e.e.e.e.e.e.e.e.e.e.e.e.e.e.e.e.e.e.e.e.e.e.e.e.e.e.e.e.e.e.e.e.e.e.e.e.e.e.e.e.e.e.e.e.",
"0 0 0 0 0 0 0 0 0 0 0 0 0 0 0 0 0 0 0 0 0 0 0 0 0 8 9 9 0 8 C 5X$X$X$X$X$X$X$X$X$X$X$X$X$X$X$X$X#X#X#X#X#X#X#X#X$X$XZ.$X4Xm.q.8.e.e.8.8.8.8.e.e.e.e.8.8.e.e.e.e.e.e.e.8.8.8.8.8.e.e.8.8.e.e.e.e.e.e.e.e.e.e.e.e.e.e.e.e.e.e.e.e.e.e.e.e.e.e.e.e.e.e.e.e.e.e.e.e.e.e.e.e.e.e.e.e.e.e.e.e.e.e.e.e.e.e.e.e.e.e.e.e.e.e.e.e.e.e.e.e.e.e.e.e.e.e.e.e.e.e.e.e.e.e.e.e.e.e.e.e.e.e.e.e.7._ R ( R E E W R R R R R R R R R R R R R R R R R E T W ( R E | e.e.e.e.r.e.e.e.e.e.e.e.e.e.e.e.e.e.e.e.e.e.e.e.e.e.e.e.e.e.e.e.e.e.e.e.e.e.e.e.e.e.8.8.8.8.e.e.e.8.8.8.e.e.e.e.q.8.0.e.w.1.#.>.#.#.#.#.#.#.#.#.#.#.#.#.#.#.#.#.#.#.#.#.#.#.#.#.#.#.#.#.#.#.#.#.#.#.#.#.#.#.#.#.#.#.#.#.#.#.#.#.#.#.#.#.#.#.#.#.#...] T R ^ W W R R R R R R R R R R R R R R R R ^ ^ R E E R ^ ~ Q y 9 9 0 8 9 0 0 0 0 0 0 0 0 0 0 0 0 0 0 0 0 0 0 0 0 0 0 0 9 9 Y E R ^ ^ ^ ^ R R R R R R R R R R R R R R R R R / R ^ R R T { k.e.e.e.e.e.e.e.e.e.e.e.e.e.e.e.e.e.e.e.e.e.e.e.e.e.e.r.8.e.S 8 0 8 8 0 0 0 0 0 0 0 0 0 0 0 0 0 0 0 0 0 0 0 0 0 0 7 8 8 & V l.e.w.e.e.e.e.e.e.e.e.e.e.e.e.e.e.e.e.e.e.e.e.e.e.e.e.e.e.e.e.e.e.e.e.e.e.e.e.e.e.e.e.e.e.e.e.e.e.e.e.e.e.e.e.e.e.e.e.e.e.",
"0 0 0 0 0 0 0 0 0 0 0 0 0 0 0 0 0 0 0 0 0 0 0 0 0 8 9 9 0 8 C 5X$X$X$X$X$X$X$X$X$X$X$X$X$X$X$X$X#X#X#X#X#X#X#X#X$X$XZ.$X3XM.e.8.e.8.8.8.e.e.e.e.e.e.e.e.e.8.8.8.8.8.8.8.e.e.8.8.e.e.e.e.e.e.e.e.e.e.e.e.e.e.e.e.e.e.e.e.e.e.e.e.e.e.e.e.e.e.e.e.e.e.e.e.e.e.e.e.e.e.e.e.e.e.e.e.e.e.e.e.e.e.e.e.e.e.e.e.e.e.e.e.e.e.e.e.e.e.e.e.e.e.e.e.e.e.e.e.e.e.e.e.e.e.e.e.e.e.e.e.e.e.e.e.7._ R ( R E E W R R R R R R R R R R R R R R R R R E T W ( R T | e.e.e.e.e.e.e.e.e.e.e.e.e.e.e.e.e.e.e.e.e.e.e.e.e.e.e.e.e.e.e.e.e.e.e.e.e.e.e.e.e.8.8.8.e.e.e.e.e.e.e.e.e.8.8.8.q.8.0.e.w.1.#.>.#.#.#.#.#.#.#.#.#.#.#.#.#.#.#.#.#.#.#.#.#.#.#.#.#.#.#.#.#.#.#.#.#.#.#.#.#.#.#.#.#.#.#.#.#.#.#.#.#.#.#.#.#.#.#.#.#...] T R ^ W W R R R R R R R R R R R R R R R R ^ ^ R E E R ^ ~ T u 9 9 0 8 9 0 0 0 0 0 0 0 0 0 0 0 0 0 0 0 0 0 0 0 0 0 0 0 9 9 Y E R ^ ^ ^ ^ R R R R R R R R R R R R R R R R R / R ^ R E T { d.e.e.e.e.e.e.e.e.e.e.e.e.e.e.e.e.e.e.e.e.e.e.e.e.e.e.r.8.e.S & 0 8 8 0 0 0 0 0 0 0 0 0 0 0 0 0 0 0 0 0 0 0 0 0 0 9 0 8 & V l.e.w.e.e.e.e.e.e.e.e.e.e.e.e.e.e.e.e.e.e.e.e.e.e.e.e.e.e.e.e.e.e.e.e.e.e.e.e.e.e.e.e.e.e.e.e.e.e.e.e.e.e.e.e.e.e.e.e.e.e.",
"0 0 0 0 0 0 0 0 0 0 0 0 0 0 0 0 0 0 0 0 0 0 0 0 0 8 9 9 0 8 C 5X$X$X$X$X$X$X$X$X$X$X$X$X$X$X$X$X#X#X#X#X#X#X#X#X$X$XZ.$X3XM.e.8.e.e.8.8.8.8.e.e.e.e.e.e.e.8.8.8.8.8.8.8.e.e.e.8.e.e.e.e.e.e.e.e.e.e.e.e.e.e.e.e.e.e.e.e.e.e.e.e.e.e.e.e.e.e.e.e.e.e.e.e.e.e.e.e.e.e.e.e.e.e.e.e.e.e.e.e.e.e.e.e.e.e.e.e.e.e.e.e.e.e.e.e.e.e.e.e.e.e.e.e.e.e.e.e.e.e.e.e.e.e.e.e.e.e.e.e.e.e.e.e.7._ R ( R E E W R R R R R R R R R R R R R R R R R E T W ( R T | e.e.e.e.e.e.e.e.e.e.e.e.e.e.e.e.e.e.e.e.e.e.e.e.e.e.e.e.e.e.e.e.8.8.e.e.e.e.e.e.e.8.8.8.e.8.e.e.e.e.e.e.8.8.8.8.q.8.0.e.w.1.#.>.#.#.#.#.#.#.#.#.#.#.#.#.#.#.#.#.#.#.#.#.#.#.#.#.#.#.#.#.#.#.#.#.#.#.#.#.#.#.#.#.#.#.#.#.#.#.#.#.#.#.#.#.#.#.#.#.#...] T R ^ W W R R R R R R R R R R R R R R R R ^ ^ R E E R ^ ~ T u 9 9 0 8 9 0 0 0 0 0 0 0 0 0 0 0 0 0 0 0 0 0 0 0 0 0 0 0 9 9 Y E R ^ ^ ^ ^ R R R R R R R R R R R R R R R R R / R ^ U E T { d.e.e.e.e.e.e.e.e.e.e.e.e.e.e.e.e.e.e.e.e.e.e.e.e.e.e.r.8.e.S & 0 8 8 0 0 0 0 0 0 0 0 0 0 0 0 0 0 0 0 0 0 0 0 0 0 9 0 8 & V l.e.w.e.e.e.e.e.e.e.e.e.e.e.e.e.e.e.e.e.e.e.e.e.e.e.e.e.e.e.e.e.e.e.e.e.e.e.e.e.e.e.e.e.e.e.e.e.e.e.e.e.e.e.e.e.e.e.e.e.e.",
"0 0 0 0 0 0 0 0 0 0 0 0 0 0 0 0 0 0 0 0 0 0 0 0 0 8 9 9 0 8 C 5X$X$X$X$X$X$X$X$X$X$X$X$X$X$X$X$X#X#X#X#X#X#X#X#X$X$XZ.$X3XM.e.8.8.8.8.8.8.8.8.8.e.8.e.e.8.8.8.8.8.8.e.e.e.e.8.8.8.8.e.e.e.e.e.e.e.e.e.e.e.e.e.e.e.e.e.e.e.e.e.e.e.e.e.e.e.e.e.e.e.e.e.e.e.e.e.e.e.e.e.e.e.e.e.e.e.e.e.e.e.e.e.e.e.e.e.e.e.e.e.e.e.e.e.e.e.e.e.e.e.e.e.e.e.e.e.e.e.e.e.e.e.e.e.e.e.e.e.e.e.e.e.e.7.y R ( R E E W R R R R R R R R R R R R R R R R R E Y W ( R T | e.e.r.e.e.e.e.e.e.e.e.e.e.e.e.e.e.e.e.e.e.e.e.e.e.e.e.e.e.e.e.e.8.8.8.8.e.8.e.e.8.8.8.8.8.8.8.8.8.8.e.e.e.8.8.8.q.8.0.e.w.1.#.>.#.#.#.#.#.#.#.#.#.#.#.#.#.#.#.#.#.#.#.#.#.#.#.#.#.#.#.#.#.#.#.#.#.#.#.#.#.#.#.#.#.#.#.#.#.#.#.#.#.#.#.#.#.#.#.#.#...] T W ^ W W R R R R R R R R R R R R R R R R ^ ^ R E E E ^ ~ T u 9 9 0 8 9 0 0 0 0 0 0 0 0 0 0 0 0 0 0 0 0 0 0 0 0 0 0 0 9 9 Y Y R ^ ^ ^ ^ R R R R R R R R R R R R R R R R R / R ^ R E T { s.e.e.e.e.e.e.e.e.e.e.e.e.e.e.e.e.e.e.e.e.e.e.e.e.e.e.r.8.e.S & 0 8 8 0 0 0 0 0 0 0 0 0 0 0 0 0 0 0 0 0 0 0 0 0 0 9 0 8 & V l.e.w.e.e.e.e.e.e.e.e.e.e.e.e.e.e.e.e.e.e.e.e.e.e.e.e.e.e.e.e.e.e.e.e.e.e.e.e.e.e.e.e.e.e.e.e.e.e.e.e.e.e.e.e.e.e.e.e.e.e.",
"0 0 0 0 0 0 0 0 0 0 0 0 0 0 0 0 0 0 0 0 0 0 0 0 0 8 9 9 0 8 C 5X$X$X$X$X$X$X$X$X$X$X$X$X$X$X$X$X#X#X#X#X#X#X#X#X$X$XZ.4X3XM.e.8.8.8.8.8.8.8.8.8.8.8.e.e.e.8.8.8.8.e.e.e.e.e.8.8.8.8.8.8.e.e.e.e.e.e.e.e.e.e.e.e.e.e.e.e.e.e.e.e.e.e.e.e.e.e.e.e.e.e.e.e.e.e.e.e.e.e.e.e.e.e.e.e.e.e.e.e.e.e.e.e.e.e.e.e.e.e.e.e.e.e.e.e.e.e.e.e.e.e.e.e.e.e.e.e.e.e.e.e.e.e.e.e.e.e.e.e.e.e.e.e.7.y R ( R E E W R R R R R R R R R R R R R R R R R E Y W ( R ' | e.e.r.r.e.e.e.e.e.e.e.e.e.e.e.e.e.e.e.e.e.e.e.e.e.e.e.e.e.e.e.e.8.8.8.8.8.8.e.e.e.8.8.8.8.8.8.8.8.8.e.e.e.8.8.8.q.8.0.e.w.1.#.>.#.#.#.#.#.#.#.#.#.#.#.#.#.#.#.#.#.#.#.#.#.#.#.#.#.#.#.#.#.#.#.#.#.#.#.#.#.#.#.#.#.#.#.#.#.#.#.#.#.#.#.#.#.#.#.#.#...] Y W ^ W W R R R R R R R R R R R R R R R R ^ R R E E E R ~ T u 9 9 0 8 9 0 0 0 0 0 0 0 0 0 0 0 0 0 0 0 0 0 0 0 0 0 0 0 9 9 Y Y R ^ ^ ^ ^ R R R R R R R R R R R R R R R R R / R ^ R E T { s.e.e.e.e.e.e.e.e.e.e.e.e.e.e.e.e.e.e.e.e.e.e.e.e.e.e.r.8.e.S 8 0 0 0 0 0 0 0 0 0 0 0 0 0 0 0 0 0 0 0 0 0 0 0 0 0 9 0 8 & V l.e.w.e.e.e.e.e.e.e.e.e.e.e.e.e.e.e.e.e.e.e.e.e.e.e.e.e.e.e.e.e.e.e.e.e.e.e.e.e.e.e.e.e.e.e.e.e.e.e.e.e.e.e.e.e.e.e.e.e.e.",
"0 0 0 0 0 0 0 = = = 0 0 0 0 0 0 = = = = = = 0 0 0 0 9 9 0 & k 5X%X%X#X#X$X$X$XA.$X$X$X$X$X$X$X$X#X#X#X#X#X#X#X#X#X#X#X$X#Xv.9.q.e.e.e.e.e.e.8.8.8.e.e.e.e.e.e.e.e.e.8.8.8.8.e.e.8.8.8.8.e.e.e.e.e.e.e.e.e.e.e.e.e.e.e.e.e.e.e.e.e.e.e.e.e.e.e.e.e.e.e.e.e.e.e.e.e.e.e.e.e.e.e.e.e.e.e.e.e.e.e.e.e.e.e.e.e.e.e.e.e.e.e.e.e.e.e.e.e.e.e.e.e.e.e.e.e.e.e.e.e.e.e.e.e.e.e.e.e.e.e.e.7.y R ( R R E ^ R R R R R R R R R R R R R R R R R E T W ( R T | e.e.e.e.e.e.e.e.e.e.e.r.r.e.e.e.e.e.e.e.e.e.e.e.e.e.e.e.e.e.e.r.8.8.e.e.e.e.e.e.e.e.e.e.e.e.8.8.e.e.e.e.e.e.e.e.r.8.0.e.w.*.#.#.} } >.>.>.>.} } >.>.>.>.} } >.>.>.>.} } >.>.>.>.#.#.#.#.#.#.#.#.#.#.#.#.#.#.#.#.#.#.#.#.#.#.#.#.#.#.#.#.#.#.#.#.>.<.] T W ( ^ ( R R R R R R R R E E E E E R R R R R R R R R R R { y 9 0 0 0 0 0 0 0 0 0 0 0 0 0 0 0 0 0 0 0 0 0 9 9 9 9 9 9 9 9 T Y W R ~ ^ R E ^ ^ ^ ^ ^ ^ ^ ^ ^ ^ ^ ^ ^ ^ ^ ^ E R ^ R R T ' j.e.e.e.e.e.e.e.e.e.e.e.e.e.e.e.e.e.e.e.e.e.e.e.e.e.e.r.8.e.S & 0 0 0 0 0 0 0 0 0 = = = = = = 0 0 0 = = = 0 0 0 = 9 0 8 o C i.0.0.e.e.e.e.e.e.e.e.e.e.e.e.e.e.e.e.e.e.e.e.e.e.e.e.e.e.e.e.e.e.e.e.e.e.e.e.e.e.e.e.e.e.e.e.e.e.e.e.e.e.e.e.e.e.e.e.e.e.",
"0 0 0 0 0 0 = = = = 0 0 0 0 0 0 0 0 = = 0 0 0 0 0 0 9 9 0 & k 5X#X#X#X$X$X$X$X$X#X#X#X#X#X#X#X#X#X#X#X#X#X#X#X#X#X#X#X$X#Xv.9.q.e.e.e.e.e.e.8.8.8.8.e.e.e.8.e.e.e.e.8.8.8.8.e.e.e.e.8.8.e.e.e.e.e.e.e.e.e.e.e.e.e.e.e.e.e.e.e.e.e.e.e.e.e.e.e.e.e.e.e.e.e.e.e.e.e.e.e.e.e.e.e.e.e.e.e.e.e.e.e.e.e.e.e.e.e.e.e.e.e.e.e.e.e.e.e.e.e.e.e.e.e.e.e.e.e.e.e.e.e.e.e.e.e.e.e.e.e.e.e.e.7.y R ( R R E ^ R R R R R R R R R R R R R R R R R E T W ( R T | e.e.e.e.e.e.r.r.e.e.e.e.e.e.e.e.e.e.e.e.e.e.e.e.e.e.r.e.e.e.e.r.8.8.8.8.e.e.e.e.e.e.e.e.8.e.8.8.e.e.e.e.e.e.e.e.r.8.0.e.w.*.#.#.} } >.>.>.>.} } >.>.>.>.} } >.>.>.>.} } >.>.>.>.#.#.#.#.#.#.#.#.#.#.#.#.#.#.#.#.#.#.#.#.#.#.#.#.#.#.#.#.#.#.#.#.>.<.] T W ( ^ ( E E R R R R R R E R E E R R R R R R R R R R R R { y 9 0 0 & 0 0 0 0 0 0 0 0 0 0 0 0 0 0 0 0 0 0 9 9 9 9 9 9 9 9 T Y W R ~ ^ R E ^ ^ ^ ^ ^ ^ ^ ^ ^ ^ ^ ^ ^ ^ ^ ^ E R ^ R R T ' j.e.e.e.e.e.e.e.e.e.e.e.e.e.e.e.e.e.e.e.e.e.e.e.e.e.e.r.8.e.S & 0 0 0 0 0 0 0 0 0 0 0 = = 0 0 0 0 = = = = 0 0 = = 9 0 8 & C i.0.0.e.e.e.e.e.e.e.e.e.e.e.e.e.e.e.e.e.e.e.e.e.e.e.e.e.e.e.e.e.e.e.e.e.e.e.e.e.e.e.e.e.e.e.e.e.e.e.e.e.e.e.e.e.e.e.e.e.e.",
"0 0 0 0 0 0 0 0 = = 0 0 = = = = 0 0 0 0 0 0 0 0 0 0 9 9 0 8 k 6X$X$X$X$X$X$X$X#X#X#X#X#X#X#X#X#X#X#X#X#X#X#X#X#X#X#X#X$X#Xv.9.q.8.8.8.8.e.8.8.8.e.e.e.e.8.8.8.8.e.8.8.8.e.e.e.e.e.e.e.e.e.e.e.e.e.e.e.e.e.e.e.e.e.e.e.e.e.e.e.e.e.e.e.e.e.e.e.e.e.e.e.e.e.e.e.e.e.e.e.e.e.e.e.e.e.e.e.e.e.e.e.e.e.e.e.e.e.e.e.e.e.e.e.e.e.e.e.e.e.e.e.e.e.e.e.e.e.e.e.e.e.e.e.e.e.e.e.e.e.e.e.e.7.y R ( R R E ^ R R R R R R R R R R R R R R R R R E Y W ( R T | e.e.e.e.e.e.e.e.e.e.e.e.e.e.e.e.e.e.e.r.r.e.e.e.e.e.r.e.e.e.e.e.8.8.8.8.8.8.e.e.e.e.8.8.8.8.8.8.8.e.e.e.e.e.8.8.r.8.0.e.w.*.#.#.>.>.>.>.>.>.>.>.>.>.>.>.>.>.>.>.>.>.>.>.>.>.>.>.#.#.#.#.#.#.#.#.#.#.#.#.#.#.#.#.#.#.#.#.#.#.#.#.#.#.#.#.#.#.#.#.>.4.] T W ( ^ ^ E E E R E E R R R R R R R R R R R R R R R R R R { y 9 0 0 0 0 0 0 0 0 0 0 0 0 0 0 0 0 0 0 0 0 0 0 0 0 0 0 0 0 0 T E E R ^ ^ R E ^ ^ ^ ^ ^ ^ ^ ^ ^ ^ ^ ^ ^ ^ ^ ^ E R R U R T B j.e.e.e.e.e.e.e.e.e.e.e.e.e.e.e.e.e.e.e.e.e.e.e.e.e.e.r.8.e.S 8 0 0 0 0 0 0 0 0 0 0 0 0 0 0 0 0 0 0 0 0 0 0 0 0 0 9 0 8 & V i.0.0.e.e.e.e.e.e.e.e.e.e.e.e.e.e.e.e.e.e.e.e.e.e.e.e.e.e.e.e.e.e.e.e.e.e.e.e.e.e.e.e.e.e.e.e.e.e.e.e.e.e.e.e.e.e.e.e.e.e.",
"0 0 0 0 0 0 0 0 0 0 0 0 0 0 0 0 0 0 0 0 0 0 0 0 0 0 9 9 0 8 l 6X$X$X$X$X$X#X%X%X#X#X#X#X#X#X#X#X#X#X#X#X#X#X#X#X#X#X#X$X#Xv.8.q.8.8.8.8.e.8.8.8.e.e.e.e.8.8.8.8.e.e.8.8.e.e.e.e.e.e.e.e.e.e.e.e.e.e.e.e.e.e.e.e.e.e.e.e.e.e.e.e.e.e.e.e.e.e.e.e.e.e.e.e.e.e.e.e.e.e.e.e.e.e.e.e.e.e.e.e.e.e.e.e.e.e.e.e.e.e.e.e.e.e.e.e.e.e.e.e.e.e.e.e.e.e.e.e.e.e.e.e.e.e.e.e.e.e.e.e.e.e.e.e.7.y R ( R R E ^ R R R R R R R R R R R R R R R R R E Y W ( R T | e.e.e.e.e.e.e.e.e.e.e.e.e.e.e.e.e.e.r.e.r.r.e.e.e.e.e.e.e.e.e.e.8.8.8.8.8.8.e.e.e.8.8.8.8.8.8.8.8.e.e.e.8.8.8.8.r.8.0.e.w.*.#.#.>.>.>.>.>.>.>.>.>.>.>.>.>.>.>.>.>.>.>.>.>.>.>.>.#.#.#.#.#.#.#.#.#.#.#.#.#.#.#.#.#.#.#.#.#.#.#.#.#.#.#.#.#.#.#.#.>.X.] T W ^ ^ ^ E E E E E E E E R R R R R R R R R R R R R R R R { y 9 0 0 8 0 0 0 0 0 0 0 0 0 0 0 0 0 0 0 0 0 0 0 0 0 0 0 0 0 0 T Y E R ^ ^ R E ^ ^ ^ ^ ^ ^ ^ ^ ^ ^ ^ ^ ^ ^ ^ ^ E R R U R T ' j.e.e.e.e.e.e.e.e.e.e.e.e.e.e.e.e.e.e.e.e.e.e.e.e.e.e.r.8.e.S & 0 0 0 0 0 0 0 0 0 0 0 0 0 0 0 0 0 0 0 0 0 0 0 0 0 9 0 0 & V i.0.0.e.e.e.e.e.e.e.e.e.e.e.e.e.e.e.e.e.e.e.e.e.e.e.e.e.e.e.e.e.e.e.e.e.e.e.e.e.e.e.e.e.e.e.e.e.e.e.e.e.e.e.e.e.e.e.e.e.e.",
"0 0 0 0 0 0 8 0 0 0 0 0 0 0 0 0 0 0 0 0 0 0 0 0 0 0 9 9 0 8 k 5XA.$X$X$X$X#X%X%X#X#X#X#X#X#X%X%X#X#X#X#X#X#X#X#X#X#X#X$X#Xv.8.q.e.8.8.8.8.8.8.8.e.8.e.e.e.e.8.8.e.e.e.e.e.8.8.8.8.8.e.e.e.e.e.e.e.e.e.e.e.e.e.e.e.e.e.e.e.e.e.e.e.e.e.e.e.e.e.e.e.e.e.e.e.e.e.e.e.e.e.e.e.e.e.e.e.e.e.e.e.e.e.e.e.e.e.e.e.e.e.e.e.e.e.e.e.e.e.e.e.e.e.e.e.e.e.e.e.e.e.e.e.e.e.e.e.e.e.e.e.e.e.e.7.y R ( R R E ^ R R R R R R R R R R R R R R R R R E Y W ( R T | e.e.e.e.e.e.e.e.e.e.e.r.e.r.e.e.e.e.e.e.e.e.e.e.e.e.e.e.e.e.e.e.8.8.e.e.8.8.8.8.8.8.8.8.e.8.8.8.8.8.e.e.e.e.8.8.r.8.0.e.w.*.#.#.>.>.>.>.>.>.>.>.} } >.>.>.>.>.>.>.>.} } } } >.>.#.#.#.#.>.>.>.>.#.#.#.#.#.#.#.#.#.#.#.#.#.#.#.#.#.#.#.#.#.#.#.#.>.X.] T W ^ ^ ^ R E E E E R R R R R R R R R R R R R R R R R R R { y 9 0 0 8 0 0 0 0 0 0 0 0 0 0 0 0 0 0 0 0 0 0 0 0 0 0 0 0 0 0 T T E R R ^ R E R R R R R R R R R R R R R R R R E R ^ U R T ' j.e.e.e.e.e.e.e.e.e.e.e.e.e.e.e.e.e.e.e.e.e.e.e.e.e.e.r.8.e.S 8 0 8 8 8 8 8 8 8 8 0 0 0 0 0 0 0 0 0 0 0 0 0 0 0 0 9 0 0 & V i.e.0.e.e.e.e.e.e.e.e.e.e.e.e.e.e.e.e.e.e.e.e.e.e.e.e.e.e.e.e.e.e.e.e.e.e.e.e.e.e.e.e.e.e.e.e.e.e.e.e.e.e.e.e.e.e.e.e.e.e.",
"0 0 0 0 0 0 8 8 0 0 0 0 0 0 0 0 0 0 0 0 0 0 0 0 0 0 9 9 0 4 j 5X$X$X$X$X$X$X#X#X#X#X#X#X#X#X$X#X#X#X#X#X#X#X#X#X#X#X#X$X#Xv.8.q.e.e.8.8.8.8.8.8.8.8.8.8.e.e.8.8.e.e.e.e.e.8.8.8.8.8.e.e.e.e.e.e.e.e.e.e.e.e.e.e.e.e.e.e.e.e.e.e.e.e.e.e.e.e.e.e.e.e.e.e.e.e.e.e.e.e.e.e.e.e.e.e.e.e.e.e.e.e.e.e.e.e.e.e.e.e.e.e.e.e.e.e.e.e.e.e.e.e.e.e.e.e.e.e.e.e.e.e.e.e.e.e.e.e.e.e.e.e.e.e.7.y R ) R R E ^ R R R R R R R R R R R R R R R R R E Y W ( ^ E | e.e.e.e.e.e.e.r.e.e.e.r.r.r.e.e.e.e.e.e.e.e.e.e.e.e.e.e.e.e.r.r.8.8.8.e.8.8.8.8.8.8.8.8.e.8.8.8.8.8.e.e.e.e.8.8.r.8.0.e.w.*.#.#.>.>.>.>.>.>.>.>.} } >.>.>.>.>.>.>.>.} } } } >.>.#.#.#.#.#.#.>.#.#.#.#.#.#.#.#.#.#.#.#.#.#.#.#.#.#.#.#.#.#.#.#.#.} X.] Y W ^ ^ / R E E E E R R R E E R R R R R R R R R R R R R R { y 9 0 0 8 0 0 0 0 0 0 0 0 0 0 0 0 0 0 0 = 0 = 0 0 0 0 0 0 0 0 T T E R R ^ R E R R R R E E R R E E E R R R R R E R ^ U R T ' j.e.e.e.e.e.e.e.e.e.e.e.e.e.e.e.e.e.e.e.e.e.e.e.e.e.e.r.8.e.S 8 0 8 8 8 8 8 8 8 8 0 0 0 0 0 0 0 0 0 0 0 0 0 0 8 8 9 9 0 & Z l.e.e.e.e.e.e.e.e.e.e.e.e.e.e.e.e.e.e.e.e.e.e.e.e.e.e.e.e.e.e.e.e.e.e.e.e.e.e.e.e.e.e.e.e.e.e.e.e.e.e.e.e.e.e.e.e.e.e.e.e.",
"8 8 8 8 8 8 8 8 8 8 8 8 8 8 8 8 8 8 8 8 8 8 8 8 0 0 9 7 8 4 l 5X#X#X#X$X$X$X$X$X#X#X#X#X#X#X$X$X#X#X#X#X#X#X#X#X#X#X#X$X#Xv.8.q.e.e.e.e.8.e.8.8.8.8.8.8.e.e.e.e.e.8.e.e.8.8.8.8.8.8.8.8.e.e.e.e.e.e.e.e.e.e.e.e.e.e.e.e.e.e.e.e.e.e.e.e.e.e.e.e.e.e.e.e.e.e.e.e.e.e.e.e.e.e.e.e.e.e.e.e.e.e.e.e.e.e.e.e.e.e.e.e.e.e.e.e.e.e.e.e.e.e.e.e.e.e.e.e.e.e.e.e.e.e.e.e.e.e.e.e.e.e.e.e.7.y R ) R R E ^ R R R R R R R R R R R R R R R R R E T W ( ^ T | e.e.r.e.e.e.e.r.e.e.e.e.e.e.e.e.e.e.e.e.e.e.e.e.e.e.e.r.e.e.e.e.8.8.e.e.e.e.8.e.e.e.e.e.e.e.8.8.8.8.8.e.e.e.e.8.r.8.0.e.w.*.#.#.} } >.>.>.>.>.>.>.>.>.>.} } >.>.>.>.>.>.>.>.>.>.#.#.#.#.>.#.#.#.#.#.#.#.#.#.#.#.#.#.#.#.#.#.#.#.#.#.#.#.#.#.#.#.} X.] Y W ^ / / R R E E R R R R E E E E R R E R R R R R R R R R { y 9 0 0 8 0 0 0 0 0 0 0 0 0 0 0 0 0 0 0 = 0 = 0 0 0 0 0 0 0 0 T T E R R R R E R R R R E E E R E E R R R R R R E R ^ R R T ] j.e.e.e.e.e.e.e.e.e.e.e.e.e.e.e.e.e.e.e.e.e.e.e.e.e.e.r.8.e.S 8 0 8 8 8 8 8 8 8 8 8 8 8 8 8 8 8 8 8 8 8 8 8 8 8 8 9 0 0 & Z l.e.e.e.e.e.e.e.e.e.e.e.e.e.e.e.e.e.e.e.e.e.e.e.e.e.e.e.e.e.e.e.e.e.e.e.e.e.e.e.e.e.e.e.e.e.e.e.e.e.e.e.e.e.e.e.e.e.e.e.e.",
"8 8 8 8 8 8 8 8 8 8 8 8 8 8 8 8 8 8 8 8 8 8 8 8 0 0 7 7 8 4 l 5X%X%X#X#X$X$X$XA.$X$X$X$X$X$X$X$X#X#X#X#X#X#X#X#X#X#X#X$X#Xv.9.q.e.e.e.e.e.e.8.8.8.8.8.8.e.e.e.e.8.8.e.e.e.8.8.8.8.8.8.8.e.e.e.e.e.e.e.e.e.e.e.e.e.e.e.e.e.e.e.e.e.e.e.e.e.e.e.e.e.e.e.e.e.e.e.e.e.e.e.e.e.e.e.e.e.e.e.e.e.e.e.e.e.e.e.e.e.e.e.e.e.e.e.e.e.e.e.e.e.e.e.e.e.e.e.e.e.e.e.e.e.e.e.e.e.e.e.e.e.e.e.e.7.y R ) R R E ^ R R R R R R R R R R R R R R R R R E T W ( ^ T | e.e.e.e.e.e.r.r.e.e.e.e.e.e.e.e.e.e.e.e.e.e.e.e.e.e.r.r.e.e.e.e.8.8.e.e.e.e.e.e.e.e.e.e.e.e.8.8.8.8.8.8.e.e.8.8.e.0.0.e.w.*.#.#.} } } >.>.>.>.>.>.>.>.>.} } >.>.>.>.>.>.>.>.>.>.#.#.#.#.#.#.#.#.#.#.#.#.#.#.#.#.#.#.#.#.#.#.#.#.#.#.#.#.#.#.#.#.} X.] Y W ^ / / R R E R R R R R E E E E R R R R R R R R R R R R { y 9 0 0 8 0 0 = = = = = = = = = = = = = = = = 0 0 0 0 0 0 0 0 T T E R R R R E R R R R E E R R E E R R R R R R E R ^ R R T ' j.e.e.e.e.e.e.e.e.e.e.e.e.e.e.e.e.e.e.e.e.e.e.e.e.e.e.r.8.e.S 8 0 8 8 8 8 8 8 8 8 8 8 8 8 8 8 8 8 8 8 8 8 8 8 8 8 9 0 0 & Z l.e.w.e.e.e.e.e.e.e.e.e.e.e.e.e.e.e.e.e.e.e.e.e.e.e.e.e.e.e.e.e.e.e.e.e.e.e.e.e.e.e.e.e.e.e.e.e.e.e.e.e.e.e.e.e.e.e.e.e.e.",
"9 9 9 9 9 9 9 9 9 9 9 9 9 9 9 9 9 9 9 9 9 9 9 9 * 9 t * t & d 0X@X@XpXpX@X@XpX@X@X@X@X@X@X@X@X@XpXpXpXpXpXpXpXpXA.pX$XpX$Xb.q.q.e.e.e.e.e.e.e.e.e.e.e.e.e.e.e.e.e.e.e.e.e.e.e.e.0.0.p.p.0.0.e.e.e.e.e.e.e.e.e.e.e.e.e.e.e.e.e.e.e.e.e.e.e.e.e.e.e.e.e.e.e.e.e.e.e.e.e.e.e.e.e.e.e.e.e.e.e.e.e.e.e.e.e.e.e.e.e.e.e.p.2.3.i.0.8.8.e.e.e.e.e.e.e.e.8.8.8.8.8.8.w.w.w.w.t.t.w.w.w.w.X.T ^ ( W Y Q R R R R R R R R R R R R R R R R R ( Q E E ) R T | w.e.e.e.w.w.w.w.e.e.e.e.e.e.e.e.e.e.e.e.e.e.e.e.e.e.e.e.8.8.8.8.e.e.e.e.e.e.e.e.e.e.e.e.e.e.e.e.e.e.e.e.e.e.e.e.r.0.0.w.3.$.A S >.>.>.>.>.>.>.>.>.>.>.>.>.>.>.>.>.>.>.>.>.>.>.>.S *.1.1.>.>.,.5.>.>.>.>.>.>.>.>.>.>.>.>.>.>.>.>.>.>.>.>.>.>.>.>.4.X.{ W U ~ ~ U ^ ^ ^ ^ ^ ^ ^ U ^ ^ ^ ^ ^ ^ ^ ^ ^ ^ ^ ^ U U ^ ^ { u 9 9 9 9 7 7 8 8 7 7 8 8 8 8 8 8 8 8 8 8 8 8 7 7 7 7 7 7 9 9 Y Y W U U U U U ^ ^ ^ ^ ( ( ( ( ^ ^ ^ ^ ( ( ( ( ^ ^ ( ^ Q T M d.e.e.e.e.e.e.e.e.e.e.e.e.e.e.e.e.e.e.e.e.e.e.e.e.i.e.i.3.6.} 7 q 9 9 9 9 9 9 9 9 9 9 9 9 9 9 9 9 9 9 9 * 9 0 9 9 - s & & S f.w.6.e.e.e.e.e.e.e.e.e.e.e.e.e.e.e.e.e.e.e.e.e.e.e.e.e.e.e.e.e.e.e.e.e.e.e.e.e.e.e.e.e.e.e.e.e.e.e.e.e.e.e.e.e.e.e.e.e.e.",
"8 8 8 8 8 8 8 8 8 8 8 8 8 8 8 8 8 8 8 8 8 8 8 8 t t v = 0 X x 0X#X#X#X#X#X#X#X#X#X#X#X#X#X#X#X#X#X#X#X#X#X#X#X#XZ.Z.#X#X#Xn.8.8.2.2.2.2.2.2.3.3.2.3.3.3.2.2.2.2.2.2.2.2.2.2.2.2.w.w.e.e.0.0.0.0.e.e.e.e.e.e.e.e.e.e.e.e.e.e.e.e.e.e.e.e.e.e.e.e.e.e.e.e.e.e.e.e.e.e.e.e.e.e.e.e.e.e.e.e.e.e.e.e.e.e.e.e.e.e.e.e.8.e.2.e.z.i.r.8.0.0.w.w.w.w.w.w.w.w.w.w.w.w.w.w.w.w.w.w.w.w.f.f.| T ^ ( W Y Q R R R R R R R R R R R R R R R R R ( Q T E ) R T | r.i.i.i.r.r.r.r.e.e.e.e.e.e.e.e.e.e.e.e.e.e.e.e.r.r.r.r.r.r.r.r.e.e.e.e.e.e.e.e.e.e.e.e.e.e.e.e.e.e.e.e.e.e.e.e.p.e.e.r.w.2.#.>.>.>.>.>.>.>.>.>.>.>.>.>.>.>.>.>.>.>.>.>.>.>.>.>.S *.1.1.} } >.>.} } } } } } } } } } } } } >.} } >.>.>.>.>.>.>.>.5.| { _ U W W U E E E E E E E E E E E E E E E E Q Q Q Q R R R Q [ y 9 9 0 0 8 8 8 8 8 8 8 8 8 8 8 8 8 8 8 8 8 8 8 8 8 8 8 0 0 0 ! ! Q R R R W ! ^ ^ ^ ^ ( ( ( ( ( ( ( ( ( ( ( ^ R R ) R Q ' B j.e.e.e.e.e.e.e.e.e.e.e.e.e.e.e.e.e.e.e.e.e.e.e.e.0.0.p.r.g.>.8 7 8 8 8 8 8 8 8 8 8 8 8 8 8 8 8 8 0 0 0 = 0 0 0 0 & s & s } w.w.e.e.e.e.e.e.e.e.e.e.e.e.e.e.e.e.e.e.e.e.e.e.e.e.e.e.e.e.e.e.e.e.e.e.e.e.e.e.e.e.e.e.e.e.e.e.e.e.e.e.e.e.e.e.e.e.e.e.e.",
"o o @ @ @ @ @ @ @ @ @ @ @ @ @ @ @ @ @ @ @ @ @ @ & & & : a & m 2X2X2X2X2X2X2X2X2X2X2X2X2X2X2X2X2X2X2X2X2X2X2X2X2X2X2X2X2X2XN.i.l.i.i.i.i.i.i.i.i.i.i.i.i.i.i.i.i.i.i.i.i.i.i.i.i.5.5.2.3.0.p.p.e.e.e.e.e.e.e.e.e.e.e.e.e.e.e.e.e.e.e.e.e.e.e.e.e.e.e.e.e.e.e.e.e.e.e.e.e.e.e.e.e.e.e.e.e.e.e.e.e.e.e.e.e.e.e.e.e.e.r.1.2.w.6.w.0.w.w.w.w.w.6.6.w.i.i.i.i.w.w.w.w.i.w.w.f.f.f.f.f.| E ^ ) E Y Q ^ R R R R R R R R R R R R R R R R ( Q T E ( R T | e.e.e.e.e.e.e.e.r.r.r.r.r.r.r.r.r.r.r.r.r.r.r.r.e.e.e.e.e.e.e.e.8.8.8.8.3.3.3.3.3.3.3.3.3.3.3.3.3.3.3.3.3.3.3.3.r.8.w.e.6.>.#.>.S S S S S S S S S S S S S S S S S S S S S S S S 1.1.1.1.} A } } 1.1.4.4.4.4.5.4.4.4.4.4.5.5.5.4.<.<.<.<.5.5.5.5.>.} ] { ' ' ' y c c c c c c c c c c c c c c c c c c c c c c c c B 0 % - X X o O o 4 4 4 8 8 8 8 o o o 4 8 8 8 8 8 8 8 8 & & & & M T T T E T T T T T T T T T T T T T T T T T T T T T T T ' M m s.e.e.e.e.e.e.e.e.e.e.e.e.e.e.e.e.e.e.e.e.e.e.e.e.i.e.r.e.w.A : : @ @ @ @ @ @ @ @ @ @ @ @ @ @ @ @ & & : : : : : : O o @ h S 2.3.e.e.e.e.e.e.e.e.e.e.e.e.e.e.e.e.e.e.e.e.e.e.e.e.e.e.e.e.e.e.e.e.e.e.e.e.e.e.e.e.e.e.e.e.e.e.e.e.e.e.e.e.e.e.e.e.e.e.e.",
"n.n.n.n.n.n.n.n.n.n.n.n.n.n.n.n.n.n.n.n.n.n.n.n.H.N.V.V.N.x.6.j.[ [ [ [ [ [ [ [ ] ] ] ] ] ] ] ] [ [ [ [ [ [ [ [ ] ] ] ] | z 0 0 d d d d d d g g d d d d d d d d g g g g d d d d g g d j $.e.e.0.e.e.e.e.e.e.e.e.e.e.e.e.e.e.e.e.e.e.e.e.e.e.e.e.e.e.e.e.e.e.e.e.e.e.e.e.e.e.e.e.e.e.e.e.e.e.e.e.e.e.e.e.e.e.e.e.e.3.j h g g b j f f f f f f f f s s f f f f s s s s s s s s s s ' T ^ ( E E E R R R R R R R R R R R R R R R R R ^ W T E ( R T | 2.2.2.2.2.2.2.2.$.$.$.$.$.$.$.$.$.$.$.$.$.$.$.$.2.2.2.2.2.2.2.2.$.$.$.$.$.$.$.$.$.$.$.$.$.$.$.$.$.$.$.$.$.$.$.$.2.$.$.2.>.A V Z V V V V V V V V V V V V V V V V V V V V V V V V V A Z V g s s s s a s s s s s s s s s s s s s s s s s s s s s s d g } x.F.F.H.x.H.H.H.H.H.H.H.H.H.H.H.H.H.H.H.H.H.H.N.N.x.x.N.N.H.s.5.5.5.5.3.2.2.2.2.2.1.1.1.5.5.2.2.2.5.5.1.1.5.5.5.2.5.5.5.5.t t u u u u u u u u u u u u u u u u u u u u u u t u u u u 0 s 5.e.e.e.e.e.e.e.e.e.e.e.e.e.e.e.e.e.e.e.e.e.e.e.e.0.0.0.w.r.g.g.D.n.n.n.n.n.n.n.n.n.n.n.n.n.n.n.n.n.n.n.n.n.n.n.n.V.V.z.z.z.e.e.p.e.e.e.e.e.e.e.e.e.e.e.e.e.e.e.e.e.e.e.e.e.e.e.e.e.e.e.e.e.e.e.e.e.e.e.e.e.e.e.e.e.e.e.e.e.e.e.e.e.e.e.e.e.e.e.e.e.e.",
"3X3X3X3X4X4X4X%X3X%X%X%X3X3X3X3X$X%X%X4X3X3X%X%X9X6X$X%X5X8Xl.z E E E E E E E E T T Q Q Q Q T T E E E E E E E E Y Y T T M t $ 9 8 8 8 8 8 8 8 8 8 8 8 8 8 8 8 8 8 8 8 8 8 8 8 8 X & O o S e.8.8.e.e.e.e.e.e.e.e.e.e.e.e.e.e.e.e.e.e.e.e.e.e.e.e.e.e.e.e.e.e.e.e.e.e.e.e.e.e.e.e.e.e.e.e.e.e.e.e.e.e.e.e.e.e.e.e.e.2.h X o o & & 0 0 0 0 8 8 8 8 8 8 8 8 8 8 8 8 8 8 8 8 8 8 8 0 M T ^ ^ E E Y R R R R R R R R R R R R R R R R R ^ W T E ^ R T | S S #.S #.#.#.#.#.#.#.#.#.#.#.#.#.#.#.#.#.#.#.#.#.#.#.#.#.#.#.#.#.#.#.#.#.#.#.#.#.#.#.#.#.#.#.#.#.#.#.#.#.#.#.#.#.A A #.A V b b V V V V V V V V V V V V V V V V V V V V V V V V b b b g a & & & 0 0 0 0 s s s s 0 0 s s s s 0 0 0 0 0 0 0 0 0 0 O & 1.7X0X9XaX9XoXoXoXoXoXoXoXoXoXoX#XoXoXoXoXoX#X#X#X#X#X#X#X#X1Xz.e.r.e.e.e.0.w.w.w.w.w.w.w.w.w.w.w.w.w.w.w.w.8.e.e.e.e.e.e.e.& = 9 9 9 9 9 9 0 0 0 0 0 0 0 0 0 0 0 0 0 0 0 0 0 0 t 9 0 8 s 5.8.8.8.8.e.e.e.e.e.e.e.e.8.8.8.8.e.e.e.e.8.8.8.8.e.0.8.w.r.N.4XaX3X3X3X3X%X%X4X4X3X3X3X3X%X%X4X4X3X3X3X3X3X3X3X3X6X5X5X%Xv.0.-.0.e.e.e.e.e.e.e.e.e.e.e.e.e.e.e.e.e.e.e.e.e.e.e.e.e.e.e.e.e.e.e.e.e.e.e.e.e.e.e.e.8.8.8.8.e.e.e.e.8.8.e.e.e.e.8.8.8.8.",
"#X#X#X#X#X#X#X#X#X#X#X#X#X#X#X#X#X#X#X#X#X#X#X#XB.Z.C.C.M.8X2XB R R R R R R R R R R ^ ^ R R R R R R R R R R R R W W E T T u 9 9 8 8 8 8 8 8 8 8 8 8 8 8 8 8 8 8 8 8 8 8 8 8 8 8 = 0 o & #.p.r.q.e.e.e.e.e.e.e.e.e.e.e.e.e.e.e.e.e.e.e.e.e.e.e.e.e.e.e.e.e.e.e.e.e.e.e.e.e.e.e.e.e.e.e.e.e.e.e.e.e.e.e.e.e.e.e.e.r.3.g 8 f 0 0 = * * * * * * * * 0 0 0 0 0 = 0 0 8 8 7 8 0 9 = = u T ) R T E Y ~ R R R R R R R R R R R R R R R R R W T E ^ R T | S S S S S S S S $.$.$.$.$.$.$.$.>.>.$.$.$.$.$.$.#.#.#.#.#.#.#.#.$.$.$.$.$.$.$.$.$.$.$.$.$.$.$.$.$.$.$.$.$.$.$.$.#.A S #.S Z V V Z Z Z Z A A V V Z Z Z Z V V V V V A A V Z Z Z Z V Z V x s 0 0 0 & & & & & & & & & & & & & & & & & & 8 8 8 8 8 8 & o >.3X#XA.A.m.#X#X#X#X#X#X#X#X#X#X#X#X#X#X#X#X#X#X#X#X#X#X#X#X3Xr.9.r.8.8.e.0.r.r.r.r.r.r.r.r.r.r.r.r.r.r.r.r.r.r.r.r.r.g.g.g.: 8 0 0 9 0 0 0 0 0 0 0 0 0 0 0 0 0 0 0 0 0 0 0 8 0 t 0 0 8 g w.8.8.8.8.e.8.e.e.e.e.e.e.8.8.8.8.e.e.e.e.8.8.8.8.p.p.0.8.8.t.Z.C.#X#X#X#X#X#X#X#X#X#X#X#X#X#X#X#X#X#X#X#X#X#X#X#X$X+X$X6XV.p.z.n.e.e.e.e.e.e.e.e.e.e.e.e.e.e.e.e.e.e.e.e.e.e.e.e.e.e.e.e.e.e.e.e.e.8.e.e.e.e.e.e.8.8.8.8.e.8.e.e.8.8.e.e.e.e.8.8.8.8.",
"#X#X#X#X#X#X#X#X+X+X+X+X#X#X#X#X+X+X+X+X#X#X#X#X3X$X#X@Xb.N.F.c R ( ( ^ ( ) ) ) R R R R R R R R R R R R R R R R ~ ( W E T y 9 t 9 9 9 9 9 9 9 9 9 9 9 9 9 9 9 9 9 9 9 9 9 9 9 9 * z - o A e.8.8.e.e.e.e.e.e.e.e.e.e.e.e.e.e.e.e.e.e.e.e.e.e.e.e.e.e.e.e.e.e.e.e.e.e.e.e.e.e.e.e.e.e.e.e.e.e.e.e.e.e.e.e.e.e.e.8.e.2.h & 0 0 0 * 0 0 0 0 0 0 0 0 t t t t t t t t 0 0 0 0 0 0 t t q Q / R T T Y ~ R R R R R R R R R R R R R R R R R W T E ^ R T | >.>.>.>.>.>.>.>.S S S S S S S S S S S S S S S S #.>.>.>.>.>.>.>.>.>.>.>.>.>.>.>.>.>.>.>.>.>.>.>.>.>.>.>.>.>.>.>.#.S S >.} A V Z Z Z Z Z V A V V Z Z Z Z V V Z Z V A V V Z Z Z Z b b b x 0 = & 9 0 0 0 0 0 0 0 0 0 0 0 0 0 0 0 0 0 0 0 0 0 0 0 0 * O $.3X$XA.aX4X#X#X#X#X#X#X#X#X#X#X#X#X#X#X#X#X#X#X#X#X#X#X#X#XZ.c.9.r.8.e.e.0.0.0.0.0.0.0.0.0.0.0.0.0.0.0.0.0.8.8.e.e.e.e.e.e.a a 0 0 t 0 0 0 0 0 0 0 0 0 0 0 0 0 0 0 0 0 0 0 & 0 v 0 0 0 g l.e.e.8.8.8.8.8.8.8.8.e.e.e.e.8.8.e.e.e.e.8.8.8.8.w.r.0.i.0.v.9X4X#X#X#X#X+X+X+X+X#X#X#X#X+X+X+X+XZ.Z.Z.Z.Z.Z.Z.Z.$XZ.4X3Xv.9.e.8.e.e.e.e.e.e.e.e.e.e.e.e.e.e.e.e.e.e.e.e.e.e.e.e.e.e.e.e.e.e.e.e.8.8.8.8.8.8.e.e.e.e.8.8.8.8.8.8.8.8.8.8.e.e.e.8.8.8.",
"#X#X#X#X#X#X#X#X#X#X#X#X#X#X#X#X#X#X#X#X#X#X#X#X3XZ.C.pXZ.H.F.c R R R R R R R R R R R R R R R R R R R R R R R R ~ ~ W Y T u 9 t 0 0 0 0 0 0 0 0 0 9 0 0 0 0 0 0 0 0 9 9 0 0 0 0 9 z & o #.p.8.q.e.e.e.e.e.e.e.e.e.e.e.e.e.e.e.e.e.e.e.e.e.e.e.e.e.e.e.e.e.e.e.e.e.e.e.e.e.e.e.e.e.e.e.e.e.e.e.e.e.e.e.e.e.e.e.8.r.2.a X * * 0 * = = = = = = = = * * * * = = = = & & & & = = * = 9 Q / R T T Y ~ R R R R R R R R R R R R R R R R R E T E ^ R T | #.S S S #.#.#.#.>.>.>.>.>.>.>.>.>.>.>.>.>.>.>.>.#.#.#.#.#.#.#.#.S S S S S S S S S S S S S S S S S S S S S S S S #.A S >.} Z V Z V V V V V V V V V V V V V V V V V V V V V V V V C Z Z x v 0 0 0 & * * * * * * * * * * * & * * * * * 7 * 7 7 7 7 t & 2.6X#XC.$XZ.#X#X#X#X#X#X#X#X#X#X#X#X#X#X#X#X#X#X#X#X$X$X$X$X3Xn.q.t.r.r.r.w.e.e.e.e.0.0.e.e.e.e.e.e.e.e.e.e.q.q.r.r.r.r.r.r.a a 0 0 0 0 0 0 = = = = = = = = = = = = = = = = o & 0 * = & s f.8.8.8.8.8.8.8.8.8.8.8.8.8.8.8.8.8.8.8.8.8.8.8.8.9.r.0.e.3.p.6X#X#X#X#X#X#X#X#X#X#X#X#X#X#X#X#X#X#X$X#X#X#X#X#X#XZ.C.$X4Xn.r.n.r.e.e.e.e.e.e.e.e.e.e.e.e.e.e.e.e.e.e.e.e.e.e.e.e.e.e.e.e.e.e.e.e.8.8.8.8.8.8.8.8.8.8.8.8.8.8.8.8.8.8.8.8.8.8.8.8.8.8.",
"$X$X$X$X$X$X$X$X$X$X$X$X$X$X$X$X$X$X$X$X$X$X$X$X@X#X#X$XC.#XH.` ^ ^ ^ ^ R R R R R R R R R R R R R R R R R R R R R R W Y T u 9 t 0 0 0 0 0 0 0 0 0 0 0 0 0 0 0 0 0 0 0 0 0 0 0 0 0 9 9 X >.r.r.e.e.e.e.e.e.e.e.e.e.e.e.e.e.e.e.e.e.e.e.e.e.e.e.e.e.e.e.e.e.e.e.e.e.e.e.e.e.e.e.e.e.e.e.e.e.e.e.e.e.e.e.e.e.e.e.e.e.5.a 8 & 0 & & 0 0 0 0 0 0 0 0 0 0 0 0 0 0 0 0 0 0 0 0 0 0 0 0 y T Q E W R E R R R R R R R R R R R R R R R R R ( R E R ^ ^ T ' #.#.#.#.#.#.#.#.#.#.#.#.#.#.#.#.#.#.#.#.#.#.#.#.#.#.#.#.#.#.#.#.#.#.#.#.#.#.#.#.#.#.#.#.#.#.#.#.#.#.#.#.#.#.#.#.$.#.#.>.>.Z V V V V V V V V V V V V V V V V V V V V V V V V V V V m V x 0 8 0 = 0 0 0 0 0 0 0 0 0 0 0 0 0 0 0 0 0 0 0 0 0 0 0 0 0 & $.3X#XC.4X#X#X#X$X$X$X$X%X%X$X$X$X#X#X#X$X$X#X#X#X#X#XZ.Z.A.3Xp.8.r.r.e.r.0.e.e.e.e.e.e.e.e.e.e.e.e.e.e.e.e.e.e.e.e.r.r.e.e.s 8 = 0 0 t 0 & 0 0 0 0 0 0 0 0 0 0 0 0 0 0 0 0 s & 0 0 0 8 s w.e.e.e.e.e.e.e.e.8.8.e.e.e.e.e.e.8.8.8.8.8.e.e.8.0.e.8.q.;.p.%X+X$X$X$X$X$X$X$X$X$X$X$X$X$X$X$X$X$X$X$X$X$X$X$X$X$XZ.4X%Xm.8.8.e.e.e.e.e.e.e.e.e.e.e.e.e.e.e.e.e.e.e.e.e.e.e.e.e.e.e.e.e.8.8.e.e.e.e.8.8.8.8.8.8.8.8.8.e.e.e.8.8.e.e.e.e.8.8.8.8.e.e.",
"$X$X$X$X$X$X$X$X$X$X$X$X$X$X$X$X$X$X$X$X$X$X$X$X@X#X#X$XC.#XF.` ^ ^ ^ ^ R R R R R R R R R R R R R R R R R R R R R R W Y T u 9 t 0 0 0 0 0 0 0 0 0 0 0 0 0 0 0 0 0 0 0 0 0 0 0 0 0 9 9 X >.r.r.e.e.e.e.e.e.e.e.e.e.e.e.e.e.e.e.e.e.e.e.e.e.e.e.e.e.e.e.e.e.e.e.e.e.e.e.e.e.e.e.e.e.e.e.e.e.e.e.e.e.e.e.e.e.e.e.e.e.5.a 0 & 0 & & 0 0 0 0 0 0 0 0 0 0 0 0 0 0 0 0 0 0 0 0 0 0 0 0 y T Q E W R E R R R R R R R R R R R R R R R R R ( R E E ^ ^ T ' #.#.#.#.#.#.#.#.#.#.#.#.#.#.#.#.#.#.#.#.#.#.#.#.#.#.#.#.#.#.#.#.#.#.#.#.#.#.#.#.#.#.#.#.#.#.#.#.#.#.#.#.#.#.#.#.$.#.#.>.>.Z V V V V V V V V V V V V V V V V V V V V V V V V V V V m V x 0 8 0 = 0 0 0 0 0 0 0 0 0 0 0 0 0 0 0 0 0 0 0 0 0 0 0 0 0 & $.3X#XC.$X#X#X#X$X#X$X$X%X%X$X$X%X#X#X#X$X$X#X#X#X#X#XZ.A.A.3Xp.8.r.r.e.r.0.e.e.e.e.e.e.e.e.e.e.e.e.e.e.e.e.e.e.e.e.r.r.e.e.s 8 = 0 0 t 0 & 0 0 0 0 0 0 0 0 0 0 0 0 0 0 0 0 s & 0 0 0 8 s w.e.e.e.e.e.e.e.e.8.8.e.8.e.e.e.e.8.8.8.8.e.e.e.e.0.e.8.q.;.p.%X+X$X$X$X$X$X$X$X$X$X$X$X$X$X$X$X$X$X$X$X$X$X$X$X$X$XZ.4X#Xm.8.8.e.e.e.e.e.e.e.e.e.e.e.e.e.e.e.e.e.e.e.e.e.e.e.e.e.e.e.e.e.8.8.e.e.e.e.8.8.8.8.e.e.8.8.8.e.e.e.8.8.e.e.e.e.8.8.8.8.e.e.",
"$X$X$X$X$X$X$X$X$X$X$X$X$X$X$X$X$X$X$X$X$X$X$X$X@X#X#X$XC.#XF.` ^ ^ R ^ R E R R R R R R R R R R R R R R R R R R R R W Y T u 9 t 0 0 0 0 0 0 0 0 0 0 0 0 0 0 0 0 0 0 0 0 0 0 0 0 0 9 9 X >.r.e.e.e.e.e.e.e.e.e.e.e.e.e.e.e.e.e.e.e.e.e.e.e.e.e.e.e.e.e.e.e.e.e.e.e.e.e.e.e.e.e.e.e.e.e.e.e.e.e.e.e.e.e.e.e.e.e.e.e.5.a 0 = 0 & & 0 0 0 0 0 0 0 0 0 0 0 0 0 0 0 0 0 0 0 0 0 0 0 0 u T Q E W R E R R R R R R R R R R R R R R R R R ( R E E ^ ^ T ' #.#.#.#.#.#.#.#.#.#.#.#.#.#.#.#.#.#.#.#.#.#.#.#.#.#.#.#.#.#.#.#.#.#.#.#.#.#.#.#.#.#.#.#.#.#.#.#.#.#.#.#.#.#.#.#.$.#.#.>.>.Z V V V V V V V V V V V V V V V V V V V V V V V V V V V m V x 0 8 0 = 0 0 0 0 0 0 0 0 0 0 0 0 0 0 0 0 0 0 0 0 0 0 0 0 0 & $.3X#XC.$X#X#X#X#X#X#X#X#X#X$X$X#X#X#X#X#X#X#X#X#X#X#XZ.Z.A.3Xp.8.r.e.e.r.0.e.e.e.e.e.e.e.e.e.e.e.e.e.e.e.e.e.e.e.e.r.r.e.e.s 8 = 0 0 t 0 & 0 0 0 0 0 0 0 0 0 0 0 0 0 0 0 0 s & 0 0 0 8 s w.8.8.e.e.e.e.e.8.8.8.8.8.8.8.e.e.8.8.e.e.e.e.e.e.0.e.8.q.;.p.%X+X$X$X$X$X$X$X$X$X$X$X$X$X$X$X$X$X$X$X$X$X$X$X$X$X$XZ.$X%Xm.8.8.e.e.e.e.e.e.e.e.e.e.e.e.e.e.e.e.e.e.e.e.e.e.e.e.e.e.e.e.e.8.8.8.e.e.e.e.8.e.e.e.e.8.8.8.8.e.e.e.e.e.e.e.e.8.8.e.8.e.e.",
"$X$X$X$X$X$X$X$X$X$X$X$X$X$X$X$X$X$X$X$X$X$X$X$X@X#X#X$XC.#XF.` ^ ^ R R R E R R R R R R R R R R R R R R R R R R R R W Y ! u 9 t 0 0 0 0 0 0 0 0 0 0 0 0 0 0 0 0 0 0 0 0 0 0 0 0 0 9 9 X >.r.e.i.e.e.e.e.e.e.e.e.e.e.e.e.e.e.e.e.e.e.e.e.e.e.e.e.e.e.e.e.e.e.e.e.e.e.e.e.e.e.e.e.e.e.e.e.e.e.e.e.e.e.e.e.e.e.e.e.e.5.a 0 = 0 & & 0 0 0 0 0 0 0 0 0 0 0 0 0 0 0 0 0 0 0 0 0 0 0 0 u T Q E W R E R R R R R R R R R R R R R R R R R ( R E E ^ ^ T ' #.#.#.#.#.#.#.#.#.#.#.#.#.#.#.#.#.#.#.#.#.#.#.#.#.#.#.#.#.#.#.#.#.#.#.#.#.#.#.#.#.#.#.#.#.#.#.#.#.#.#.#.#.#.#.#.$.#.#.>.>.Z V V V V V V V V V V V V V V V V V V V V V V V V V V V m V x 0 8 0 = 0 0 0 0 0 0 0 0 0 0 0 0 0 0 0 0 0 0 0 0 0 0 0 0 0 & $.3X#XC.4X#X#X#X#X#X#X#X#X#X$X$X#X#X#X#X#X#X#X#X#X#X#XZ.Z.A.3Xp.8.e.e.e.r.0.e.e.e.e.e.e.e.e.e.e.e.e.e.e.e.e.e.e.e.e.r.r.e.e.s 8 = 0 t t 0 & 0 0 0 0 0 0 0 0 0 0 0 0 0 0 0 0 s & 0 0 0 8 s w.8.8.8.e.e.e.e.8.8.8.8.8.8.8.8.e.8.8.e.e.e.e.e.e.e.e.8.q.;.p.%X+X$X$X$X$X$X$X$X$X$X$X$X$X$X$X$X$X$X$X$X$X$X$X$X$X$XZ.$X%Xm.8.8.e.e.e.e.e.e.e.e.e.e.e.e.e.e.e.e.e.e.e.e.e.e.e.e.e.e.e.e.e.8.8.8.8.e.e.8.8.e.e.e.e.8.8.8.e.e.e.e.e.8.8.e.e.8.8.e.e.e.e.",
"$X$X$X$X$X$X$X$X$X$X$X$X$X$X$X$X$X$X$X$X$X$X$X$X@X#X#X$XC.#XH.` ^ ^ ^ ^ R R R R R R R R R R R R R R R R R R R R R R W E ! u 9 t 0 0 0 0 0 0 0 0 0 0 0 0 0 0 0 0 0 0 0 0 0 0 0 0 0 9 9 X >.r.r.i.e.e.e.e.e.e.e.e.e.e.e.e.e.e.e.e.e.e.e.e.e.e.e.e.e.e.e.e.e.e.e.e.e.e.e.e.e.e.e.e.e.e.e.e.e.e.e.e.e.e.e.e.e.e.e.e.e.5.a 0 0 0 & & 0 0 0 0 0 0 0 0 0 0 0 0 0 0 0 0 0 0 0 0 0 0 0 0 u T Q E W R E R R R R R R R R R R R R R R R R R ( R E E ^ ^ Q ] #.#.#.#.#.#.#.#.#.#.#.#.#.#.#.#.#.#.#.#.#.#.#.#.#.#.#.#.#.#.#.#.#.#.#.#.#.#.#.#.#.#.#.#.#.#.#.#.#.#.#.#.#.#.#.#.$.#.#.>.>.Z V V V V V V V V V V V V V V V V V V V V V V V V V V V m V x 0 8 0 = 0 0 0 0 0 0 0 0 0 0 0 0 0 0 0 0 0 0 0 0 0 0 0 0 = & $.3X#XC.$X#X$X$X#X#X#X$X$X$X#X#X#X#X#X#X#X#X#X#X#X#X#XZ.Z.A.3Xp.8.r.r.e.r.0.e.e.e.e.e.e.e.e.e.e.e.e.e.e.e.e.e.e.e.e.r.r.e.e.a 8 = 9 t t 0 & 0 0 0 0 0 0 0 0 0 0 0 0 0 0 0 0 s & 0 0 0 8 s w.8.8.e.e.e.e.8.8.8.8.8.e.8.8.8.8.e.e.e.e.8.8.e.e.0.e.8.e.;.p.%X+X$X$X$X$X$X$X$X$X$X$X$X$X$X$X$X$X$X$X$X$X$X$X$X$X$XZ.4X%Xm.8.8.r.e.e.e.e.e.e.e.e.e.e.e.e.e.e.e.e.e.e.e.e.e.e.e.e.e.e.e.e.e.e.8.8.e.e.e.e.e.e.8.8.e.e.e.e.8.8.8.e.8.8.8.8.e.e.e.e.8.8.",
"$X$X$X$X$X$X$X$X$X$X$X$X$X$X$X$X$X$X$X$X$X$X$X$X@X#X#X$XC.#XF.` ^ ^ ^ ^ R R R R R R R R R R R R R R R R R R R R R R W E ! u 9 t 0 0 0 0 0 0 0 0 0 0 0 0 0 0 0 0 0 0 0 0 0 0 0 0 0 9 9 X >.r.e.i.e.e.e.e.e.e.e.e.e.e.e.e.e.e.e.e.e.e.e.e.e.e.e.e.e.e.e.e.e.e.e.e.e.e.e.e.e.e.e.e.e.e.e.e.e.e.e.e.e.e.e.e.e.e.e.e.e.5.a 0 0 s = & 0 0 0 0 0 0 0 0 0 0 0 0 0 0 0 0 0 0 0 0 0 0 0 0 u T Q E W R E R R R R R R R R R R R R R R R R R ( R E E ^ ^ Q ] #.#.#.#.#.#.#.#.#.#.#.#.#.#.#.#.#.#.#.#.#.#.#.#.#.#.#.#.#.#.#.#.#.#.#.#.#.#.#.#.#.#.#.#.#.#.#.#.#.#.#.#.#.#.#.#.$.#.S >.>.Z V V V V V V V V V V V V V V V V V V V V V V V V V V V m V x 0 8 0 = 0 0 0 0 0 0 0 0 0 0 0 0 0 0 0 0 0 0 0 0 0 0 0 0 0 & $.3X#XC.$X#X$X#X#X#X#X#X$X$X%X%X#X#X#X#X#X#X#X#X#X#X#XZ.Z.A.3Xp.r.r.r.e.r.0.e.e.e.e.e.e.e.e.e.e.e.e.e.e.e.e.e.e.e.e.r.r.e.e.a 8 = 9 0 t 0 & 0 0 0 0 0 0 0 0 0 0 0 0 0 0 0 0 s & 0 0 0 & s w.8.8.e.e.e.e.8.8.8.8.8.e.8.8.8.8.e.e.e.e.8.e.e.e.e.e.8.q.;.p.%X+X$X$X$X$X$X$X$X$X$X$X$X$X$X$X$X$X$X$X$X$X$X$X$X$X$XZ.4X%Xm.8.8.r.e.e.e.e.e.e.e.e.e.e.e.e.e.e.e.e.e.e.e.e.e.e.e.e.e.e.e.e.e.e.e.8.e.e.e.e.e.e.8.8.e.e.e.e.8.8.8.e.8.8.8.8.e.e.e.e.8.8.",
"$X$X$X$X$X$X$X$X$X$X$X$X$X$X$X$X$X$X$X$X$X$X$X$X@X#X#X$XC.#XF.` ^ ^ ^ ^ R R R R R R R R R R R R R R R R R R R R R R W E T u 9 t 0 0 0 0 0 0 0 0 0 0 0 0 0 0 0 0 0 0 0 0 0 0 0 0 0 9 9 X >.r.r.e.e.e.e.e.e.e.e.e.e.e.e.e.e.e.e.e.e.e.e.e.e.e.e.e.e.e.e.e.e.e.e.e.e.e.e.e.e.e.e.e.e.e.e.e.e.e.e.e.e.e.e.e.e.e.e.e.e.5.a 0 = 0 = & 0 0 0 0 0 0 0 0 0 0 0 0 0 0 0 0 0 0 0 0 0 0 0 0 u T Q E E R E R R R R R R R R R R R R R R R R R ( E E E ~ ^ T ' #.#.#.#.#.#.#.#.#.#.#.#.#.#.#.#.#.#.#.#.#.#.#.#.#.#.#.#.#.#.#.#.#.#.#.#.#.#.#.#.#.#.#.#.#.#.#.#.#.#.#.#.#.#.#.#.$.S S >.>.Z V V V V V V V V V V V V V V V V V V V V V V V V V V V m V x s 8 0 = 0 0 0 0 0 0 0 0 0 0 0 0 0 0 0 0 0 0 0 0 0 0 0 0 0 & $.3X#XC.$X#X$X$X#X#X#X#X$X$X%X%X$X$X#X#X#X#X#X#X#X#X#XZ.Z.A.3Xp.8.r.r.e.r.0.e.e.e.e.e.e.e.e.e.e.e.e.e.e.e.e.e.e.e.e.r.r.f.e.a 8 = 9 0 t 0 & 0 0 0 0 0 0 0 0 0 0 0 0 0 0 0 0 0 & 0 0 0 & d w.8.e.e.e.e.8.8.8.8.8.e.e.e.e.e.e.e.e.8.8.8.8.e.e.e.e.e.q.;.p.%X+X$X$X$X$X$X$X$X$X$X$X$X$X$X$X$X$X$X$X$X$X$X$X$X$X$X#X4X3Xm.8.8.r.e.e.e.e.e.e.e.e.e.e.e.e.e.e.e.e.e.e.e.e.e.e.e.e.e.e.e.e.e.e.8.8.e.e.e.e.8.8.8.8.e.e.8.8.8.8.e.e.e.e.8.8.e.e.8.8.8.8.",
"$X$X$X$X$X$X$X$X$X$X$X$X$X$X$X$X$X$X$X$X$X$X$X$X@X#X#X$XC.#XF.` ^ ^ ^ ^ R R R R R R R R R R R R R R R R R R R R R R E Y T u 9 t 0 0 0 0 0 0 0 0 0 0 0 0 0 0 0 0 0 0 0 0 0 0 0 0 0 9 9 X >.r.r.i.e.e.e.e.e.e.e.e.e.e.e.e.e.e.e.e.e.e.e.e.e.e.e.e.e.e.e.e.e.e.e.e.e.e.e.e.e.e.e.e.e.e.e.e.e.e.e.e.e.e.e.e.e.e.e.e.e.2.a 0 = 0 = & 0 0 0 0 0 0 0 0 0 0 0 0 0 0 0 0 0 0 0 0 0 0 0 0 u T Q E W R E R R R R R R R R R R R R R R R R R ( E E E ~ ^ T ' #.#.#.#.#.#.#.#.#.#.#.#.#.#.#.#.#.#.#.#.#.#.#.#.#.#.#.#.#.#.#.#.#.#.#.#.#.#.#.#.#.#.#.#.#.#.#.#.#.#.#.#.#.#.#.#.$.S S >.>.Z V V V V V V V V V V V V V V V V V V V V V V V V V V V m V x s 8 0 = 0 0 0 0 0 0 0 0 0 0 0 0 0 0 0 0 0 0 0 0 0 0 0 0 0 & $.3X#XC.$X#X$X$X#X#X#X#X%X%X%X$X$X$X#X#X#X#X#X#X#X#X#XZ.Z.A.3Xp.8.r.r.e.r.0.e.e.e.e.e.e.e.e.e.e.e.e.e.e.e.e.e.e.e.r.r.r.f.f.a 8 = 9 0 t 0 & 0 0 0 0 0 0 0 0 0 0 0 0 0 0 0 0 0 & 0 0 0 & d w.8.8.e.e.8.8.8.8.8.8.e.e.e.e.e.e.8.8.8.8.8.8.e.e.e.e.8.q.;.p.5X+X$X$X$X$X$X$X$X$X$X$X$X$X$X$X$X$X$X$X$X$X$X$X$X$X$X#X4X%Xm.8.8.r.e.e.e.e.e.e.e.e.e.e.e.e.e.e.e.e.e.e.e.e.e.e.e.e.e.e.e.e.e.e.8.8.8.e.e.8.8.8.8.8.e.e.e.8.8.8.e.e.e.e.e.8.e.8.8.8.8.8.",
"$X$X$X$X$X$X$X$X$X$X$X$X$X$X$X$X$X$X$X$X$X$X$X$X@X#X#X$XC.#XF.` ^ ^ ^ ^ R R R R R R R R R R R R R R R R R R R R R R W Y T u 9 t 0 0 0 0 0 0 0 0 0 0 0 0 0 0 0 0 0 0 0 0 0 0 0 0 0 9 9 X >.r.e.i.e.e.e.e.e.e.e.e.e.e.e.e.e.e.e.e.e.e.e.e.e.e.e.e.e.e.e.e.e.e.e.e.e.e.e.e.e.e.e.e.e.e.e.e.e.e.e.e.e.e.e.e.e.e.e.e.e.5.a 0 = 0 & & 0 0 0 0 0 0 0 0 0 0 0 0 0 0 0 0 0 0 0 0 0 0 0 0 y T W U E Q E R R R R R R R R R R R R R R R R R ( E E E ^ ^ Q ] #.#.#.#.#.#.#.#.#.#.#.#.#.#.#.#.#.#.#.#.#.#.#.#.#.#.#.#.#.#.#.#.#.#.#.#.#.#.#.#.#.#.#.#.#.#.#.#.#.#.#.#.#.#.#.#.$.#.S >.} Z V V V V V V V V V V V V V V V V V V V V V V V V V V V m V x 0 8 0 = 0 0 0 0 0 0 0 0 0 0 0 0 0 0 0 0 0 0 0 0 0 0 0 0 0 & $.3X#XC.4X#X$X$X$X$X$X$X$X$X$X$X$X$X$X$X$X$X#X#X#X#XZ.Z.Z.Z.3Xp.8.r.r.e.r.0.e.e.e.e.e.e.e.e.e.e.e.e.e.e.e.e.e.e.e.e.r.r.f.f.a a 0 0 9 0 0 0 0 0 0 0 0 0 0 0 0 0 0 0 0 0 0 0 0 8 9 9 0 & d r.8.8.8.8.e.e.e.e.8.8.e.e.e.8.8.8.e.e.e.8.8.8.e.e.0.e.8.q.;.p.%X+X$X$X$X$X$X$X$X$X$X$X$X$X$X$X$X$X$X$X$X$X$X$X$X$X#X#X$X%Xv.8.8.e.e.e.e.e.e.e.e.e.e.e.e.e.e.e.e.e.e.e.e.e.e.e.e.e.e.e.e.e.8.8.8.8.8.8.8.8.8.8.8.8.8.e.e.e.e.e.e.e.e.e.8.8.8.8.8.8.e.e.",
"$X$X$X$X$X$X$X$X$X$X$X$X$X$X$X$X$X$X$X$X$X$X$X$X@X#X#X$XC.#XF.` ^ ^ ^ ^ R R R R R R R R R R R R R R R R R R R R R R W Y T u 9 t 0 0 0 0 0 0 0 0 0 0 0 0 0 0 0 0 0 0 0 0 0 0 0 0 0 9 9 X >.r.e.i.e.e.e.e.e.e.e.e.e.e.e.e.e.e.e.e.e.e.e.e.e.e.e.e.e.e.e.e.e.e.e.e.e.e.e.e.e.e.e.e.e.e.e.e.e.e.e.e.e.e.e.e.e.e.e.e.e.2.a 0 = 0 & & 0 0 0 0 0 0 0 0 0 0 0 0 0 0 0 0 0 0 0 0 0 0 0 0 u T W U E Q E R R R R R R R R R R R R R R R R R ( E E E ^ ^ Q ] #.#.#.#.#.#.#.#.#.#.#.#.#.#.#.#.#.#.#.#.#.#.#.#.#.#.#.#.#.#.#.#.#.#.#.#.#.#.#.#.#.#.#.#.#.#.#.#.#.#.#.#.#.#.#.#.$.#.S >.>.Z V V V V V V V V V V V V V V V V V V V V V V V V V V V m m x 0 8 0 = 0 0 0 0 0 0 0 0 0 0 0 0 0 0 0 0 0 0 0 0 0 0 0 0 0 & >.3X#XC.$X#X$X$X$X$X$X$X$X$X$X$X$X$X$X$X$X$XZ.#X#X#X#XZ.Z.#X3Xn.8.r.r.e.r.0.e.e.e.e.e.e.e.e.e.e.e.e.e.e.e.e.e.e.e.e.r.r.f.f.a a 0 0 9 0 0 0 0 0 0 0 0 0 0 0 0 0 0 0 0 0 0 0 0 8 9 9 0 & d r.8.8.8.8.e.e.e.e.e.8.e.e.8.8.8.8.e.e.e.8.8.8.e.e.0.e.8.q.;.p.%X+X$X$X$X$X$X$X$X$X$X$X$X$X$X$X$X$X$X$X$X$X$X$X$X$X#X#X$X%Xv.8.8.e.e.e.e.e.e.e.e.e.e.e.e.e.e.e.e.e.e.e.e.e.e.e.e.e.e.e.e.e.e.e.8.8.8.8.8.8.8.8.8.8.8.e.e.e.e.e.e.e.e.e.8.8.8.8.e.e.e.e.",
"$X$X$X$X$X$X$X$X$X$X$X$X$X$X$X$X$X$X$X$X$X$X$X$X@X#X#X$XC.#XF.` ^ ^ ^ ^ R R R R R R R R R R R R R R R R R R R R R R W ! T u 9 t 0 0 0 0 0 0 0 0 0 0 0 0 0 0 0 0 0 0 0 0 0 0 0 0 0 9 9 X >.r.e.i.e.e.e.e.e.e.e.e.e.e.e.e.e.e.e.e.e.e.e.e.e.e.e.e.e.e.e.e.e.e.e.e.e.e.e.e.e.e.e.e.e.e.e.e.e.e.e.e.e.e.e.e.e.e.e.e.e.2.a 0 = 0 & & 0 0 0 0 0 0 0 0 0 0 0 0 0 0 0 0 0 0 0 0 0 0 0 0 y T R W E Q E R R R R R R R R R R R R R R R R R ) E E R ^ ^ T ' #.#.#.#.#.#.#.#.#.#.#.#.#.#.#.#.#.#.#.#.#.#.#.#.#.#.#.#.#.#.#.#.#.#.#.#.#.#.#.#.#.#.#.#.#.#.#.#.#.#.#.#.#.#.#.#.$.#.#.>.>.Z V V V V V V V V V V V V V V V V V V V V V V V V V V V m V x 0 8 0 = 0 0 0 0 0 0 0 0 0 0 0 0 0 0 0 0 0 0 0 0 0 0 0 0 0 & $.3X#XC.4X#X$X$X$X$X$X$X$X$X$X$X$X$X$X$X$X$XZ.Z.#X#X#X#X#X#X3Xp.8.r.r.e.r.0.e.e.e.e.e.e.e.e.e.e.e.e.e.e.e.e.e.e.e.e.r.r.e.e.a a 0 0 9 0 0 0 0 0 0 0 0 0 0 0 0 0 0 0 0 0 0 0 0 8 9 9 0 & d w.8.8.8.8.e.e.8.8.e.e.e.e.e.8.8.8.e.e.e.e.8.8.8.e.0.e.8.q.;.p.%X+X$X$X$X$X$X$X$X$X$X$X$X$X$X$X$X$X$X$X$X$X$X$X$X$X#X#X$X%Xv.8.8.q.e.e.e.e.e.e.e.e.e.e.e.e.e.e.e.e.e.e.e.e.e.e.e.e.e.e.e.e.e.e.e.e.e.e.8.8.8.8.e.e.e.e.e.e.8.8.8.8.e.e.e.8.e.e.e.e.e.e.",
"$X$X$X$X$X$X$X$X$X$X$X$X$X$X$X$X$X$X$X$X$X$X$X$X@X#X#X$XC.#XH.` ^ ^ ^ ^ R R R R R R R R R R R R R R R R R R R R R R W ! ! u 9 t 0 0 0 0 0 0 0 0 0 0 0 0 0 0 0 0 0 0 0 0 0 0 0 0 0 9 9 X >.r.e.i.e.e.e.e.e.e.e.e.e.e.e.e.e.e.e.e.e.e.e.e.e.e.e.e.e.e.e.e.e.e.e.e.e.e.e.e.e.e.e.e.e.e.e.e.e.e.e.e.e.e.e.e.e.e.e.e.e.2.a 0 = 0 & & 0 0 0 0 0 0 0 0 0 0 0 0 0 0 0 0 0 0 0 0 0 0 0 0 u E R W R Q E R R R R R R R R R R R R R R R R R ) E E R ^ ^ T ' #.#.#.#.#.#.#.#.#.#.#.#.#.#.#.#.#.#.#.#.#.#.#.#.#.#.#.#.#.#.#.#.#.#.#.#.#.#.#.#.#.#.#.#.#.#.#.#.#.#.#.#.#.#.#.#.>.#.#.>.>.Z V V V V V V V V V V V V V V V V V V V V V V V V V V V m m x 0 8 0 = 0 0 0 0 0 0 0 0 0 0 0 0 0 0 0 0 0 0 0 0 0 0 0 0 0 & $.3X#XC.4X#X$X$X$X$X$X$X$X$X$X$X$X$X$X$X$X$X#XZ.#X#X#X#X#X#X3Xp.8.r.r.e.r.0.e.e.e.e.e.e.e.e.e.e.e.e.e.e.e.e.e.e.e.e.r.r.e.e.a a 0 0 9 0 0 0 0 0 0 0 0 0 0 0 0 0 0 0 0 0 0 0 0 8 9 9 0 & d w.e.8.e.e.e.e.8.8.e.e.e.e.e.8.8.8.e.e.e.e.8.8.8.8.e.e.8.q.;.p.%X+X$X$X$X$X$X$X$X$X$X$X$X$X$X$X$X$X$X$X$X$X$X$X$X$X#X#X$X%Xv.8.8.q.e.e.e.e.e.e.e.e.e.e.e.e.e.e.e.e.e.e.e.e.e.e.e.e.e.e.e.e.e.e.e.e.e.e.8.8.8.e.e.e.e.e.e.e.8.8.8.8.e.e.8.8.e.e.e.e.8.8.",
"$X$X$X$X$X$X$X$X$X$X$X$X$X$X$X$X$X$X$X$X$X$X$X$X@X#X#X$XC.#XF.` ^ ^ ^ ^ R E E E R R R R R R R R R R R R R R R R R R W E ! u 9 t 0 0 0 0 0 0 0 0 0 0 0 0 0 0 0 0 0 0 0 0 0 0 0 0 0 9 9 X >.r.r.e.e.e.e.e.e.e.e.e.e.e.e.e.e.e.e.e.e.e.e.e.e.e.e.e.e.e.e.e.e.e.e.e.e.e.e.e.e.e.e.e.e.e.e.e.e.e.e.e.e.e.e.e.e.e.e.e.e.5.a 0 0 0 & & 0 0 0 0 0 0 0 0 0 0 0 0 0 0 0 0 0 0 0 0 0 0 0 0 y T R W E Q E R R R R R R R R R R R R R R R R R ) E E R ^ ^ T ' #.#.#.#.#.#.#.#.#.#.#.#.#.#.#.#.#.#.#.#.#.#.#.#.#.#.#.#.#.#.#.#.#.#.#.#.#.#.#.#.#.#.#.#.#.#.#.#.#.#.#.#.#.#.#.#.$.#.#.>.>.Z V V V V V V V V V V V V V V V V V V V V V V V V V V V m m x 0 8 0 = 0 0 0 0 0 0 0 0 0 0 0 0 0 0 0 0 0 0 0 0 0 0 0 0 0 & $.3X#XC.$X#X$X$X$X$X$X$X$X$X$X$X$X$X$X$X$X$X#X#X#X#X#X#X#X#X3Xp.8.e.r.e.r.0.e.e.e.e.e.e.e.e.e.e.e.e.e.e.e.e.e.e.r.e.r.r.e.e.a a 0 0 9 0 0 0 0 0 0 0 0 0 0 0 0 0 0 0 0 0 0 0 0 8 0 0 0 & d w.e.e.e.e.8.8.8.8.e.e.8.8.e.e.e.e.8.8.8.8.8.8.e.e.e.e.e.q.;.p.%X+X$X$X$X$X$X$X$X$X$X$X$X$X$X$X$X$X$X$X$X$X$X$X$X$X#X#X$X%Xv.8.8.q.e.e.e.e.e.e.e.e.e.e.e.e.e.e.e.e.e.e.e.e.e.e.e.e.e.e.e.e.8.8.e.e.e.e.8.8.8.8.e.e.8.8.e.e.e.e.8.8.e.e.e.e.e.e.8.8.8.8.",
"$X$X$X$X$X$X$X$X$X$X$X$X$X$X$X$X$X$X$X$X$X$X$X$X@X#X#X$XC.#XF.` ^ ^ ^ ^ R E E E R R R R R R R R R R R R R R R R R R W E ! u 9 t 0 0 0 0 0 0 0 0 0 0 0 0 0 0 0 0 0 0 0 0 0 0 0 0 0 9 9 X >.r.e.i.e.e.e.e.e.e.e.e.e.e.e.e.e.e.e.e.e.e.e.e.e.e.e.e.e.e.e.e.e.e.e.e.e.e.e.e.e.e.e.e.e.e.e.e.e.e.e.e.e.e.e.e.e.e.e.e.e.5.a 0 0 s = & 0 0 0 0 0 0 0 0 0 0 0 0 0 0 0 0 0 0 0 0 0 0 0 0 y T R W E Q E R R R R R R R R R R R R R R R R R ( E E R ^ ^ T ' #.#.#.#.#.#.#.#.#.#.#.#.#.#.#.#.#.#.#.#.#.#.#.#.#.#.#.#.#.#.#.#.#.#.#.#.#.#.#.#.#.#.#.#.#.#.#.#.#.#.#.#.#.#.#.#.$.#.#.>.>.Z V V V V V V V V V V V V V V V V V V V V V V V V V V V m V x 0 8 0 = 0 0 0 0 0 0 0 0 0 0 0 0 0 0 0 0 0 0 0 0 0 0 0 0 0 & $.3X#XC.$X#X$X$X$X$X$X$X$X$X$X$X$X$X$X$X$X$X#X#X#X#X#X#X#X#X3Xp.8.e.r.e.r.0.e.e.e.e.e.e.e.e.e.e.e.e.e.e.e.e.e.e.r.r.r.r.e.e.a a 0 0 9 0 0 0 0 0 0 0 0 0 0 0 0 0 0 0 0 0 0 0 0 8 0 0 0 & d w.e.e.e.e.8.8.8.8.e.8.8.8.e.e.e.e.e.8.8.8.e.e.e.e.e.e.8.q.;.p.%X+X$X$X$X$X$X$X$X$X$X$X$X$X$X$X$X$X$X$X$X$X$X$X$X$X#X+X$X%Xv.8.8.q.e.e.e.e.e.e.e.e.e.e.e.e.e.e.e.e.e.e.e.e.e.e.e.e.e.e.e.e.8.8.e.e.e.e.8.8.8.8.e.e.8.8.e.8.e.e.8.8.e.e.e.e.e.e.8.8.8.8.",
"$X$X$X$X$X$X$X$X$X$X$X$X$X$X$X$X$X$X$X$X$X$X$X$X@X#X#X$XC.#XF.` ^ ^ ^ ^ R R E R R R R R R R R R R R R R R R R R R R W E T u 9 t 0 0 0 0 0 0 0 0 0 0 0 0 0 0 0 0 0 0 0 0 0 0 0 0 0 9 9 X >.r.r.i.e.e.e.e.e.e.e.e.e.e.e.e.e.e.e.e.e.e.e.e.e.e.e.e.e.e.e.e.e.e.e.e.e.e.e.e.e.e.e.e.e.e.e.e.e.e.e.e.e.e.e.e.8.8.e.e.e.5.a 0 = 0 & & 0 0 0 0 0 0 0 0 0 0 0 0 0 0 0 0 0 0 0 0 0 0 0 0 y T R W E Q E R R R R R R R R R R R R R R R R R ( E E R ^ ^ T ' #.#.#.#.#.#.#.#.#.#.#.#.#.#.#.#.#.#.#.#.#.#.#.#.#.#.#.#.#.#.#.#.#.#.#.#.#.#.#.#.#.#.#.#.#.#.#.#.#.#.#.#.#.#.#.#.$.#.#.>.>.Z V V V V V V V V V V V V V V V V V V V V V V V V V V V m V x 0 8 0 = 0 0 0 0 0 0 0 0 0 0 0 0 0 0 0 0 0 0 0 0 0 0 0 0 = & $.3X#XC.$X#X$X$X$X$X$X$X$X$X$X$X$X$X$X$X$X$X#X#X#X#X#X#X#X#X3Xp.8.r.r.e.r.0.e.e.e.e.e.e.e.e.e.e.e.e.e.e.e.e.e.e.e.e.r.r.e.e.a a 0 0 9 0 0 0 0 0 0 0 0 0 0 0 0 0 0 0 0 0 0 0 0 8 9 9 0 & d w.8.8.e.e.e.8.e.e.e.e.8.8.8.8.e.e.8.8.e.e.8.e.8.8.0.e.8.q.;.p.%X+X$X$X$X$X$X$X$X$X$X$X$X$X$X$X$X$X$X$X$X$X$X$X$X$X#X#X$X%Xv.8.8.q.e.e.e.e.e.e.e.e.e.e.e.e.e.e.e.e.e.e.e.e.e.e.e.e.e.e.e.e.8.8.8.8.e.e.e.8.8.e.e.e.8.8.8.8.e.e.e.8.e.e.e.e.8.8.8.8.8.8.",
"$X$X$X$X$X$X$X$X$X$X$X$X$X$X$X$X$X$X$X$X$X$X$X$X@X#X#X$XC.#XF.' ^ ^ ^ ^ R R R R R R R R R R R R R R R R R R R R R R W Y T u 9 t 0 0 0 0 0 0 0 0 0 0 0 0 0 0 0 0 0 0 0 0 0 0 0 0 0 9 9 X >.r.r.i.e.e.e.e.e.e.e.e.e.e.e.e.e.e.e.e.e.e.e.e.e.e.e.e.e.e.e.e.e.e.e.e.e.e.e.e.e.e.e.e.e.e.e.e.e.e.e.e.e.e.e.e.8.8.8.e.e.5.a 0 = 0 = & 0 0 0 0 0 0 0 0 0 0 0 0 0 0 0 0 0 0 0 0 0 0 0 0 y T R W E Q E R R R R R R R R R R R R R R R R R ( E E E ^ ^ T ' #.#.#.#.#.#.#.#.#.#.#.#.#.#.#.#.#.#.#.#.#.#.#.#.#.#.#.#.#.#.#.#.#.#.#.#.#.#.#.#.#.#.#.#.#.#.#.#.#.#.#.#.#.#.#.#.$.#.#.>.>.Z V V V V V V V V V V V V V V V V V V V V V V V V V V V m V x 0 8 0 = 0 0 0 0 0 0 0 0 0 0 0 0 0 0 0 0 0 0 0 0 0 0 0 0 = & $.3X#XC.$X#X$X$X$X$X$X$X$X$X$X$X$X$X$X$X$X$XZ.#X#X#X#X#X#X#X3Xp.8.r.r.e.r.0.e.e.e.e.e.e.e.e.e.e.e.e.e.e.e.e.e.e.e.e.r.r.e.e.a a 0 0 9 0 0 0 0 0 0 0 0 0 0 0 0 0 0 0 0 0 0 0 0 8 9 9 0 & d w.8.e.e.e.e.e.e.e.e.e.8.8.8.8.e.e.8.8.8.e.e.e.8.8.0.e.8.e.;.p.%X+X$X$X$X$X$X$X$X$X$X$X$X$X$X$X$X$X$X$X$X$X$X$X$X$X#X#X$X%Xv.8.8.q.e.e.e.e.e.e.e.e.e.e.e.e.e.e.e.e.e.e.e.e.e.e.e.e.e.e.e.e.8.8.8.8.e.e.e.8.8.8.e.e.8.8.8.8.e.e.e.e.8.e.e.8.8.8.8.8.8.8.",
"$X$X$X$X$X$X$X$X$X$X$X$X$X$X$X$X$X$X$X$X$X$X$X$X@X#X#X$XC.#XF.` ^ ^ ^ ^ R R R R R R R R R R R R R R R R R R R R R R W Y T u 9 t 0 0 0 0 0 0 0 0 0 0 0 0 0 0 0 0 0 0 0 0 0 0 0 0 0 9 9 X >.r.e.i.e.e.e.e.e.e.e.e.e.e.e.e.e.e.e.e.e.e.e.e.e.e.e.e.e.e.e.e.e.e.e.e.e.e.e.e.e.e.e.e.e.e.e.e.e.e.e.e.e.e.e.e.e.e.e.e.e.5.a 0 = 0 & & 0 0 0 0 0 0 0 0 0 0 0 0 0 0 0 0 0 0 0 0 0 0 0 0 y T Q W E Q E R R R R R R R R R R R R R R R R R ( R E E ^ ^ T ' #.#.#.#.#.#.#.#.#.#.#.#.#.#.#.#.#.#.#.#.#.#.#.#.#.#.#.#.#.#.#.#.#.#.#.#.#.#.#.#.#.#.#.#.#.#.#.#.#.#.#.#.#.#.#.#.$.#.S >.} Z V V V V V V V V V V V V V V V V V V V V V V V V V V V V V x 0 8 0 = 0 0 0 0 0 0 0 0 0 0 0 0 0 0 0 0 0 0 0 0 0 0 0 0 0 & $.3X#XC.$X#X$X$X$X$X$X$X$X$X$X$X$X$X$X$X$X$X#X#X#X#XZ.Z.#X#X3Xn.8.r.r.e.r.0.e.e.e.e.e.e.e.e.e.e.e.e.e.e.e.e.e.e.e.r.r.r.e.e.s 8 = 9 0 t 0 & 0 0 0 0 0 0 0 0 0 0 0 0 0 0 0 0 0 8 9 9 0 & d r.8.e.8.8.8.8.8.e.e.e.8.8.8.8.8.8.e.e.e.e.e.e.8.8.0.e.8.r.;.p.%X+X$X$X$X$X$X$X$X$X$X$X$X$X$X$X$X$X$X$X$X$X$X$X$X$X#X#X$X%Xv.8.8.q.e.e.e.e.e.e.e.e.e.e.e.e.e.e.e.e.e.e.e.e.e.e.e.e.e.e.e.e.8.8.8.8.8.8.8.8.e.e.e.e.e.e.e.e.8.8.8.8.8.8.e.e.e.e.e.e.e.e.",
"$X$X$X$X$X$X$X$X$X$X$X$X$X$X$X$X$X$X$X$X$X$X$X$X@X#X#X$XC.#XF.` ^ ^ ^ ^ R R R R R R R R R R R R R R R R R R R R R R W Y T u 9 t 0 0 0 0 0 0 0 0 0 0 0 0 0 0 0 0 0 0 0 0 0 0 0 0 0 9 9 X >.r.e.i.e.e.e.e.e.e.e.e.e.e.e.e.e.e.e.e.e.e.e.e.e.e.e.e.e.e.e.e.e.e.e.e.e.e.e.e.e.e.e.e.e.e.e.e.e.e.e.e.e.e.e.e.e.e.e.e.e.5.a 0 = 0 = & 0 0 0 0 0 0 0 0 0 0 0 0 0 0 0 0 0 0 0 0 0 0 0 0 y T Q W E Q E R R R R R R R R R R R R R R R R R ( R E E ^ ^ T ' #.#.#.#.#.#.#.#.#.#.#.#.#.#.#.#.#.#.#.#.#.#.#.#.#.#.#.#.#.#.#.#.#.#.#.#.#.#.#.#.#.#.#.#.#.#.#.#.#.#.#.#.#.#.#.#.$.#.S >.} Z V V V V V V V V V V V V V V V V V V V V V V V V V V V m V x 0 8 0 = 0 0 0 0 0 0 0 0 0 0 0 0 0 0 0 0 0 0 0 0 0 0 0 0 0 & $.3X#XC.$X#X$X$X$X$X$X$X$X$X$X$X$X$X$X$X$X$X#X#X#X#X#X#X#X#X3Xp.8.r.r.e.r.0.e.e.e.e.e.e.e.e.e.e.e.e.e.e.e.e.e.e.e.r.r.r.e.e.s 8 = 9 0 t 0 & 0 0 0 0 0 0 0 0 0 0 0 0 0 0 0 0 0 8 9 9 0 & d r.8.8.8.8.8.8.8.8.e.e.8.e.8.8.8.8.8.8.e.e.e.e.8.8.0.e.e.r.;.p.%X+X$X$X$X$X$X$X$X$X$X$X$X$X$X$X$X$X$X$X$X$X$X$X$X$X#X#X$X%Xv.8.8.q.e.e.e.e.e.e.e.e.e.e.e.e.e.e.e.e.e.e.e.e.e.e.e.e.e.e.e.e.8.8.8.8.8.8.8.8.e.e.e.8.e.e.e.e.8.8.8.8.8.8.e.e.e.e.e.e.e.e.",
"$X$X$X$X$X$X$X$X$X$X$X$X$X$X$X$X$X$X$X$X$X$X$X$X@X#X#X$XC.#XH.` ^ ^ ^ ^ R R R R R R R R R R R R R R R R R R R R R R W Y T u 9 t 0 0 0 0 0 0 0 0 0 0 0 0 0 0 0 0 0 0 0 0 0 0 0 0 0 9 9 X >.r.e.i.e.e.e.e.e.e.e.e.e.e.e.e.e.e.e.e.e.e.e.e.e.e.e.e.e.e.e.e.e.e.e.e.e.e.e.e.e.e.e.e.e.e.e.e.e.e.e.e.e.e.e.e.e.e.e.e.e.5.a 0 0 0 8 8 0 0 0 0 0 0 0 0 0 0 0 0 0 0 0 0 0 0 0 0 0 0 0 0 y T Q W E Q E R R R R R R R R R R R R R R R R R ( R E E ^ ^ Q ' #.#.#.#.#.#.#.#.#.#.#.#.#.#.#.#.#.#.#.#.#.#.#.#.#.#.#.#.#.#.#.#.#.#.#.#.#.#.#.#.#.#.#.#.#.#.#.#.#.#.#.#.#.#.#.#.$.#.#.>.>.Z V V V V V V V V V V V V V V V V V V V V V V V V V V V m V x 0 8 0 = 0 0 0 0 0 0 0 0 0 0 0 0 0 0 0 0 0 0 0 0 0 0 0 0 = & $.3X#XC.$X#X$X$X$X$X$X$X$X$X$X$X$X$X$X$X$X$X#X#X#X#X#X#X#X#X3Xv.r.r.r.e.r.0.e.e.e.e.e.e.e.e.e.e.e.e.e.e.e.e.e.e.e.r.r.r.e.e.s 8 = 9 0 t 0 & 0 0 0 0 0 0 0 0 0 0 0 0 0 0 0 0 0 8 9 9 0 & d w.e.e.8.e.8.8.8.e.e.e.e.e.e.e.8.8.8.8.8.8.e.e.8.8.0.e.e.r.;.p.%X+X$X$X$X$X$X$X$X$X$X$X$X$X$X$X$X$X$X$X$X$X$X$X$X$X#X#X$X%Xv.8.8.q.e.e.e.e.e.e.e.e.e.e.e.e.e.e.e.e.e.e.e.e.e.e.e.e.e.e.e.e.8.8.e.e.8.8.e.8.e.e.8.8.e.8.e.e.8.8.8.8.8.8.8.8.8.8.e.e.e.e.",
"$X$X$X$X$X$X$X$X$X$X$X$X$X$X$X$X$X$X$X$X$X$X$X$X@X#X#X$XC.#XF.` ^ ^ ^ ^ R R R R R R R R R R R R R R R R R R R R R R W Y ! u 9 t 0 0 0 0 0 0 0 0 0 0 0 0 0 0 0 0 0 0 0 0 0 0 0 0 0 9 9 X >.r.e.i.e.e.e.e.e.e.e.e.e.e.e.e.e.e.e.e.e.e.e.e.e.e.e.e.e.e.e.e.e.e.e.e.e.e.e.e.e.e.e.e.e.e.e.e.e.e.e.e.e.e.e.e.e.e.e.e.e.5.a 0 0 0 & 8 0 0 0 0 0 0 0 0 0 0 0 0 0 0 0 0 0 0 0 0 0 0 0 0 y T R W E Q E R R R R R R R R R R R R R R R R R ( E E E ^ ^ Q ] #.#.#.#.#.#.#.#.#.#.#.#.#.#.#.#.#.#.#.#.#.#.#.#.#.#.#.#.#.#.#.#.#.#.#.#.#.#.#.#.#.#.#.#.#.#.#.#.#.#.#.#.#.#.#.#.$.#.#.>.>.Z V V V V V V V V V V V V V V V V V V V V V V V V V V V m V x 0 8 0 = 0 0 0 0 0 0 0 0 0 0 0 0 0 0 0 0 0 0 0 0 0 0 0 0 = & $.3X#XC.$X#X$X$X$X$X$X$X$X$X$X$X$X$X$X$X$X$X#X#X#X#X#X#X#X#X3Xp.8.r.r.e.r.0.e.e.e.e.e.e.e.e.e.e.e.e.e.e.e.e.e.e.e.e.r.r.f.f.a 8 = 9 0 t 0 & 0 0 0 0 0 0 0 0 0 0 0 0 0 0 0 0 0 8 9 9 0 & d w.e.e.e.e.8.8.8.e.e.e.e.e.e.e.e.e.8.8.8.8.e.e.8.8.0.e.e.r.;.p.%X+X$X$X$X$X$X$X$X$X$X$X$X$X$X$X$X$X$X$X$X$X$X$X$X$X#X#X$X%Xv.8.8.e.e.e.e.e.e.e.e.e.e.e.e.e.e.e.e.e.e.e.e.e.e.e.e.e.e.e.e.e.e.8.e.8.8.8.e.e.e.e.8.8.8.8.e.e.e.8.e.e.8.8.8.8.8.8.8.8.e.8.",
"$X$X$X$X$X$X$X$X$X$X$X$X$X$X$X$X$X$X$X$X$X$X$X$X@X#X#X$XC.#XF.` ^ ^ ^ ^ R E E E R R R R R R R R R R R R R R R R R R W E ! u 9 t 0 0 0 0 0 0 0 0 0 0 0 0 0 0 0 0 0 0 0 0 0 0 0 0 0 9 9 X >.r.e.i.e.e.e.e.e.e.e.e.e.e.e.e.e.e.e.e.e.e.e.e.e.e.e.e.e.e.e.e.e.e.e.e.e.e.e.e.e.e.e.e.e.e.e.e.e.e.e.e.e.e.e.e.e.e.e.e.e.2.a 0 = 0 & & 0 0 0 0 0 0 0 0 0 0 0 0 0 0 0 0 0 0 0 0 0 0 0 0 u T R W R Q E R R R R R R R R R R R R R R R R R ( E E E ^ ^ T ] #.#.#.#.#.#.#.#.#.#.#.#.#.#.#.#.#.#.#.#.#.#.#.#.#.#.#.#.#.#.#.#.#.#.#.#.#.#.#.#.#.#.#.#.#.#.#.#.#.#.#.#.#.#.#.#.$.#.#.>.>.Z V V V V V V V V V V V V V V V V V V V V V V V V V V V m V x 0 8 0 = 0 0 0 0 0 0 0 0 0 0 0 0 0 0 0 0 0 0 0 0 0 0 0 0 0 & $.3X#XC.$X#X$X$X$X$X$X$X$X$X$X$X$X$X$X$X$X$X#X#X#X#X#X#XZ.Z.3Xp.8.r.r.e.r.0.e.e.e.e.e.e.e.e.e.e.e.e.e.e.e.e.e.e.e.e.r.r.f.f.a 8 = 9 0 t 0 & 0 0 0 0 0 0 0 0 0 0 0 0 0 0 0 0 0 8 0 9 0 & d w.e.e.8.8.8.8.e.e.e.e.e.e.e.e.e.e.e.e.e.8.8.8.8.8.0.e.8.q.;.p.%X+X$X$X$X$X$X$X$X$X$X$X$X$X$X$X$X$X$X$X$X$X$X$X$X$X#X#X$X%Xv.8.8.e.e.e.e.e.e.e.e.e.e.e.e.e.e.e.e.e.e.e.e.e.e.e.e.e.e.e.e.e.e.e.e.e.e.e.e.e.8.8.8.8.8.8.8.8.e.e.e.e.8.8.8.8.8.8.8.8.8.8.",
"$X$X$X$X$X$X$X$X$X$X$X$X$X$X$X$X$X$X$X$X$X$X$X$X@X#X#X$XC.#XF.` ^ ^ ^ ^ R E E E R R R R R R R R R R R R R R R R R R W E ! u 9 t 0 0 0 0 0 0 0 0 0 0 0 0 0 0 0 0 0 0 0 0 0 0 0 0 0 9 9 X >.r.e.i.e.e.e.e.e.e.e.e.e.e.e.e.e.e.e.e.e.e.e.e.e.e.e.e.e.e.e.e.e.e.e.e.e.e.e.e.e.e.e.e.e.e.e.e.e.e.e.e.e.e.e.e.e.e.e.e.e.2.a 8 = 0 & & 0 0 0 0 0 0 0 0 0 0 0 0 0 0 0 0 0 0 0 0 0 0 0 0 u T R W E Q E R R R R R R R R R R R R R R R R R ( E E E ^ ^ T ' #.#.#.#.#.#.#.#.#.#.#.#.#.#.#.#.#.#.#.#.#.#.#.#.#.#.#.#.#.#.#.#.#.#.#.#.#.#.#.#.#.#.#.#.#.#.#.#.#.#.#.#.#.#.#.#.$.#.#.>.>.Z V V V V V V V V V V V V V V V V V V V V V V V V V V V m m x 0 8 0 = 0 0 0 0 0 0 0 0 0 0 0 0 0 0 0 0 0 0 0 0 0 0 0 0 0 & $.3X#XC.$X#X$X$X$X$X$X$X$X$X$X$X$X$X$X$X$X$XZ.#X#X#X#X#XZ.Z.3Xp.8.r.e.e.r.0.e.e.e.e.e.e.e.e.e.e.e.e.e.e.e.e.e.e.e.e.r.r.f.f.a 8 = 9 0 t 0 & 0 0 0 0 0 0 0 0 0 0 0 0 0 0 0 0 0 8 0 0 0 & d w.e.e.8.8.8.8.e.e.e.e.e.8.e.e.e.e.e.e.8.8.8.8.8.8.0.e.8.q.;.p.%X+X$X$X$X$X$X$X$X$X$X$X$X$X$X$X$X$X$X$X$X$X$X$X$X$X#X#X$X%Xv.8.8.q.e.e.e.e.e.e.e.e.e.e.e.e.e.e.e.e.e.e.e.e.e.e.e.e.e.e.e.e.e.e.e.e.e.e.e.e.8.8.8.8.8.8.8.8.e.e.e.e.8.8.8.e.8.8.e.8.8.8.",
"$X$X$X$X$X$X$X$X$X$X$X$X$X$X$X$X$X$X$X$X$X$X$X$X@X#X#X$XS.#XF.` ^ ^ ^ ^ R R E R R R R R R R R R R R R R R R R R R R W E T u 9 t 0 0 0 0 0 0 0 0 0 0 0 0 0 0 0 0 0 0 0 0 0 0 0 0 0 9 9 X >.r.e.i.e.e.e.e.e.e.e.e.e.e.e.e.e.e.e.e.e.e.e.e.e.e.e.e.e.e.e.e.e.e.e.e.e.e.e.e.e.e.e.e.e.e.e.e.e.e.e.e.e.e.e.e.e.e.e.e.e.2.a 8 = 0 & & 0 0 0 0 0 0 0 0 0 0 0 0 0 0 0 0 0 0 0 0 0 0 0 0 u E R W E Q E R R R R R R R R R R R R R R R R R ) E E R ^ ^ T ' #.#.#.#.#.#.#.#.#.#.#.#.#.#.#.#.#.#.#.#.#.#.#.#.#.#.#.#.#.#.#.#.#.#.#.#.#.#.#.#.#.#.#.#.#.#.#.#.#.#.#.#.#.#.#.#.$.#.#.>.>.Z V V V V V V V V V V V V V V V V V V V V V V V V V V V m V x 0 8 0 = 0 0 0 0 0 0 0 0 0 0 0 0 0 0 0 0 0 0 0 0 0 0 0 0 0 & >.3X#XC.$X#X$X$X$X$X$X$X$X$X$X$X$X$X$X$X$X$XZ.Z.#X#X#X#XZ.Z.3Xp.8.r.e.e.r.0.e.e.e.e.e.e.e.e.e.e.e.e.e.e.e.e.e.e.e.e.r.r.e.e.a a = 0 0 t 0 & 0 0 0 0 0 0 0 0 0 0 0 0 0 0 0 0 0 8 9 9 0 & d w.e.8.8.8.e.e.e.e.e.e.8.8.8.8.8.8.e.e.e.e.8.8.e.8.0.e.8.q.;.p.5X+X$X$X$X$X$X$X$X$X$X$X$X$X$X$X$X$X$X$X$X$X$X$X$X$X#X+X$X%Xv.8.8.q.e.e.e.e.e.e.e.e.e.e.e.e.e.e.e.e.e.e.e.e.e.e.e.e.e.e.e.e.e.e.8.e.8.e.e.e.e.e.e.e.e.e.8.8.e.e.8.8.8.8.e.e.e.e.e.e.8.8.",
"$X$X$X$X$X$X$X$X$X$X$X$X$X$X$X$X$X$X$X$X$X$X$X$X@X#X#X$XC.#XF.` ^ ^ ^ ^ R R R R R R R R R R R R R R R R R R R R R R E Y T u 9 t 0 0 0 0 0 0 0 0 0 0 0 0 0 0 0 0 0 0 0 0 0 0 0 0 0 9 9 X >.r.e.i.e.e.e.e.e.e.e.e.e.e.e.e.e.e.e.e.e.e.e.e.e.e.e.e.e.e.e.e.e.e.e.e.e.e.e.e.e.e.e.e.e.e.e.e.e.e.e.e.e.e.e.e.e.e.e.e.e.2.a 8 = 0 & & 0 0 0 0 0 0 0 0 0 0 0 0 0 0 0 0 0 0 0 0 0 0 0 0 u E R W E Q E E R R R R R R R R R R R R R R R R ) E E R ^ ^ T ' #.#.#.#.#.#.#.#.#.#.#.#.#.#.#.#.#.#.#.#.#.#.#.#.#.#.#.#.#.#.#.#.#.#.#.#.#.#.#.#.#.#.#.#.#.#.#.#.#.#.#.#.#.#.#.#.$.#.#.>.>.Z V V V V V V V V V V V V V V V V V V V V V V V V V V V m V x 0 8 0 = 0 0 0 0 0 0 0 0 0 0 0 0 0 0 0 0 0 0 0 0 0 0 0 0 0 & >.3X#XC.$X#X$X$X$X$X$X$X$X$X$X$X$X$X$X$X$X$X#X#X#X#X#X#X#XZ.3Xp.8.r.e.e.r.0.e.e.e.e.e.e.e.e.e.e.e.e.e.e.e.e.e.e.e.e.r.r.e.e.a a = 0 0 t 0 & 0 0 0 0 0 0 0 0 0 0 0 0 0 0 0 0 0 8 9 9 0 & d w.e.e.8.8.e.e.e.e.e.e.8.8.8.8.8.8.e.e.e.e.e.8.e.e.0.e.8.q.;.p.5X+X$X$X$X$X$X$X$X$X$X$X$X$X$X$X$X$X$X$X$X$X$X$X$X$X#X+X$X%Xv.8.8.q.e.e.e.e.e.e.e.e.e.e.e.e.e.e.e.e.e.e.e.e.e.e.e.e.e.e.e.e.8.8.8.e.8.e.e.e.e.e.e.e.e.e.e.e.e.e.8.8.8.8.e.e.e.e.e.e.8.8.",
"$X$X$X$X$X$X$X$X$X$X$X$X$X$X$X$X$X$X$X$X$X$X$X$X@X#X#X$XC.#XF.` ^ ^ ^ ^ R R R R R R R R R R R R R R R R R R R R R R W Y ! u 9 t 0 0 0 0 0 0 0 0 0 0 0 0 0 0 0 0 0 0 0 0 0 0 0 0 0 9 9 X >.r.e.i.e.e.e.e.e.e.e.e.e.e.e.e.e.e.e.e.e.e.e.e.e.e.e.e.e.e.e.e.e.e.e.e.e.e.e.e.e.e.e.e.e.e.e.e.e.e.e.e.e.e.e.8.e.e.e.e.e.5.a 0 = 0 & & 0 0 0 0 0 0 0 0 0 0 0 0 0 0 0 0 0 0 0 0 0 0 0 0 y T R W E Q E R R R R R R R R R R R R R R R R R ) E E E ^ ^ T ' #.#.#.#.#.#.#.#.#.#.#.#.#.#.#.#.#.#.#.#.#.#.#.#.#.#.#.#.#.#.#.#.#.#.#.#.#.#.#.#.#.#.#.#.#.#.#.#.#.#.#.#.#.#.#.#.$.#.#.>.} Z V V V V V V V V V V V V V V V V V V V V V V V V V V V m V x 0 8 0 = 0 0 0 0 0 0 0 0 0 0 0 0 0 0 0 0 0 0 0 0 0 0 0 0 0 & $.3X#XC.$X#X$X$X$X$X$X$X$X$X$X$X$X$X$X$X$X$X#X#X#X#X#X#X#X#X3Xp.8.r.r.e.r.0.e.e.e.e.e.e.e.e.e.e.e.e.e.e.e.e.e.e.e.e.r.r.e.e.a a 0 0 9 0 0 0 0 0 0 0 0 0 0 0 0 0 0 0 0 0 0 0 0 8 9 9 0 & d w.8.e.e.e.e.e.e.e.e.e.8.8.8.8.8.8.8.8.8.e.e.e.e.e.0.e.8.q.;.p.%X+X$X$X$X$X$X$X$X$X$X$X$X$X$X$X$X$X$X$X$X$X$X$X$X$X#X#X$X%Xv.8.8.e.e.e.e.e.e.e.e.e.e.e.e.e.e.e.e.e.e.e.e.e.e.e.e.e.e.e.e.e.e.e.8.8.8.8.8.8.8.e.e.e.e.e.e.8.8.8.8.8.8.e.e.e.e.e.e.e.8.8.",
"$X$X$X$X$X$X$X$X$X$X$X$X$X$X$X$X$X$X$X$X$X$X$X$X@X#X#X$XC.#XF.` ^ ^ ^ ^ R R R R R R R R R R R R R R R R R R R R R R W Y ! u 9 t 0 0 0 0 0 0 0 0 0 0 0 0 0 0 0 0 0 0 0 0 0 0 0 0 0 9 9 X >.r.e.i.e.e.e.e.e.e.e.e.e.e.e.e.e.e.e.e.e.e.e.e.e.e.e.e.e.e.e.e.e.e.e.e.e.e.e.e.e.e.e.e.e.e.e.e.e.e.e.e.e.e.e.8.e.e.e.e.e.5.a 0 = 0 & & 0 0 0 0 0 0 0 0 0 0 0 0 0 0 0 0 0 0 0 0 0 0 0 0 y T R W E E E R R R R R R R R R R R R R R R R R ( E E E ^ ^ T ' #.#.#.#.#.#.#.#.#.#.#.#.#.#.#.#.#.#.#.#.#.#.#.#.#.#.#.#.#.#.#.#.#.#.#.#.#.#.#.#.#.#.#.#.#.#.#.#.#.#.#.#.#.#.#.#.$.#.S >.} Z V V V V V V V V V Z V V V V V V V V V V V V V V V V V m V x 0 8 0 = 0 0 0 0 0 0 0 0 0 0 0 0 0 0 0 0 0 0 0 0 0 0 0 0 0 & $.3X#XC.$X#X$X$X$X$X$X$X$X$X$X$X$X$X$X$X$X$X#X#X#X#X#X#XZ.Z.3Xp.8.r.r.e.r.0.e.e.e.e.e.e.e.e.e.e.e.e.e.e.e.e.e.e.e.e.r.r.e.e.a a 0 0 9 0 0 0 0 0 0 0 0 0 0 0 0 0 0 0 0 0 0 0 0 8 9 9 0 & d w.8.e.e.e.e.e.e.e.8.e.8.8.8.8.8.8.8.8.8.e.e.e.e.e.0.e.8.q.;.p.%X+X$X$X$X$X$X$X$X$X$X$X$X$X$X$X$X$X$X$X$X$X$X$X$X$X#X#X$X%Xv.8.8.e.e.e.e.e.e.e.e.e.e.e.e.e.e.e.e.e.e.e.e.e.e.e.e.e.e.e.e.e.8.8.8.8.8.8.8.8.8.8.e.e.e.e.e.e.8.8.8.8.8.e.e.e.e.e.e.e.8.8."
};
